P3
400 225
255
217 233 255
217 233 255
217 233 255
217 233 255
217 233 255
217 233 255
217 233 255
217 233 255
217 233 255
217 233 255
217 233 255
217 233 255
217 233 255
217 233 255
217 233 255
217 233 255
217 233 255
217 233 255
217 233 255
217 233 255
217 233 255
217 233 255
217 233 255
217 233 255
217 233 255
217 233 255
217 233 255
217 233 255
217 233 255
217 233 255
217 233 255
217 233 255
217 233 255
217 233 255
217 233 255
217 233 255
217 233 255
217 233 255
217 233 255
217 233 255
217 233 255
217 233 255
217 233 255
217 233 255
217 233 255
217 233 255
217 233 255
217 233 255
217 233 255
217 233 255
217 233 255
217 233 255
217 233 255
217 233 255
217 233 255
217 233 255
217 233 255
217 233 255
217 233 255
217 233 255
217 233 255
217 233 255
216 233 255
216 233 255
216 233 255
216 233 255
216 233 255
216 233 255
216 233 255
216 233 255
216 233 255
216 233 255
216 233 255
216 233 255
216 233 255
216 233 255
216 233 255
216 233 255
216 233 255
216 233 255
216 233 255
216 233 255
216 233 255
216 233 255
216 233 255
216 233 255
216 233 255
216 233 255
216 233 255
216 233 255
216 233 255
216 233 255
216 233 255
216 233 255
216 233 255
216 233 255
216 233 255
216 233 255
216 233 255
216 233 255
216 233 255
216 233 255
216 233 255
216 233 255
216 233 255
216 233 255
216 233 255
216 233 255
216 232 255
216 232 255
216 232 255
216 232 255
216 232 255
216 232 255
216 232 255
216 232 255
216 232 255
216 232 255
216 232 255
216 232 255
216 232 255
216 232 255
216 232 255
216 232 255
216 232 255
216 232 255
216 232 255
216 232 255
216 232 255
215 232 255
215 232 255
215 232 255
215 232 255
215 232 255
215 232 255
215 232 255
215 232 255
215 232 255
215 232 255
215 232 255
215 232 255
215 232 255
215 232 255
215 232 255
215 232 255
215 232 255
215 232 255
215 232 255
215 232 255
215 232 255
215 232 255
215 232 255
215 232 255
215 232 255
215 232 255
215 232 255
215 232 255
215 232 255
215 232 255
215 232 255
215 232 255
215 232 255
215 232 255
215 232 255
215 232 255
215 232 255
215 232 255
215 232 255
215 232 255
215 232 255
215 232 255
215 232 255
215 232 255
215 232 255
215 232 255
215 232 255
215 232 255
215 232 255
215 232 255
215 232 255
215 232 255
215 232 255
215 232 255
215 232 255
215 232 255
215 232 255
215 232 255
215 232 255
215 232 255
215 232 255
215 232 255
215 232 255
215 232 255
215 232 255
215 232 255
215 232 255
215 232 255
215 232 255
215 232 255
215 232 255
215 232 255
215 232 255
215 232 255
215 232 255
215 232 255
215 232 255
215 232 255
215 232 255
215 232 255
215 232 255
215 232 255
215 232 255
215 232 255
215 232 255
215 232 255
215 232 255
215 232 255
215 232 255
215 232 255
215 232 255
215 232 255
215 232 255
215 232 255
215 232 255
215 232 255
215 232 255
215 232 255
215 232 255
215 232 255
215 232 255
215 232 255
215 232 255
215 232 255
215 232 255
215 232 255
215 232 255
215 232 255
215 232 255
215 232 255
215 232 255
215 232 255
215 232 255
215 232 255
215 232 255
215 232 255
215 232 255
215 232 255
215 232 255
215 232 255
215 232 255
215 232 255
215 232 255
215 232 255
215 232 255
215 232 255
215 232 255
215 232 255
215 232 255
215 232 255
215 232 255
215 232 255
215 232 255
215 232 255
215 232 255
215 232 255
215 232 255
215 232 255
215 232 255
215 232 255
215 232 255
215 232 255
215 232 255
216 232 255
216 232 255
216 232 255
216 232 255
216 232 255
216 232 255
216 232 255
216 232 255
216 232 255
216 232 255
216 232 255
216 232 255
216 232 255
216 232 255
216 232 255
216 232 255
216 232 255
216 232 255
216 232 255
216 232 255
216 232 255
216 233 255
216 233 255
216 233 255
216 233 255
216 233 255
216 233 255
216 233 255
216 233 255
216 233 255
216 233 255
216 233 255
216 233 255
216 233 255
216 233 255
216 233 255
216 233 255
216 233 255
216 233 255
216 233 255
216 233 255
216 233 255
216 233 255
216 233 255
216 233 255
216 233 255
216 233 255
216 233 255
216 233 255
216 233 255
216 233 255
216 233 255
216 233 255
216 233 255
216 233 255
216 233 255
216 233 255
216 233 255
216 233 255
216 233 255
216 233 255
216 233 255
216 233 255
216 233 255
216 233 255
216 233 255
217 233 255
217 233 255
217 233 255
217 233 255
217 233 255
217 233 255
217 233 255
217 233 255
217 233 255
217 233 255
217 233 255
217 233 255
217 233 255
217 233 255
217 233 255
217 233 255
217 233 255
217 233 255
217 233 255
217 233 255
217 233 255
217 233 255
217 233 255
217 233 255
217 233 255
217 233 255
217 233 255
217 233 255
217 233 255
217 233 255
217 233 255
217 233 255
217 233 255
217 233 255
217 233 255
217 233 255
217 233 255
217 233 255
217 233 255
217 233 255
217 233 255
217 233 255
217 233 255
217 233 255
217 233 255
217 233 255
217 233 255
217 233 255
217 233 255
217 233 255
217 233 255
217 233 255
217 233 255
217 233 255
217 233 255
217 233 255
217 233 255
217 233 255
217 233 255
217 233 255
217 233 255
217 233 255
217 233 255
217 233 255
217 233 255
217 233 255
217 233 255
217 233 255
217 233 255
217 233 255
217 233 255
217 233 255
217 233 255
217 233 255
217 233 255
217 233 255
217 233 255
217 233 255
217 233 255
217 233 255
217 233 255
217 233 255
217 233 255
217 233 255
217 233 255
217 233 255
217 233 255
217 233 255
217 233 255
217 233 255
217 233 255
217 233 255
217 233 255
217 233 255
217 233 255
217 233 255
217 233 255
217 233 255
217 233 255
217 233 255
217 233 255
217 233 255
217 233 255
217 233 255
217 233 255
217 233 255
217 233 255
217 233 255
217 233 255
217 233 255
217 233 255
217 233 255
217 233 255
217 233 255
217 233 255
217 233 255
217 233 255
217 233 255
217 233 255
217 233 255
217 233 255
217 233 255
217 233 255
217 233 255
217 233 255
217 233 255
217 233 255
217 233 255
217 233 255
217 233 255
217 233 255
217 233 255
217 233 255
216 233 255
216 233 255
216 233 255
216 233 255
216 233 255
216 233 255
216 233 255
216 233 255
216 233 255
216 233 255
216 233 255
216 233 255
216 233 255
216 233 255
216 233 255
216 233 255
216 233 255
216 233 255
216 233 255
216 233 255
216 233 255
216 233 255
216 233 255
216 233 255
216 233 255
216 233 255
216 233 255
216 233 255
216 233 255
216 233 255
216 233 255
216 233 255
216 233 255
216 233 255
216 233 255
216 233 255
216 233 255
216 233 255
216 233 255
216 233 255
216 233 255
216 233 255
216 233 255
216 233 255
216 233 255
216 233 255
216 233 255
216 232 255
216 232 255
216 232 255
216 232 255
216 232 255
216 232 255
216 232 255
216 232 255
216 232 255
216 232 255
216 232 255
216 232 255
216 232 255
216 232 255
216 232 255
216 232 255
216 232 255
216 232 255
216 232 255
216 232 255
216 232 255
216 232 255
216 232 255
215 232 255
215 232 255
215 232 255
215 232 255
215 232 255
215 232 255
215 232 255
215 232 255
215 232 255
215 232 255
215 232 255
215 232 255
215 232 255
215 232 255
215 232 255
215 232 255
215 232 255
215 232 255
215 232 255
215 232 255
215 232 255
215 232 255
215 232 255
215 232 255
215 232 255
215 232 255
215 232 255
215 232 255
215 232 255
215 232 255
215 232 255
215 232 255
215 232 255
215 232 255
215 232 255
215 232 255
215 232 255
215 232 255
215 232 255
215 232 255
215 232 255
215 232 255
215 232 255
215 232 255
215 232 255
215 232 255
215 232 255
215 232 255
215 232 255
215 232 255
215 232 255
215 232 255
215 232 255
215 232 255
215 232 255
215 232 255
215 232 255
215 232 255
215 232 255
215 232 255
215 232 255
215 232 255
215 232 255
215 232 255
215 232 255
215 232 255
215 232 255
215 232 255
215 232 255
215 232 255
215 232 255
215 232 255
215 232 255
215 232 255
215 232 255
215 232 255
215 232 255
215 232 255
215 232 255
215 232 255
215 232 255
215 232 255
215 232 255
215 232 255
215 232 255
215 232 255
215 232 255
215 232 255
215 232 255
215 232 255
215 232 255
215 232 255
215 232 255
215 232 255
215 232 255
215 232 255
215 232 255
215 232 255
215 232 255
215 232 255
215 232 255
215 232 255
215 232 255
215 232 255
215 232 255
215 232 255
215 232 255
215 232 255
215 232 255
215 232 255
215 232 255
215 232 255
215 232 255
215 232 255
215 232 255
215 232 255
215 232 255
216 232 255
216 232 255
216 232 255
216 232 255
216 232 255
216 232 255
216 232 255
216 232 255
216 232 255
216 232 255
216 232 255
216 232 255
216 232 255
216 232 255
216 232 255
216 232 255
216 232 255
216 232 255
216 232 255
216 232 255
216 232 255
216 232 255
216 232 255
216 232 255
216 233 255
216 233 255
216 233 255
216 233 255
216 233 255
216 233 255
216 233 255
216 233 255
216 233 255
216 233 255
216 233 255
216 233 255
216 233 255
216 233 255
216 233 255
216 233 255
216 233 255
216 233 255
216 233 255
216 233 255
216 233 255
216 233 255
216 233 255
216 233 255
216 233 255
216 233 255
216 233 255
216 233 255
216 233 255
216 233 255
216 233 255
216 233 255
216 233 255
216 233 255
216 233 255
216 233 255
216 233 255
216 233 255
216 233 255
216 233 255
216 233 255
216 233 255
216 233 255
216 233 255
216 233 255
216 233 255
216 233 255
217 233 255
217 233 255
217 233 255
217 233 255
217 233 255
217 233 255
217 233 255
217 233 255
217 233 255
217 233 255
217 233 255
217 233 255
217 233 255
217 233 255
217 233 255
217 233 255
217 233 255
217 233 255
217 233 255
217 233 255
217 233 255
217 233 255
217 233 255
217 233 255
217 233 255
217 233 255
217 233 255
217 233 255
217 233 255
217 233 255
217 233 255
217 233 255
217 233 255
217 233 255
217 233 255
217 233 255
217 233 255
217 233 255
217 233 255
217 233 255
217 233 255
217 233 255
217 233 255
217 233 255
217 233 255
217 233 255
217 233 255
217 233 255
217 233 255
217 233 255
217 233 255
217 233 255
217 233 255
217 233 255
217 233 255
217 233 255
217 233 255
217 233 255
217 233 255
217 233 255
217 233 255
217 233 255
217 233 255
217 233 255
217 233 255
217 233 255
217 233 255
217 233 255
217 233 255
217 233 255
217 233 255
218 233 255
218 233 255
218 233 255
218 233 255
218 233 255
217 233 255
217 233 255
217 233 255
217 233 255
217 233 255
217 233 255
217 233 255
217 233 255
217 233 255
217 233 255
217 233 255
217 233 255
217 233 255
217 233 255
217 233 255
217 233 255
217 233 255
217 233 255
217 233 255
217 233 255
217 233 255
217 233 255
217 233 255
217 233 255
217 233 255
217 233 255
217 233 255
217 233 255
217 233 255
217 233 255
217 233 255
217 233 255
217 233 255
217 233 255
217 233 255
217 233 255
217 233 255
217 233 255
217 233 255
217 233 255
217 233 255
217 233 255
217 233 255
217 233 255
217 233 255
217 233 255
217 233 255
217 233 255
217 233 255
217 233 255
217 233 255
217 233 255
217 233 255
217 233 255
217 233 255
217 233 255
217 233 255
217 233 255
217 233 255
217 233 255
217 233 255
217 233 255
217 233 255
217 233 255
217 233 255
217 233 255
217 233 255
217 233 255
217 233 255
217 233 255
217 233 255
217 233 255
217 233 255
217 233 255
217 233 255
217 233 255
216 233 255
216 233 255
216 233 255
216 233 255
216 233 255
216 233 255
216 233 255
216 233 255
216 233 255
216 233 255
216 233 255
216 233 255
216 233 255
216 233 255
216 233 255
216 233 255
216 233 255
216 233 255
216 233 255
216 233 255
216 233 255
216 233 255
216 233 255
216 233 255
216 233 255
216 233 255
216 233 255
216 233 255
216 233 255
216 233 255
216 233 255
216 233 255
216 233 255
216 233 255
216 233 255
216 233 255
216 233 255
216 233 255
216 233 255
216 233 255
216 233 255
216 233 255
216 233 255
216 233 255
216 233 255
216 233 255
216 233 255
216 233 255
216 232 255
216 232 255
216 232 255
216 232 255
216 232 255
216 232 255
216 232 255
216 232 255
216 232 255
216 232 255
216 232 255
216 232 255
216 232 255
216 232 255
216 232 255
216 232 255
216 232 255
216 232 255
216 232 255
216 232 255
216 232 255
216 232 255
216 232 255
216 232 255
216 232 255
216 232 255
216 232 255
215 232 255
215 232 255
215 232 255
215 232 255
215 232 255
215 232 255
215 232 255
215 232 255
215 232 255
215 232 255
215 232 255
215 232 255
215 232 255
215 232 255
215 232 255
215 232 255
215 232 255
215 232 255
215 232 255
215 232 255
215 232 255
215 232 255
215 232 255
215 232 255
215 232 255
215 232 255
215 232 255
215 232 255
215 232 255
215 232 255
215 232 255
215 232 255
215 232 255
215 232 255
215 232 255
215 232 255
215 232 255
215 232 255
215 232 255
215 232 255
215 232 255
215 232 255
215 232 255
215 232 255
215 232 255
215 232 255
215 232 255
215 232 255
215 232 255
215 232 255
215 232 255
215 232 255
215 232 255
215 232 255
215 232 255
215 232 255
215 232 255
215 232 255
215 232 255
215 232 255
215 232 255
215 232 255
215 232 255
215 232 255
215 232 255
215 232 255
215 232 255
215 232 255
215 232 255
215 232 255
215 232 255
215 232 255
215 232 255
215 232 255
215 232 255
215 232 255
215 232 255
215 232 255
215 232 255
215 232 255
215 232 255
215 232 255
215 232 255
215 232 255
215 232 255
215 232 255
215 232 255
216 232 255
216 232 255
216 232 255
216 232 255
216 232 255
216 232 255
216 232 255
216 232 255
216 232 255
216 232 255
216 232 255
216 232 255
216 232 255
216 232 255
216 232 255
216 232 255
216 232 255
216 232 255
216 232 255
216 232 255
216 232 255
216 232 255
216 232 255
216 232 255
216 232 255
216 232 255
216 232 255
216 232 255
216 233 255
216 233 255
216 233 255
216 233 255
216 233 255
216 233 255
216 233 255
216 233 255
216 233 255
216 233 255
216 233 255
216 233 255
216 233 255
216 233 255
216 233 255
216 233 255
216 233 255
216 233 255
216 233 255
216 233 255
216 233 255
216 233 255
216 233 255
216 233 255
216 233 255
216 233 255
216 233 255
216 233 255
216 233 255
216 233 255
216 233 255
216 233 255
216 233 255
216 233 255
216 233 255
216 233 255
216 233 255
216 233 255
216 233 255
216 233 255
216 233 255
216 233 255
216 233 255
216 233 255
216 233 255
216 233 255
216 233 255
216 233 255
217 233 255
217 233 255
217 233 255
217 233 255
217 233 255
217 233 255
217 233 255
217 233 255
217 233 255
217 233 255
217 233 255
217 233 255
217 233 255
217 233 255
217 233 255
217 233 255
217 233 255
217 233 255
217 233 255
217 233 255
217 233 255
217 233 255
217 233 255
217 233 255
217 233 255
217 233 255
217 233 255
217 233 255
217 233 255
217 233 255
217 233 255
217 233 255
217 233 255
217 233 255
217 233 255
217 233 255
217 233 255
217 233 255
217 233 255
217 233 255
217 233 255
217 233 255
217 233 255
217 233 255
217 233 255
217 233 255
217 233 255
217 233 255
217 233 255
217 233 255
217 233 255
217 233 255
217 233 255
217 233 255
217 233 255
217 233 255
217 233 255
217 233 255
217 233 255
217 233 255
217 233 255
217 233 255
217 233 255
217 233 255
217 233 255
217 233 255
217 233 255
217 233 255
217 233 255
217 233 255
217 233 255
217 233 255
217 233 255
217 233 255
217 233 255
217 233 255
218 233 255
218 233 255
218 233 255
218 233 255
218 233 255
218 234 255
218 234 255
218 234 255
218 234 255
218 234 255
218 234 255
218 234 255
218 233 255
218 233 255
218 233 255
218 233 255
218 233 255
218 233 255
218 233 255
218 233 255
218 233 255
217 233 255
217 233 255
217 233 255
217 233 255
217 233 255
217 233 255
217 233 255
217 233 255
217 233 255
217 233 255
217 233 255
217 233 255
217 233 255
217 233 255
217 233 255
217 233 255
217 233 255
217 233 255
217 233 255
217 233 255
217 233 255
217 233 255
217 233 255
217 233 255
217 233 255
217 233 255
217 233 255
217 233 255
217 233 255
217 233 255
217 233 255
217 233 255
217 233 255
217 233 255
217 233 255
217 233 255
217 233 255
217 233 255
217 233 255
217 233 255
217 233 255
217 233 255
217 233 255
217 233 255
217 233 255
217 233 255
217 233 255
217 233 255
217 233 255
217 233 255
217 233 255
217 233 255
217 233 255
217 233 255
217 233 255
217 233 255
217 233 255
217 233 255
217 233 255
217 233 255
217 233 255
217 233 255
217 233 255
217 233 255
217 233 255
217 233 255
217 233 255
217 233 255
217 233 255
217 233 255
217 233 255
217 233 255
217 233 255
217 233 255
217 233 255
216 233 255
216 233 255
216 233 255
216 233 255
216 233 255
216 233 255
216 233 255
216 233 255
216 233 255
216 233 255
216 233 255
216 233 255
216 233 255
216 233 255
216 233 255
216 233 255
216 233 255
216 233 255
216 233 255
216 233 255
216 233 255
216 233 255
216 233 255
216 233 255
216 233 255
216 233 255
216 233 255
216 233 255
216 233 255
216 233 255
216 233 255
216 233 255
216 233 255
216 233 255
216 233 255
216 233 255
216 233 255
216 233 255
216 233 255
216 233 255
216 233 255
216 233 255
216 233 255
216 233 255
216 233 255
216 233 255
216 233 255
216 233 255
216 233 255
216 233 255
216 233 255
216 232 255
216 232 255
216 232 255
216 232 255
216 232 255
216 232 255
216 232 255
216 232 255
216 232 255
216 232 255
216 232 255
216 232 255
216 232 255
216 232 255
216 232 255
216 232 255
216 232 255
216 232 255
216 232 255
216 232 255
216 232 255
216 232 255
216 232 255
216 232 255
216 232 255
216 232 255
216 232 255
216 232 255
216 232 255
216 232 255
216 232 255
216 232 255
216 232 255
216 232 255
216 232 255
216 232 255
216 232 255
216 232 255
216 232 255
215 232 255
215 232 255
215 232 255
215 232 255
215 232 255
215 232 255
215 232 255
215 232 255
215 232 255
215 232 255
215 232 255
215 232 255
215 232 255
215 232 255
215 232 255
215 232 255
215 232 255
215 232 255
215 232 255
215 232 255
215 232 255
215 232 255
215 232 255
215 232 255
215 232 255
215 232 255
215 232 255
215 232 255
215 232 255
215 232 255
215 232 255
215 232 255
215 232 255
215 232 255
215 232 255
215 232 255
215 232 255
215 232 255
215 232 255
216 232 255
216 232 255
216 232 255
216 232 255
216 232 255
216 232 255
216 232 255
216 232 255
216 232 255
216 232 255
216 232 255
216 232 255
216 232 255
216 232 255
216 232 255
216 232 255
216 232 255
216 232 255
216 232 255
216 232 255
216 232 255
216 232 255
216 232 255
216 232 255
216 232 255
216 232 255
216 232 255
216 232 255
216 232 255
216 232 255
216 232 255
216 232 255
216 232 255
216 232 255
216 232 255
216 232 255
216 232 255
216 232 255
216 233 255
216 233 255
216 233 255
216 233 255
216 233 255
216 233 255
216 233 255
216 233 255
216 233 255
216 233 255
216 233 255
216 233 255
216 233 255
216 233 255
216 233 255
216 233 255
216 233 255
216 233 255
216 233 255
216 233 255
216 233 255
216 233 255
216 233 255
216 233 255
216 233 255
216 233 255
216 233 255
216 233 255
216 233 255
216 233 255
216 233 255
216 233 255
216 233 255
216 233 255
216 233 255
216 233 255
216 233 255
216 233 255
216 233 255
216 233 255
216 233 255
216 233 255
216 233 255
216 233 255
216 233 255
216 233 255
216 233 255
216 233 255
216 233 255
216 233 255
216 233 255
217 233 255
217 233 255
217 233 255
217 233 255
217 233 255
217 233 255
217 233 255
217 233 255
217 233 255
217 233 255
217 233 255
217 233 255
217 233 255
217 233 255
217 233 255
217 233 255
217 233 255
217 233 255
217 233 255
217 233 255
217 233 255
217 233 255
217 233 255
217 233 255
217 233 255
217 233 255
217 233 255
217 233 255
217 233 255
217 233 255
217 233 255
217 233 255
217 233 255
217 233 255
217 233 255
217 233 255
217 233 255
217 233 255
217 233 255
217 233 255
217 233 255
217 233 255
217 233 255
217 233 255
217 233 255
217 233 255
217 233 255
217 233 255
217 233 255
217 233 255
217 233 255
217 233 255
217 233 255
217 233 255
217 233 255
217 233 255
217 233 255
217 233 255
217 233 255
217 233 255
217 233 255
217 233 255
217 233 255
217 233 255
217 233 255
217 233 255
217 233 255
217 233 255
217 233 255
217 233 255
217 233 255
217 233 255
217 233 255
217 233 255
217 233 255
217 233 255
218 233 255
218 233 255
218 233 255
218 233 255
218 233 255
218 233 255
218 233 255
218 233 255
218 233 255
218 234 255
218 234 255
218 234 255
218 234 255
218 234 255
218 234 255
218 234 255
218 234 255
218 234 255
218 234 255
218 234 255
218 234 255
218 234 255
218 234 255
218 234 255
218 234 255
218 234 255
218 234 255
218 234 255
218 234 255
218 234 255
218 234 255
218 234 255
218 233 255
218 233 255
218 233 255
218 233 255
218 233 255
218 233 255
218 233 255
218 233 255
218 233 255
217 233 255
217 233 255
217 233 255
217 233 255
217 233 255
217 233 255
217 233 255
217 233 255
217 233 255
217 233 255
217 233 255
217 233 255
217 233 255
217 233 255
217 233 255
217 233 255
217 233 255
217 233 255
217 233 255
217 233 255
217 233 255
217 233 255
217 233 255
217 233 255
217 233 255
217 233 255
217 233 255
217 233 255
217 233 255
217 233 255
217 233 255
217 233 255
217 233 255
217 233 255
217 233 255
217 233 255
217 233 255
217 233 255
217 233 255
217 233 255
217 233 255
217 233 255
217 233 255
217 233 255
217 233 255
217 233 255
217 233 255
217 233 255
217 233 255
217 233 255
217 233 255
217 233 255
217 233 255
217 233 255
217 233 255
217 233 255
217 233 255
217 233 255
217 233 255
217 233 255
217 233 255
217 233 255
217 233 255
217 233 255
217 233 255
217 233 255
217 233 255
217 233 255
217 233 255
217 233 255
217 233 255
217 233 255
217 233 255
217 233 255
217 233 255
217 233 255
216 233 255
216 233 255
216 233 255
216 233 255
216 233 255
216 233 255
216 233 255
216 233 255
216 233 255
216 233 255
216 233 255
216 233 255
216 233 255
216 233 255
216 233 255
216 233 255
216 233 255
216 233 255
216 233 255
216 233 255
216 233 255
216 233 255
216 233 255
216 233 255
216 233 255
216 233 255
216 233 255
216 233 255
216 233 255
216 233 255
216 233 255
216 233 255
216 233 255
216 233 255
216 233 255
216 233 255
216 233 255
216 233 255
216 233 255
216 233 255
216 233 255
216 233 255
216 233 255
216 233 255
216 233 255
216 233 255
216 233 255
216 233 255
216 233 255
216 233 255
216 233 255
216 233 255
216 233 255
216 233 255
216 233 255
216 233 255
216 233 255
216 232 255
216 232 255
216 232 255
216 232 255
216 232 255
216 232 255
216 232 255
216 232 255
216 232 255
216 232 255
216 232 255
216 232 255
216 232 255
216 232 255
216 232 255
216 232 255
216 232 255
216 232 255
216 232 255
216 232 255
216 232 255
216 232 255
216 232 255
216 232 255
216 232 255
216 232 255
216 232 255
216 232 255
216 232 255
216 232 255
216 232 255
216 232 255
216 232 255
216 232 255
216 232 255
216 232 255
216 232 255
216 232 255
216 232 255
216 232 255
216 232 255
216 232 255
216 232 255
216 232 255
216 232 255
216 232 255
216 232 255
216 232 255
216 232 255
216 232 255
216 232 255
216 232 255
216 232 255
216 232 255
216 232 255
216 232 255
216 232 255
216 232 255
216 232 255
216 232 255
216 232 255
216 232 255
216 232 255
216 232 255
216 232 255
216 232 255
216 232 255
216 232 255
216 232 255
216 232 255
216 232 255
216 232 255
216 232 255
216 232 255
216 232 255
216 232 255
216 232 255
216 232 255
216 232 255
216 232 255
216 232 255
216 233 255
216 233 255
216 233 255
216 233 255
216 233 255
216 233 255
216 233 255
216 233 255
216 233 255
216 233 255
216 233 255
216 233 255
216 233 255
216 233 255
216 233 255
216 233 255
216 233 255
216 233 255
216 233 255
216 233 255
216 233 255
216 233 255
216 233 255
216 233 255
216 233 255
216 233 255
216 233 255
216 233 255
216 233 255
216 233 255
216 233 255
216 233 255
216 233 255
216 233 255
216 233 255
216 233 255
216 233 255
216 233 255
216 233 255
216 233 255
216 233 255
216 233 255
216 233 255
216 233 255
216 233 255
216 233 255
216 233 255
216 233 255
216 233 255
216 233 255
216 233 255
216 233 255
216 233 255
216 233 255
216 233 255
216 233 255
216 233 255
216 233 255
216 233 255
217 233 255
217 233 255
217 233 255
217 233 255
217 233 255
217 233 255
217 233 255
217 233 255
217 233 255
217 233 255
217 233 255
217 233 255
217 233 255
217 233 255
217 233 255
217 233 255
217 233 255
217 233 255
217 233 255
217 233 255
217 233 255
217 233 255
217 233 255
217 233 255
217 233 255
217 233 255
217 233 255
217 233 255
217 233 255
217 233 255
217 233 255
217 233 255
217 233 255
217 233 255
217 233 255
217 233 255
217 233 255
217 233 255
217 233 255
217 233 255
217 233 255
217 233 255
217 233 255
217 233 255
217 233 255
217 233 255
217 233 255
217 233 255
217 233 255
217 233 255
217 233 255
217 233 255
217 233 255
217 233 255
217 233 255
217 233 255
217 233 255
217 233 255
217 233 255
217 233 255
217 233 255
217 233 255
217 233 255
217 233 255
217 233 255
217 233 255
217 233 255
217 233 255
217 233 255
217 233 255
217 233 255
217 233 255
217 233 255
217 233 255
217 233 255
217 233 255
218 233 255
218 233 255
218 233 255
218 233 255
218 233 255
218 233 255
218 233 255
218 233 255
218 234 255
218 234 255
218 234 255
218 234 255
218 234 255
218 234 255
218 234 255
218 234 255
218 234 255
218 234 255
218 234 255
218 234 255
218 234 255
218 234 255
218 234 255
218 234 255
218 234 255
218 234 255
218 234 255
218 234 255
218 234 255
218 234 255
218 234 255
218 234 255
218 234 255
218 234 255
218 234 255
218 234 255
218 234 255
218 234 255
218 234 255
218 234 255
218 234 255
218 234 255
218 234 255
218 234 255
218 234 255
218 234 255
218 234 255
218 234 255
218 234 255
218 234 255
218 234 255
218 234 255
218 234 255
218 233 255
218 233 255
218 233 255
218 233 255
218 233 255
218 233 255
218 233 255
218 233 255
217 233 255
217 233 255
217 233 255
217 233 255
217 233 255
217 233 255
217 233 255
217 233 255
217 233 255
217 233 255
217 233 255
217 233 255
217 233 255
217 233 255
217 233 255
217 233 255
217 233 255
217 233 255
217 233 255
217 233 255
217 233 255
217 233 255
217 233 255
217 233 255
217 233 255
217 233 255
217 233 255
217 233 255
217 233 255
217 233 255
217 233 255
217 233 255
217 233 255
217 233 255
217 233 255
217 233 255
217 233 255
217 233 255
217 233 255
217 233 255
217 233 255
217 233 255
217 233 255
217 233 255
217 233 255
217 233 255
217 233 255
217 233 255
217 233 255
217 233 255
217 233 255
217 233 255
217 233 255
217 233 255
217 233 255
217 233 255
217 233 255
217 233 255
217 233 255
217 233 255
217 233 255
217 233 255
217 233 255
217 233 255
217 233 255
217 233 255
217 233 255
217 233 255
217 233 255
217 233 255
217 233 255
217 233 255
217 233 255
217 233 255
217 233 255
217 233 255
217 233 255
216 233 255
216 233 255
216 233 255
216 233 255
216 233 255
216 233 255
216 233 255
216 233 255
216 233 255
216 233 255
216 233 255
216 233 255
216 233 255
216 233 255
216 233 255
216 233 255
216 233 255
216 233 255
216 233 255
216 233 255
216 233 255
216 233 255
216 233 255
216 233 255
216 233 255
216 233 255
216 233 255
216 233 255
216 233 255
216 233 255
216 233 255
216 233 255
216 233 255
216 233 255
216 233 255
216 233 255
216 233 255
216 233 255
216 233 255
216 233 255
216 233 255
216 233 255
216 233 255
216 233 255
216 233 255
216 233 255
216 233 255
216 233 255
216 233 255
216 233 255
216 233 255
216 233 255
216 233 255
216 233 255
216 233 255
216 233 255
216 233 255
216 233 255
216 233 255
216 233 255
216 233 255
216 233 255
216 233 255
216 233 255
216 233 255
216 233 255
216 233 255
216 233 255
216 233 255
216 233 255
216 233 255
216 233 255
216 233 255
216 233 255
216 233 255
216 233 255
216 233 255
216 233 255
216 232 255
216 232 255
216 232 255
216 233 255
216 232 255
216 232 255
216 232 255
216 232 255
216 232 255
216 232 255
216 232 255
216 232 255
216 232 255
216 232 255
216 232 255
216 233 255
216 233 255
216 233 255
216 232 255
216 233 255
216 233 255
216 233 255
216 233 255
216 233 255
216 233 255
216 233 255
216 233 255
216 233 255
216 233 255
216 233 255
216 233 255
216 233 255
216 233 255
216 233 255
216 233 255
216 233 255
216 233 255
216 233 255
216 233 255
216 233 255
216 233 255
216 233 255
216 233 255
216 233 255
216 233 255
216 233 255
216 233 255
216 233 255
216 233 255
216 233 255
216 233 255
216 233 255
216 233 255
216 233 255
216 233 255
216 233 255
216 233 255
216 233 255
216 233 255
216 233 255
216 233 255
216 233 255
216 233 255
216 233 255
216 233 255
216 233 255
216 233 255
216 233 255
216 233 255
216 233 255
216 233 255
216 233 255
216 233 255
216 233 255
216 233 255
216 233 255
216 233 255
216 233 255
216 233 255
216 233 255
216 233 255
216 233 255
216 233 255
216 233 255
216 233 255
216 233 255
216 233 255
216 233 255
216 233 255
216 233 255
216 233 255
216 233 255
216 233 255
216 233 255
216 233 255
216 233 255
217 233 255
217 233 255
217 233 255
217 233 255
217 233 255
217 233 255
217 233 255
217 233 255
217 233 255
217 233 255
217 233 255
217 233 255
217 233 255
217 233 255
217 233 255
217 233 255
217 233 255
217 233 255
217 233 255
217 233 255
217 233 255
217 233 255
217 233 255
217 233 255
217 233 255
217 233 255
217 233 255
217 233 255
217 233 255
217 233 255
217 233 255
217 233 255
217 233 255
217 233 255
217 233 255
217 233 255
217 233 255
217 233 255
217 233 255
217 233 255
217 233 255
217 233 255
217 233 255
217 233 255
217 233 255
217 233 255
217 233 255
217 233 255
217 233 255
217 233 255
217 233 255
217 233 255
217 233 255
217 233 255
217 233 255
217 233 255
217 233 255
217 233 255
217 233 255
217 233 255
217 233 255
217 233 255
217 233 255
217 233 255
217 233 255
217 233 255
217 233 255
217 233 255
217 233 255
217 233 255
217 233 255
217 233 255
217 233 255
217 233 255
217 233 255
217 233 255
218 233 255
218 233 255
218 233 255
218 233 255
218 233 255
218 233 255
218 233 255
218 233 255
218 233 255
218 233 255
218 234 255
218 234 255
218 234 255
218 234 255
218 234 255
218 234 255
218 234 255
218 234 255
218 234 255
218 234 255
218 234 255
218 234 255
218 234 255
218 234 255
218 234 255
218 234 255
218 234 255
218 234 255
218 234 255
218 234 255
218 234 255
218 234 255
218 234 255
218 234 255
218 234 255
218 234 255
218 234 255
218 234 255
218 234 255
218 234 255
218 234 255
218 234 255
218 234 255
218 234 255
218 234 255
218 234 255
218 234 255
218 234 255
218 234 255
218 234 255
218 234 255
218 234 255
218 234 255
218 234 255
218 234 255
218 234 255
218 234 255
218 234 255
218 234 255
218 234 255
218 234 255
218 234 255
218 234 255
218 234 255
218 234 255
218 234 255
218 234 255
218 234 255
218 234 255
218 234 255
218 234 255
218 234 255
218 234 255
218 234 255
218 234 255
218 233 255
218 233 255
218 233 255
218 233 255
218 233 255
218 233 255
218 233 255
218 233 255
218 233 255
217 233 255
217 233 255
217 233 255
217 233 255
217 233 255
217 233 255
217 233 255
217 233 255
217 233 255
217 233 255
217 233 255
217 233 255
217 233 255
217 233 255
217 233 255
217 233 255
217 233 255
217 233 255
217 233 255
217 233 255
217 233 255
217 233 255
217 233 255
217 233 255
217 233 255
217 233 255
217 233 255
217 233 255
217 233 255
217 233 255
217 233 255
217 233 255
217 233 255
217 233 255
217 233 255
217 233 255
217 233 255
217 233 255
217 233 255
217 233 255
217 233 255
217 233 255
217 233 255
217 233 255
217 233 255
217 233 255
217 233 255
217 233 255
217 233 255
217 233 255
217 233 255
217 233 255
217 233 255
217 233 255
217 233 255
217 233 255
217 233 255
217 233 255
217 233 255
217 233 255
217 233 255
217 233 255
217 233 255
217 233 255
217 233 255
217 233 255
217 233 255
217 233 255
217 233 255
217 233 255
217 233 255
217 233 255
217 233 255
217 233 255
217 233 255
217 233 255
217 233 255
217 233 255
217 233 255
216 233 255
216 233 255
216 233 255
216 233 255
216 233 255
216 233 255
216 233 255
216 233 255
216 233 255
216 233 255
216 233 255
216 233 255
216 233 255
216 233 255
216 233 255
216 233 255
216 233 255
216 233 255
216 233 255
216 233 255
216 233 255
216 233 255
216 233 255
216 233 255
216 233 255
216 233 255
216 233 255
216 233 255
216 233 255
216 233 255
216 233 255
216 233 255
216 233 255
216 233 255
216 233 255
216 233 255
216 233 255
216 233 255
216 233 255
216 233 255
216 233 255
216 233 255
216 233 255
216 233 255
216 233 255
216 233 255
216 233 255
216 233 255
216 233 255
216 233 255
216 233 255
216 233 255
216 233 255
216 233 255
216 233 255
216 233 255
216 233 255
216 233 255
216 233 255
216 233 255
216 233 255
216 233 255
216 233 255
216 233 255
216 233 255
216 233 255
216 233 255
216 233 255
216 233 255
216 233 255
216 233 255
216 233 255
216 233 255
216 233 255
216 233 255
216 233 255
216 233 255
216 233 255
216 233 255
216 233 255
216 233 255
216 233 255
216 233 255
216 233 255
216 233 255
216 233 255
216 233 255
216 233 255
216 233 255
216 233 255
216 233 255
216 233 255
216 233 255
216 233 255
216 233 255
216 233 255
216 233 255
216 233 255
216 233 255
216 233 255
216 233 255
216 233 255
216 233 255
216 233 255
216 233 255
216 233 255
216 233 255
216 233 255
216 233 255
216 233 255
216 233 255
216 233 255
216 233 255
216 233 255
216 233 255
216 233 255
216 233 255
216 233 255
216 233 255
216 233 255
216 233 255
216 233 255
216 233 255
216 233 255
216 233 255
216 233 255
216 233 255
216 233 255
216 233 255
216 233 255
216 233 255
216 233 255
216 233 255
216 233 255
216 233 255
216 233 255
216 233 255
216 233 255
216 233 255
216 233 255
216 233 255
216 233 255
216 233 255
216 233 255
216 233 255
216 233 255
216 233 255
216 233 255
216 233 255
217 233 255
217 233 255
217 233 255
217 233 255
217 233 255
217 233 255
217 233 255
217 233 255
217 233 255
217 233 255
217 233 255
217 233 255
217 233 255
217 233 255
217 233 255
217 233 255
217 233 255
217 233 255
217 233 255
217 233 255
217 233 255
217 233 255
217 233 255
217 233 255
217 233 255
217 233 255
217 233 255
217 233 255
217 233 255
217 233 255
217 233 255
217 233 255
217 233 255
217 233 255
217 233 255
217 233 255
217 233 255
217 233 255
217 233 255
217 233 255
217 233 255
217 233 255
217 233 255
217 233 255
217 233 255
217 233 255
217 233 255
217 233 255
217 233 255
217 233 255
217 233 255
217 233 255
217 233 255
217 233 255
217 233 255
217 233 255
217 233 255
217 233 255
217 233 255
217 233 255
217 233 255
217 233 255
217 233 255
217 233 255
217 233 255
217 233 255
217 233 255
217 233 255
217 233 255
217 233 255
217 233 255
217 233 255
217 233 255
217 233 255
217 233 255
217 233 255
217 233 255
218 233 255
218 233 255
218 233 255
218 233 255
218 233 255
218 233 255
218 233 255
218 233 255
218 233 255
218 233 255
218 234 255
218 234 255
218 234 255
218 234 255
218 234 255
218 234 255
218 234 255
218 234 255
218 234 255
218 234 255
218 234 255
218 234 255
218 234 255
218 234 255
218 234 255
218 234 255
218 234 255
218 234 255
218 234 255
218 234 255
218 234 255
218 234 255
218 234 255
218 234 255
218 234 255
218 234 255
218 234 255
218 234 255
218 234 255
218 234 255
218 234 255
218 234 255
218 234 255
218 234 255
218 234 255
218 234 255
218 234 255
218 234 255
218 234 255
218 234 255
218 234 255
218 234 255
218 234 255
218 234 255
218 234 255
218 234 255
218 234 255
218 234 255
218 234 255
218 234 255
218 234 255
218 234 255
218 234 255
218 234 255
218 234 255
218 234 255
218 234 255
218 234 255
218 234 255
218 234 255
218 234 255
218 234 255
218 234 255
218 234 255
218 234 255
218 234 255
218 234 255
218 234 255
218 234 255
218 234 255
218 234 255
218 234 255
218 234 255
218 234 255
218 234 255
218 234 255
218 234 255
218 234 255
218 234 255
218 234 255
218 234 255
218 234 255
218 234 255
218 234 255
218 234 255
218 234 255
218 234 255
218 233 255
218 233 255
218 233 255
218 233 255
218 233 255
218 233 255
218 233 255
218 233 255
218 233 255
217 233 255
217 233 255
217 233 255
217 233 255
217 233 255
217 233 255
217 233 255
217 233 255
217 233 255
217 233 255
217 233 255
217 233 255
217 233 255
217 233 255
217 233 255
217 233 255
217 233 255
217 233 255
217 233 255
217 233 255
217 233 255
217 233 255
217 233 255
217 233 255
217 233 255
217 233 255
217 233 255
217 233 255
217 233 255
217 233 255
217 233 255
217 233 255
217 233 255
217 233 255
217 233 255
217 233 255
217 233 255
217 233 255
217 233 255
217 233 255
217 233 255
217 233 255
217 233 255
217 233 255
217 233 255
217 233 255
217 233 255
217 233 255
217 233 255
217 233 255
217 233 255
217 233 255
217 233 255
217 233 255
217 233 255
217 233 255
217 233 255
217 233 255
217 233 255
217 233 255
217 233 255
217 233 255
217 233 255
217 233 255
217 233 255
217 233 255
217 233 255
217 233 255
217 233 255
217 233 255
217 233 255
217 233 255
217 233 255
217 233 255
217 233 255
217 233 255
217 233 255
217 233 255
217 233 255
217 233 255
217 233 255
217 233 255
217 233 255
216 233 255
216 233 255
216 233 255
216 233 255
216 233 255
216 233 255
216 233 255
216 233 255
216 233 255
216 233 255
216 233 255
216 233 255
216 233 255
216 233 255
216 233 255
216 233 255
216 233 255
216 233 255
216 233 255
216 233 255
216 233 255
216 233 255
216 233 255
216 233 255
216 233 255
216 233 255
216 233 255
216 233 255
216 233 255
216 233 255
216 233 255
216 233 255
216 233 255
216 233 255
216 233 255
216 233 255
216 233 255
216 233 255
216 233 255
216 233 255
216 233 255
216 233 255
216 233 255
216 233 255
216 233 255
216 233 255
216 233 255
216 233 255
216 233 255
216 233 255
216 233 255
216 233 255
216 233 255
216 233 255
216 233 255
216 233 255
216 233 255
216 233 255
216 233 255
216 233 255
216 233 255
216 233 255
216 233 255
216 233 255
216 233 255
216 233 255
216 233 255
216 233 255
216 233 255
216 233 255
216 233 255
216 233 255
216 233 255
216 233 255
216 233 255
216 233 255
216 233 255
216 233 255
216 233 255
216 233 255
216 233 255
216 233 255
216 233 255
216 233 255
216 233 255
216 233 255
216 233 255
216 233 255
216 233 255
216 233 255
216 233 255
216 233 255
216 233 255
216 233 255
216 233 255
216 233 255
216 233 255
216 233 255
216 233 255
216 233 255
216 233 255
216 233 255
216 233 255
216 233 255
216 233 255
216 233 255
216 233 255
216 233 255
216 233 255
216 233 255
216 233 255
216 233 255
216 233 255
216 233 255
216 233 255
216 233 255
216 233 255
216 233 255
217 233 255
217 233 255
217 233 255
217 233 255
217 233 255
217 233 255
217 233 255
217 233 255
217 233 255
217 233 255
217 233 255
217 233 255
217 233 255
217 233 255
217 233 255
217 233 255
217 233 255
217 233 255
217 233 255
217 233 255
217 233 255
217 233 255
217 233 255
217 233 255
217 233 255
217 233 255
217 233 255
217 233 255
217 233 255
217 233 255
217 233 255
217 233 255
217 233 255
217 233 255
217 233 255
217 233 255
217 233 255
217 233 255
217 233 255
217 233 255
217 233 255
217 233 255
217 233 255
217 233 255
217 233 255
217 233 255
217 233 255
217 233 255
217 233 255
217 233 255
217 233 255
217 233 255
217 233 255
217 233 255
217 233 255
217 233 255
217 233 255
217 233 255
217 233 255
217 233 255
217 233 255
217 233 255
217 233 255
217 233 255
217 233 255
217 233 255
217 233 255
217 233 255
217 233 255
217 233 255
217 233 255
217 233 255
217 233 255
217 233 255
217 233 255
217 233 255
217 233 255
217 233 255
217 233 255
217 233 255
217 233 255
217 233 255
218 233 255
218 233 255
218 233 255
218 233 255
218 233 255
218 233 255
218 233 255
218 233 255
218 233 255
218 234 255
218 234 255
218 234 255
218 234 255
218 234 255
218 234 255
218 234 255
218 234 255
218 234 255
218 234 255
218 234 255
218 234 255
218 234 255
218 234 255
218 234 255
218 234 255
218 234 255
218 234 255
218 234 255
218 234 255
218 234 255
218 234 255
218 234 255
218 234 255
218 234 255
218 234 255
218 234 255
218 234 255
218 234 255
218 234 255
218 234 255
218 234 255
218 234 255
218 234 255
218 234 255
218 234 255
218 234 255
218 234 255
218 234 255
218 234 255
218 234 255
218 234 255
218 234 255
218 234 255
218 234 255
218 234 255
218 234 255
218 234 255
218 234 255
218 234 255
218 234 255
218 234 255
218 234 255
218 234 255
218 234 255
218 234 255
218 234 255
218 234 255
218 234 255
218 234 255
218 234 255
218 234 255
218 234 255
218 234 255
218 234 255
218 234 255
218 234 255
218 234 255
218 234 255
218 234 255
218 234 255
218 234 255
218 234 255
218 234 255
218 234 255
218 234 255
218 234 255
218 234 255
218 234 255
218 234 255
218 234 255
218 234 255
218 234 255
218 234 255
218 234 255
218 234 255
218 234 255
218 234 255
218 234 255
218 234 255
218 234 255
218 234 255
218 234 255
218 234 255
218 234 255
218 234 255
218 234 255
218 234 255
218 234 255
218 234 255
218 234 255
218 234 255
218 234 255
218 234 255
218 234 255
218 234 255
218 234 255
218 234 255
218 234 255
218 234 255
218 234 255
218 233 255
218 233 255
218 233 255
218 233 255
218 233 255
218 233 255
218 233 255
218 233 255
218 233 255
217 233 255
217 233 255
217 233 255
217 233 255
217 233 255
217 233 255
217 233 255
217 233 255
217 233 255
217 233 255
217 233 255
217 233 255
217 233 255
217 233 255
217 233 255
217 233 255
217 233 255
217 233 255
217 233 255
217 233 255
217 233 255
217 233 255
217 233 255
217 233 255
217 233 255
217 233 255
217 233 255
217 233 255
217 233 255
217 233 255
217 233 255
217 233 255
217 233 255
217 233 255
217 233 255
217 233 255
217 233 255
217 233 255
217 233 255
217 233 255
217 233 255
217 233 255
217 233 255
217 233 255
217 233 255
217 233 255
217 233 255
217 233 255
217 233 255
217 233 255
217 233 255
217 233 255
217 233 255
217 233 255
217 233 255
217 233 255
217 233 255
217 233 255
217 233 255
217 233 255
217 233 255
217 233 255
217 233 255
217 233 255
217 233 255
217 233 255
217 233 255
217 233 255
217 233 255
217 233 255
217 233 255
217 233 255
217 233 255
217 233 255
217 233 255
217 233 255
217 233 255
217 233 255
217 233 255
217 233 255
217 233 255
217 233 255
217 233 255
217 233 255
217 233 255
217 233 255
217 233 255
217 233 255
216 233 255
216 233 255
216 233 255
216 233 255
216 233 255
216 233 255
216 233 255
216 233 255
216 233 255
216 233 255
216 233 255
216 233 255
216 233 255
216 233 255
216 233 255
216 233 255
216 233 255
216 233 255
216 233 255
216 233 255
216 233 255
216 233 255
216 233 255
216 233 255
216 233 255
216 233 255
216 233 255
216 233 255
216 233 255
216 233 255
216 233 255
216 233 255
216 233 255
216 233 255
216 233 255
216 233 255
216 233 255
216 233 255
216 233 255
216 233 255
216 233 255
216 233 255
216 233 255
216 233 255
216 233 255
216 233 255
216 233 255
216 233 255
216 233 255
216 233 255
216 233 255
216 233 255
216 233 255
216 233 255
216 233 255
216 233 255
216 233 255
216 233 255
216 233 255
216 233 255
216 233 255
216 233 255
216 233 255
216 233 255
216 233 255
216 233 255
216 233 255
216 233 255
216 233 255
216 233 255
216 233 255
216 233 255
216 233 255
216 233 255
216 233 255
216 233 255
216 233 255
216 233 255
216 233 255
216 233 255
216 233 255
216 233 255
216 233 255
216 233 255
217 233 255
217 233 255
217 233 255
217 233 255
217 233 255
217 233 255
217 233 255
217 233 255
217 233 255
217 233 255
217 233 255
217 233 255
217 233 255
217 233 255
217 233 255
217 233 255
217 233 255
217 233 255
217 233 255
217 233 255
217 233 255
217 233 255
217 233 255
217 233 255
217 233 255
217 233 255
217 233 255
217 233 255
217 233 255
217 233 255
217 233 255
217 233 255
217 233 255
217 233 255
217 233 255
217 233 255
217 233 255
217 233 255
217 233 255
217 233 255
217 233 255
217 233 255
217 233 255
217 233 255
217 233 255
217 233 255
217 233 255
217 233 255
217 233 255
217 233 255
217 233 255
217 233 255
217 233 255
217 233 255
217 233 255
217 233 255
217 233 255
217 233 255
217 233 255
217 233 255
217 233 255
217 233 255
217 233 255
217 233 255
217 233 255
217 233 255
217 233 255
217 233 255
217 233 255
217 233 255
217 233 255
217 233 255
217 233 255
217 233 255
217 233 255
217 233 255
217 233 255
217 233 255
217 233 255
217 233 255
217 233 255
217 233 255
217 233 255
217 233 255
217 233 255
217 233 255
217 233 255
217 233 255
218 233 255
218 233 255
218 233 255
218 233 255
218 233 255
218 233 255
218 233 255
218 233 255
218 233 255
218 234 255
218 234 255
218 234 255
218 234 255
218 234 255
218 234 255
218 234 255
218 234 255
218 234 255
218 234 255
218 234 255
218 234 255
218 234 255
218 234 255
218 234 255
218 234 255
218 234 255
218 234 255
218 234 255
218 234 255
218 234 255
218 234 255
218 234 255
218 234 255
218 234 255
218 234 255
218 234 255
218 234 255
218 234 255
218 234 255
218 234 255
218 234 255
218 234 255
218 234 255
218 234 255
218 234 255
218 234 255
218 234 255
218 234 255
218 234 255
218 234 255
218 234 255
218 234 255
218 234 255
218 234 255
218 234 255
218 234 255
218 234 255
218 234 255
218 234 255
218 234 255
218 234 255
218 234 255
218 234 255
218 234 255
218 234 255
218 234 255
218 234 255
218 234 255
218 234 255
218 234 255
218 234 255
218 234 255
218 234 255
218 234 255
218 234 255
218 234 255
218 234 255
218 234 255
218 234 255
218 234 255
218 234 255
218 234 255
218 234 255
218 234 255
218 234 255
218 234 255
218 234 255
218 234 255
218 234 255
218 234 255
218 234 255
218 234 255
218 234 255
218 234 255
218 234 255
218 234 255
218 234 255
218 234 255
218 234 255
218 234 255
218 234 255
218 234 255
218 234 255
218 234 255
218 234 255
218 234 255
218 234 255
218 234 255
218 234 255
218 234 255
218 234 255
218 234 255
218 234 255
218 234 255
218 234 255
218 234 255
218 234 255
218 234 255
218 234 255
218 234 255
218 234 255
218 234 255
218 234 255
218 234 255
218 234 255
218 234 255
218 234 255
218 234 255
218 234 255
218 234 255
218 234 255
218 234 255
218 234 255
218 234 255
218 234 255
218 234 255
218 234 255
218 234 255
218 234 255
218 234 255
218 234 255
218 234 255
218 234 255
218 233 255
218 233 255
218 233 255
218 233 255
218 233 255
218 233 255
218 233 255
218 233 255
218 233 255
218 233 255
217 233 255
217 233 255
217 233 255
217 233 255
217 233 255
217 233 255
217 233 255
217 233 255
217 233 255
217 233 255
217 233 255
217 233 255
217 233 255
217 233 255
217 233 255
217 233 255
217 233 255
217 233 255
217 233 255
217 233 255
217 233 255
217 233 255
217 233 255
217 233 255
217 233 255
217 233 255
217 233 255
217 233 255
217 233 255
217 233 255
217 233 255
217 233 255
217 233 255
217 233 255
217 233 255
217 233 255
217 233 255
217 233 255
217 233 255
217 233 255
217 233 255
217 233 255
217 233 255
217 233 255
217 233 255
217 233 255
217 233 255
217 233 255
217 233 255
217 233 255
217 233 255
217 233 255
217 233 255
217 233 255
217 233 255
217 233 255
217 233 255
217 233 255
217 233 255
217 233 255
217 233 255
217 233 255
217 233 255
217 233 255
217 233 255
217 233 255
217 233 255
217 233 255
217 233 255
217 233 255
217 233 255
217 233 255
217 233 255
217 233 255
217 233 255
217 233 255
217 233 255
217 233 255
217 233 255
217 233 255
217 233 255
217 233 255
217 233 255
217 233 255
217 233 255
217 233 255
217 233 255
217 233 255
217 233 255
217 233 255
217 233 255
217 233 255
217 233 255
217 233 255
217 233 255
217 233 255
217 233 255
217 233 255
217 233 255
217 233 255
217 233 255
217 233 255
217 233 255
217 233 255
217 233 255
217 233 255
217 233 255
217 233 255
217 233 255
217 233 255
217 233 255
217 233 255
217 233 255
217 233 255
217 233 255
217 233 255
217 233 255
217 233 255
217 233 255
217 233 255
217 233 255
217 233 255
217 233 255
217 233 255
217 233 255
217 233 255
217 233 255
217 233 255
217 233 255
217 233 255
217 233 255
217 233 255
217 233 255
217 233 255
217 233 255
217 233 255
217 233 255
217 233 255
217 233 255
217 233 255
217 233 255
217 233 255
217 233 255
217 233 255
217 233 255
217 233 255
217 233 255
217 233 255
217 233 255
217 233 255
217 233 255
217 233 255
217 233 255
217 233 255
217 233 255
217 233 255
217 233 255
217 233 255
217 233 255
217 233 255
217 233 255
217 233 255
217 233 255
217 233 255
217 233 255
217 233 255
217 233 255
217 233 255
217 233 255
217 233 255
217 233 255
217 233 255
217 233 255
217 233 255
217 233 255
217 233 255
217 233 255
217 233 255
217 233 255
217 233 255
217 233 255
217 233 255
217 233 255
217 233 255
217 233 255
217 233 255
217 233 255
217 233 255
217 233 255
217 233 255
217 233 255
217 233 255
217 233 255
217 233 255
217 233 255
217 233 255
217 233 255
217 233 255
217 233 255
217 233 255
217 233 255
217 233 255
217 233 255
217 233 255
217 233 255
217 233 255
217 233 255
217 233 255
217 233 255
217 233 255
217 233 255
217 233 255
217 233 255
217 233 255
217 233 255
217 233 255
217 233 255
217 233 255
217 233 255
217 233 255
217 233 255
217 233 255
217 233 255
217 233 255
217 233 255
217 233 255
217 233 255
217 233 255
217 233 255
217 233 255
217 233 255
217 233 255
217 233 255
217 233 255
217 233 255
218 233 255
218 233 255
218 233 255
218 233 255
218 233 255
218 233 255
218 233 255
218 233 255
218 233 255
218 234 255
218 234 255
218 234 255
218 234 255
218 234 255
218 234 255
218 234 255
218 234 255
218 234 255
218 234 255
218 234 255
218 234 255
218 234 255
218 234 255
218 234 255
218 234 255
218 234 255
218 234 255
218 234 255
218 234 255
218 234 255
218 234 255
218 234 255
218 234 255
218 234 255
218 234 255
218 234 255
218 234 255
218 234 255
218 234 255
218 234 255
218 234 255
218 234 255
218 234 255
218 234 255
218 234 255
218 234 255
218 234 255
218 234 255
218 234 255
218 234 255
218 234 255
218 234 255
218 234 255
218 234 255
218 234 255
218 234 255
218 234 255
218 234 255
218 234 255
218 234 255
218 234 255
218 234 255
218 234 255
218 234 255
218 234 255
218 234 255
218 234 255
218 234 255
218 234 255
218 234 255
218 234 255
218 234 255
218 234 255
218 234 255
218 234 255
218 234 255
218 234 255
218 234 255
218 234 255
218 234 255
218 234 255
218 234 255
218 234 255
218 234 255
218 234 255
218 234 255
218 234 255
218 234 255
218 234 255
218 234 255
218 234 255
218 234 255
218 234 255
218 234 255
218 234 255
218 234 255
218 234 255
218 234 255
218 234 255
218 234 255
218 234 255
218 234 255
218 234 255
218 234 255
218 234 255
218 234 255
218 234 255
218 234 255
218 234 255
218 234 255
218 234 255
218 234 255
218 234 255
218 234 255
218 234 255
218 234 255
218 234 255
218 234 255
218 234 255
218 234 255
218 234 255
218 234 255
218 234 255
218 234 255
218 234 255
218 234 255
218 234 255
218 234 255
218 234 255
218 234 255
218 234 255
218 234 255
218 234 255
218 234 255
218 234 255
218 234 255
218 234 255
218 234 255
218 234 255
218 234 255
218 234 255
218 234 255
218 234 255
218 234 255
218 234 255
218 234 255
218 234 255
218 234 255
218 234 255
218 234 255
218 234 255
218 234 255
218 234 255
218 234 255
218 234 255
218 234 255
218 234 255
218 234 255
218 234 255
218 234 255
218 234 255
218 234 255
218 234 255
218 234 255
218 234 255
218 234 255
218 234 255
218 234 255
218 233 255
218 233 255
218 233 255
218 233 255
218 233 255
218 233 255
218 233 255
218 233 255
218 233 255
218 233 255
217 233 255
217 233 255
217 233 255
217 233 255
217 233 255
217 233 255
217 233 255
217 233 255
217 233 255
217 233 255
217 233 255
217 233 255
217 233 255
217 233 255
217 233 255
217 233 255
217 233 255
217 233 255
217 233 255
217 233 255
217 233 255
217 233 255
217 233 255
217 233 255
217 233 255
217 233 255
217 233 255
217 233 255
217 233 255
217 233 255
217 233 255
217 233 255
217 233 255
217 233 255
217 233 255
217 233 255
217 233 255
217 233 255
217 233 255
217 233 255
217 233 255
217 233 255
217 233 255
217 233 255
217 233 255
217 233 255
217 233 255
217 233 255
217 233 255
217 233 255
217 233 255
217 233 255
217 233 255
217 233 255
217 233 255
217 233 255
217 233 255
217 233 255
217 233 255
217 233 255
217 233 255
217 233 255
217 233 255
217 233 255
217 233 255
217 233 255
217 233 255
217 233 255
217 233 255
217 233 255
217 233 255
217 233 255
217 233 255
217 233 255
217 233 255
217 233 255
217 233 255
217 233 255
217 233 255
217 233 255
217 233 255
217 233 255
217 233 255
217 233 255
217 233 255
217 233 255
217 233 255
217 233 255
217 233 255
217 233 255
217 233 255
217 233 255
217 233 255
217 233 255
217 233 255
217 233 255
217 233 255
217 233 255
217 233 255
217 233 255
217 233 255
217 233 255
217 233 255
217 233 255
217 233 255
217 233 255
217 233 255
217 233 255
217 233 255
217 233 255
217 233 255
217 233 255
217 233 255
217 233 255
217 233 255
217 233 255
217 233 255
217 233 255
217 233 255
217 233 255
217 233 255
217 233 255
217 233 255
217 233 255
217 233 255
217 233 255
217 233 255
217 233 255
217 233 255
217 233 255
217 233 255
217 233 255
217 233 255
217 233 255
217 233 255
217 233 255
217 233 255
217 233 255
217 233 255
217 233 255
217 233 255
217 233 255
217 233 255
217 233 255
217 233 255
217 233 255
217 233 255
217 233 255
217 233 255
217 233 255
217 233 255
217 233 255
217 233 255
217 233 255
217 233 255
217 233 255
217 233 255
217 233 255
217 233 255
217 233 255
217 233 255
217 233 255
217 233 255
217 233 255
217 233 255
217 233 255
217 233 255
217 233 255
217 233 255
217 233 255
217 233 255
217 233 255
217 233 255
217 233 255
217 233 255
217 233 255
217 233 255
217 233 255
217 233 255
217 233 255
217 233 255
217 233 255
217 233 255
217 233 255
217 233 255
217 233 255
217 233 255
217 233 255
217 233 255
217 233 255
217 233 255
217 233 255
217 233 255
217 233 255
217 233 255
217 233 255
217 233 255
217 233 255
217 233 255
217 233 255
217 233 255
217 233 255
217 233 255
217 233 255
217 233 255
217 233 255
217 233 255
217 233 255
217 233 255
218 233 255
218 233 255
218 233 255
218 233 255
218 233 255
218 233 255
218 233 255
218 233 255
218 233 255
218 234 255
218 234 255
218 234 255
218 234 255
218 234 255
218 234 255
218 234 255
218 234 255
218 234 255
218 234 255
218 234 255
218 234 255
218 234 255
218 234 255
218 234 255
218 234 255
218 234 255
218 234 255
218 234 255
218 234 255
218 234 255
218 234 255
218 234 255
218 234 255
218 234 255
218 234 255
218 234 255
218 234 255
218 234 255
218 234 255
218 234 255
218 234 255
218 234 255
218 234 255
218 234 255
218 234 255
218 234 255
218 234 255
218 234 255
218 234 255
218 234 255
218 234 255
218 234 255
218 234 255
218 234 255
218 234 255
218 234 255
218 234 255
218 234 255
218 234 255
218 234 255
218 234 255
218 234 255
218 234 255
218 234 255
218 234 255
218 234 255
218 234 255
218 234 255
218 234 255
218 234 255
218 234 255
218 234 255
218 234 255
218 234 255
218 234 255
218 234 255
218 234 255
218 234 255
218 234 255
218 234 255
218 234 255
218 234 255
218 234 255
218 234 255
218 234 255
218 234 255
218 234 255
218 234 255
218 234 255
218 234 255
218 234 255
218 234 255
218 234 255
218 234 255
218 234 255
219 234 255
219 234 255
219 234 255
219 234 255
219 234 255
219 234 255
219 234 255
219 234 255
219 234 255
219 234 255
219 234 255
219 234 255
218 234 255
218 234 255
218 234 255
218 234 255
218 234 255
218 234 255
218 234 255
218 234 255
218 234 255
218 234 255
218 234 255
218 234 255
218 234 255
218 234 255
218 234 255
218 234 255
218 234 255
218 234 255
218 234 255
218 234 255
218 234 255
218 234 255
218 234 255
218 234 255
218 234 255
218 234 255
218 234 255
218 234 255
218 234 255
218 234 255
218 234 255
218 234 255
218 234 255
218 234 255
218 234 255
218 234 255
218 234 255
218 234 255
218 234 255
218 234 255
218 234 255
218 234 255
218 234 255
218 234 255
218 234 255
218 234 255
218 234 255
218 234 255
218 234 255
218 234 255
218 234 255
218 234 255
218 234 255
218 234 255
218 234 255
218 234 255
218 234 255
218 234 255
218 234 255
218 234 255
218 234 255
218 234 255
218 234 255
218 234 255
218 234 255
218 234 255
218 234 255
218 234 255
218 234 255
218 234 255
218 234 255
218 234 255
218 234 255
218 234 255
218 234 255
218 234 255
218 234 255
218 234 255
218 234 255
218 234 255
218 234 255
218 234 255
218 234 255
218 234 255
218 234 255
218 234 255
218 234 255
218 234 255
218 233 255
218 233 255
218 233 255
218 233 255
218 233 255
218 233 255
218 233 255
218 233 255
218 233 255
218 233 255
217 233 255
217 233 255
217 233 255
217 233 255
217 233 255
217 233 255
217 233 255
217 233 255
217 233 255
217 233 255
217 233 255
217 233 255
217 233 255
217 233 255
217 233 255
217 233 255
217 233 255
217 233 255
217 233 255
217 233 255
217 233 255
217 233 255
217 233 255
217 233 255
217 233 255
217 233 255
217 233 255
217 233 255
217 233 255
217 233 255
217 233 255
217 233 255
217 233 255
217 233 255
217 233 255
217 233 255
217 233 255
217 233 255
217 233 255
217 233 255
217 233 255
217 233 255
217 233 255
217 233 255
217 233 255
217 233 255
217 233 255
217 233 255
217 233 255
217 233 255
217 233 255
217 233 255
217 233 255
217 233 255
217 233 255
217 233 255
217 233 255
217 233 255
217 233 255
217 233 255
217 233 255
217 233 255
217 233 255
217 233 255
217 233 255
217 233 255
217 233 255
217 233 255
217 233 255
217 233 255
217 233 255
217 233 255
217 233 255
217 233 255
217 233 255
217 233 255
217 233 255
217 233 255
217 233 255
217 233 255
217 233 255
217 233 255
217 233 255
217 233 255
217 233 255
217 233 255
217 233 255
217 233 255
217 233 255
217 233 255
217 233 255
217 233 255
217 233 255
217 233 255
217 233 255
217 233 255
217 233 255
217 233 255
217 233 255
217 233 255
217 233 255
217 233 255
217 233 255
217 233 255
217 233 255
217 233 255
217 233 255
217 233 255
217 233 255
217 233 255
217 233 255
217 233 255
217 233 255
217 233 255
217 233 255
217 233 255
217 233 255
217 233 255
217 233 255
217 233 255
217 233 255
217 233 255
217 233 255
217 233 255
217 233 255
217 233 255
217 233 255
217 233 255
217 233 255
217 233 255
217 233 255
217 233 255
217 233 255
217 233 255
217 233 255
217 233 255
217 233 255
217 233 255
217 233 255
217 233 255
217 233 255
217 233 255
217 233 255
217 233 255
217 233 255
217 233 255
217 233 255
217 233 255
217 233 255
217 233 255
217 233 255
217 233 255
217 233 255
217 233 255
217 233 255
217 233 255
217 233 255
217 233 255
217 233 255
217 233 255
217 233 255
217 233 255
217 233 255
217 233 255
217 233 255
217 233 255
217 233 255
217 233 255
217 233 255
217 233 255
217 233 255
217 233 255
217 233 255
217 233 255
217 233 255
217 233 255
217 233 255
217 233 255
217 233 255
217 233 255
217 233 255
218 233 255
218 233 255
218 233 255
218 233 255
218 233 255
218 233 255
218 233 255
218 233 255
218 233 255
218 234 255
218 234 255
218 234 255
218 234 255
218 234 255
218 234 255
218 234 255
218 234 255
218 234 255
218 234 255
218 234 255
218 234 255
218 234 255
218 234 255
218 234 255
218 234 255
218 234 255
218 234 255
218 234 255
218 234 255
218 234 255
218 234 255
218 234 255
218 234 255
218 234 255
218 234 255
218 234 255
218 234 255
218 234 255
218 234 255
218 234 255
218 234 255
218 234 255
218 234 255
218 234 255
218 234 255
218 234 255
218 234 255
218 234 255
218 234 255
218 234 255
218 234 255
218 234 255
218 234 255
218 234 255
218 234 255
218 234 255
218 234 255
218 234 255
218 234 255
218 234 255
218 234 255
218 234 255
218 234 255
218 234 255
218 234 255
218 234 255
218 234 255
218 234 255
218 234 255
218 234 255
218 234 255
218 234 255
218 234 255
218 234 255
218 234 255
218 234 255
218 234 255
218 234 255
218 234 255
218 234 255
218 234 255
218 234 255
218 234 255
218 234 255
218 234 255
218 234 255
218 234 255
218 234 255
218 234 255
218 234 255
218 234 255
218 234 255
218 234 255
218 234 255
218 234 255
218 234 255
218 234 255
219 234 255
219 234 255
219 234 255
219 234 255
219 234 255
219 234 255
219 234 255
219 234 255
219 234 255
219 234 255
219 234 255
219 234 255
219 234 255
219 234 255
219 234 255
219 234 255
219 234 255
219 234 255
219 234 255
219 234 255
219 234 255
219 234 255
219 234 255
219 234 255
219 234 255
219 234 255
219 234 255
219 234 255
219 234 255
219 234 255
219 234 255
219 234 255
219 234 255
219 234 255
219 234 255
219 234 255
219 234 255
219 234 255
219 234 255
218 234 255
218 234 255
218 234 255
218 234 255
218 234 255
218 234 255
218 234 255
218 234 255
218 234 255
218 234 255
218 234 255
218 234 255
218 234 255
218 234 255
218 234 255
218 234 255
218 234 255
218 234 255
218 234 255
218 234 255
218 234 255
218 234 255
218 234 255
218 234 255
218 234 255
218 234 255
218 234 255
218 234 255
218 234 255
218 234 255
218 234 255
218 234 255
218 234 255
218 234 255
218 234 255
218 234 255
218 234 255
218 234 255
218 234 255
218 234 255
218 234 255
218 234 255
218 234 255
218 234 255
218 234 255
218 234 255
218 234 255
218 234 255
218 234 255
218 234 255
218 234 255
218 234 255
218 234 255
218 234 255
218 234 255
218 234 255
218 234 255
218 234 255
218 234 255
218 234 255
218 234 255
218 234 255
218 234 255
218 234 255
218 234 255
218 234 255
218 234 255
218 234 255
218 234 255
218 234 255
218 234 255
218 234 255
218 234 255
218 234 255
218 234 255
218 234 255
218 234 255
218 234 255
218 234 255
218 234 255
218 234 255
218 234 255
218 234 255
218 234 255
218 234 255
218 234 255
218 234 255
218 234 255
218 233 255
218 233 255
218 233 255
218 233 255
218 233 255
218 233 255
218 233 255
218 233 255
218 233 255
218 233 255
218 233 255
217 233 255
217 233 255
217 233 255
217 233 255
217 233 255
217 233 255
217 233 255
217 233 255
217 233 255
217 233 255
217 233 255
217 233 255
217 233 255
217 233 255
217 233 255
217 233 255
217 233 255
217 233 255
217 233 255
217 233 255
217 233 255
217 233 255
217 233 255
217 233 255
217 233 255
217 233 255
217 233 255
217 233 255
217 233 255
217 233 255
217 233 255
217 233 255
217 233 255
217 233 255
217 233 255
217 233 255
217 233 255
217 233 255
217 233 255
217 233 255
217 233 255
217 233 255
217 233 255
217 233 255
217 233 255
217 233 255
217 233 255
217 233 255
217 233 255
217 233 255
217 233 255
217 233 255
217 233 255
217 233 255
217 233 255
217 233 255
217 233 255
217 233 255
217 233 255
217 233 255
217 233 255
217 233 255
217 233 255
217 233 255
217 233 255
217 233 255
217 233 255
217 233 255
217 233 255
217 233 255
217 233 255
217 233 255
217 233 255
217 233 255
217 233 255
217 233 255
217 233 255
217 233 255
217 233 255
217 233 255
217 233 255
217 233 255
217 233 255
217 233 255
217 233 255
217 233 255
217 233 255
217 233 255
217 233 255
217 233 255
217 233 255
217 233 255
217 233 255
217 233 255
217 233 255
217 233 255
217 233 255
217 233 255
217 233 255
217 233 255
217 233 255
217 233 255
217 233 255
217 233 255
217 233 255
217 233 255
217 233 255
217 233 255
217 233 255
217 233 255
217 233 255
217 233 255
217 233 255
217 233 255
217 233 255
217 233 255
217 233 255
217 233 255
217 233 255
217 233 255
217 233 255
217 233 255
217 233 255
217 233 255
217 233 255
217 233 255
217 233 255
217 233 255
217 233 255
217 233 255
217 233 255
217 233 255
217 233 255
217 233 255
217 233 255
217 233 255
217 233 255
217 233 255
217 233 255
217 233 255
217 233 255
217 233 255
217 233 255
217 233 255
217 233 255
217 233 255
217 233 255
217 233 255
217 233 255
218 233 255
218 233 255
218 233 255
218 233 255
218 233 255
218 233 255
218 233 255
218 233 255
218 233 255
218 233 255
218 234 255
218 234 255
218 234 255
218 234 255
218 234 255
218 234 255
218 234 255
218 234 255
218 234 255
218 234 255
218 234 255
218 234 255
218 234 255
218 234 255
218 234 255
218 234 255
218 234 255
218 234 255
218 234 255
218 234 255
218 234 255
218 234 255
218 234 255
218 234 255
218 234 255
218 234 255
218 234 255
218 234 255
218 234 255
218 234 255
218 234 255
218 234 255
218 234 255
218 234 255
218 234 255
218 234 255
218 234 255
218 234 255
218 234 255
218 234 255
218 234 255
218 234 255
218 234 255
218 234 255
218 234 255
218 234 255
218 234 255
218 234 255
218 234 255
218 234 255
218 234 255
218 234 255
218 234 255
218 234 255
218 234 255
218 234 255
218 234 255
218 234 255
218 234 255
218 234 255
218 234 255
218 234 255
218 234 255
218 234 255
218 234 255
218 234 255
218 234 255
218 234 255
218 234 255
218 234 255
218 234 255
218 234 255
218 234 255
218 234 255
218 234 255
218 234 255
218 234 255
218 234 255
218 234 255
218 234 255
218 234 255
218 234 255
218 234 255
218 234 255
218 234 255
218 234 255
218 234 255
218 234 255
218 234 255
219 234 255
219 234 255
219 234 255
219 234 255
219 234 255
219 234 255
219 234 255
219 234 255
219 234 255
219 234 255
219 234 255
219 234 255
219 234 255
219 234 255
219 234 255
219 234 255
219 234 255
219 234 255
219 234 255
219 234 255
219 234 255
219 234 255
219 234 255
219 234 255
219 234 255
219 234 255
219 234 255
219 234 255
219 234 255
219 234 255
219 234 255
219 234 255
219 234 255
219 234 255
219 234 255
219 234 255
219 234 255
219 234 255
219 234 255
219 234 255
219 234 255
219 234 255
219 234 255
219 234 255
219 234 255
219 234 255
219 234 255
219 234 255
219 234 255
219 234 255
219 234 255
219 234 255
219 234 255
219 234 255
219 234 255
219 234 255
219 234 255
219 234 255
219 234 255
219 234 255
219 234 255
219 234 255
219 234 255
219 234 255
219 234 255
219 234 255
219 234 255
218 234 255
218 234 255
218 234 255
218 234 255
218 234 255
218 234 255
218 234 255
218 234 255
218 234 255
218 234 255
218 234 255
218 234 255
218 234 255
218 234 255
218 234 255
218 234 255
218 234 255
218 234 255
218 234 255
218 234 255
218 234 255
218 234 255
218 234 255
218 234 255
218 234 255
218 234 255
218 234 255
218 234 255
218 234 255
218 234 255
218 234 255
218 234 255
218 234 255
218 234 255
218 234 255
218 234 255
218 234 255
218 234 255
218 234 255
218 234 255
218 234 255
218 234 255
218 234 255
218 234 255
218 234 255
218 234 255
218 234 255
218 234 255
218 234 255
218 234 255
218 234 255
218 234 255
218 234 255
218 234 255
218 234 255
218 234 255
218 234 255
218 234 255
218 234 255
218 234 255
218 234 255
218 234 255
218 234 255
218 234 255
218 234 255
218 234 255
218 234 255
218 234 255
218 234 255
218 234 255
218 234 255
218 234 255
218 234 255
218 234 255
218 234 255
218 234 255
218 234 255
218 234 255
218 234 255
218 234 255
218 234 255
218 234 255
218 234 255
218 234 255
218 234 255
218 234 255
218 234 255
218 234 255
218 234 255
218 234 255
218 234 255
218 233 255
218 233 255
218 233 255
218 233 255
218 233 255
218 233 255
218 233 255
218 233 255
218 233 255
218 233 255
218 233 255
218 233 255
218 233 255
217 233 255
217 233 255
217 233 255
217 233 255
217 233 255
217 233 255
217 233 255
217 233 255
217 233 255
217 233 255
217 233 255
217 233 255
217 233 255
217 233 255
217 233 255
217 233 255
217 233 255
217 233 255
217 233 255
217 233 255
217 233 255
217 233 255
217 233 255
217 233 255
217 233 255
217 233 255
217 233 255
217 233 255
217 233 255
217 233 255
217 233 255
217 233 255
217 233 255
217 233 255
217 233 255
217 233 255
217 233 255
217 233 255
217 233 255
217 233 255
217 233 255
217 233 255
217 233 255
217 233 255
217 233 255
217 233 255
217 233 255
217 233 255
217 233 255
217 233 255
217 233 255
217 233 255
217 233 255
217 233 255
217 233 255
217 233 255
217 233 255
217 233 255
217 233 255
217 233 255
217 233 255
217 233 255
217 233 255
217 233 255
217 233 255
217 233 255
217 233 255
217 233 255
217 233 255
217 233 255
217 233 255
217 233 255
217 233 255
217 233 255
217 233 255
217 233 255
217 233 255
217 233 255
217 233 255
217 233 255
217 233 255
217 233 255
217 233 255
217 233 255
217 233 255
217 233 255
217 233 255
217 233 255
217 233 255
217 233 255
217 233 255
217 233 255
217 233 255
217 233 255
217 233 255
217 233 255
217 233 255
217 233 255
217 233 255
217 233 255
217 233 255
217 233 255
217 233 255
217 233 255
217 233 255
217 233 255
217 233 255
217 233 255
217 233 255
217 233 255
218 233 255
218 233 255
218 233 255
218 233 255
218 233 255
218 233 255
218 233 255
218 233 255
218 233 255
218 233 255
218 233 255
218 233 255
218 233 255
218 234 255
218 234 255
218 234 255
218 234 255
218 234 255
218 234 255
218 234 255
218 234 255
218 234 255
218 234 255
218 234 255
218 234 255
218 234 255
218 234 255
218 234 255
218 234 255
218 234 255
218 234 255
218 234 255
218 234 255
218 234 255
218 234 255
218 234 255
218 234 255
218 234 255
218 234 255
218 234 255
218 234 255
218 234 255
218 234 255
218 234 255
218 234 255
218 234 255
218 234 255
218 234 255
218 234 255
218 234 255
218 234 255
218 234 255
218 234 255
218 234 255
218 234 255
218 234 255
218 234 255
218 234 255
218 234 255
218 234 255
218 234 255
218 234 255
218 234 255
218 234 255
218 234 255
218 234 255
218 234 255
218 234 255
218 234 255
218 234 255
218 234 255
218 234 255
218 234 255
218 234 255
218 234 255
218 234 255
218 234 255
218 234 255
218 234 255
218 234 255
218 234 255
218 234 255
218 234 255
218 234 255
218 234 255
218 234 255
218 234 255
218 234 255
218 234 255
218 234 255
218 234 255
218 234 255
218 234 255
218 234 255
218 234 255
218 234 255
218 234 255
218 234 255
218 234 255
218 234 255
218 234 255
218 234 255
218 234 255
218 234 255
219 234 255
219 234 255
219 234 255
219 234 255
219 234 255
219 234 255
219 234 255
219 234 255
219 234 255
219 234 255
219 234 255
219 234 255
219 234 255
219 234 255
219 234 255
219 234 255
219 234 255
219 234 255
219 234 255
219 234 255
219 234 255
219 234 255
219 234 255
219 234 255
219 234 255
219 234 255
219 234 255
219 234 255
219 234 255
219 234 255
219 234 255
219 234 255
219 234 255
219 234 255
219 234 255
219 234 255
219 234 255
219 234 255
219 234 255
219 234 255
219 234 255
219 234 255
219 234 255
219 234 255
219 234 255
219 234 255
219 234 255
219 234 255
219 234 255
219 234 255
219 234 255
219 234 255
219 234 255
219 234 255
219 234 255
219 234 255
219 234 255
219 234 255
219 234 255
219 234 255
219 234 255
219 234 255
219 234 255
219 234 255
219 234 255
219 234 255
219 234 255
219 234 255
219 234 255
219 234 255
219 234 255
219 234 255
219 234 255
219 234 255
219 234 255
219 234 255
219 234 255
219 234 255
219 234 255
219 234 255
219 234 255
219 234 255
219 234 255
219 234 255
219 234 255
219 234 255
219 234 255
219 234 255
219 234 255
219 234 255
219 234 255
219 234 255
219 234 255
219 234 255
219 234 255
219 234 255
219 234 255
218 234 255
218 234 255
218 234 255
218 234 255
218 234 255
218 234 255
218 234 255
218 234 255
218 234 255
218 234 255
218 234 255
218 234 255
218 234 255
218 234 255
218 234 255
218 234 255
218 234 255
218 234 255
218 234 255
218 234 255
218 234 255
218 234 255
218 234 255
218 234 255
218 234 255
218 234 255
218 234 255
218 234 255
218 234 255
218 234 255
218 234 255
218 234 255
218 234 255
218 234 255
218 234 255
218 234 255
218 234 255
218 234 255
218 234 255
218 234 255
218 234 255
218 234 255
218 234 255
218 234 255
218 234 255
218 234 255
218 234 255
218 234 255
218 234 255
218 234 255
218 234 255
218 234 255
218 234 255
218 234 255
218 234 255
218 234 255
218 234 255
218 234 255
218 234 255
218 234 255
218 234 255
218 234 255
218 234 255
218 234 255
218 234 255
218 234 255
218 234 255
218 234 255
218 234 255
218 234 255
218 234 255
218 234 255
218 234 255
218 234 255
218 234 255
218 234 255
218 234 255
218 234 255
218 234 255
218 234 255
218 234 255
218 234 255
218 234 255
218 234 255
218 234 255
218 234 255
218 234 255
218 234 255
218 234 255
218 234 255
218 234 255
218 234 255
218 234 255
218 234 255
218 234 255
218 234 255
218 234 255
218 234 255
218 234 255
218 233 255
218 233 255
218 233 255
218 233 255
218 233 255
218 233 255
218 233 255
218 233 255
218 233 255
218 233 255
218 233 255
218 233 255
218 233 255
218 233 255
218 233 255
218 233 255
218 233 255
218 233 255
217 233 255
217 233 255
217 233 255
217 233 255
217 233 255
217 233 255
217 233 255
217 233 255
217 233 255
217 233 255
217 233 255
217 233 255
217 233 255
217 233 255
217 233 255
217 233 255
217 233 255
217 233 255
217 233 255
217 233 255
217 233 255
217 233 255
217 233 255
217 233 255
217 233 255
217 233 255
217 233 255
217 233 255
217 233 255
217 233 255
217 233 255
217 233 255
217 233 255
217 233 255
217 233 255
217 233 255
217 233 255
217 233 255
217 233 255
217 233 255
217 233 255
217 233 255
217 233 255
217 233 255
217 233 255
217 233 255
217 233 255
217 233 255
217 233 255
217 233 255
217 233 255
217 233 255
218 233 255
217 233 255
218 233 255
218 233 255
218 233 255
218 233 255
218 233 255
218 233 255
218 233 255
218 233 255
218 233 255
218 233 255
218 233 255
218 233 255
218 233 255
218 233 255
218 233 255
218 233 255
218 233 255
218 233 255
218 234 255
218 233 255
218 234 255
218 234 255
218 234 255
218 234 255
218 234 255
218 234 255
218 234 255
218 234 255
218 234 255
218 234 255
218 234 255
218 234 255
218 234 255
218 234 255
218 234 255
218 234 255
218 234 255
218 234 255
218 234 255
218 234 255
218 234 255
218 234 255
218 234 255
218 234 255
218 234 255
218 234 255
218 234 255
218 234 255
218 234 255
218 234 255
218 234 255
218 234 255
218 234 255
218 234 255
218 234 255
218 234 255
218 234 255
218 234 255
218 234 255
218 234 255
218 234 255
218 234 255
218 234 255
218 234 255
218 234 255
218 234 255
218 234 255
218 234 255
218 234 255
218 234 255
218 234 255
218 234 255
218 234 255
218 234 255
218 234 255
218 234 255
218 234 255
218 234 255
218 234 255
218 234 255
218 234 255
218 234 255
218 234 255
218 234 255
218 234 255
218 234 255
218 234 255
218 234 255
218 234 255
218 234 255
218 234 255
218 234 255
218 234 255
218 234 255
218 234 255
218 234 255
218 234 255
218 234 255
218 234 255
218 234 255
218 234 255
218 234 255
218 234 255
218 234 255
218 234 255
218 234 255
218 234 255
218 234 255
218 234 255
218 234 255
218 234 255
218 234 255
218 234 255
218 234 255
218 234 255
218 234 255
219 234 255
219 234 255
219 234 255
219 234 255
219 234 255
219 234 255
219 234 255
219 234 255
219 234 255
219 234 255
219 234 255
219 234 255
219 234 255
219 234 255
219 234 255
219 234 255
219 234 255
219 234 255
219 234 255
219 234 255
219 234 255
219 234 255
219 234 255
219 234 255
219 234 255
219 234 255
219 234 255
219 234 255
219 234 255
219 234 255
219 234 255
219 234 255
219 234 255
219 234 255
219 234 255
219 234 255
219 234 255
219 234 255
219 234 255
219 234 255
219 234 255
219 234 255
219 234 255
219 234 255
219 234 255
219 234 255
219 234 255
219 234 255
219 234 255
219 234 255
219 234 255
219 234 255
219 234 255
219 234 255
219 234 255
219 234 255
219 234 255
219 234 255
219 234 255
219 234 255
219 234 255
219 234 255
219 234 255
219 234 255
219 234 255
219 234 255
219 234 255
219 234 255
219 234 255
219 234 255
219 234 255
219 234 255
219 234 255
219 234 255
219 234 255
219 234 255
219 234 255
219 234 255
219 234 255
219 234 255
219 234 255
219 234 255
219 234 255
219 234 255
219 234 255
219 234 255
219 234 255
219 234 255
219 234 255
219 234 255
219 234 255
219 234 255
219 234 255
219 234 255
219 234 255
219 234 255
219 234 255
219 234 255
219 234 255
219 234 255
219 234 255
219 234 255
219 234 255
219 234 255
219 234 255
219 234 255
219 234 255
219 234 255
219 234 255
219 234 255
219 234 255
219 234 255
219 234 255
219 234 255
219 234 255
219 234 255
219 234 255
219 234 255
219 234 255
219 234 255
219 234 255
219 234 255
219 234 255
219 234 255
219 234 255
219 234 255
219 234 255
219 234 255
219 234 255
218 234 255
218 234 255
218 234 255
218 234 255
218 234 255
218 234 255
218 234 255
218 234 255
218 234 255
218 234 255
218 234 255
218 234 255
218 234 255
218 234 255
218 234 255
218 234 255
218 234 255
218 234 255
218 234 255
218 234 255
218 234 255
218 234 255
218 234 255
218 234 255
218 234 255
218 234 255
218 234 255
218 234 255
218 234 255
218 234 255
218 234 255
218 234 255
218 234 255
218 234 255
218 234 255
218 234 255
218 234 255
218 234 255
218 234 255
218 234 255
218 234 255
218 234 255
218 234 255
218 234 255
218 234 255
218 234 255
218 234 255
218 234 255
218 234 255
218 234 255
218 234 255
218 234 255
218 234 255
218 234 255
218 234 255
218 234 255
218 234 255
218 234 255
218 234 255
218 234 255
218 234 255
218 234 255
218 234 255
218 234 255
218 234 255
218 234 255
218 234 255
218 234 255
218 234 255
218 234 255
218 234 255
218 234 255
218 234 255
218 234 255
218 234 255
218 234 255
218 234 255
218 234 255
218 234 255
218 234 255
218 234 255
218 234 255
218 234 255
218 234 255
218 234 255
218 234 255
218 234 255
218 234 255
218 234 255
218 234 255
218 234 255
218 234 255
218 234 255
218 234 255
218 234 255
218 234 255
218 234 255
218 234 255
218 234 255
218 234 255
218 234 255
218 234 255
218 234 255
218 234 255
218 234 255
218 234 255
218 234 255
218 234 255
218 234 255
218 234 255
218 234 255
218 234 255
218 234 255
218 234 255
218 234 255
218 234 255
218 234 255
218 234 255
218 234 255
218 234 255
218 234 255
218 234 255
218 234 255
218 234 255
218 234 255
218 234 255
218 234 255
218 234 255
218 234 255
218 234 255
218 234 255
218 234 255
218 234 255
218 234 255
218 234 255
218 234 255
218 234 255
218 234 255
218 234 255
218 234 255
218 234 255
218 234 255
218 234 255
218 234 255
218 234 255
218 234 255
218 234 255
218 234 255
218 234 255
218 234 255
218 234 255
218 234 255
218 234 255
218 234 255
218 234 255
218 234 255
218 234 255
218 234 255
218 234 255
218 234 255
218 234 255
218 234 255
218 234 255
218 234 255
218 234 255
218 234 255
218 234 255
218 234 255
218 234 255
218 234 255
218 234 255
218 234 255
218 234 255
218 234 255
218 234 255
218 234 255
218 234 255
218 234 255
218 234 255
218 234 255
218 234 255
218 234 255
218 234 255
218 234 255
218 234 255
218 234 255
218 234 255
218 234 255
218 234 255
218 234 255
218 234 255
218 234 255
218 234 255
218 234 255
218 234 255
218 234 255
218 234 255
218 234 255
218 234 255
218 234 255
218 234 255
218 234 255
218 234 255
218 234 255
218 234 255
218 234 255
218 234 255
218 234 255
218 234 255
218 234 255
218 234 255
218 234 255
218 234 255
218 234 255
218 234 255
218 234 255
218 234 255
218 234 255
218 234 255
218 234 255
218 234 255
218 234 255
218 234 255
218 234 255
218 234 255
218 234 255
218 234 255
218 234 255
218 234 255
218 234 255
218 234 255
218 234 255
218 234 255
218 234 255
218 234 255
218 234 255
218 234 255
218 234 255
218 234 255
218 234 255
218 234 255
218 234 255
218 234 255
218 234 255
218 234 255
218 234 255
218 234 255
218 234 255
218 234 255
218 234 255
218 234 255
218 234 255
218 234 255
218 234 255
218 234 255
218 234 255
219 234 255
219 234 255
219 234 255
219 234 255
219 234 255
219 234 255
219 234 255
219 234 255
219 234 255
219 234 255
219 234 255
219 234 255
219 234 255
219 234 255
219 234 255
219 234 255
219 234 255
219 234 255
219 234 255
219 234 255
219 234 255
219 234 255
219 234 255
219 234 255
219 234 255
219 234 255
219 234 255
219 234 255
219 234 255
219 234 255
219 234 255
219 234 255
219 234 255
219 234 255
219 234 255
219 234 255
219 234 255
219 234 255
219 234 255
219 234 255
219 234 255
219 234 255
219 234 255
219 234 255
219 234 255
219 234 255
219 234 255
219 234 255
219 234 255
219 234 255
219 234 255
219 234 255
219 234 255
219 234 255
219 234 255
219 234 255
219 234 255
219 234 255
219 234 255
219 234 255
219 234 255
219 234 255
219 234 255
219 234 255
219 234 255
219 234 255
219 234 255
219 234 255
219 234 255
219 234 255
219 234 255
219 234 255
219 234 255
219 234 255
219 234 255
219 234 255
219 234 255
219 234 255
219 234 255
219 234 255
219 234 255
219 234 255
219 234 255
219 234 255
219 234 255
219 234 255
219 234 255
219 234 255
219 234 255
219 234 255
219 234 255
219 234 255
219 234 255
219 234 255
219 234 255
219 234 255
219 234 255
219 234 255
219 234 255
219 234 255
219 234 255
219 234 255
219 234 255
219 234 255
219 234 255
219 234 255
219 234 255
219 234 255
219 234 255
219 234 255
219 234 255
219 234 255
219 234 255
219 234 255
219 234 255
219 234 255
219 234 255
219 234 255
219 234 255
219 234 255
219 234 255
219 234 255
219 234 255
219 234 255
219 234 255
219 234 255
219 234 255
219 234 255
219 234 255
219 234 255
219 234 255
219 234 255
219 234 255
219 234 255
219 234 255
219 234 255
219 234 255
219 234 255
219 234 255
219 234 255
219 234 255
219 234 255
219 234 255
219 234 255
219 234 255
219 234 255
219 234 255
219 234 255
219 234 255
219 234 255
219 234 255
219 234 255
219 234 255
219 234 255
219 234 255
219 234 255
219 234 255
219 234 255
219 234 255
219 234 255
219 234 255
218 234 255
218 234 255
218 234 255
218 234 255
218 234 255
218 234 255
218 234 255
218 234 255
218 234 255
218 234 255
218 234 255
218 234 255
218 234 255
218 234 255
218 234 255
218 234 255
218 234 255
218 234 255
218 234 255
218 234 255
218 234 255
218 234 255
218 234 255
218 234 255
218 234 255
218 234 255
218 234 255
218 234 255
218 234 255
218 234 255
218 234 255
218 234 255
218 234 255
218 234 255
218 234 255
218 234 255
218 234 255
218 234 255
218 234 255
218 234 255
218 234 255
218 234 255
218 234 255
218 234 255
218 234 255
218 234 255
218 234 255
218 234 255
218 234 255
218 234 255
218 234 255
218 234 255
218 234 255
218 234 255
218 234 255
218 234 255
218 234 255
218 234 255
218 234 255
218 234 255
218 234 255
218 234 255
218 234 255
218 234 255
218 234 255
218 234 255
218 234 255
218 234 255
218 234 255
218 234 255
218 234 255
218 234 255
218 234 255
218 234 255
218 234 255
218 234 255
218 234 255
218 234 255
218 234 255
218 234 255
218 234 255
218 234 255
218 234 255
218 234 255
218 234 255
218 234 255
218 234 255
218 234 255
218 234 255
218 234 255
218 234 255
218 234 255
218 234 255
218 234 255
218 234 255
218 234 255
218 234 255
218 234 255
218 234 255
218 234 255
218 234 255
218 234 255
218 234 255
218 234 255
218 234 255
218 234 255
218 234 255
218 234 255
218 234 255
218 234 255
218 234 255
218 234 255
218 234 255
218 234 255
218 234 255
218 234 255
218 234 255
218 234 255
218 234 255
218 234 255
218 234 255
218 234 255
218 234 255
218 234 255
218 234 255
218 234 255
218 234 255
218 234 255
218 234 255
218 234 255
218 234 255
218 234 255
218 234 255
218 234 255
218 234 255
218 234 255
218 234 255
218 234 255
218 234 255
218 234 255
218 234 255
218 234 255
218 234 255
218 234 255
218 234 255
218 234 255
218 234 255
218 234 255
218 234 255
218 234 255
218 234 255
218 234 255
218 234 255
218 234 255
218 234 255
218 234 255
218 234 255
218 234 255
218 234 255
218 234 255
218 234 255
218 234 255
218 234 255
218 234 255
218 234 255
218 234 255
218 234 255
218 234 255
218 234 255
218 234 255
218 234 255
218 234 255
218 234 255
218 234 255
218 234 255
218 234 255
218 234 255
218 234 255
218 234 255
218 234 255
218 234 255
218 234 255
218 234 255
218 234 255
218 234 255
218 234 255
218 234 255
218 234 255
218 234 255
218 234 255
218 234 255
218 234 255
218 234 255
218 234 255
218 234 255
218 234 255
218 234 255
218 234 255
218 234 255
218 234 255
218 234 255
218 234 255
218 234 255
218 234 255
218 234 255
218 234 255
218 234 255
218 234 255
218 234 255
218 234 255
218 234 255
218 234 255
218 234 255
218 234 255
218 234 255
218 234 255
218 234 255
218 234 255
218 234 255
218 234 255
218 234 255
218 234 255
219 234 255
219 234 255
219 234 255
219 234 255
219 234 255
219 234 255
219 234 255
219 234 255
219 234 255
219 234 255
219 234 255
219 234 255
219 234 255
219 234 255
219 234 255
219 234 255
219 234 255
219 234 255
219 234 255
219 234 255
219 234 255
219 234 255
219 234 255
219 234 255
219 234 255
219 234 255
219 234 255
219 234 255
219 234 255
219 234 255
219 234 255
219 234 255
219 234 255
219 234 255
219 234 255
219 234 255
219 234 255
219 234 255
219 234 255
219 234 255
219 234 255
219 234 255
219 234 255
219 234 255
219 234 255
219 234 255
219 234 255
219 234 255
219 234 255
219 234 255
219 234 255
219 234 255
219 234 255
219 234 255
219 234 255
219 234 255
219 234 255
219 234 255
219 234 255
219 234 255
219 234 255
219 234 255
219 234 255
219 234 255
219 234 255
219 234 255
219 234 255
219 234 255
219 234 255
219 234 255
219 234 255
219 234 255
219 234 255
219 234 255
219 234 255
219 234 255
219 234 255
219 234 255
219 234 255
219 234 255
219 234 255
219 234 255
219 234 255
219 234 255
219 234 255
219 234 255
219 234 255
219 234 255
219 234 255
219 234 255
219 234 255
219 234 255
219 234 255
219 234 255
219 234 255
219 234 255
219 234 255
219 234 255
219 234 255
219 234 255
219 234 255
219 234 255
219 234 255
219 234 255
219 234 255
219 234 255
219 234 255
219 234 255
219 234 255
219 234 255
219 234 255
219 234 255
219 234 255
219 234 255
219 234 255
219 234 255
219 234 255
219 234 255
219 234 255
219 234 255
219 234 255
219 234 255
219 234 255
219 234 255
219 234 255
219 234 255
219 234 255
219 234 255
219 234 255
219 234 255
219 234 255
219 234 255
219 234 255
219 234 255
219 234 255
219 234 255
219 234 255
219 234 255
219 234 255
219 234 255
219 234 255
219 234 255
219 234 255
219 234 255
219 234 255
219 234 255
219 234 255
219 234 255
219 234 255
219 234 255
219 234 255
219 234 255
219 234 255
219 234 255
219 234 255
219 234 255
219 234 255
219 234 255
219 234 255
219 234 255
219 234 255
219 234 255
219 234 255
219 234 255
219 234 255
219 234 255
219 234 255
219 234 255
219 234 255
219 234 255
219 234 255
219 234 255
219 234 255
219 234 255
219 234 255
219 234 255
219 234 255
219 234 255
219 234 255
219 234 255
219 234 255
219 234 255
219 234 255
219 234 255
219 234 255
219 234 255
219 234 255
219 234 255
219 234 255
219 234 255
219 234 255
219 234 255
219 234 255
219 234 255
219 234 255
219 234 255
219 234 255
219 234 255
218 234 255
218 234 255
218 234 255
218 234 255
218 234 255
218 234 255
218 234 255
218 234 255
218 234 255
218 234 255
218 234 255
218 234 255
218 234 255
218 234 255
218 234 255
218 234 255
218 234 255
218 234 255
218 234 255
218 234 255
218 234 255
218 234 255
218 234 255
218 234 255
218 234 255
218 234 255
218 234 255
218 234 255
218 234 255
218 234 255
218 234 255
218 234 255
218 234 255
218 234 255
218 234 255
218 234 255
218 234 255
218 234 255
218 234 255
218 234 255
218 234 255
218 234 255
218 234 255
218 234 255
218 234 255
218 234 255
218 234 255
218 234 255
218 234 255
218 234 255
218 234 255
218 234 255
218 234 255
218 234 255
218 234 255
218 234 255
218 234 255
218 234 255
218 234 255
218 234 255
218 234 255
218 234 255
218 234 255
218 234 255
218 234 255
218 234 255
218 234 255
218 234 255
218 234 255
218 234 255
218 234 255
218 234 255
218 234 255
218 234 255
218 234 255
218 234 255
218 234 255
218 234 255
218 234 255
218 234 255
218 234 255
218 234 255
218 234 255
218 234 255
218 234 255
218 234 255
218 234 255
218 234 255
218 234 255
218 234 255
218 234 255
218 234 255
218 234 255
218 234 255
218 234 255
218 234 255
218 234 255
218 234 255
218 234 255
218 234 255
218 234 255
218 234 255
218 234 255
218 234 255
218 234 255
218 234 255
218 234 255
218 234 255
218 234 255
218 234 255
218 234 255
218 234 255
218 234 255
218 234 255
218 234 255
218 234 255
218 234 255
218 234 255
218 234 255
218 234 255
218 234 255
218 234 255
218 234 255
218 234 255
218 234 255
218 234 255
218 234 255
218 234 255
218 234 255
218 234 255
218 234 255
218 234 255
218 234 255
218 234 255
218 234 255
218 234 255
218 234 255
218 234 255
218 234 255
218 234 255
218 234 255
218 234 255
218 234 255
218 234 255
218 234 255
218 234 255
218 234 255
218 234 255
218 234 255
218 234 255
218 234 255
218 234 255
218 234 255
218 234 255
218 234 255
218 234 255
218 234 255
218 234 255
218 234 255
218 234 255
218 234 255
218 234 255
218 234 255
218 234 255
218 234 255
218 234 255
218 234 255
218 234 255
218 234 255
218 234 255
218 234 255
218 234 255
218 234 255
218 234 255
218 234 255
218 234 255
218 234 255
218 234 255
218 234 255
218 234 255
218 234 255
218 234 255
218 234 255
219 234 255
219 234 255
219 234 255
219 234 255
219 234 255
219 234 255
219 234 255
219 234 255
219 234 255
219 234 255
219 234 255
219 234 255
219 234 255
219 234 255
219 234 255
219 234 255
219 234 255
219 234 255
219 234 255
219 234 255
219 234 255
219 234 255
219 234 255
219 234 255
219 234 255
219 234 255
219 234 255
219 234 255
219 234 255
219 234 255
219 234 255
219 234 255
219 234 255
219 234 255
219 234 255
219 234 255
219 234 255
219 234 255
219 234 255
219 234 255
219 234 255
219 234 255
219 234 255
219 234 255
219 234 255
219 234 255
219 234 255
219 234 255
219 234 255
219 234 255
219 234 255
219 234 255
219 234 255
219 234 255
219 234 255
219 234 255
219 234 255
219 234 255
219 234 255
219 234 255
219 234 255
219 234 255
219 234 255
219 234 255
219 234 255
219 234 255
219 234 255
219 234 255
219 234 255
219 234 255
219 234 255
219 234 255
219 234 255
219 234 255
219 234 255
219 234 255
219 234 255
219 234 255
219 234 255
219 234 255
219 234 255
219 234 255
219 234 255
219 234 255
219 234 255
219 234 255
219 234 255
219 234 255
219 234 255
219 234 255
219 234 255
219 234 255
219 234 255
219 234 255
219 234 255
219 234 255
219 234 255
219 234 255
219 234 255
219 234 255
219 234 255
219 234 255
219 234 255
219 234 255
219 234 255
219 234 255
219 234 255
219 234 255
219 235 255
219 235 255
219 235 255
219 235 255
219 235 255
219 235 255
219 235 255
219 235 255
219 235 255
219 234 255
219 234 255
219 234 255
219 234 255
219 234 255
219 234 255
219 234 255
219 234 255
219 234 255
219 234 255
219 234 255
219 234 255
219 234 255
219 234 255
219 234 255
219 234 255
219 234 255
219 234 255
219 234 255
219 234 255
219 234 255
219 234 255
219 234 255
219 234 255
219 234 255
219 234 255
219 234 255
219 234 255
219 234 255
219 234 255
219 234 255
219 234 255
219 234 255
219 234 255
219 234 255
219 234 255
219 234 255
219 234 255
219 234 255
219 234 255
219 234 255
219 234 255
219 234 255
219 234 255
219 234 255
219 234 255
219 234 255
219 234 255
219 234 255
219 234 255
219 234 255
219 234 255
219 234 255
219 234 255
219 234 255
219 234 255
219 234 255
219 234 255
219 234 255
219 234 255
219 234 255
219 234 255
219 234 255
219 234 255
219 234 255
219 234 255
219 234 255
219 234 255
219 234 255
219 234 255
219 234 255
219 234 255
219 234 255
219 234 255
219 234 255
219 234 255
219 234 255
219 234 255
219 234 255
219 234 255
219 234 255
219 234 255
219 234 255
219 234 255
219 234 255
219 234 255
219 234 255
219 234 255
219 234 255
219 234 255
219 234 255
219 234 255
219 234 255
219 234 255
219 234 255
219 234 255
219 234 255
219 234 255
219 234 255
219 234 255
219 234 255
219 234 255
219 234 255
219 234 255
219 234 255
219 234 255
219 234 255
219 234 255
219 234 255
219 234 255
219 234 255
219 234 255
219 234 255
219 234 255
219 234 255
219 234 255
219 234 255
219 234 255
219 234 255
219 234 255
219 234 255
218 234 255
218 234 255
218 234 255
218 234 255
218 234 255
218 234 255
218 234 255
218 234 255
218 234 255
218 234 255
218 234 255
218 234 255
218 234 255
218 234 255
218 234 255
218 234 255
218 234 255
218 234 255
218 234 255
218 234 255
218 234 255
218 234 255
218 234 255
218 234 255
218 234 255
218 234 255
218 234 255
218 234 255
218 234 255
218 234 255
218 234 255
218 234 255
218 234 255
218 234 255
218 234 255
218 234 255
218 234 255
218 234 255
218 234 255
218 234 255
218 234 255
218 234 255
218 234 255
218 234 255
218 234 255
218 234 255
218 234 255
218 234 255
218 234 255
218 234 255
218 234 255
218 234 255
218 234 255
218 234 255
218 234 255
218 234 255
218 234 255
218 234 255
218 234 255
218 234 255
218 234 255
218 234 255
218 234 255
218 234 255
218 234 255
218 234 255
218 234 255
218 234 255
218 234 255
218 234 255
218 234 255
218 234 255
218 234 255
218 234 255
218 234 255
218 234 255
218 234 255
218 234 255
218 234 255
218 234 255
218 234 255
218 234 255
218 234 255
218 234 255
218 234 255
218 234 255
218 234 255
218 234 255
218 234 255
218 234 255
218 234 255
218 234 255
218 234 255
218 234 255
218 234 255
218 234 255
218 234 255
218 234 255
218 234 255
218 234 255
218 234 255
218 234 255
218 234 255
218 234 255
218 234 255
218 234 255
218 234 255
218 234 255
218 234 255
218 234 255
218 234 255
218 234 255
218 234 255
218 234 255
218 234 255
218 234 255
218 234 255
218 234 255
218 234 255
218 234 255
218 234 255
218 234 255
218 234 255
218 234 255
218 234 255
218 234 255
218 234 255
218 234 255
218 234 255
218 234 255
218 234 255
218 234 255
218 234 255
218 234 255
218 234 255
218 234 255
218 234 255
218 234 255
218 234 255
219 234 255
218 234 255
219 234 255
219 234 255
219 234 255
219 234 255
219 234 255
219 234 255
219 234 255
219 234 255
219 234 255
219 234 255
219 234 255
219 234 255
219 234 255
219 234 255
219 234 255
219 234 255
219 234 255
219 234 255
219 234 255
219 234 255
219 234 255
219 234 255
219 234 255
219 234 255
219 234 255
219 234 255
219 234 255
219 234 255
219 234 255
219 234 255
219 234 255
219 234 255
219 234 255
219 234 255
219 234 255
219 234 255
219 234 255
219 234 255
219 234 255
219 234 255
219 234 255
219 234 255
219 234 255
219 234 255
219 234 255
219 234 255
219 234 255
219 234 255
219 234 255
219 234 255
219 234 255
219 234 255
219 234 255
219 234 255
219 234 255
219 234 255
219 234 255
219 234 255
219 234 255
219 234 255
219 234 255
219 234 255
219 234 255
219 234 255
219 234 255
219 234 255
219 234 255
219 234 255
219 234 255
219 234 255
219 234 255
219 234 255
219 234 255
219 234 255
219 234 255
219 234 255
219 234 255
219 234 255
219 234 255
219 234 255
219 234 255
219 234 255
219 234 255
219 234 255
219 234 255
219 234 255
219 234 255
219 234 255
219 234 255
219 234 255
219 234 255
219 234 255
219 234 255
219 234 255
219 234 255
219 234 255
219 234 255
219 234 255
219 234 255
219 234 255
219 234 255
219 234 255
219 234 255
219 234 255
219 234 255
219 234 255
219 234 255
219 234 255
219 234 255
219 234 255
219 234 255
219 234 255
219 234 255
219 234 255
219 234 255
219 234 255
219 234 255
219 234 255
219 234 255
219 234 255
219 234 255
219 234 255
219 235 255
219 235 255
219 235 255
219 235 255
219 235 255
219 235 255
219 235 255
220 235 255
220 235 255
220 235 255
220 235 255
220 235 255
220 235 255
220 235 255
220 235 255
220 235 255
220 235 255
219 235 255
219 235 255
219 235 255
219 235 255
219 235 255
219 235 255
219 235 255
219 235 255
219 235 255
219 235 255
219 235 255
219 235 255
219 235 255
219 235 255
219 235 255
219 235 255
219 235 255
219 235 255
219 235 255
219 234 255
219 234 255
219 234 255
219 234 255
219 234 255
219 234 255
219 234 255
219 234 255
219 234 255
219 234 255
219 234 255
219 234 255
219 234 255
219 234 255
219 234 255
219 234 255
219 234 255
219 234 255
219 234 255
219 234 255
219 234 255
219 234 255
219 234 255
219 234 255
219 234 255
219 234 255
219 234 255
219 234 255
219 234 255
219 234 255
219 234 255
219 234 255
219 234 255
219 234 255
219 234 255
219 234 255
219 234 255
219 234 255
219 234 255
219 234 255
219 234 255
219 234 255
219 234 255
219 234 255
219 234 255
219 234 255
219 234 255
219 234 255
219 234 255
219 234 255
219 234 255
219 234 255
219 234 255
219 234 255
219 234 255
219 234 255
219 234 255
219 234 255
219 234 255
219 234 255
219 234 255
219 234 255
219 234 255
219 234 255
219 234 255
219 234 255
219 234 255
219 234 255
219 234 255
219 234 255
219 234 255
219 234 255
219 234 255
219 234 255
219 234 255
219 234 255
219 234 255
219 234 255
219 234 255
219 234 255
219 234 255
219 234 255
219 234 255
219 234 255
219 234 255
219 234 255
219 234 255
219 234 255
219 234 255
219 234 255
219 234 255
219 234 255
219 234 255
219 234 255
219 234 255
219 234 255
219 234 255
219 234 255
219 234 255
219 234 255
219 234 255
219 234 255
219 234 255
219 234 255
219 234 255
219 234 255
219 234 255
219 234 255
219 234 255
219 234 255
219 234 255
219 234 255
219 234 255
219 234 255
219 234 255
219 234 255
219 234 255
219 234 255
219 234 255
219 234 255
219 234 255
219 234 255
219 234 255
219 234 255
219 234 255
219 234 255
219 234 255
219 234 255
219 234 255
219 234 255
219 234 255
219 234 255
218 234 255
218 234 255
218 234 255
218 234 255
218 234 255
218 234 255
218 234 255
218 234 255
218 234 255
218 234 255
218 234 255
218 234 255
218 234 255
218 234 255
218 234 255
218 234 255
218 234 255
218 234 255
218 234 255
218 234 255
218 234 255
218 234 255
218 234 255
218 234 255
218 234 255
218 234 255
218 234 255
218 234 255
218 234 255
218 234 255
218 234 255
218 234 255
218 234 255
218 234 255
218 234 255
218 234 255
218 234 255
218 234 255
218 234 255
218 234 255
218 234 255
218 234 255
218 234 255
218 234 255
218 234 255
218 234 255
218 234 255
218 234 255
218 234 255
218 234 255
218 234 255
218 234 255
218 234 255
218 234 255
218 234 255
218 234 255
218 234 255
218 234 255
218 234 255
218 234 255
218 234 255
218 234 255
218 234 255
218 234 255
218 234 255
218 234 255
218 234 255
218 234 255
218 234 255
218 234 255
218 234 255
218 234 255
218 234 255
218 234 255
218 234 255
218 234 255
219 234 255
218 234 255
219 234 255
219 234 255
219 234 255
219 234 255
219 234 255
219 234 255
219 234 255
219 234 255
219 234 255
219 234 255
219 234 255
219 234 255
219 234 255
219 234 255
219 234 255
219 234 255
219 234 255
219 234 255
219 234 255
219 234 255
219 234 255
219 234 255
219 234 255
219 234 255
219 234 255
219 234 255
219 234 255
219 234 255
219 234 255
219 234 255
219 234 255
219 234 255
219 234 255
219 234 255
219 234 255
219 234 255
219 234 255
219 234 255
219 234 255
219 234 255
219 234 255
219 234 255
219 234 255
219 234 255
219 234 255
219 234 255
219 234 255
219 234 255
219 234 255
219 234 255
219 234 255
219 234 255
219 234 255
219 234 255
219 234 255
219 234 255
219 234 255
219 234 255
219 234 255
219 234 255
219 234 255
219 234 255
219 234 255
219 234 255
219 234 255
219 234 255
219 234 255
219 234 255
219 234 255
219 234 255
219 234 255
219 234 255
219 234 255
219 234 255
219 234 255
219 234 255
219 234 255
219 234 255
219 234 255
219 234 255
219 234 255
219 234 255
219 234 255
219 234 255
219 234 255
219 234 255
219 234 255
219 234 255
219 234 255
219 234 255
219 234 255
219 234 255
219 234 255
219 234 255
219 234 255
219 234 255
219 234 255
219 234 255
219 234 255
219 234 255
219 234 255
219 234 255
219 234 255
219 234 255
219 234 255
219 234 255
219 234 255
219 234 255
219 234 255
219 234 255
219 234 255
219 234 255
219 234 255
219 234 255
219 234 255
219 234 255
219 234 255
219 234 255
219 234 255
219 234 255
219 234 255
219 234 255
219 234 255
219 234 255
219 234 255
219 234 255
219 234 255
219 234 255
219 234 255
219 234 255
219 234 255
219 235 255
219 235 255
219 235 255
219 235 255
219 235 255
219 235 255
219 235 255
219 235 255
219 235 255
219 235 255
219 235 255
219 235 255
219 235 255
219 235 255
219 235 255
219 235 255
219 235 255
219 235 255
219 235 255
220 235 255
220 235 255
220 235 255
220 235 255
220 235 255
220 235 255
220 235 255
220 235 255
220 235 255
220 235 255
220 235 255
220 235 255
220 235 255
220 235 255
220 235 255
220 235 255
220 235 255
220 235 255
220 235 255
220 235 255
220 235 255
220 235 255
220 235 255
220 235 255
220 235 255
220 235 255
220 235 255
220 235 255
220 235 255
220 235 255
220 235 255
220 235 255
220 235 255
220 235 255
220 235 255
220 235 255
220 235 255
220 235 255
220 235 255
220 235 255
220 235 255
220 235 255
220 235 255
219 235 255
219 235 255
219 235 255
219 235 255
219 235 255
219 235 255
219 235 255
219 235 255
219 235 255
219 235 255
219 235 255
219 235 255
219 235 255
219 235 255
219 235 255
219 235 255
219 235 255
219 235 255
219 235 255
219 234 255
219 234 255
219 234 255
219 234 255
219 234 255
219 234 255
219 234 255
219 234 255
219 234 255
219 234 255
219 234 255
219 234 255
219 234 255
219 234 255
219 234 255
219 234 255
219 234 255
219 234 255
219 234 255
219 234 255
219 234 255
219 234 255
219 234 255
219 234 255
219 234 255
219 234 255
219 234 255
219 234 255
219 234 255
219 234 255
219 234 255
219 234 255
219 234 255
219 234 255
219 234 255
219 234 255
219 234 255
219 234 255
219 234 255
219 234 255
219 234 255
219 234 255
219 234 255
219 234 255
219 234 255
219 234 255
219 234 255
219 234 255
219 234 255
219 234 255
219 234 255
219 234 255
219 234 255
219 234 255
219 234 255
219 234 255
219 234 255
219 234 255
219 234 255
219 234 255
219 234 255
219 234 255
219 234 255
219 234 255
219 234 255
219 234 255
219 234 255
219 234 255
219 234 255
219 234 255
219 234 255
219 234 255
219 234 255
219 234 255
219 234 255
219 234 255
219 234 255
219 234 255
219 234 255
219 234 255
219 234 255
219 234 255
219 234 255
219 234 255
219 234 255
219 234 255
219 234 255
219 234 255
219 234 255
219 234 255
219 234 255
219 234 255
219 234 255
219 234 255
219 234 255
219 234 255
219 234 255
219 234 255
219 234 255
219 234 255
219 234 255
219 234 255
219 234 255
219 234 255
219 234 255
219 234 255
219 234 255
219 234 255
219 234 255
219 234 255
219 234 255
219 234 255
219 234 255
219 234 255
219 234 255
219 234 255
219 234 255
219 234 255
219 234 255
219 234 255
219 234 255
219 234 255
219 234 255
219 234 255
219 234 255
219 234 255
219 234 255
219 234 255
219 234 255
219 234 255
219 234 255
219 234 255
219 234 255
219 234 255
219 234 255
219 234 255
219 234 255
219 234 255
219 234 255
219 234 255
219 234 255
219 234 255
219 234 255
219 234 255
219 234 255
219 234 255
219 234 255
219 234 255
219 234 255
219 234 255
219 234 255
219 234 255
219 234 255
219 234 255
219 234 255
219 234 255
219 234 255
219 234 255
219 234 255
219 234 255
219 234 255
219 234 255
219 234 255
219 234 255
219 234 255
219 234 255
219 234 255
219 234 255
219 234 255
219 234 255
219 234 255
219 234 255
219 234 255
219 234 255
219 234 255
219 234 255
219 234 255
219 234 255
219 234 255
219 234 255
219 234 255
219 234 255
219 234 255
219 234 255
219 234 255
219 234 255
219 234 255
219 234 255
219 234 255
219 234 255
219 234 255
219 234 255
219 234 255
219 234 255
219 234 255
219 234 255
219 234 255
219 234 255
219 234 255
219 234 255
219 234 255
219 234 255
219 234 255
219 234 255
219 234 255
219 234 255
219 234 255
219 234 255
219 234 255
219 234 255
219 234 255
219 234 255
219 234 255
219 234 255
219 234 255
219 234 255
219 234 255
219 234 255
219 234 255
219 234 255
219 234 255
219 234 255
219 234 255
219 234 255
219 234 255
219 234 255
219 234 255
219 234 255
219 234 255
219 234 255
219 234 255
219 234 255
219 234 255
219 234 255
219 234 255
219 234 255
219 234 255
219 234 255
219 234 255
219 234 255
219 234 255
219 234 255
219 234 255
219 234 255
219 234 255
219 234 255
219 234 255
219 234 255
219 234 255
219 234 255
219 234 255
219 234 255
219 234 255
219 234 255
219 234 255
219 234 255
219 234 255
219 234 255
219 234 255
219 234 255
219 234 255
219 234 255
219 234 255
219 234 255
219 234 255
219 234 255
219 234 255
219 234 255
219 234 255
219 234 255
219 234 255
219 234 255
219 234 255
219 234 255
219 234 255
219 234 255
219 234 255
219 234 255
219 234 255
219 234 255
219 234 255
219 234 255
219 234 255
219 234 255
219 234 255
219 234 255
219 234 255
219 234 255
219 234 255
219 234 255
219 234 255
219 234 255
219 234 255
219 234 255
219 234 255
219 234 255
219 234 255
219 234 255
219 235 255
219 235 255
219 235 255
219 235 255
219 235 255
219 235 255
219 235 255
219 235 255
219 235 255
219 235 255
219 235 255
219 235 255
219 235 255
219 235 255
219 235 255
219 235 255
219 235 255
219 235 255
220 235 255
220 235 255
220 235 255
220 235 255
220 235 255
220 235 255
220 235 255
220 235 255
220 235 255
220 235 255
220 235 255
220 235 255
220 235 255
220 235 255
220 235 255
220 235 255
220 235 255
220 235 255
220 235 255
220 235 255
220 235 255
220 235 255
220 235 255
220 235 255
220 235 255
220 235 255
220 235 255
220 235 255
220 235 255
220 235 255
220 235 255
220 235 255
220 235 255
220 235 255
220 235 255
220 235 255
220 235 255
220 235 255
220 235 255
220 235 255
220 235 255
220 235 255
220 235 255
220 235 255
220 235 255
220 235 255
220 235 255
220 235 255
220 235 255
220 235 255
220 235 255
220 235 255
220 235 255
220 235 255
220 235 255
220 235 255
220 235 255
220 235 255
220 235 255
220 235 255
220 235 255
220 235 255
220 235 255
220 235 255
220 235 255
220 235 255
220 235 255
220 235 255
220 235 255
220 235 255
220 235 255
220 235 255
220 235 255
220 235 255
220 235 255
220 235 255
220 235 255
220 235 255
220 235 255
220 235 255
220 235 255
220 235 255
220 235 255
220 235 255
220 235 255
220 235 255
220 235 255
220 235 255
220 235 255
220 235 255
219 235 255
219 235 255
219 235 255
219 235 255
219 235 255
219 235 255
219 235 255
219 235 255
219 235 255
219 235 255
219 235 255
219 235 255
219 235 255
219 235 255
219 235 255
219 235 255
219 235 255
219 235 255
219 234 255
219 234 255
219 234 255
219 234 255
219 234 255
219 234 255
219 234 255
219 234 255
219 234 255
219 234 255
219 234 255
219 234 255
219 234 255
219 234 255
219 234 255
219 234 255
219 234 255
219 234 255
219 234 255
219 234 255
219 234 255
219 234 255
219 234 255
219 234 255
219 234 255
219 234 255
219 234 255
219 234 255
219 234 255
219 234 255
219 234 255
219 234 255
219 234 255
219 234 255
219 234 255
219 234 255
219 234 255
219 234 255
219 234 255
219 234 255
219 234 255
219 234 255
219 234 255
219 234 255
219 234 255
219 234 255
219 234 255
219 234 255
219 234 255
219 234 255
219 234 255
219 234 255
219 234 255
219 234 255
219 234 255
219 234 255
219 234 255
219 234 255
219 234 255
219 234 255
219 234 255
219 234 255
219 234 255
219 234 255
219 234 255
219 234 255
219 234 255
219 234 255
219 234 255
219 234 255
219 234 255
219 234 255
219 234 255
219 234 255
219 234 255
219 234 255
219 234 255
219 234 255
219 234 255
219 234 255
219 234 255
219 234 255
219 234 255
219 234 255
219 234 255
219 234 255
219 234 255
219 234 255
219 234 255
219 234 255
219 234 255
219 234 255
219 234 255
219 234 255
219 234 255
219 234 255
219 234 255
219 234 255
219 234 255
219 234 255
219 234 255
219 234 255
219 234 255
219 234 255
219 234 255
219 234 255
219 234 255
219 234 255
219 234 255
219 234 255
219 234 255
219 234 255
219 234 255
219 234 255
219 234 255
219 234 255
219 234 255
219 234 255
219 234 255
219 234 255
219 234 255
219 234 255
219 234 255
219 234 255
219 234 255
219 234 255
219 234 255
219 234 255
219 234 255
219 234 255
219 234 255
219 234 255
219 234 255
219 234 255
219 234 255
219 234 255
219 234 255
219 234 255
219 234 255
219 234 255
219 234 255
219 234 255
219 234 255
219 234 255
219 234 255
219 234 255
219 234 255
219 234 255
219 234 255
219 234 255
219 234 255
219 234 255
219 234 255
219 234 255
219 234 255
219 234 255
219 234 255
219 234 255
219 234 255
219 234 255
219 234 255
219 234 255
219 234 255
219 234 255
219 234 255
219 234 255
219 234 255
219 234 255
219 234 255
219 234 255
219 234 255
219 234 255
219 234 255
219 234 255
219 234 255
219 234 255
219 234 255
219 234 255
219 234 255
219 234 255
219 234 255
219 234 255
219 234 255
219 234 255
219 234 255
219 234 255
219 234 255
219 234 255
219 234 255
219 234 255
219 234 255
219 234 255
219 234 255
219 234 255
219 234 255
219 234 255
219 234 255
219 234 255
219 234 255
219 234 255
219 234 255
219 234 255
219 234 255
219 234 255
219 234 255
219 234 255
219 234 255
219 234 255
219 234 255
219 234 255
219 234 255
219 234 255
219 234 255
219 234 255
219 234 255
219 234 255
219 234 255
219 234 255
219 234 255
219 234 255
219 234 255
219 234 255
219 234 255
219 234 255
219 234 255
219 234 255
219 234 255
219 234 255
219 234 255
219 234 255
219 234 255
219 234 255
219 234 255
219 234 255
219 234 255
219 234 255
219 234 255
219 234 255
219 234 255
219 234 255
219 234 255
219 234 255
219 234 255
219 234 255
219 234 255
219 234 255
219 234 255
219 234 255
219 234 255
219 235 255
219 235 255
219 235 255
219 235 255
219 235 255
219 235 255
219 235 255
219 235 255
219 235 255
219 235 255
219 235 255
219 235 255
219 235 255
219 235 255
219 235 255
219 235 255
219 235 255
219 235 255
219 235 255
219 235 255
220 235 255
220 235 255
220 235 255
220 235 255
220 235 255
220 235 255
220 235 255
220 235 255
220 235 255
220 235 255
220 235 255
220 235 255
220 235 255
220 235 255
220 235 255
220 235 255
220 235 255
220 235 255
220 235 255
220 235 255
220 235 255
220 235 255
220 235 255
220 235 255
220 235 255
220 235 255
220 235 255
220 235 255
220 235 255
220 235 255
220 235 255
220 235 255
220 235 255
220 235 255
220 235 255
220 235 255
220 235 255
220 235 255
220 235 255
220 235 255
220 235 255
220 235 255
220 235 255
220 235 255
220 235 255
220 235 255
220 235 255
220 235 255
220 235 255
220 235 255
220 235 255
220 235 255
220 235 255
220 235 255
220 235 255
220 235 255
220 235 255
220 235 255
220 235 255
220 235 255
220 235 255
220 235 255
220 235 255
220 235 255
220 235 255
220 235 255
220 235 255
220 235 255
220 235 255
220 235 255
220 235 255
220 235 255
220 235 255
220 235 255
220 235 255
220 235 255
220 235 255
220 235 255
220 235 255
220 235 255
220 235 255
220 235 255
220 235 255
220 235 255
220 235 255
220 235 255
220 235 255
220 235 255
220 235 255
220 235 255
220 235 255
220 235 255
220 235 255
220 235 255
220 235 255
220 235 255
220 235 255
220 235 255
220 235 255
220 235 255
220 235 255
220 235 255
220 235 255
220 235 255
220 235 255
220 235 255
220 235 255
220 235 255
220 235 255
220 235 255
220 235 255
220 235 255
220 235 255
220 235 255
220 235 255
220 235 255
220 235 255
220 235 255
220 235 255
220 235 255
220 235 255
220 235 255
220 235 255
220 235 255
220 235 255
220 235 255
220 235 255
220 235 255
220 235 255
220 235 255
220 235 255
220 235 255
220 235 255
220 235 255
220 235 255
220 235 255
220 235 255
220 235 255
219 235 255
219 235 255
219 235 255
219 235 255
219 235 255
219 235 255
219 235 255
219 235 255
219 235 255
219 235 255
219 235 255
219 235 255
219 235 255
219 235 255
219 235 255
219 235 255
219 235 255
219 235 255
219 234 255
219 235 255
219 234 255
219 234 255
219 234 255
219 234 255
219 234 255
219 234 255
219 234 255
219 234 255
219 234 255
219 234 255
219 234 255
219 234 255
219 234 255
219 234 255
219 234 255
219 234 255
219 234 255
219 234 255
219 234 255
219 234 255
219 234 255
219 234 255
219 234 255
219 234 255
219 234 255
219 234 255
219 234 255
219 234 255
219 234 255
219 234 255
219 234 255
219 234 255
219 234 255
219 234 255
219 234 255
219 234 255
219 234 255
219 234 255
219 234 255
219 234 255
219 234 255
219 234 255
219 234 255
219 234 255
219 234 255
219 234 255
219 234 255
219 234 255
219 234 255
219 234 255
219 234 255
219 234 255
219 234 255
219 234 255
219 234 255
219 234 255
219 234 255
219 234 255
219 234 255
219 234 255
219 234 255
219 234 255
219 234 255
219 234 255
219 234 255
219 234 255
219 234 255
219 234 255
219 234 255
219 234 255
219 234 255
219 234 255
219 234 255
219 234 255
219 234 255
219 234 255
219 234 255
219 234 255
219 234 255
219 234 255
219 234 255
219 234 255
219 234 255
219 234 255
219 234 255
219 234 255
219 234 255
219 234 255
219 234 255
219 234 255
219 234 255
219 234 255
219 234 255
219 234 255
219 234 255
219 234 255
219 234 255
219 234 255
219 234 255
219 234 255
219 234 255
219 234 255
219 234 255
219 234 255
219 234 255
219 234 255
219 234 255
219 234 255
219 234 255
219 234 255
219 234 255
219 234 255
219 234 255
219 234 255
219 234 255
219 234 255
219 234 255
219 234 255
219 234 255
219 234 255
219 234 255
219 234 255
219 234 255
219 234 255
219 234 255
219 234 255
219 234 255
219 234 255
219 234 255
219 234 255
219 234 255
219 234 255
219 234 255
219 234 255
219 234 255
219 234 255
219 234 255
219 234 255
219 234 255
219 234 255
219 234 255
219 234 255
219 234 255
219 234 255
219 234 255
219 234 255
219 234 255
219 234 255
219 234 255
219 234 255
219 234 255
219 234 255
219 234 255
219 234 255
219 234 255
219 234 255
219 234 255
219 234 255
219 234 255
219 234 255
219 234 255
219 234 255
219 234 255
219 234 255
219 234 255
219 234 255
219 234 255
219 234 255
219 234 255
219 234 255
219 234 255
219 234 255
219 234 255
219 234 255
219 234 255
219 234 255
219 234 255
219 234 255
219 234 255
219 234 255
219 234 255
219 234 255
219 234 255
219 234 255
219 234 255
219 234 255
219 234 255
219 234 255
219 234 255
219 234 255
219 234 255
219 234 255
219 234 255
219 234 255
219 234 255
219 234 255
219 235 255
219 235 255
219 235 255
219 235 255
219 235 255
219 235 255
219 235 255
219 235 255
219 235 255
219 235 255
219 235 255
219 235 255
219 235 255
219 235 255
219 235 255
219 235 255
219 235 255
219 235 255
219 235 255
219 235 255
220 235 255
220 235 255
220 235 255
220 235 255
220 235 255
220 235 255
220 235 255
220 235 255
220 235 255
220 235 255
220 235 255
220 235 255
220 235 255
220 235 255
220 235 255
220 235 255
220 235 255
220 235 255
220 235 255
220 235 255
220 235 255
220 235 255
220 235 255
220 235 255
220 235 255
220 235 255
220 235 255
220 235 255
220 235 255
220 235 255
220 235 255
220 235 255
220 235 255
220 235 255
220 235 255
220 235 255
220 235 255
220 235 255
220 235 255
220 235 255
220 235 255
220 235 255
220 235 255
220 235 255
220 235 255
220 235 255
220 235 255
220 235 255
220 235 255
220 235 255
220 235 255
220 235 255
220 235 255
220 235 255
220 235 255
220 235 255
220 235 255
220 235 255
220 235 255
220 235 255
220 235 255
220 235 255
220 235 255
220 235 255
220 235 255
220 235 255
220 235 255
220 235 255
220 235 255
220 235 255
220 235 255
220 235 255
220 235 255
220 235 255
220 235 255
220 235 255
220 235 255
220 235 255
220 235 255
220 235 255
220 235 255
220 235 255
220 235 255
220 235 255
220 235 255
220 235 255
220 235 255
220 235 255
220 235 255
220 235 255
220 235 255
220 235 255
220 235 255
220 235 255
220 235 255
220 235 255
220 235 255
220 235 255
220 235 255
220 235 255
220 235 255
220 235 255
220 235 255
220 235 255
220 235 255
220 235 255
220 235 255
220 235 255
220 235 255
220 235 255
220 235 255
220 235 255
220 235 255
220 235 255
220 235 255
220 235 255
220 235 255
220 235 255
220 235 255
220 235 255
220 235 255
220 235 255
220 235 255
220 235 255
220 235 255
220 235 255
220 235 255
220 235 255
220 235 255
220 235 255
220 235 255
220 235 255
220 235 255
220 235 255
220 235 255
220 235 255
220 235 255
220 235 255
220 235 255
220 235 255
220 235 255
220 235 255
220 235 255
220 235 255
220 235 255
220 235 255
220 235 255
220 235 255
220 235 255
220 235 255
220 235 255
220 235 255
220 235 255
220 235 255
220 235 255
220 235 255
220 235 255
220 235 255
220 235 255
220 235 255
220 235 255
220 235 255
220 235 255
220 235 255
220 235 255
220 235 255
220 235 255
220 235 255
220 235 255
220 235 255
220 235 255
220 235 255
220 235 255
220 235 255
220 235 255
220 235 255
220 235 255
220 235 255
220 235 255
220 235 255
220 235 255
220 235 255
220 235 255
220 235 255
220 235 255
220 235 255
220 235 255
220 235 255
220 235 255
220 235 255
220 235 255
220 235 255
220 235 255
219 235 255
219 235 255
220 235 255
219 235 255
219 235 255
219 235 255
219 235 255
219 235 255
219 235 255
219 235 255
219 235 255
219 235 255
219 235 255
219 235 255
219 235 255
219 235 255
219 235 255
219 235 255
219 235 255
219 235 255
219 235 255
219 235 255
219 235 255
219 235 255
219 234 255
219 234 255
219 234 255
219 234 255
219 234 255
219 234 255
219 234 255
219 234 255
219 234 255
219 234 255
219 234 255
219 234 255
219 234 255
219 234 255
219 234 255
219 234 255
219 234 255
219 234 255
219 234 255
219 234 255
219 234 255
219 234 255
219 234 255
219 234 255
219 234 255
219 234 255
219 234 255
219 234 255
219 234 255
219 234 255
219 234 255
219 234 255
219 234 255
219 234 255
219 234 255
219 234 255
219 234 255
219 234 255
219 234 255
219 234 255
219 234 255
219 234 255
219 234 255
219 234 255
219 234 255
219 234 255
219 234 255
219 234 255
219 234 255
219 234 255
219 234 255
219 234 255
219 234 255
219 234 255
219 234 255
219 234 255
219 234 255
219 234 255
219 234 255
219 234 255
219 234 255
219 234 255
219 234 255
219 234 255
219 234 255
219 234 255
219 234 255
219 234 255
219 234 255
219 234 255
219 234 255
219 234 255
219 234 255
219 234 255
219 234 255
219 234 255
219 234 255
219 234 255
219 234 255
219 234 255
219 234 255
219 234 255
219 234 255
219 234 255
219 234 255
219 234 255
219 234 255
219 234 255
219 234 255
219 234 255
219 234 255
219 234 255
219 234 255
219 234 255
219 234 255
219 234 255
219 234 255
219 234 255
219 234 255
219 234 255
219 234 255
219 234 255
219 234 255
219 234 255
219 234 255
219 234 255
219 234 255
219 234 255
219 234 255
219 234 255
219 234 255
219 234 255
219 234 255
219 234 255
219 234 255
219 234 255
219 234 255
219 234 255
219 234 255
219 234 255
219 234 255
219 234 255
219 234 255
219 234 255
219 234 255
219 234 255
219 234 255
219 234 255
219 234 255
219 234 255
219 234 255
219 235 255
219 235 255
219 235 255
219 235 255
219 235 255
219 235 255
219 235 255
219 235 255
219 235 255
219 235 255
219 235 255
219 235 255
219 235 255
219 235 255
219 235 255
219 235 255
219 235 255
219 235 255
219 235 255
219 235 255
219 235 255
220 235 255
220 235 255
220 235 255
220 235 255
220 235 255
220 235 255
220 235 255
220 235 255
220 235 255
220 235 255
220 235 255
220 235 255
220 235 255
220 235 255
220 235 255
220 235 255
220 235 255
220 235 255
220 235 255
220 235 255
220 235 255
220 235 255
220 235 255
220 235 255
220 235 255
220 235 255
220 235 255
220 235 255
220 235 255
220 235 255
220 235 255
220 235 255
220 235 255
220 235 255
220 235 255
220 235 255
220 235 255
220 235 255
220 235 255
220 235 255
220 235 255
220 235 255
220 235 255
220 235 255
220 235 255
220 235 255
220 235 255
220 235 255
220 235 255
220 235 255
220 235 255
220 235 255
220 235 255
220 235 255
220 235 255
220 235 255
220 235 255
220 235 255
220 235 255
220 235 255
220 235 255
220 235 255
220 235 255
220 235 255
220 235 255
220 235 255
220 235 255
220 235 255
220 235 255
220 235 255
220 235 255
220 235 255
220 235 255
220 235 255
220 235 255
220 235 255
220 235 255
220 235 255
220 235 255
220 235 255
220 235 255
220 235 255
220 235 255
220 235 255
220 235 255
220 235 255
220 235 255
220 235 255
220 235 255
220 235 255
220 235 255
220 235 255
220 235 255
220 235 255
220 235 255
220 235 255
220 235 255
220 235 255
220 235 255
220 235 255
220 235 255
220 235 255
220 235 255
220 235 255
220 235 255
220 235 255
220 235 255
220 235 255
220 235 255
220 235 255
220 235 255
220 235 255
220 235 255
220 235 255
220 235 255
220 235 255
220 235 255
220 235 255
220 235 255
220 235 255
220 235 255
220 235 255
220 235 255
220 235 255
220 235 255
220 235 255
220 235 255
220 235 255
220 235 255
220 235 255
220 235 255
220 235 255
220 235 255
220 235 255
220 235 255
220 235 255
220 235 255
220 235 255
220 235 255
220 235 255
220 235 255
220 235 255
220 235 255
220 235 255
220 235 255
220 235 255
220 235 255
220 235 255
220 235 255
220 235 255
220 235 255
220 235 255
220 235 255
220 235 255
220 235 255
220 235 255
220 235 255
220 235 255
220 235 255
220 235 255
220 235 255
220 235 255
220 235 255
220 235 255
220 235 255
220 235 255
220 235 255
220 235 255
220 235 255
220 235 255
220 235 255
220 235 255
220 235 255
220 235 255
220 235 255
220 235 255
220 235 255
220 235 255
220 235 255
220 235 255
220 235 255
220 235 255
220 235 255
220 235 255
220 235 255
220 235 255
220 235 255
220 235 255
220 235 255
220 235 255
220 235 255
220 235 255
220 235 255
220 235 255
220 235 255
220 235 255
220 235 255
220 235 255
220 235 255
220 235 255
220 235 255
220 235 255
220 235 255
220 235 255
220 235 255
220 235 255
220 235 255
220 235 255
220 235 255
220 235 255
220 235 255
220 235 255
220 235 255
220 235 255
220 235 255
220 235 255
220 235 255
220 235 255
220 235 255
220 235 255
220 235 255
220 235 255
220 235 255
220 235 255
220 235 255
220 235 255
220 235 255
220 235 255
220 235 255
220 235 255
220 235 255
220 235 255
220 235 255
220 235 255
220 235 255
220 235 255
220 235 255
220 235 255
220 235 255
220 235 255
220 235 255
220 235 255
220 235 255
220 235 255
220 235 255
220 235 255
220 235 255
220 235 255
220 235 255
220 235 255
220 235 255
220 235 255
220 235 255
220 235 255
220 235 255
220 235 255
220 235 255
220 235 255
220 235 255
220 235 255
220 235 255
220 235 255
220 235 255
220 235 255
220 235 255
220 235 255
219 235 255
220 235 255
219 235 255
219 235 255
219 235 255
219 235 255
219 235 255
219 235 255
219 235 255
219 235 255
219 235 255
219 235 255
219 235 255
219 235 255
219 235 255
219 235 255
219 235 255
219 235 255
219 235 255
219 235 255
219 235 255
219 235 255
219 235 255
219 235 255
219 235 255
219 235 255
219 235 255
219 235 255
219 235 255
219 235 255
219 235 255
219 235 255
219 235 255
219 235 255
219 235 255
219 235 255
219 235 255
219 235 255
219 235 255
219 235 255
219 235 255
219 235 255
219 235 255
219 235 255
219 235 255
219 235 255
219 235 255
219 235 255
219 235 255
219 235 255
219 235 255
219 235 255
219 235 255
219 235 255
219 235 255
219 235 255
219 235 255
219 235 255
219 235 255
219 235 255
219 235 255
219 235 255
219 235 255
219 235 255
219 235 255
219 235 255
219 235 255
219 235 255
219 235 255
219 235 255
219 235 255
219 235 255
219 235 255
219 235 255
219 235 255
219 235 255
219 235 255
219 235 255
219 235 255
219 235 255
219 235 255
219 235 255
219 235 255
219 235 255
219 235 255
219 235 255
219 235 255
219 235 255
219 235 255
219 235 255
219 235 255
219 235 255
220 235 255
219 235 255
220 235 255
220 235 255
220 235 255
220 235 255
220 235 255
220 235 255
220 235 255
220 235 255
220 235 255
220 235 255
220 235 255
220 235 255
220 235 255
220 235 255
220 235 255
220 235 255
220 235 255
220 235 255
220 235 255
220 235 255
220 235 255
220 235 255
220 235 255
220 235 255
220 235 255
220 235 255
220 235 255
220 235 255
220 235 255
220 235 255
220 235 255
220 235 255
220 235 255
220 235 255
220 235 255
220 235 255
220 235 255
220 235 255
220 235 255
220 235 255
220 235 255
220 235 255
220 235 255
220 235 255
220 235 255
220 235 255
220 235 255
220 235 255
220 235 255
220 235 255
220 235 255
220 235 255
220 235 255
220 235 255
220 235 255
220 235 255
220 235 255
220 235 255
220 235 255
220 235 255
220 235 255
220 235 255
220 235 255
220 235 255
220 235 255
220 235 255
220 235 255
220 235 255
220 235 255
220 235 255
220 235 255
220 235 255
220 235 255
220 235 255
220 235 255
220 235 255
220 235 255
220 235 255
220 235 255
220 235 255
220 235 255
220 235 255
220 235 255
220 235 255
220 235 255
220 235 255
220 235 255
220 235 255
220 235 255
220 235 255
220 235 255
220 235 255
220 235 255
220 235 255
220 235 255
220 235 255
220 235 255
220 235 255
220 235 255
220 235 255
220 235 255
220 235 255
220 235 255
220 235 255
220 235 255
220 235 255
220 235 255
220 235 255
220 235 255
220 235 255
220 235 255
220 235 255
220 235 255
220 235 255
220 235 255
220 235 255
220 235 255
220 235 255
220 235 255
220 235 255
220 235 255
220 235 255
220 235 255
220 235 255
220 235 255
220 235 255
220 235 255
220 235 255
220 235 255
220 235 255
220 235 255
220 235 255
220 235 255
220 235 255
220 235 255
220 235 255
220 235 255
220 235 255
220 235 255
220 235 255
220 235 255
220 235 255
220 235 255
220 235 255
220 235 255
220 235 255
220 235 255
220 235 255
220 235 255
220 235 255
220 235 255
220 235 255
220 235 255
220 235 255
220 235 255
220 235 255
220 235 255
220 235 255
220 235 255
220 235 255
220 235 255
220 235 255
220 235 255
220 235 255
220 235 255
220 235 255
220 235 255
220 235 255
220 235 255
220 235 255
220 235 255
220 235 255
220 235 255
220 235 255
220 235 255
220 235 255
220 235 255
220 235 255
220 235 255
220 235 255
220 235 255
220 235 255
220 235 255
220 235 255
220 235 255
220 235 255
220 235 255
220 235 255
220 235 255
220 235 255
220 235 255
220 235 255
220 235 255
220 235 255
220 235 255
220 235 255
220 235 255
220 235 255
220 235 255
220 235 255
220 235 255
220 235 255
220 235 255
220 235 255
220 235 255
220 235 255
220 235 255
220 235 255
220 235 255
220 235 255
220 235 255
220 235 255
220 235 255
220 235 255
220 235 255
220 235 255
220 235 255
220 235 255
220 235 255
220 235 255
220 235 255
220 235 255
220 235 255
220 235 255
220 235 255
220 235 255
220 235 255
220 235 255
220 235 255
220 235 255
220 235 255
220 235 255
220 235 255
220 235 255
220 235 255
220 235 255
220 235 255
220 235 255
220 235 255
220 235 255
220 235 255
220 235 255
220 235 255
220 235 255
220 235 255
220 235 255
220 235 255
220 235 255
220 235 255
220 235 255
220 235 255
220 235 255
220 235 255
220 235 255
220 235 255
220 235 255
220 235 255
220 235 255
220 235 255
220 235 255
220 235 255
220 235 255
220 235 255
220 235 255
220 235 255
220 235 255
220 235 255
220 235 255
220 235 255
220 235 255
220 235 255
220 235 255
220 235 255
220 235 255
220 235 255
220 235 255
220 235 255
220 235 255
220 235 255
220 235 255
220 235 255
220 235 255
220 235 255
220 235 255
220 235 255
220 235 255
220 235 255
220 235 255
220 235 255
220 235 255
220 235 255
220 235 255
220 235 255
220 235 255
220 235 255
220 235 255
220 235 255
220 235 255
220 235 255
220 235 255
220 235 255
220 235 255
220 235 255
220 235 255
220 235 255
220 235 255
220 235 255
220 235 255
220 235 255
220 235 255
220 235 255
220 235 255
220 235 255
220 235 255
220 235 255
220 235 255
220 235 255
220 235 255
220 235 255
220 235 255
220 235 255
220 235 255
220 235 255
220 235 255
220 235 255
220 235 255
220 235 255
220 235 255
220 235 255
220 235 255
220 235 255
220 235 255
220 235 255
220 235 255
220 235 255
220 235 255
220 235 255
220 235 255
220 235 255
220 235 255
220 235 255
220 235 255
220 235 255
220 235 255
220 235 255
220 235 255
220 235 255
220 235 255
220 235 255
220 235 255
220 235 255
220 235 255
220 235 255
220 235 255
220 235 255
220 235 255
220 235 255
220 235 255
220 235 255
220 235 255
220 235 255
220 235 255
220 235 255
220 235 255
220 235 255
220 235 255
220 235 255
220 235 255
220 235 255
220 235 255
220 235 255
220 235 255
220 235 255
220 235 255
220 235 255
220 235 255
220 235 255
220 235 255
220 235 255
220 235 255
220 235 255
220 235 255
220 235 255
220 235 255
220 235 255
220 235 255
220 235 255
220 235 255
220 235 255
220 235 255
220 235 255
220 235 255
220 235 255
220 235 255
220 235 255
220 235 255
220 235 255
220 235 255
220 235 255
220 235 255
220 235 255
220 235 255
220 235 255
220 235 255
220 235 255
220 235 255
220 235 255
220 235 255
220 235 255
220 235 255
220 235 255
220 235 255
220 235 255
220 235 255
220 235 255
220 235 255
220 235 255
220 235 255
220 235 255
220 235 255
220 235 255
220 235 255
220 235 255
220 235 255
220 235 255
220 235 255
220 235 255
220 235 255
220 235 255
220 235 255
220 235 255
220 235 255
220 235 255
220 235 255
220 235 255
220 235 255
220 235 255
220 235 255
220 235 255
220 235 255
220 235 255
220 235 255
220 235 255
220 235 255
220 235 255
220 235 255
220 235 255
220 235 255
220 235 255
220 235 255
220 235 255
220 235 255
220 235 255
220 235 255
220 235 255
220 235 255
220 235 255
220 235 255
220 235 255
220 235 255
220 235 255
220 235 255
220 235 255
220 235 255
220 235 255
220 235 255
220 235 255
220 235 255
220 235 255
220 235 255
220 235 255
220 235 255
220 235 255
220 235 255
220 235 255
220 235 255
220 235 255
220 235 255
220 235 255
220 235 255
220 235 255
220 235 255
220 235 255
220 235 255
220 235 255
220 235 255
220 235 255
220 235 255
220 235 255
220 235 255
220 235 255
220 235 255
220 235 255
220 235 255
220 235 255
220 235 255
220 235 255
220 235 255
220 235 255
220 235 255
220 235 255
220 235 255
220 235 255
220 235 255
220 235 255
220 235 255
220 235 255
220 235 255
220 235 255
220 235 255
220 235 255
220 235 255
220 235 255
220 235 255
220 235 255
220 235 255
220 235 255
220 235 255
220 235 255
220 235 255
220 235 255
220 235 255
220 235 255
220 235 255
220 235 255
220 235 255
220 235 255
220 235 255
220 235 255
220 235 255
220 235 255
220 235 255
220 235 255
220 235 255
220 235 255
220 235 255
220 235 255
220 235 255
220 235 255
220 235 255
220 235 255
220 235 255
220 235 255
220 235 255
220 235 255
220 235 255
220 235 255
220 235 255
220 235 255
220 235 255
220 235 255
220 235 255
220 235 255
220 235 255
220 235 255
220 235 255
220 235 255
220 235 255
220 235 255
220 235 255
220 235 255
220 235 255
220 235 255
220 235 255
220 235 255
220 235 255
220 235 255
220 235 255
220 235 255
220 235 255
220 235 255
220 235 255
220 235 255
220 235 255
220 235 255
220 235 255
220 235 255
220 235 255
220 235 255
220 235 255
220 235 255
220 235 255
220 235 255
220 235 255
220 235 255
220 235 255
220 235 255
220 235 255
220 235 255
220 235 255
220 235 255
220 235 255
220 235 255
220 235 255
220 235 255
220 235 255
220 235 255
220 235 255
220 235 255
220 235 255
220 235 255
220 235 255
220 235 255
220 235 255
220 235 255
220 235 255
220 235 255
220 235 255
220 235 255
220 235 255
220 235 255
220 235 255
220 235 255
220 235 255
220 235 255
220 235 255
220 235 255
220 235 255
220 235 255
220 235 255
220 235 255
220 235 255
220 235 255
220 235 255
220 235 255
220 235 255
220 235 255
220 235 255
220 235 255
220 235 255
220 235 255
220 235 255
220 235 255
220 235 255
220 235 255
220 235 255
220 235 255
220 235 255
220 235 255
220 235 255
220 235 255
220 235 255
220 235 255
220 235 255
220 235 255
220 235 255
220 235 255
220 235 255
220 235 255
220 235 255
220 235 255
220 235 255
220 235 255
220 235 255
220 235 255
220 235 255
220 235 255
220 235 255
220 235 255
220 235 255
220 235 255
220 235 255
220 235 255
220 235 255
220 235 255
220 235 255
220 235 255
220 235 255
220 235 255
220 235 255
220 235 255
220 235 255
220 235 255
220 235 255
220 235 255
220 235 255
220 235 255
220 235 255
220 235 255
220 235 255
220 235 255
220 235 255
220 235 255
220 235 255
220 235 255
220 235 255
220 235 255
220 235 255
220 235 255
220 235 255
220 235 255
220 235 255
220 235 255
220 235 255
220 235 255
220 235 255
220 235 255
220 235 255
220 235 255
220 235 255
220 235 255
220 235 255
220 235 255
220 235 255
220 235 255
220 235 255
220 235 255
220 235 255
220 235 255
220 235 255
220 235 255
220 235 255
220 235 255
220 235 255
220 235 255
220 235 255
220 235 255
220 235 255
220 235 255
220 235 255
220 235 255
220 235 255
220 235 255
220 235 255
220 235 255
220 235 255
220 235 255
220 235 255
220 235 255
220 235 255
220 235 255
220 235 255
220 235 255
220 235 255
220 235 255
220 235 255
220 235 255
220 235 255
220 235 255
220 235 255
220 235 255
220 235 255
220 235 255
220 235 255
220 235 255
220 235 255
220 235 255
220 235 255
220 235 255
220 235 255
220 235 255
220 235 255
220 235 255
220 235 255
220 235 255
220 235 255
220 235 255
220 235 255
220 235 255
220 235 255
220 235 255
220 235 255
220 235 255
220 235 255
220 235 255
220 235 255
220 235 255
220 235 255
220 235 255
220 235 255
220 235 255
220 235 255
220 235 255
220 235 255
220 235 255
220 235 255
220 235 255
220 235 255
220 235 255
220 235 255
220 235 255
220 235 255
220 235 255
220 235 255
220 235 255
220 235 255
220 235 255
220 235 255
220 235 255
220 235 255
220 235 255
220 235 255
220 235 255
220 235 255
220 235 255
220 235 255
220 235 255
220 235 255
220 235 255
220 235 255
220 235 255
220 235 255
220 235 255
220 235 255
220 235 255
220 235 255
220 235 255
220 235 255
220 235 255
220 235 255
220 235 255
220 235 255
220 235 255
220 235 255
220 235 255
220 235 255
220 235 255
220 235 255
220 235 255
220 235 255
220 235 255
220 235 255
220 235 255
220 235 255
220 235 255
220 235 255
220 235 255
220 235 255
220 235 255
220 235 255
220 235 255
220 235 255
220 235 255
220 235 255
220 235 255
220 235 255
220 235 255
220 235 255
220 235 255
220 235 255
220 235 255
220 235 255
220 235 255
220 235 255
220 235 255
220 235 255
220 235 255
220 235 255
220 235 255
220 235 255
220 235 255
220 235 255
220 235 255
220 235 255
220 235 255
220 235 255
220 235 255
220 235 255
220 235 255
220 235 255
220 235 255
220 235 255
220 235 255
220 235 255
220 235 255
220 235 255
220 235 255
220 235 255
220 235 255
220 235 255
220 235 255
220 235 255
220 235 255
220 235 255
220 235 255
220 235 255
220 235 255
220 235 255
220 235 255
220 235 255
220 235 255
220 235 255
220 235 255
220 235 255
220 235 255
220 235 255
220 235 255
220 235 255
220 235 255
220 235 255
220 235 255
220 235 255
220 235 255
220 235 255
220 235 255
220 235 255
220 235 255
220 235 255
220 235 255
220 235 255
220 235 255
220 235 255
220 235 255
220 235 255
220 235 255
220 235 255
220 235 255
220 235 255
220 235 255
220 235 255
220 235 255
220 235 255
220 235 255
220 235 255
220 235 255
220 235 255
220 235 255
220 235 255
220 235 255
220 235 255
220 235 255
220 235 255
220 235 255
220 235 255
220 235 255
220 235 255
220 235 255
220 235 255
220 235 255
220 235 255
220 235 255
220 235 255
220 235 255
220 235 255
220 235 255
220 235 255
220 235 255
220 235 255
220 235 255
220 235 255
220 235 255
220 235 255
220 235 255
220 235 255
220 235 255
220 235 255
220 235 255
220 235 255
220 235 255
220 235 255
220 235 255
220 235 255
220 235 255
221 235 255
221 235 255
221 235 255
221 235 255
221 235 255
221 235 255
221 235 255
221 235 255
221 235 255
221 235 255
220 235 255
220 235 255
220 235 255
220 235 255
220 235 255
220 235 255
220 235 255
220 235 255
220 235 255
220 235 255
220 235 255
220 235 255
220 235 255
220 235 255
220 235 255
220 235 255
220 235 255
220 235 255
220 235 255
220 235 255
220 235 255
220 235 255
220 235 255
220 235 255
220 235 255
220 235 255
220 235 255
220 235 255
220 235 255
220 235 255
220 235 255
220 235 255
220 235 255
220 235 255
220 235 255
220 235 255
220 235 255
220 235 255
220 235 255
220 235 255
220 235 255
220 235 255
220 235 255
220 235 255
220 235 255
220 235 255
220 235 255
220 235 255
220 235 255
220 235 255
220 235 255
220 235 255
220 235 255
220 235 255
220 235 255
220 235 255
220 235 255
220 235 255
220 235 255
220 235 255
220 235 255
220 235 255
220 235 255
220 235 255
220 235 255
220 235 255
220 235 255
220 235 255
220 235 255
220 235 255
220 235 255
220 235 255
220 235 255
220 235 255
220 235 255
220 235 255
220 235 255
220 235 255
220 235 255
220 235 255
220 235 255
220 235 255
220 235 255
220 235 255
220 235 255
220 235 255
220 235 255
220 235 255
220 235 255
220 235 255
220 235 255
220 235 255
220 235 255
220 235 255
220 235 255
220 235 255
220 235 255
220 235 255
220 235 255
220 235 255
220 235 255
220 235 255
220 235 255
220 235 255
220 235 255
220 235 255
220 235 255
220 235 255
220 235 255
220 235 255
220 235 255
220 235 255
220 235 255
220 235 255
220 235 255
220 235 255
220 235 255
220 235 255
220 235 255
220 235 255
220 235 255
220 235 255
220 235 255
220 235 255
220 235 255
220 235 255
220 235 255
220 235 255
220 235 255
220 235 255
220 235 255
220 235 255
220 235 255
220 235 255
220 235 255
220 235 255
220 235 255
220 235 255
220 235 255
220 235 255
220 235 255
220 235 255
220 235 255
220 235 255
220 235 255
220 235 255
220 235 255
220 235 255
220 235 255
220 235 255
220 235 255
220 235 255
220 235 255
220 235 255
220 235 255
220 235 255
220 235 255
220 235 255
220 235 255
220 235 255
220 235 255
220 235 255
220 235 255
220 235 255
220 235 255
220 235 255
220 235 255
220 235 255
220 235 255
220 235 255
220 235 255
220 235 255
220 235 255
220 235 255
220 235 255
220 235 255
220 235 255
220 235 255
220 235 255
220 235 255
220 235 255
220 235 255
220 235 255
220 235 255
220 235 255
220 235 255
220 235 255
220 235 255
220 235 255
220 235 255
220 235 255
220 235 255
220 235 255
220 235 255
220 235 255
220 235 255
220 235 255
220 235 255
220 235 255
220 235 255
220 235 255
220 235 255
220 235 255
220 235 255
220 235 255
220 235 255
220 235 255
220 235 255
220 235 255
220 235 255
220 235 255
220 235 255
220 235 255
220 235 255
220 235 255
220 235 255
220 235 255
220 235 255
220 235 255
220 235 255
220 235 255
220 235 255
220 235 255
220 235 255
220 235 255
220 235 255
220 235 255
220 235 255
220 235 255
220 235 255
220 235 255
220 235 255
220 235 255
220 235 255
220 235 255
220 235 255
220 235 255
220 235 255
220 235 255
220 235 255
220 235 255
220 235 255
220 235 255
220 235 255
220 235 255
220 235 255
220 235 255
220 235 255
220 235 255
220 235 255
220 235 255
220 235 255
220 235 255
220 235 255
220 235 255
220 235 255
220 235 255
220 235 255
220 235 255
220 235 255
220 235 255
220 235 255
220 235 255
220 235 255
220 235 255
220 235 255
220 235 255
220 235 255
220 235 255
220 235 255
220 235 255
220 235 255
220 235 255
220 235 255
220 235 255
220 235 255
220 235 255
220 235 255
220 235 255
220 235 255
220 235 255
220 235 255
220 235 255
220 235 255
220 235 255
220 235 255
220 235 255
220 235 255
220 235 255
220 235 255
220 235 255
220 235 255
220 235 255
220 235 255
220 235 255
220 235 255
220 235 255
220 235 255
220 235 255
220 235 255
220 235 255
220 235 255
220 235 255
220 235 255
220 235 255
220 235 255
220 235 255
220 235 255
220 235 255
220 235 255
220 235 255
220 235 255
220 235 255
220 235 255
220 235 255
220 235 255
220 235 255
220 235 255
220 235 255
220 235 255
220 235 255
220 235 255
220 235 255
220 235 255
220 235 255
220 235 255
220 235 255
220 235 255
220 235 255
220 235 255
220 235 255
220 235 255
220 235 255
220 235 255
220 235 255
220 235 255
220 235 255
220 235 255
220 235 255
220 235 255
220 235 255
220 235 255
220 235 255
220 235 255
220 235 255
220 235 255
220 235 255
220 235 255
220 235 255
220 235 255
220 235 255
220 235 255
220 235 255
220 235 255
220 235 255
220 235 255
220 235 255
220 235 255
220 235 255
220 235 255
220 235 255
220 235 255
220 235 255
220 235 255
220 235 255
220 235 255
220 235 255
220 235 255
220 235 255
220 235 255
220 235 255
220 235 255
220 235 255
220 235 255
220 235 255
220 235 255
220 235 255
220 235 255
220 235 255
221 235 255
221 235 255
221 235 255
221 235 255
221 235 255
221 235 255
221 235 255
221 235 255
221 235 255
221 235 255
221 235 255
221 235 255
221 235 255
221 235 255
221 235 255
221 235 255
221 235 255
221 235 255
221 235 255
221 235 255
221 235 255
221 235 255
221 235 255
221 235 255
221 235 255
221 235 255
221 235 255
221 235 255
221 235 255
221 235 255
221 235 255
221 235 255
221 235 255
221 235 255
221 235 255
221 235 255
221 235 255
221 235 255
221 235 255
221 235 255
221 235 255
221 235 255
221 235 255
221 235 255
221 235 255
221 235 255
221 235 255
221 235 255
221 235 255
221 235 255
221 235 255
221 235 255
221 235 255
221 235 255
221 235 255
221 235 255
221 235 255
221 235 255
221 235 255
221 235 255
221 235 255
221 235 255
221 235 255
221 235 255
221 235 255
221 235 255
221 235 255
221 235 255
221 235 255
221 235 255
221 235 255
221 235 255
221 235 255
221 235 255
221 235 255
221 235 255
221 235 255
221 235 255
221 235 255
220 235 255
221 235 255
221 235 255
220 235 255
220 235 255
220 235 255
220 235 255
220 235 255
220 235 255
220 235 255
220 235 255
220 235 255
220 235 255
220 235 255
220 235 255
220 235 255
220 235 255
220 235 255
220 235 255
220 235 255
220 235 255
220 235 255
220 235 255
220 235 255
220 235 255
220 235 255
220 235 255
220 235 255
220 235 255
220 235 255
220 235 255
220 235 255
220 235 255
220 235 255
220 235 255
220 235 255
220 235 255
220 235 255
220 235 255
220 235 255
220 235 255
220 235 255
220 235 255
220 235 255
220 235 255
220 235 255
220 235 255
220 235 255
220 235 255
220 235 255
220 235 255
220 235 255
220 235 255
220 235 255
220 235 255
220 235 255
220 235 255
220 235 255
220 235 255
220 235 255
220 235 255
220 235 255
220 235 255
220 235 255
220 235 255
220 235 255
220 235 255
220 235 255
220 235 255
220 235 255
220 235 255
220 235 255
220 235 255
220 235 255
220 235 255
220 235 255
220 235 255
220 235 255
220 235 255
220 235 255
220 235 255
220 235 255
220 235 255
220 235 255
220 235 255
220 235 255
220 235 255
220 235 255
220 235 255
220 235 255
220 235 255
220 235 255
220 235 255
220 235 255
220 235 255
220 235 255
220 235 255
220 235 255
220 235 255
220 235 255
220 235 255
220 235 255
220 235 255
220 235 255
220 235 255
220 235 255
220 235 255
220 235 255
220 235 255
220 235 255
220 235 255
220 235 255
220 235 255
220 235 255
220 235 255
220 235 255
220 235 255
220 235 255
220 235 255
220 235 255
220 235 255
220 235 255
220 235 255
220 235 255
220 235 255
220 235 255
220 235 255
220 235 255
220 235 255
220 235 255
220 235 255
220 235 255
220 235 255
220 235 255
220 235 255
220 235 255
220 235 255
220 235 255
220 235 255
220 235 255
220 235 255
220 235 255
220 235 255
220 235 255
220 235 255
220 235 255
220 235 255
220 235 255
220 235 255
220 235 255
220 235 255
220 235 255
220 235 255
220 235 255
220 235 255
220 235 255
220 235 255
220 235 255
220 235 255
220 235 255
220 235 255
220 235 255
220 235 255
220 235 255
220 235 255
220 235 255
220 235 255
220 235 255
220 235 255
220 235 255
220 235 255
220 235 255
220 235 255
220 235 255
220 235 255
220 235 255
220 235 255
220 235 255
220 235 255
220 235 255
220 235 255
220 235 255
220 235 255
220 235 255
220 235 255
220 235 255
220 235 255
220 235 255
220 235 255
220 235 255
220 235 255
220 235 255
220 235 255
220 235 255
220 235 255
220 235 255
220 235 255
220 235 255
220 235 255
220 235 255
220 235 255
220 235 255
220 235 255
220 235 255
220 235 255
220 235 255
220 235 255
220 235 255
220 235 255
220 235 255
220 235 255
220 235 255
220 235 255
220 235 255
220 235 255
220 235 255
220 235 255
220 235 255
220 235 255
220 235 255
220 235 255
220 235 255
220 235 255
220 235 255
220 235 255
220 235 255
220 235 255
220 235 255
220 235 255
220 235 255
220 235 255
220 235 255
220 235 255
220 235 255
220 235 255
220 235 255
220 235 255
220 235 255
220 235 255
220 235 255
220 235 255
220 235 255
220 235 255
220 235 255
220 235 255
220 235 255
220 235 255
220 235 255
220 235 255
220 235 255
220 235 255
220 235 255
220 235 255
220 235 255
220 235 255
220 235 255
220 235 255
220 235 255
220 235 255
220 235 255
221 235 255
220 235 255
221 235 255
221 235 255
220 235 255
221 235 255
221 235 255
221 235 255
221 235 255
221 235 255
221 235 255
221 235 255
221 235 255
221 235 255
221 235 255
221 235 255
221 235 255
221 235 255
221 235 255
221 235 255
221 235 255
221 235 255
221 235 255
221 235 255
221 235 255
221 235 255
221 235 255
221 235 255
221 235 255
221 235 255
221 235 255
221 235 255
221 235 255
221 235 255
221 235 255
221 235 255
221 235 255
221 235 255
221 235 255
221 235 255
221 235 255
221 235 255
221 235 255
221 235 255
221 235 255
221 235 255
221 235 255
221 235 255
221 235 255
221 235 255
221 235 255
221 235 255
221 235 255
221 235 255
221 235 255
221 235 255
221 235 255
221 235 255
221 235 255
221 235 255
221 235 255
221 235 255
221 235 255
221 235 255
221 235 255
221 235 255
221 235 255
221 235 255
221 235 255
221 235 255
221 235 255
221 235 255
221 235 255
221 235 255
221 235 255
221 235 255
221 235 255
221 235 255
221 235 255
221 235 255
221 235 255
221 235 255
221 235 255
221 235 255
221 235 255
221 235 255
221 235 255
221 235 255
221 235 255
221 235 255
221 235 255
221 235 255
221 235 255
221 235 255
221 235 255
221 235 255
221 235 255
221 235 255
221 235 255
221 235 255
221 235 255
221 235 255
221 235 255
221 235 255
221 235 255
221 235 255
221 235 255
221 235 255
221 235 255
221 235 255
221 235 255
221 235 255
221 235 255
221 235 255
221 235 255
221 235 255
221 235 255
221 235 255
221 235 255
221 235 255
221 235 255
221 235 255
221 235 255
221 235 255
221 235 255
221 235 255
221 235 255
221 235 255
221 235 255
221 235 255
221 235 255
221 235 255
221 235 255
221 235 255
221 235 255
221 235 255
221 235 255
221 235 255
221 235 255
221 235 255
221 235 255
221 235 255
221 235 255
221 235 255
221 235 255
221 235 255
221 235 255
221 235 255
221 235 255
221 235 255
221 235 255
221 235 255
221 235 255
221 235 255
221 235 255
221 235 255
221 235 255
221 235 255
221 235 255
221 235 255
221 235 255
221 235 255
221 235 255
221 235 255
221 235 255
221 235 255
221 235 255
221 235 255
221 235 255
221 235 255
221 235 255
221 235 255
221 235 255
221 235 255
221 235 255
221 235 255
221 235 255
221 235 255
221 235 255
221 235 255
221 235 255
221 235 255
221 235 255
221 235 255
221 235 255
221 235 255
221 235 255
221 235 255
221 235 255
221 235 255
221 235 255
221 235 255
221 235 255
221 235 255
221 235 255
221 235 255
221 235 255
221 235 255
221 235 255
221 235 255
221 235 255
221 235 255
221 235 255
221 235 255
221 235 255
221 235 255
221 235 255
221 235 255
221 235 255
221 235 255
221 235 255
221 235 255
221 235 255
221 235 255
221 235 255
221 235 255
221 235 255
221 235 255
221 235 255
221 235 255
221 235 255
221 235 255
221 235 255
221 235 255
220 235 255
220 235 255
220 235 255
220 235 255
220 235 255
220 235 255
220 235 255
220 235 255
220 235 255
220 235 255
220 235 255
220 235 255
220 235 255
220 235 255
220 235 255
220 235 255
220 235 255
220 235 255
220 235 255
220 235 255
220 235 255
220 235 255
220 235 255
220 235 255
220 235 255
220 235 255
220 235 255
220 235 255
220 235 255
220 235 255
220 235 255
220 235 255
220 235 255
220 235 255
220 235 255
220 235 255
220 235 255
220 235 255
220 235 255
220 235 255
220 235 255
220 235 255
220 235 255
220 235 255
220 235 255
220 235 255
220 235 255
220 235 255
220 235 255
220 235 255
220 235 255
220 235 255
220 235 255
220 235 255
220 235 255
220 235 255
220 235 255
220 235 255
220 235 255
220 235 255
220 235 255
220 235 255
220 235 255
220 235 255
220 235 255
220 235 255
220 235 255
220 235 255
220 235 255
220 235 255
220 235 255
220 235 255
220 235 255
220 235 255
220 235 255
220 235 255
220 235 255
220 235 255
220 235 255
220 235 255
220 235 255
220 235 255
220 235 255
220 235 255
220 235 255
220 235 255
220 235 255
220 235 255
220 235 255
220 235 255
220 235 255
220 235 255
220 235 255
220 235 255
221 235 255
220 235 255
221 235 255
220 235 255
220 235 255
221 235 255
221 235 255
221 235 255
221 235 255
221 235 255
221 235 255
221 235 255
221 235 255
221 235 255
221 235 255
221 235 255
221 235 255
221 235 255
221 235 255
221 235 255
221 235 255
221 235 255
221 235 255
221 235 255
221 235 255
221 235 255
221 235 255
221 235 255
221 235 255
221 235 255
221 235 255
221 235 255
221 235 255
221 235 255
221 235 255
221 235 255
221 235 255
221 235 255
221 235 255
221 235 255
221 235 255
221 235 255
221 235 255
221 235 255
221 235 255
221 235 255
221 235 255
221 235 255
221 235 255
221 235 255
221 235 255
221 235 255
221 235 255
221 235 255
221 235 255
221 235 255
221 235 255
221 235 255
221 235 255
221 235 255
221 235 255
221 235 255
221 235 255
221 235 255
221 235 255
221 235 255
221 235 255
221 235 255
221 235 255
221 235 255
221 235 255
221 235 255
221 235 255
221 235 255
221 235 255
221 235 255
221 235 255
221 235 255
221 235 255
221 235 255
221 235 255
221 235 255
221 235 255
221 235 255
221 235 255
221 235 255
221 235 255
221 235 255
221 235 255
221 235 255
221 235 255
221 235 255
221 235 255
221 235 255
221 235 255
221 235 255
221 235 255
221 235 255
221 235 255
221 235 255
221 235 255
221 235 255
221 235 255
221 235 255
221 235 255
221 235 255
221 235 255
221 235 255
221 235 255
221 235 255
221 235 255
221 235 255
221 235 255
221 235 255
221 235 255
221 235 255
221 235 255
221 235 255
221 235 255
221 235 255
221 235 255
221 235 255
221 235 255
221 235 255
221 235 255
221 235 255
221 235 255
221 235 255
221 235 255
221 235 255
221 235 255
221 235 255
221 235 255
221 235 255
221 235 255
221 235 255
221 235 255
221 235 255
221 235 255
221 235 255
221 235 255
221 235 255
221 235 255
221 235 255
221 235 255
221 235 255
221 235 255
221 235 255
221 235 255
221 235 255
221 235 255
221 235 255
221 235 255
221 235 255
221 235 255
221 235 255
221 235 255
221 235 255
221 235 255
221 235 255
221 235 255
221 235 255
221 235 255
221 235 255
221 235 255
221 235 255
221 235 255
221 235 255
221 235 255
221 235 255
221 235 255
221 235 255
221 235 255
221 235 255
221 235 255
221 235 255
221 235 255
221 235 255
221 235 255
221 235 255
221 235 255
221 235 255
221 235 255
221 235 255
221 235 255
221 235 255
221 235 255
221 235 255
221 235 255
221 235 255
221 235 255
221 235 255
221 235 255
221 235 255
221 235 255
221 235 255
221 235 255
221 235 255
221 235 255
221 235 255
221 235 255
221 235 255
221 235 255
221 235 255
221 235 255
221 235 255
221 235 255
221 235 255
221 235 255
221 235 255
221 235 255
221 235 255
221 235 255
221 235 255
221 235 255
221 235 255
221 235 255
221 235 255
221 235 255
221 235 255
221 235 255
221 235 255
221 235 255
221 235 255
221 235 255
221 235 255
221 235 255
221 235 255
221 235 255
221 235 255
221 235 255
221 235 255
221 235 255
221 235 255
221 235 255
221 235 255
221 235 255
221 235 255
221 235 255
221 235 255
221 235 255
221 235 255
221 235 255
221 235 255
221 235 255
221 235 255
221 235 255
221 235 255
221 235 255
221 235 255
221 235 255
221 235 255
221 235 255
221 235 255
221 235 255
221 235 255
221 235 255
221 235 255
221 235 255
221 235 255
221 235 255
221 235 255
221 235 255
221 235 255
221 235 255
221 235 255
221 235 255
221 235 255
221 235 255
221 235 255
221 235 255
221 235 255
221 235 255
221 235 255
221 235 255
221 235 255
221 235 255
221 235 255
221 235 255
221 235 255
221 235 255
221 235 255
221 235 255
221 235 255
221 235 255
221 235 255
221 235 255
221 235 255
221 235 255
221 235 255
221 235 255
221 235 255
221 235 255
221 235 255
221 235 255
221 235 255
221 235 255
221 235 255
221 235 255
221 235 255
221 235 255
221 235 255
221 235 255
221 235 255
221 235 255
221 235 255
221 235 255
221 235 255
221 235 255
221 235 255
221 235 255
221 235 255
221 235 255
221 235 255
221 235 255
221 235 255
221 235 255
221 235 255
221 235 255
221 235 255
221 235 255
221 235 255
221 235 255
221 235 255
221 235 255
221 235 255
221 235 255
221 235 255
221 235 255
221 235 255
221 235 255
221 235 255
221 235 255
221 235 255
221 235 255
221 235 255
221 235 255
221 235 255
221 235 255
221 235 255
221 235 255
221 235 255
221 235 255
221 235 255
221 235 255
221 235 255
221 235 255
221 235 255
221 235 255
221 235 255
221 235 255
221 235 255
221 235 255
221 235 255
221 235 255
221 235 255
221 235 255
221 235 255
221 235 255
221 235 255
221 235 255
221 235 255
221 235 255
221 235 255
221 235 255
221 235 255
221 235 255
221 235 255
221 235 255
221 235 255
221 235 255
221 235 255
221 235 255
221 235 255
221 235 255
221 235 255
221 235 255
221 235 255
221 235 255
221 235 255
221 235 255
221 235 255
221 235 255
221 235 255
221 235 255
221 235 255
221 235 255
221 235 255
221 235 255
221 235 255
221 235 255
221 235 255
221 235 255
221 235 255
221 235 255
221 235 255
221 235 255
221 235 255
221 235 255
221 235 255
221 235 255
221 235 255
221 235 255
221 235 255
221 235 255
221 235 255
221 235 255
221 235 255
221 235 255
221 235 255
221 235 255
221 235 255
221 235 255
221 235 255
221 235 255
221 235 255
221 235 255
221 235 255
221 235 255
221 235 255
221 235 255
221 235 255
221 235 255
221 235 255
221 235 255
221 235 255
221 235 255
221 235 255
221 235 255
221 235 255
221 235 255
221 235 255
221 235 255
221 235 255
221 235 255
221 235 255
221 235 255
221 235 255
221 235 255
221 235 255
221 235 255
221 235 255
221 235 255
221 235 255
221 235 255
221 235 255
221 235 255
221 235 255
221 235 255
221 235 255
221 235 255
221 235 255
221 235 255
221 235 255
221 235 255
221 235 255
221 235 255
221 235 255
221 235 255
221 235 255
221 235 255
221 235 255
221 235 255
221 235 255
221 235 255
221 235 255
221 235 255
221 235 255
221 235 255
221 235 255
221 235 255
221 235 255
221 235 255
221 235 255
221 235 255
221 235 255
221 235 255
221 235 255
221 235 255
221 235 255
221 235 255
221 235 255
221 235 255
221 235 255
221 235 255
221 235 255
221 235 255
221 235 255
221 235 255
221 235 255
221 235 255
221 235 255
221 235 255
221 235 255
221 235 255
221 235 255
221 235 255
221 235 255
221 235 255
221 235 255
221 235 255
221 235 255
221 235 255
221 235 255
221 235 255
221 235 255
221 235 255
221 235 255
221 235 255
221 235 255
221 235 255
221 235 255
221 235 255
221 235 255
221 235 255
221 235 255
221 235 255
221 235 255
221 235 255
221 235 255
221 235 255
221 235 255
221 235 255
221 235 255
221 235 255
221 235 255
221 235 255
221 235 255
221 235 255
221 235 255
221 235 255
221 235 255
221 235 255
221 235 255
221 235 255
221 235 255
221 235 255
221 235 255
221 235 255
221 235 255
221 235 255
221 235 255
221 235 255
221 235 255
221 235 255
221 235 255
221 235 255
221 235 255
221 235 255
221 235 255
221 235 255
221 235 255
221 235 255
221 235 255
221 235 255
221 235 255
221 235 255
221 235 255
221 235 255
221 235 255
221 235 255
221 235 255
221 235 255
221 235 255
221 235 255
221 235 255
221 235 255
221 235 255
221 235 255
221 235 255
221 235 255
221 235 255
221 235 255
221 235 255
221 235 255
221 235 255
221 235 255
221 235 255
221 235 255
221 235 255
221 235 255
221 235 255
221 235 255
221 235 255
221 235 255
221 235 255
221 235 255
221 235 255
221 235 255
221 235 255
221 235 255
221 235 255
221 235 255
221 235 255
221 235 255
221 235 255
221 235 255
221 235 255
221 235 255
221 235 255
221 235 255
221 235 255
221 235 255
221 235 255
221 235 255
221 235 255
221 235 255
221 235 255
221 235 255
221 235 255
221 235 255
221 235 255
221 235 255
221 235 255
221 235 255
221 235 255
221 235 255
221 235 255
221 235 255
221 235 255
221 235 255
221 235 255
221 235 255
221 235 255
221 235 255
221 235 255
221 235 255
221 235 255
221 235 255
221 235 255
221 235 255
221 235 255
221 235 255
221 235 255
221 235 255
221 235 255
221 235 255
221 235 255
221 235 255
221 235 255
221 235 255
221 235 255
221 235 255
221 235 255
221 235 255
221 235 255
221 235 255
221 235 255
221 235 255
221 235 255
221 235 255
221 235 255
221 235 255
221 235 255
221 235 255
221 235 255
221 235 255
221 235 255
221 235 255
221 235 255
221 235 255
221 235 255
221 235 255
221 235 255
221 235 255
221 235 255
221 235 255
221 235 255
221 235 255
221 235 255
221 235 255
221 235 255
221 235 255
221 235 255
221 235 255
221 235 255
221 235 255
221 235 255
221 235 255
221 235 255
221 235 255
221 235 255
221 235 255
221 235 255
221 235 255
221 235 255
221 235 255
221 235 255
221 235 255
221 235 255
221 235 255
221 235 255
221 235 255
221 235 255
221 235 255
221 235 255
221 235 255
221 235 255
221 235 255
221 235 255
221 235 255
221 235 255
221 235 255
221 235 255
221 235 255
221 235 255
221 235 255
221 235 255
221 235 255
221 235 255
221 235 255
221 235 255
221 235 255
221 235 255
221 235 255
221 235 255
221 235 255
221 235 255
221 235 255
221 235 255
221 235 255
221 235 255
221 235 255
221 235 255
221 235 255
221 235 255
221 235 255
221 235 255
221 235 255
221 235 255
221 235 255
221 235 255
221 235 255
221 235 255
221 235 255
221 235 255
221 235 255
221 235 255
221 235 255
221 235 255
221 235 255
221 235 255
221 235 255
221 235 255
221 235 255
221 235 255
221 235 255
221 235 255
221 235 255
221 235 255
221 235 255
221 235 255
221 235 255
221 235 255
221 235 255
221 235 255
221 235 255
221 235 255
221 235 255
221 235 255
221 235 255
221 235 255
221 235 255
221 235 255
221 235 255
221 235 255
221 235 255
221 235 255
221 235 255
221 235 255
221 235 255
221 235 255
221 235 255
221 235 255
221 235 255
221 235 255
221 235 255
221 235 255
221 235 255
221 235 255
221 235 255
221 235 255
221 235 255
221 235 255
221 235 255
221 235 255
221 235 255
221 235 255
221 235 255
221 235 255
221 235 255
221 235 255
221 235 255
221 235 255
221 235 255
221 235 255
221 235 255
221 235 255
221 235 255
221 235 255
221 235 255
221 235 255
221 235 255
221 235 255
221 235 255
221 235 255
221 235 255
221 235 255
221 235 255
221 235 255
221 235 255
221 235 255
221 235 255
221 235 255
221 235 255
221 235 255
221 235 255
221 235 255
221 235 255
221 235 255
221 235 255
221 235 255
221 235 255
221 235 255
221 235 255
221 235 255
221 235 255
221 235 255
221 235 255
221 235 255
221 235 255
221 235 255
221 235 255
221 235 255
221 235 255
221 235 255
221 235 255
221 235 255
221 235 255
221 235 255
221 235 255
221 235 255
221 235 255
221 235 255
221 235 255
221 235 255
221 235 255
221 235 255
221 235 255
221 235 255
221 235 255
221 235 255
221 235 255
221 235 255
221 235 255
221 235 255
221 235 255
221 235 255
221 235 255
221 235 255
221 235 255
221 235 255
221 235 255
221 235 255
221 235 255
221 235 255
221 235 255
221 235 255
221 235 255
221 235 255
221 235 255
221 235 255
221 235 255
221 235 255
221 235 255
221 235 255
221 235 255
221 235 255
221 235 255
221 235 255
221 235 255
221 235 255
221 235 255
221 235 255
221 235 255
221 235 255
221 235 255
221 235 255
221 235 255
221 235 255
221 235 255
221 235 255
221 235 255
221 235 255
221 235 255
221 235 255
221 235 255
221 235 255
221 235 255
221 235 255
221 235 255
221 235 255
221 235 255
221 235 255
221 235 255
221 235 255
221 235 255
221 235 255
221 235 255
221 235 255
221 235 255
221 235 255
221 235 255
221 235 255
221 235 255
221 235 255
221 235 255
221 235 255
221 235 255
221 235 255
221 235 255
221 235 255
221 235 255
221 235 255
221 235 255
221 235 255
221 235 255
221 235 255
221 235 255
221 235 255
221 235 255
221 235 255
221 235 255
221 235 255
221 235 255
221 235 255
221 235 255
221 235 255
221 235 255
221 235 255
221 235 255
221 235 255
221 235 255
221 235 255
221 235 255
221 235 255
221 235 255
221 235 255
221 235 255
221 235 255
221 235 255
221 235 255
221 235 255
221 235 255
221 235 255
221 235 255
221 235 255
221 235 255
221 235 255
221 235 255
221 235 255
221 235 255
221 235 255
221 235 255
221 235 255
221 235 255
221 235 255
221 235 255
221 235 255
221 235 255
221 235 255
221 235 255
221 235 255
221 235 255
221 235 255
221 235 255
221 235 255
221 235 255
221 235 255
221 235 255
221 235 255
221 235 255
221 235 255
221 235 255
221 235 255
221 235 255
221 235 255
221 235 255
221 235 255
221 235 255
221 235 255
221 235 255
221 235 255
221 235 255
221 235 255
221 235 255
221 235 255
221 235 255
221 235 255
221 235 255
221 235 255
221 235 255
221 235 255
221 235 255
221 235 255
221 235 255
221 235 255
221 235 255
221 235 255
221 235 255
221 235 255
221 235 255
221 235 255
221 235 255
221 235 255
221 235 255
221 235 255
221 235 255
221 235 255
221 235 255
221 235 255
221 235 255
221 235 255
221 235 255
221 235 255
221 235 255
221 235 255
221 235 255
221 235 255
221 235 255
221 235 255
221 235 255
221 235 255
221 235 255
221 235 255
221 235 255
221 235 255
221 235 255
221 235 255
221 235 255
221 235 255
221 235 255
221 235 255
221 235 255
221 235 255
221 235 255
221 235 255
221 235 255
221 235 255
221 235 255
221 235 255
221 235 255
221 235 255
221 235 255
221 235 255
221 235 255
221 235 255
221 235 255
221 235 255
221 235 255
221 235 255
221 235 255
221 235 255
221 235 255
221 235 255
221 235 255
221 235 255
221 235 255
221 235 255
221 235 255
221 235 255
221 235 255
221 235 255
221 235 255
221 235 255
221 235 255
221 235 255
221 235 255
221 235 255
221 235 255
221 235 255
221 235 255
221 235 255
221 235 255
221 235 255
221 235 255
221 235 255
221 235 255
221 235 255
221 235 255
221 235 255
221 235 255
221 235 255
221 235 255
221 235 255
221 235 255
221 235 255
221 235 255
221 235 255
221 235 255
221 235 255
221 235 255
221 235 255
221 235 255
221 235 255
221 235 255
221 235 255
221 235 255
221 235 255
221 235 255
221 235 255
221 235 255
221 235 255
221 235 255
221 235 255
221 235 255
221 235 255
221 235 255
221 235 255
221 235 255
221 235 255
221 235 255
221 235 255
221 235 255
221 235 255
221 235 255
221 235 255
221 235 255
221 235 255
221 235 255
221 235 255
221 235 255
221 235 255
221 235 255
221 235 255
221 235 255
221 235 255
221 235 255
221 235 255
221 235 255
221 235 255
221 235 255
221 235 255
221 235 255
221 235 255
221 235 255
221 235 255
221 235 255
221 235 255
221 235 255
221 235 255
221 235 255
221 235 255
221 235 255
221 235 255
221 235 255
221 235 255
221 235 255
221 235 255
221 235 255
221 235 255
221 235 255
221 235 255
221 235 255
221 235 255
221 235 255
221 235 255
221 235 255
221 235 255
221 235 255
221 235 255
221 235 255
221 235 255
221 235 255
221 235 255
221 235 255
221 235 255
221 235 255
221 235 255
221 235 255
221 235 255
221 235 255
221 235 255
221 235 255
221 235 255
221 235 255
221 235 255
221 235 255
221 235 255
221 235 255
221 235 255
221 235 255
221 235 255
221 235 255
221 235 255
221 235 255
221 235 255
221 235 255
221 235 255
221 235 255
221 235 255
221 235 255
221 235 255
221 235 255
221 235 255
221 235 255
221 235 255
221 235 255
221 235 255
221 235 255
221 235 255
221 235 255
221 235 255
221 235 255
221 235 255
221 235 255
221 235 255
221 235 255
221 235 255
221 235 255
221 235 255
221 235 255
221 235 255
221 235 255
221 235 255
221 235 255
221 235 255
221 235 255
221 235 255
221 235 255
221 235 255
221 235 255
221 235 255
221 235 255
221 235 255
221 235 255
221 235 255
221 235 255
221 235 255
221 235 255
221 235 255
221 235 255
221 235 255
221 235 255
221 235 255
221 235 255
221 235 255
221 235 255
221 235 255
221 235 255
221 235 255
221 235 255
221 235 255
221 235 255
221 235 255
221 235 255
221 235 255
221 235 255
221 235 255
221 235 255
221 235 255
221 235 255
221 235 255
221 235 255
221 235 255
221 235 255
221 235 255
221 235 255
221 235 255
221 235 255
221 235 255
221 235 255
221 235 255
221 235 255
221 235 255
221 235 255
221 235 255
221 235 255
221 235 255
221 235 255
221 235 255
221 235 255
221 235 255
221 235 255
221 235 255
221 235 255
221 235 255
221 235 255
221 235 255
221 235 255
221 235 255
221 235 255
221 235 255
221 235 255
221 235 255
221 235 255
221 235 255
221 235 255
221 235 255
221 235 255
221 235 255
221 235 255
221 235 255
221 235 255
221 235 255
221 235 255
221 235 255
221 235 255
221 235 255
221 235 255
221 235 255
221 235 255
221 235 255
221 235 255
221 235 255
221 235 255
221 235 255
221 235 255
221 235 255
221 235 255
221 235 255
221 235 255
221 235 255
221 235 255
221 235 255
221 235 255
221 235 255
221 235 255
221 235 255
221 235 255
221 235 255
221 235 255
221 235 255
221 235 255
221 235 255
221 235 255
221 235 255
221 235 255
221 235 255
221 235 255
221 235 255
221 235 255
221 235 255
221 235 255
221 235 255
221 235 255
221 235 255
221 235 255
221 235 255
221 235 255
221 235 255
221 235 255
221 235 255
221 235 255
221 236 255
221 236 255
221 236 255
221 236 255
221 236 255
221 236 255
221 236 255
221 236 255
221 236 255
221 236 255
221 236 255
221 236 255
221 236 255
221 236 255
221 236 255
221 236 255
221 236 255
221 236 255
221 236 255
221 236 255
221 236 255
221 236 255
221 236 255
221 236 255
221 236 255
221 236 255
221 236 255
221 236 255
221 236 255
221 236 255
221 236 255
221 236 255
221 236 255
221 236 255
221 236 255
221 236 255
221 236 255
221 236 255
221 236 255
221 236 255
221 236 255
221 236 255
221 236 255
221 236 255
221 236 255
221 236 255
221 236 255
221 236 255
221 236 255
221 236 255
221 236 255
221 236 255
221 236 255
221 236 255
221 236 255
221 236 255
221 236 255
221 236 255
221 236 255
221 236 255
221 236 255
221 236 255
221 236 255
221 236 255
221 236 255
221 236 255
221 236 255
221 236 255
221 236 255
221 236 255
221 236 255
221 236 255
221 236 255
221 236 255
221 236 255
221 236 255
221 236 255
221 236 255
221 236 255
221 236 255
221 236 255
221 236 255
221 236 255
221 236 255
221 236 255
221 236 255
221 236 255
221 236 255
221 236 255
221 236 255
221 236 255
221 236 255
221 236 255
221 236 255
221 236 255
221 236 255
221 236 255
221 236 255
221 236 255
221 236 255
221 236 255
221 236 255
221 236 255
221 236 255
221 236 255
221 236 255
221 236 255
221 236 255
221 236 255
221 236 255
221 236 255
221 236 255
221 236 255
221 236 255
221 236 255
221 236 255
221 236 255
221 236 255
221 236 255
221 236 255
221 236 255
221 236 255
221 236 255
221 236 255
221 236 255
221 236 255
221 236 255
221 236 255
221 236 255
221 236 255
221 236 255
221 236 255
221 236 255
221 236 255
221 236 255
221 236 255
221 236 255
221 236 255
221 236 255
221 236 255
221 236 255
221 236 255
221 236 255
221 236 255
221 236 255
221 236 255
221 236 255
221 236 255
221 236 255
221 236 255
221 236 255
221 236 255
221 236 255
221 236 255
221 236 255
221 236 255
221 236 255
221 236 255
221 236 255
221 236 255
221 236 255
221 236 255
221 236 255
221 236 255
221 236 255
221 236 255
221 236 255
221 236 255
221 236 255
221 236 255
221 236 255
221 236 255
221 236 255
221 236 255
221 236 255
221 236 255
221 236 255
221 236 255
221 236 255
221 236 255
221 236 255
221 236 255
221 236 255
221 236 255
221 236 255
221 236 255
221 236 255
221 236 255
221 236 255
221 236 255
221 236 255
221 236 255
221 236 255
221 236 255
221 236 255
221 236 255
221 236 255
221 236 255
221 236 255
221 236 255
221 236 255
221 236 255
221 236 255
221 236 255
221 236 255
221 236 255
221 236 255
221 236 255
221 236 255
221 236 255
221 236 255
221 236 255
221 236 255
221 236 255
221 236 255
221 236 255
221 236 255
221 236 255
221 236 255
221 236 255
221 236 255
221 236 255
221 236 255
221 236 255
221 236 255
221 236 255
221 236 255
221 236 255
221 236 255
221 236 255
221 236 255
221 236 255
221 236 255
221 236 255
221 236 255
221 236 255
221 236 255
221 236 255
221 236 255
221 236 255
221 236 255
221 236 255
221 236 255
221 236 255
221 236 255
221 236 255
221 236 255
221 236 255
221 236 255
221 236 255
221 236 255
221 236 255
221 236 255
221 236 255
221 236 255
221 236 255
221 236 255
221 236 255
221 236 255
221 236 255
221 236 255
221 236 255
221 236 255
221 236 255
221 236 255
221 236 255
221 236 255
221 236 255
221 236 255
221 236 255
221 236 255
221 236 255
221 236 255
221 236 255
221 236 255
221 236 255
221 236 255
221 236 255
221 236 255
221 236 255
221 236 255
221 236 255
221 236 255
221 236 255
221 236 255
221 236 255
221 236 255
221 236 255
221 236 255
221 236 255
221 236 255
221 236 255
221 236 255
221 236 255
221 236 255
221 236 255
221 236 255
221 236 255
221 236 255
221 236 255
221 236 255
221 236 255
221 236 255
221 236 255
221 236 255
221 236 255
221 236 255
221 236 255
221 236 255
221 236 255
221 236 255
221 236 255
221 236 255
221 236 255
221 236 255
221 236 255
221 236 255
221 236 255
221 236 255
221 236 255
221 236 255
221 236 255
221 236 255
221 236 255
221 236 255
221 236 255
221 236 255
221 236 255
221 236 255
221 236 255
221 236 255
221 236 255
221 236 255
221 236 255
221 236 255
221 236 255
221 236 255
221 236 255
221 236 255
221 236 255
221 236 255
221 236 255
221 236 255
221 236 255
221 236 255
221 236 255
221 236 255
221 236 255
221 236 255
221 236 255
221 236 255
221 236 255
221 236 255
221 236 255
221 236 255
221 236 255
221 236 255
221 236 255
221 236 255
221 236 255
221 236 255
221 236 255
221 236 255
221 236 255
221 236 255
221 236 255
221 236 255
221 236 255
221 236 255
221 236 255
221 236 255
221 236 255
221 236 255
221 236 255
221 236 255
221 236 255
221 236 255
221 236 255
221 236 255
221 236 255
221 236 255
221 236 255
221 236 255
221 236 255
221 236 255
221 236 255
221 236 255
221 236 255
221 236 255
221 236 255
221 236 255
221 236 255
221 236 255
221 236 255
221 236 255
221 236 255
221 236 255
221 236 255
221 236 255
221 236 255
221 236 255
221 236 255
221 236 255
221 236 255
221 236 255
221 236 255
221 236 255
221 236 255
221 236 255
221 236 255
221 236 255
221 236 255
221 236 255
221 236 255
221 236 255
221 236 255
221 236 255
221 236 255
221 236 255
221 236 255
221 236 255
221 236 255
221 236 255
221 236 255
221 236 255
221 236 255
221 236 255
221 236 255
221 236 255
221 236 255
221 236 255
221 236 255
221 236 255
221 236 255
221 236 255
221 236 255
221 236 255
221 236 255
221 236 255
221 236 255
221 236 255
221 236 255
221 236 255
221 236 255
221 236 255
221 236 255
221 236 255
221 236 255
221 236 255
221 236 255
221 236 255
221 236 255
221 236 255
221 236 255
221 236 255
221 236 255
221 236 255
221 236 255
221 236 255
221 236 255
221 236 255
221 236 255
221 236 255
221 236 255
221 236 255
221 236 255
221 236 255
221 236 255
221 236 255
221 236 255
221 236 255
221 236 255
221 236 255
221 236 255
221 236 255
221 236 255
221 236 255
221 236 255
221 236 255
221 236 255
221 236 255
221 236 255
221 236 255
221 236 255
221 236 255
221 236 255
221 236 255
221 236 255
221 236 255
221 236 255
221 236 255
221 236 255
221 236 255
221 236 255
221 236 255
221 236 255
221 236 255
221 236 255
221 236 255
221 236 255
221 236 255
221 236 255
221 236 255
221 236 255
221 236 255
221 236 255
221 236 255
221 236 255
221 236 255
221 236 255
221 236 255
221 236 255
221 236 255
221 236 255
221 236 255
221 236 255
222 236 255
221 236 255
221 236 255
222 236 255
222 236 255
222 236 255
221 236 255
222 236 255
222 236 255
222 236 255
221 236 255
222 236 255
222 236 255
221 236 255
222 236 255
222 236 255
222 236 255
222 236 255
222 236 255
222 236 255
222 236 255
222 236 255
222 236 255
222 236 255
222 236 255
222 236 255
222 236 255
222 236 255
222 236 255
222 236 255
222 236 255
222 236 255
222 236 255
222 236 255
222 236 255
222 236 255
222 236 255
222 236 255
222 236 255
222 236 255
222 236 255
222 236 255
222 236 255
222 236 255
222 236 255
222 236 255
222 236 255
222 236 255
222 236 255
222 236 255
222 236 255
222 236 255
222 236 255
222 236 255
222 236 255
222 236 255
222 236 255
222 236 255
222 236 255
222 236 255
222 236 255
222 236 255
222 236 255
222 236 255
222 236 255
222 236 255
222 236 255
222 236 255
222 236 255
222 236 255
222 236 255
222 236 255
222 236 255
222 236 255
222 236 255
222 236 255
222 236 255
222 236 255
222 236 255
222 236 255
222 236 255
222 236 255
222 236 255
222 236 255
222 236 255
222 236 255
222 236 255
222 236 255
222 236 255
222 236 255
222 236 255
222 236 255
222 236 255
222 236 255
222 236 255
222 236 255
222 236 255
222 236 255
222 236 255
222 236 255
222 236 255
222 236 255
222 236 255
222 236 255
222 236 255
222 236 255
222 236 255
222 236 255
222 236 255
222 236 255
222 236 255
222 236 255
222 236 255
222 236 255
222 236 255
222 236 255
222 236 255
222 236 255
222 236 255
222 236 255
222 236 255
222 236 255
222 236 255
222 236 255
222 236 255
222 236 255
222 236 255
222 236 255
222 236 255
222 236 255
222 236 255
222 236 255
222 236 255
222 236 255
222 236 255
222 236 255
222 236 255
222 236 255
222 236 255
222 236 255
222 236 255
222 236 255
222 236 255
222 236 255
222 236 255
222 236 255
222 236 255
222 236 255
222 236 255
222 236 255
222 236 255
222 236 255
222 236 255
222 236 255
222 236 255
221 236 255
222 236 255
222 236 255
221 236 255
222 236 255
221 236 255
222 236 255
222 236 255
221 236 255
221 236 255
221 236 255
221 236 255
221 236 255
221 236 255
221 236 255
221 236 255
221 236 255
221 236 255
221 236 255
221 236 255
221 236 255
221 236 255
221 236 255
221 236 255
221 236 255
221 236 255
221 236 255
221 236 255
221 236 255
221 236 255
221 236 255
221 236 255
221 236 255
221 236 255
221 236 255
221 236 255
221 236 255
221 236 255
221 236 255
221 236 255
221 236 255
221 236 255
221 236 255
221 236 255
221 236 255
221 236 255
221 236 255
221 236 255
221 236 255
221 236 255
221 236 255
221 236 255
221 236 255
221 236 255
221 236 255
221 236 255
221 236 255
221 236 255
221 236 255
221 236 255
221 236 255
221 236 255
221 236 255
221 236 255
221 236 255
221 236 255
221 236 255
221 236 255
221 236 255
221 236 255
221 236 255
221 236 255
221 236 255
221 236 255
221 236 255
221 236 255
221 236 255
221 236 255
221 236 255
221 236 255
221 236 255
221 236 255
221 236 255
221 236 255
221 236 255
221 236 255
221 236 255
221 236 255
221 236 255
221 236 255
221 236 255
221 236 255
221 236 255
221 236 255
221 236 255
221 236 255
221 236 255
221 236 255
221 236 255
221 236 255
221 236 255
221 236 255
221 236 255
221 236 255
221 236 255
221 236 255
221 236 255
221 236 255
221 236 255
221 236 255
221 236 255
221 236 255
221 236 255
221 236 255
221 236 255
221 236 255
221 236 255
221 236 255
221 236 255
221 236 255
221 236 255
221 236 255
221 236 255
221 236 255
221 236 255
221 236 255
221 236 255
221 236 255
221 236 255
222 236 255
222 236 255
222 236 255
222 236 255
222 236 255
222 236 255
222 236 255
222 236 255
222 236 255
222 236 255
222 236 255
222 236 255
222 236 255
222 236 255
222 236 255
222 236 255
222 236 255
222 236 255
222 236 255
222 236 255
222 236 255
222 236 255
222 236 255
222 236 255
222 236 255
222 236 255
222 236 255
222 236 255
222 236 255
222 236 255
222 236 255
222 236 255
222 236 255
222 236 255
222 236 255
222 236 255
222 236 255
222 236 255
222 236 255
222 236 255
222 236 255
222 236 255
222 236 255
222 236 255
222 236 255
222 236 255
222 236 255
222 236 255
222 236 255
222 236 255
222 236 255
222 236 255
222 236 255
222 236 255
222 236 255
222 236 255
222 236 255
222 236 255
222 236 255
222 236 255
222 236 255
222 236 255
222 236 255
222 236 255
222 236 255
222 236 255
222 236 255
222 236 255
222 236 255
222 236 255
222 236 255
222 236 255
222 236 255
222 236 255
222 236 255
222 236 255
222 236 255
222 236 255
222 236 255
222 236 255
222 236 255
222 236 255
222 236 255
222 236 255
222 236 255
222 236 255
222 236 255
222 236 255
222 236 255
222 236 255
222 236 255
222 236 255
222 236 255
222 236 255
222 236 255
222 236 255
222 236 255
222 236 255
222 236 255
222 236 255
222 236 255
222 236 255
222 236 255
222 236 255
222 236 255
222 236 255
222 236 255
222 236 255
222 236 255
222 236 255
222 236 255
222 236 255
222 236 255
222 236 255
222 236 255
222 236 255
222 236 255
222 236 255
222 236 255
222 236 255
222 236 255
222 236 255
222 236 255
222 236 255
222 236 255
222 236 255
222 236 255
222 236 255
222 236 255
222 236 255
222 236 255
222 236 255
222 236 255
222 236 255
222 236 255
222 236 255
222 236 255
222 236 255
222 236 255
222 236 255
222 236 255
222 236 255
222 236 255
222 236 255
222 236 255
222 236 255
222 236 255
222 236 255
222 236 255
222 236 255
222 236 255
222 236 255
222 236 255
222 236 255
222 236 255
222 236 255
222 236 255
222 236 255
222 236 255
222 236 255
222 236 255
222 236 255
222 236 255
222 236 255
222 236 255
222 236 255
222 236 255
222 236 255
222 236 255
222 236 255
222 236 255
222 236 255
222 236 255
222 236 255
222 236 255
222 236 255
222 236 255
222 236 255
222 236 255
222 236 255
222 236 255
222 236 255
222 236 255
222 236 255
222 236 255
222 236 255
222 236 255
222 236 255
222 236 255
222 236 255
222 236 255
222 236 255
222 236 255
222 236 255
222 236 255
222 236 255
222 236 255
222 236 255
222 236 255
222 236 255
222 236 255
222 236 255
222 236 255
222 236 255
222 236 255
222 236 255
222 236 255
222 236 255
222 236 255
222 236 255
222 236 255
222 236 255
222 236 255
222 236 255
222 236 255
222 236 255
222 236 255
222 236 255
222 236 255
222 236 255
222 236 255
222 236 255
222 236 255
222 236 255
222 236 255
222 236 255
222 236 255
222 236 255
222 236 255
222 236 255
222 236 255
222 236 255
222 236 255
222 236 255
222 236 255
222 236 255
222 236 255
222 236 255
222 236 255
222 236 255
222 236 255
222 236 255
222 236 255
222 236 255
222 236 255
222 236 255
222 236 255
222 236 255
222 236 255
222 236 255
222 236 255
222 236 255
222 236 255
222 236 255
222 236 255
222 236 255
222 236 255
222 236 255
222 236 255
222 236 255
222 236 255
222 236 255
222 236 255
222 236 255
222 236 255
222 236 255
222 236 255
222 236 255
222 236 255
222 236 255
222 236 255
222 236 255
222 236 255
222 236 255
222 236 255
222 236 255
222 236 255
222 236 255
222 236 255
222 236 255
222 236 255
222 236 255
222 236 255
222 236 255
222 236 255
222 236 255
222 236 255
222 236 255
222 236 255
222 236 255
222 236 255
222 236 255
222 236 255
222 236 255
222 236 255
222 236 255
222 236 255
222 236 255
222 236 255
222 236 255
222 236 255
222 236 255
222 236 255
222 236 255
222 236 255
222 236 255
222 236 255
222 236 255
222 236 255
222 236 255
222 236 255
222 236 255
222 236 255
222 236 255
222 236 255
222 236 255
222 236 255
222 236 255
222 236 255
222 236 255
222 236 255
222 236 255
222 236 255
222 236 255
222 236 255
222 236 255
222 236 255
222 236 255
222 236 255
222 236 255
222 236 255
222 236 255
222 236 255
222 236 255
222 236 255
222 236 255
222 236 255
222 236 255
222 236 255
222 236 255
222 236 255
222 236 255
222 236 255
222 236 255
222 236 255
222 236 255
222 236 255
222 236 255
222 236 255
222 236 255
222 236 255
222 236 255
222 236 255
222 236 255
222 236 255
222 236 255
222 236 255
222 236 255
222 236 255
222 236 255
222 236 255
222 236 255
222 236 255
222 236 255
222 236 255
222 236 255
222 236 255
222 236 255
222 236 255
222 236 255
222 236 255
222 236 255
222 236 255
222 236 255
222 236 255
222 236 255
222 236 255
222 236 255
222 236 255
222 236 255
222 236 255
222 236 255
222 236 255
222 236 255
222 236 255
222 236 255
222 236 255
222 236 255
222 236 255
222 236 255
222 236 255
222 236 255
222 236 255
222 236 255
222 236 255
222 236 255
222 236 255
222 236 255
222 236 255
222 236 255
222 236 255
222 236 255
222 236 255
222 236 255
222 236 255
222 236 255
222 236 255
222 236 255
222 236 255
222 236 255
222 236 255
222 236 255
222 236 255
222 236 255
222 236 255
222 236 255
222 236 255
222 236 255
222 236 255
222 236 255
222 236 255
222 236 255
222 236 255
222 236 255
222 236 255
222 236 255
222 236 255
222 236 255
222 236 255
222 236 255
222 236 255
222 236 255
222 236 255
222 236 255
222 236 255
222 236 255
222 236 255
222 236 255
222 236 255
222 236 255
222 236 255
222 236 255
222 236 255
222 236 255
222 236 255
222 236 255
222 236 255
222 236 255
222 236 255
222 236 255
222 236 255
222 236 255
222 236 255
222 236 255
222 236 255
222 236 255
222 236 255
222 236 255
222 236 255
222 236 255
222 236 255
222 236 255
222 236 255
222 236 255
222 236 255
222 236 255
222 236 255
222 236 255
222 236 255
222 236 255
222 236 255
222 236 255
222 236 255
222 236 255
222 236 255
222 236 255
222 236 255
222 236 255
222 236 255
222 236 255
222 236 255
222 236 255
222 236 255
222 236 255
222 236 255
222 236 255
222 236 255
222 236 255
222 236 255
222 236 255
222 236 255
222 236 255
222 236 255
222 236 255
222 236 255
222 236 255
222 236 255
222 236 255
222 236 255
222 236 255
222 236 255
222 236 255
222 236 255
222 236 255
222 236 255
222 236 255
222 236 255
222 236 255
222 236 255
222 236 255
222 236 255
222 236 255
222 236 255
222 236 255
222 236 255
222 236 255
222 236 255
222 236 255
222 236 255
222 236 255
222 236 255
222 236 255
222 236 255
222 236 255
222 236 255
222 236 255
222 236 255
222 236 255
222 236 255
222 236 255
222 236 255
222 236 255
222 236 255
222 236 255
222 236 255
222 236 255
222 236 255
222 236 255
222 236 255
222 236 255
222 236 255
222 236 255
222 236 255
222 236 255
222 236 255
222 236 255
222 236 255
222 236 255
222 236 255
222 236 255
222 236 255
222 236 255
222 236 255
222 236 255
222 236 255
222 236 255
222 236 255
222 236 255
222 236 255
222 236 255
222 236 255
222 236 255
222 236 255
222 236 255
222 236 255
222 236 255
222 236 255
222 236 255
222 236 255
222 236 255
222 236 255
222 236 255
222 236 255
222 236 255
222 236 255
222 236 255
222 236 255
222 236 255
222 236 255
222 236 255
222 236 255
222 236 255
222 236 255
222 236 255
222 236 255
222 236 255
222 236 255
222 236 255
222 236 255
222 236 255
222 236 255
222 236 255
222 236 255
222 236 255
222 236 255
222 236 255
222 236 255
222 236 255
222 236 255
222 236 255
222 236 255
222 236 255
222 236 255
222 236 255
222 236 255
222 236 255
222 236 255
222 236 255
222 236 255
222 236 255
222 236 255
222 236 255
222 236 255
222 236 255
222 236 255
222 236 255
222 236 255
222 236 255
222 236 255
222 236 255
222 236 255
222 236 255
222 236 255
222 236 255
222 236 255
222 236 255
222 236 255
222 236 255
222 236 255
222 236 255
222 236 255
222 236 255
222 236 255
222 236 255
222 236 255
222 236 255
222 236 255
222 236 255
222 236 255
222 236 255
222 236 255
222 236 255
222 236 255
222 236 255
222 236 255
222 236 255
222 236 255
222 236 255
222 236 255
222 236 255
222 236 255
222 236 255
222 236 255
222 236 255
222 236 255
222 236 255
222 236 255
222 236 255
222 236 255
222 236 255
222 236 255
222 236 255
222 236 255
222 236 255
222 236 255
222 236 255
222 236 255
222 236 255
222 236 255
222 236 255
222 236 255
222 236 255
222 236 255
222 236 255
222 236 255
222 236 255
222 236 255
222 236 255
222 236 255
222 236 255
222 236 255
222 236 255
222 236 255
222 236 255
222 236 255
222 236 255
222 236 255
222 236 255
222 236 255
222 236 255
222 236 255
222 236 255
222 236 255
222 236 255
222 236 255
222 236 255
222 236 255
222 236 255
222 236 255
222 236 255
222 236 255
222 236 255
222 236 255
222 236 255
222 236 255
222 236 255
222 236 255
222 236 255
222 236 255
222 236 255
222 236 255
222 236 255
222 236 255
222 236 255
222 236 255
222 236 255
222 236 255
222 236 255
222 236 255
222 236 255
222 236 255
222 236 255
222 236 255
222 236 255
222 236 255
222 236 255
222 236 255
222 236 255
222 236 255
222 236 255
222 236 255
222 236 255
222 236 255
222 236 255
222 236 255
222 236 255
222 236 255
222 236 255
222 236 255
222 236 255
222 236 255
222 236 255
222 236 255
222 236 255
222 236 255
222 236 255
222 236 255
222 236 255
222 236 255
222 236 255
222 236 255
222 236 255
222 236 255
222 236 255
222 236 255
222 236 255
222 236 255
222 236 255
222 236 255
222 236 255
222 236 255
222 236 255
222 236 255
222 236 255
222 236 255
222 236 255
222 236 255
222 236 255
222 236 255
222 236 255
222 236 255
222 236 255
222 236 255
222 236 255
222 236 255
222 236 255
222 236 255
222 236 255
222 236 255
222 236 255
222 236 255
222 236 255
222 236 255
222 236 255
222 236 255
222 236 255
222 236 255
222 236 255
222 236 255
222 236 255
222 236 255
222 236 255
222 236 255
222 236 255
222 236 255
222 236 255
222 236 255
222 236 255
222 236 255
222 236 255
222 236 255
222 236 255
222 236 255
222 236 255
222 236 255
222 236 255
222 236 255
222 236 255
222 236 255
222 236 255
222 236 255
222 236 255
222 236 255
222 236 255
222 236 255
222 236 255
222 236 255
222 236 255
222 236 255
222 236 255
222 236 255
222 236 255
222 236 255
222 236 255
222 236 255
222 236 255
222 236 255
222 236 255
222 236 255
222 236 255
222 236 255
222 236 255
222 236 255
222 236 255
222 236 255
222 236 255
222 236 255
222 236 255
222 236 255
222 236 255
222 236 255
222 236 255
222 236 255
222 236 255
222 236 255
222 236 255
222 236 255
222 236 255
222 236 255
222 236 255
222 236 255
222 236 255
222 236 255
222 236 255
222 236 255
222 236 255
222 236 255
222 236 255
222 236 255
222 236 255
222 236 255
222 236 255
222 236 255
222 236 255
222 236 255
222 236 255
222 236 255
222 236 255
222 236 255
222 236 255
222 236 255
222 236 255
222 236 255
222 236 255
222 236 255
222 236 255
222 236 255
222 236 255
222 236 255
222 236 255
222 236 255
222 236 255
222 236 255
222 236 255
222 236 255
222 236 255
222 236 255
222 236 255
222 236 255
222 236 255
222 236 255
222 236 255
222 236 255
222 236 255
222 236 255
222 236 255
222 236 255
222 236 255
222 236 255
222 236 255
222 236 255
222 236 255
222 236 255
222 236 255
222 236 255
222 236 255
222 236 255
222 236 255
222 236 255
222 236 255
222 236 255
222 236 255
222 236 255
222 236 255
222 236 255
222 236 255
222 236 255
222 236 255
222 236 255
222 236 255
222 236 255
222 236 255
222 236 255
222 236 255
222 236 255
222 236 255
222 236 255
222 236 255
222 236 255
222 236 255
222 236 255
222 236 255
222 236 255
222 236 255
222 236 255
222 236 255
222 236 255
222 236 255
222 236 255
222 236 255
222 236 255
222 236 255
222 236 255
222 236 255
222 236 255
222 236 255
222 236 255
222 236 255
222 236 255
222 236 255
222 236 255
222 236 255
222 236 255
222 236 255
222 236 255
222 236 255
222 236 255
222 236 255
222 236 255
222 236 255
222 236 255
222 236 255
222 236 255
222 236 255
222 236 255
222 236 255
222 236 255
222 236 255
222 236 255
222 236 255
222 236 255
222 236 255
222 236 255
222 236 255
222 236 255
222 236 255
222 236 255
222 236 255
222 236 255
222 236 255
222 236 255
222 236 255
222 236 255
222 236 255
222 236 255
222 236 255
222 236 255
222 236 255
222 236 255
222 236 255
222 236 255
222 236 255
222 236 255
222 236 255
222 236 255
222 236 255
222 236 255
222 236 255
222 236 255
222 236 255
222 236 255
222 236 255
222 236 255
222 236 255
222 236 255
222 236 255
222 236 255
222 236 255
222 236 255
222 236 255
222 236 255
222 236 255
222 236 255
222 236 255
222 236 255
222 236 255
222 236 255
222 236 255
222 236 255
222 236 255
222 236 255
222 236 255
222 236 255
222 236 255
222 236 255
222 236 255
222 236 255
222 236 255
222 236 255
222 236 255
222 236 255
222 236 255
222 236 255
222 236 255
222 236 255
222 236 255
222 236 255
222 236 255
222 236 255
222 236 255
222 236 255
222 236 255
222 236 255
222 236 255
222 236 255
222 236 255
222 236 255
222 236 255
222 236 255
222 236 255
222 236 255
222 236 255
222 236 255
222 236 255
222 236 255
222 236 255
222 236 255
222 236 255
222 236 255
222 236 255
222 236 255
222 236 255
222 236 255
222 236 255
222 236 255
222 236 255
222 236 255
222 236 255
222 236 255
222 236 255
222 236 255
222 236 255
222 236 255
222 236 255
222 236 255
222 236 255
222 236 255
222 236 255
222 236 255
222 236 255
222 236 255
222 236 255
222 236 255
222 236 255
222 236 255
222 236 255
222 236 255
222 236 255
222 236 255
222 236 255
222 236 255
222 236 255
222 236 255
222 236 255
222 236 255
222 236 255
222 236 255
222 236 255
222 236 255
222 236 255
222 236 255
222 236 255
222 236 255
222 236 255
222 236 255
222 236 255
222 236 255
222 236 255
222 236 255
222 236 255
222 236 255
222 236 255
222 236 255
222 236 255
222 236 255
222 236 255
222 236 255
222 236 255
222 236 255
222 236 255
222 236 255
222 236 255
222 236 255
222 236 255
222 236 255
222 236 255
222 236 255
222 236 255
222 236 255
222 236 255
222 236 255
222 236 255
222 236 255
222 236 255
222 236 255
222 236 255
222 236 255
222 236 255
222 236 255
222 236 255
222 236 255
222 236 255
222 236 255
222 236 255
222 236 255
222 236 255
222 236 255
222 236 255
222 236 255
222 236 255
222 236 255
222 236 255
222 236 255
222 236 255
222 236 255
222 236 255
222 236 255
222 236 255
222 236 255
222 236 255
222 236 255
222 236 255
222 236 255
222 236 255
222 236 255
222 236 255
222 236 255
222 236 255
222 236 255
222 236 255
222 236 255
222 236 255
222 236 255
222 236 255
222 236 255
222 236 255
222 236 255
222 236 255
222 236 255
222 236 255
222 236 255
222 236 255
222 236 255
222 236 255
222 236 255
222 236 255
222 236 255
222 236 255
222 236 255
222 236 255
222 236 255
222 236 255
222 236 255
222 236 255
222 236 255
222 236 255
222 236 255
222 236 255
222 236 255
222 236 255
222 236 255
222 236 255
222 236 255
222 236 255
222 236 255
222 236 255
222 236 255
222 236 255
222 236 255
222 236 255
222 236 255
222 236 255
222 236 255
222 236 255
222 236 255
222 236 255
222 236 255
222 236 255
222 236 255
222 236 255
222 236 255
222 236 255
222 236 255
222 236 255
222 236 255
222 236 255
222 236 255
222 236 255
222 236 255
222 236 255
222 236 255
222 236 255
222 236 255
222 236 255
222 236 255
222 236 255
222 236 255
222 236 255
222 236 255
222 236 255
222 236 255
222 236 255
222 236 255
222 236 255
222 236 255
222 236 255
222 236 255
222 236 255
222 236 255
222 236 255
222 236 255
222 236 255
222 236 255
222 236 255
222 236 255
222 236 255
222 236 255
222 236 255
222 236 255
222 236 255
222 236 255
222 236 255
222 236 255
222 236 255
222 236 255
222 236 255
222 236 255
222 236 255
222 236 255
222 236 255
222 236 255
222 236 255
222 236 255
222 236 255
222 236 255
222 236 255
222 236 255
222 236 255
222 236 255
222 236 255
222 236 255
222 236 255
222 236 255
222 236 255
222 236 255
222 236 255
222 236 255
222 236 255
222 236 255
222 236 255
222 236 255
222 236 255
222 236 255
222 236 255
222 236 255
222 236 255
222 236 255
222 236 255
222 236 255
222 236 255
222 236 255
222 236 255
222 236 255
222 236 255
222 236 255
222 236 255
222 236 255
222 236 255
222 236 255
222 236 255
222 236 255
222 236 255
222 236 255
222 236 255
222 236 255
222 236 255
222 236 255
222 236 255
222 236 255
222 236 255
222 236 255
222 236 255
222 236 255
222 236 255
222 236 255
222 236 255
222 236 255
222 236 255
222 236 255
222 236 255
222 236 255
222 236 255
222 236 255
222 236 255
222 236 255
222 236 255
222 236 255
222 236 255
222 236 255
222 236 255
222 236 255
222 236 255
222 236 255
222 236 255
222 236 255
222 236 255
222 236 255
222 236 255
222 236 255
222 236 255
222 236 255
222 236 255
222 236 255
222 236 255
222 236 255
222 236 255
222 236 255
222 236 255
222 236 255
222 236 255
222 236 255
222 236 255
222 236 255
222 236 255
222 236 255
222 236 255
222 236 255
222 236 255
222 236 255
222 236 255
222 236 255
222 236 255
222 236 255
222 236 255
222 236 255
222 236 255
222 236 255
222 236 255
222 236 255
222 236 255
222 236 255
222 236 255
222 236 255
222 236 255
222 236 255
222 236 255
222 236 255
222 236 255
222 236 255
222 236 255
222 236 255
222 236 255
222 236 255
222 236 255
222 236 255
222 236 255
222 236 255
222 236 255
222 236 255
222 236 255
222 236 255
222 236 255
222 236 255
222 236 255
222 236 255
222 236 255
222 236 255
222 236 255
222 236 255
222 236 255
222 236 255
222 236 255
222 236 255
222 236 255
222 236 255
222 236 255
222 236 255
222 236 255
222 236 255
222 236 255
222 236 255
222 236 255
222 236 255
222 236 255
222 236 255
222 236 255
222 236 255
222 236 255
222 236 255
222 236 255
222 236 255
222 236 255
222 236 255
222 236 255
222 236 255
222 236 255
222 236 255
222 236 255
222 236 255
222 236 255
222 236 255
222 236 255
222 236 255
222 236 255
222 236 255
222 236 255
222 236 255
222 236 255
222 236 255
222 236 255
222 236 255
222 236 255
222 236 255
222 236 255
222 236 255
222 236 255
222 236 255
222 236 255
222 236 255
222 236 255
222 236 255
222 236 255
222 236 255
222 236 255
222 236 255
222 236 255
222 236 255
222 236 255
222 236 255
222 236 255
222 236 255
222 236 255
222 236 255
222 236 255
222 236 255
222 236 255
222 236 255
222 236 255
222 236 255
222 236 255
222 236 255
222 236 255
222 236 255
222 236 255
222 236 255
222 236 255
222 236 255
222 236 255
222 236 255
222 236 255
222 236 255
222 236 255
222 236 255
222 236 255
222 236 255
222 236 255
222 236 255
222 236 255
222 236 255
222 236 255
222 236 255
222 236 255
222 236 255
222 236 255
222 236 255
222 236 255
222 236 255
222 236 255
222 236 255
222 236 255
222 236 255
222 236 255
222 236 255
222 236 255
222 236 255
222 236 255
222 236 255
222 236 255
222 236 255
222 236 255
222 236 255
222 236 255
222 236 255
222 236 255
222 236 255
222 236 255
222 236 255
222 236 255
222 236 255
222 236 255
222 236 255
222 236 255
222 236 255
222 236 255
222 236 255
222 236 255
222 236 255
222 236 255
222 236 255
222 236 255
222 236 255
222 236 255
222 236 255
222 236 255
222 236 255
222 236 255
222 236 255
222 236 255
222 236 255
222 236 255
222 236 255
222 236 255
222 236 255
222 236 255
222 236 255
222 236 255
222 236 255
222 236 255
222 236 255
222 236 255
222 236 255
222 236 255
222 236 255
222 236 255
222 236 255
222 236 255
222 236 255
222 236 255
222 236 255
222 236 255
222 236 255
222 236 255
222 236 255
222 236 255
222 236 255
222 236 255
222 236 255
222 236 255
222 236 255
222 236 255
222 236 255
222 236 255
222 236 255
222 236 255
222 236 255
222 236 255
222 236 255
222 236 255
222 236 255
222 236 255
222 236 255
222 236 255
222 236 255
222 236 255
222 236 255
222 236 255
222 236 255
222 236 255
222 236 255
222 236 255
222 236 255
222 236 255
222 236 255
222 236 255
222 236 255
222 236 255
222 236 255
222 236 255
222 236 255
222 236 255
222 236 255
222 236 255
222 236 255
222 236 255
222 236 255
222 236 255
222 236 255
222 236 255
222 236 255
222 236 255
222 236 255
222 236 255
222 236 255
222 236 255
222 236 255
222 236 255
222 236 255
222 236 255
222 236 255
222 236 255
222 236 255
222 236 255
222 236 255
222 236 255
222 236 255
222 236 255
222 236 255
222 236 255
222 236 255
222 236 255
222 236 255
222 236 255
222 236 255
222 236 255
222 236 255
222 236 255
222 236 255
222 236 255
222 236 255
222 236 255
222 236 255
222 236 255
222 236 255
222 236 255
222 236 255
222 236 255
222 236 255
222 236 255
222 236 255
222 236 255
222 236 255
222 236 255
222 236 255
222 236 255
222 236 255
222 236 255
222 236 255
222 236 255
222 236 255
222 236 255
222 236 255
222 236 255
222 236 255
222 236 255
222 236 255
222 236 255
222 236 255
222 236 255
222 236 255
222 236 255
222 236 255
222 236 255
222 236 255
222 236 255
222 236 255
222 236 255
222 236 255
222 236 255
222 236 255
222 236 255
222 236 255
222 236 255
222 236 255
222 236 255
222 236 255
222 236 255
222 236 255
222 236 255
222 236 255
222 236 255
222 236 255
222 236 255
222 236 255
222 236 255
222 236 255
222 236 255
222 236 255
222 236 255
222 236 255
222 236 255
222 236 255
222 236 255
222 236 255
222 236 255
222 236 255
222 236 255
222 236 255
222 236 255
222 236 255
222 236 255
222 236 255
222 236 255
222 236 255
222 236 255
222 236 255
222 236 255
222 236 255
222 236 255
223 236 255
223 236 255
223 236 255
223 236 255
223 236 255
223 236 255
223 236 255
223 236 255
223 236 255
223 236 255
223 236 255
223 236 255
223 236 255
223 236 255
223 236 255
223 236 255
223 236 255
223 236 255
223 236 255
223 236 255
223 236 255
223 236 255
223 236 255
223 236 255
223 236 255
223 236 255
223 236 255
223 236 255
223 236 255
223 236 255
223 236 255
223 236 255
223 236 255
223 236 255
223 236 255
223 236 255
223 236 255
223 236 255
223 236 255
223 236 255
223 236 255
223 236 255
223 236 255
223 236 255
223 236 255
223 236 255
223 236 255
223 236 255
223 236 255
223 236 255
223 236 255
223 236 255
223 236 255
223 236 255
223 236 255
223 236 255
223 236 255
223 236 255
223 236 255
223 236 255
223 236 255
223 236 255
223 236 255
223 236 255
223 236 255
223 236 255
223 236 255
223 236 255
223 236 255
223 236 255
223 236 255
223 236 255
223 236 255
223 236 255
223 236 255
223 236 255
223 236 255
223 236 255
223 236 255
223 236 255
223 236 255
223 236 255
223 236 255
223 236 255
223 236 255
223 236 255
223 236 255
223 236 255
223 236 255
223 236 255
223 236 255
223 236 255
223 236 255
223 236 255
223 236 255
223 236 255
223 236 255
223 236 255
223 236 255
223 236 255
223 236 255
223 236 255
223 236 255
223 236 255
223 236 255
223 236 255
223 236 255
223 236 255
223 236 255
223 236 255
223 236 255
223 236 255
223 236 255
223 236 255
223 236 255
223 236 255
223 236 255
223 236 255
223 236 255
223 236 255
223 236 255
223 236 255
223 236 255
223 236 255
223 236 255
223 236 255
223 236 255
223 236 255
223 236 255
223 236 255
223 236 255
223 236 255
223 236 255
223 236 255
223 236 255
223 236 255
223 236 255
223 236 255
223 236 255
223 236 255
223 236 255
222 236 255
223 236 255
222 236 255
222 236 255
222 236 255
222 236 255
222 236 255
222 236 255
222 236 255
222 236 255
222 236 255
222 236 255
222 236 255
222 236 255
222 236 255
222 236 255
222 236 255
222 236 255
222 236 255
222 236 255
222 236 255
222 236 255
222 236 255
222 236 255
222 236 255
222 236 255
222 236 255
222 236 255
222 236 255
222 236 255
222 236 255
222 236 255
222 236 255
222 236 255
222 236 255
222 236 255
222 236 255
222 236 255
222 236 255
222 236 255
222 236 255
222 236 255
222 236 255
222 236 255
222 236 255
222 236 255
222 236 255
222 236 255
222 236 255
222 236 255
222 236 255
222 236 255
222 236 255
222 236 255
222 236 255
222 236 255
222 236 255
222 236 255
222 236 255
222 236 255
222 236 255
222 236 255
222 236 255
222 236 255
222 236 255
222 236 255
222 236 255
222 236 255
222 236 255
222 236 255
222 236 255
222 236 255
222 236 255
222 236 255
222 236 255
222 236 255
222 236 255
222 236 255
222 236 255
222 236 255
222 236 255
222 236 255
222 236 255
222 236 255
222 236 255
222 236 255
222 236 255
222 236 255
222 236 255
222 236 255
222 236 255
222 236 255
222 236 255
222 236 255
222 236 255
222 236 255
222 236 255
222 236 255
222 236 255
222 236 255
222 236 255
222 236 255
222 236 255
222 236 255
222 236 255
222 236 255
222 236 255
222 236 255
222 236 255
222 236 255
222 236 255
222 236 255
222 236 255
222 236 255
222 236 255
222 236 255
222 236 255
222 236 255
222 236 255
222 236 255
222 236 255
222 236 255
222 236 255
222 236 255
222 236 255
222 236 255
222 236 255
222 236 255
222 236 255
222 236 255
222 236 255
222 236 255
222 236 255
222 236 255
222 236 255
222 236 255
222 236 255
222 236 255
222 236 255
222 236 255
222 236 255
222 236 255
222 236 255
222 236 255
222 236 255
222 236 255
222 236 255
222 236 255
222 236 255
222 236 255
222 236 255
222 236 255
222 236 255
222 236 255
222 236 255
222 236 255
222 236 255
222 236 255
222 236 255
222 236 255
222 236 255
222 236 255
222 236 255
222 236 255
222 236 255
222 236 255
222 236 255
222 236 255
222 236 255
222 236 255
222 236 255
222 236 255
222 236 255
222 236 255
222 236 255
222 236 255
222 236 255
222 236 255
222 236 255
222 236 255
222 236 255
222 236 255
222 236 255
222 236 255
222 236 255
222 236 255
222 236 255
222 236 255
222 236 255
222 236 255
222 236 255
222 236 255
222 236 255
222 236 255
222 236 255
222 236 255
222 236 255
222 236 255
222 236 255
222 236 255
222 236 255
222 236 255
222 236 255
222 236 255
222 236 255
222 236 255
222 236 255
222 236 255
222 236 255
222 236 255
222 236 255
222 236 255
222 236 255
222 236 255
222 236 255
223 236 255
222 236 255
223 236 255
222 236 255
223 236 255
223 236 255
223 236 255
223 236 255
223 236 255
223 236 255
223 236 255
223 236 255
223 236 255
223 236 255
223 236 255
223 236 255
223 236 255
223 236 255
223 236 255
223 236 255
223 236 255
223 236 255
223 236 255
223 236 255
223 236 255
223 236 255
223 236 255
223 236 255
223 236 255
223 236 255
223 236 255
223 236 255
223 236 255
223 236 255
223 236 255
223 236 255
223 236 255
223 236 255
223 236 255
223 236 255
223 236 255
223 236 255
223 236 255
223 236 255
223 236 255
223 236 255
223 236 255
223 236 255
223 236 255
223 236 255
223 236 255
223 236 255
223 236 255
223 236 255
223 236 255
223 236 255
223 236 255
223 236 255
223 236 255
223 236 255
223 236 255
223 236 255
223 236 255
223 236 255
223 236 255
223 236 255
223 236 255
223 236 255
223 236 255
223 236 255
223 236 255
223 236 255
223 236 255
223 236 255
223 236 255
223 236 255
223 236 255
223 236 255
223 236 255
223 236 255
223 236 255
223 236 255
223 236 255
223 236 255
223 236 255
223 236 255
223 236 255
223 236 255
223 236 255
223 236 255
223 236 255
223 236 255
223 236 255
223 236 255
223 236 255
223 236 255
223 236 255
223 236 255
223 236 255
223 236 255
223 236 255
223 236 255
223 236 255
223 236 255
223 236 255
223 236 255
223 236 255
223 236 255
223 236 255
223 236 255
223 236 255
223 236 255
223 236 255
223 236 255
223 236 255
223 236 255
223 236 255
223 236 255
223 236 255
223 236 255
223 236 255
223 236 255
223 236 255
223 236 255
223 236 255
223 236 255
223 236 255
223 236 255
223 236 255
223 236 255
223 236 255
223 236 255
223 236 255
223 236 255
223 236 255
223 236 255
223 236 255
223 236 255
223 236 255
223 236 255
223 236 255
223 236 255
223 236 255
223 236 255
223 236 255
223 236 255
223 236 255
223 236 255
223 236 255
223 236 255
223 236 255
223 236 255
223 236 255
223 236 255
223 236 255
223 236 255
223 236 255
223 236 255
223 236 255
223 236 255
223 236 255
223 236 255
223 236 255
223 236 255
223 236 255
223 236 255
223 236 255
223 236 255
223 236 255
223 236 255
223 236 255
223 236 255
223 236 255
223 236 255
223 236 255
223 236 255
223 236 255
223 236 255
223 236 255
223 236 255
223 236 255
223 236 255
223 236 255
223 236 255
223 236 255
223 236 255
223 236 255
223 236 255
223 236 255
223 236 255
223 236 255
223 236 255
223 236 255
223 236 255
223 236 255
223 236 255
223 236 255
223 236 255
223 236 255
223 236 255
223 236 255
223 236 255
223 236 255
223 236 255
223 236 255
223 236 255
223 236 255
223 236 255
223 236 255
223 236 255
223 236 255
223 236 255
223 236 255
223 236 255
223 236 255
223 236 255
223 236 255
223 236 255
223 236 255
223 236 255
223 236 255
223 236 255
223 236 255
223 236 255
223 236 255
223 236 255
223 236 255
223 236 255
222 236 255
222 236 255
222 236 255
222 236 255
222 236 255
222 236 255
222 236 255
222 236 255
222 236 255
222 236 255
222 236 255
222 236 255
222 236 255
222 236 255
222 236 255
222 236 255
222 236 255
222 236 255
222 236 255
222 236 255
222 236 255
222 236 255
222 236 255
222 236 255
222 236 255
222 236 255
222 236 255
222 236 255
222 236 255
222 236 255
222 236 255
222 236 255
222 236 255
222 236 255
222 236 255
222 236 255
222 236 255
222 236 255
222 236 255
222 236 255
222 236 255
222 236 255
222 236 255
222 236 255
222 236 255
222 236 255
222 236 255
222 236 255
222 236 255
222 236 255
222 236 255
222 236 255
222 236 255
222 236 255
222 236 255
222 236 255
222 236 255
222 236 255
222 236 255
222 236 255
222 236 255
222 236 255
222 236 255
222 236 255
222 236 255
222 236 255
222 236 255
222 236 255
222 236 255
222 236 255
222 236 255
222 236 255
222 236 255
222 236 255
222 236 255
222 236 255
222 236 255
222 236 255
222 236 255
222 236 255
222 236 255
222 236 255
222 236 255
222 236 255
222 236 255
222 236 255
222 236 255
222 236 255
222 236 255
222 236 255
222 236 255
222 236 255
222 236 255
222 236 255
222 236 255
222 236 255
222 236 255
222 236 255
222 236 255
222 236 255
222 236 255
222 236 255
222 236 255
222 236 255
222 236 255
222 236 255
222 236 255
222 236 255
222 236 255
222 236 255
222 236 255
222 236 255
222 236 255
222 236 255
222 236 255
222 236 255
222 236 255
222 236 255
222 236 255
222 236 255
222 236 255
222 236 255
222 236 255
222 236 255
222 236 255
222 236 255
222 236 255
222 236 255
222 236 255
222 236 255
222 236 255
222 236 255
222 236 255
222 236 255
222 236 255
222 236 255
222 236 255
222 236 255
222 236 255
222 236 255
222 236 255
222 236 255
223 236 255
223 236 255
223 236 255
223 236 255
223 236 255
223 236 255
223 236 255
223 236 255
223 236 255
223 236 255
223 236 255
223 236 255
223 236 255
223 236 255
223 236 255
223 236 255
223 236 255
223 236 255
223 236 255
223 236 255
223 236 255
223 236 255
223 236 255
223 236 255
223 236 255
223 236 255
223 236 255
223 236 255
223 236 255
223 236 255
223 236 255
223 236 255
223 236 255
223 236 255
223 236 255
223 236 255
223 236 255
223 236 255
223 236 255
223 236 255
223 236 255
223 236 255
223 236 255
223 236 255
223 236 255
223 236 255
223 236 255
223 236 255
223 236 255
223 236 255
223 236 255
223 236 255
223 236 255
223 236 255
223 236 255
223 236 255
223 236 255
223 236 255
223 236 255
223 236 255
223 236 255
223 236 255
223 236 255
223 236 255
223 236 255
223 236 255
223 236 255
223 236 255
223 236 255
223 236 255
223 236 255
223 236 255
223 236 255
223 236 255
223 236 255
223 236 255
223 236 255
223 236 255
223 236 255
223 236 255
223 236 255
223 237 255
223 237 255
223 237 255
223 237 255
223 237 255
223 237 255
223 237 255
223 237 255
223 237 255
223 237 255
223 237 255
223 237 255
223 237 255
223 237 255
223 237 255
223 237 255
223 237 255
223 237 255
223 237 255
223 237 255
223 237 255
223 237 255
223 237 255
223 237 255
223 237 255
223 237 255
223 237 255
223 237 255
223 237 255
223 237 255
223 237 255
223 237 255
223 237 255
223 237 255
223 237 255
223 237 255
223 237 255
223 237 255
223 237 255
223 237 255
223 237 255
223 237 255
223 237 255
223 237 255
223 237 255
223 237 255
223 237 255
223 237 255
223 237 255
223 237 255
223 237 255
223 237 255
223 237 255
223 237 255
223 237 255
223 237 255
223 237 255
223 237 255
223 237 255
223 237 255
223 237 255
223 237 255
223 237 255
223 237 255
223 237 255
223 237 255
223 237 255
223 237 255
223 237 255
223 237 255
223 237 255
223 237 255
223 237 255
223 237 255
223 237 255
223 237 255
223 237 255
223 237 255
223 237 255
223 237 255
223 237 255
223 237 255
223 237 255
223 237 255
223 237 255
223 237 255
223 237 255
223 237 255
223 237 255
223 237 255
223 237 255
223 237 255
223 237 255
223 237 255
223 237 255
223 237 255
223 237 255
223 237 255
223 237 255
223 237 255
223 237 255
223 237 255
223 237 255
223 237 255
223 237 255
223 237 255
223 237 255
223 237 255
223 237 255
223 237 255
223 237 255
223 237 255
223 237 255
223 237 255
223 237 255
223 237 255
223 237 255
223 237 255
223 237 255
223 237 255
223 237 255
223 237 255
223 237 255
223 237 255
223 237 255
223 237 255
223 237 255
223 237 255
223 237 255
223 237 255
223 236 255
223 236 255
223 236 255
223 236 255
223 236 255
223 236 255
223 236 255
223 236 255
223 236 255
223 236 255
223 236 255
223 236 255
223 236 255
223 236 255
223 236 255
223 236 255
223 236 255
223 236 255
223 236 255
223 236 255
223 236 255
223 236 255
223 236 255
223 236 255
223 236 255
223 236 255
223 236 255
223 236 255
223 236 255
223 236 255
223 236 255
223 236 255
223 236 255
223 236 255
223 236 255
223 236 255
223 236 255
223 236 255
223 236 255
223 236 255
223 236 255
223 236 255
223 236 255
223 236 255
223 236 255
223 236 255
223 236 255
223 236 255
223 236 255
223 236 255
223 236 255
223 236 255
223 236 255
223 236 255
223 236 255
223 236 255
223 236 255
223 236 255
223 236 255
223 236 255
223 236 255
223 236 255
223 236 255
223 236 255
223 236 255
223 236 255
223 236 255
223 236 255
223 236 255
223 236 255
223 236 255
223 236 255
223 236 255
223 236 255
223 236 255
223 236 255
223 236 255
223 236 255
223 236 255
223 236 255
223 236 255
223 236 255
222 236 255
222 236 255
222 236 255
222 236 255
222 236 255
222 236 255
222 236 255
222 236 255
222 236 255
222 236 255
222 236 255
222 236 255
222 236 255
222 236 255
222 236 255
222 236 255
222 236 255
222 236 255
222 236 255
222 236 255
222 236 255
222 236 255
222 236 255
222 236 255
222 236 255
222 236 255
222 236 255
222 236 255
222 236 255
222 236 255
222 236 255
222 236 255
222 236 255
222 236 255
222 236 255
222 236 255
222 236 255
222 236 255
222 236 255
222 236 255
222 236 255
222 236 255
222 236 255
222 236 255
222 236 255
222 236 255
222 236 255
222 236 255
222 236 255
222 236 255
222 236 255
222 236 255
222 236 255
222 236 255
222 236 255
222 236 255
222 236 255
222 236 255
222 236 255
222 236 255
222 236 255
222 236 255
222 236 255
222 236 255
222 236 255
222 236 255
222 236 255
222 236 255
222 236 255
222 236 255
222 236 255
222 236 255
222 236 255
222 236 255
222 236 255
222 236 255
222 236 255
223 236 255
223 236 255
223 236 255
223 236 255
223 236 255
223 236 255
223 236 255
223 236 255
223 236 255
223 236 255
223 236 255
223 236 255
223 236 255
223 236 255
223 236 255
223 236 255
223 236 255
223 236 255
223 236 255
223 236 255
223 236 255
223 236 255
223 236 255
223 236 255
223 236 255
223 236 255
223 236 255
223 236 255
223 236 255
223 236 255
223 236 255
223 236 255
223 236 255
223 236 255
223 236 255
223 236 255
223 236 255
223 236 255
223 236 255
223 236 255
223 236 255
223 236 255
223 236 255
223 236 255
223 236 255
223 236 255
223 236 255
223 236 255
223 236 255
223 236 255
223 236 255
223 236 255
223 236 255
223 236 255
223 236 255
223 236 255
223 236 255
223 236 255
223 236 255
223 236 255
223 236 255
223 236 255
223 236 255
223 236 255
223 236 255
223 236 255
223 236 255
223 236 255
223 236 255
223 236 255
223 236 255
223 236 255
223 236 255
223 236 255
223 236 255
223 236 255
223 236 255
223 236 255
223 237 255
223 237 255
223 237 255
223 237 255
223 237 255
223 237 255
223 237 255
223 237 255
223 237 255
223 237 255
223 237 255
223 237 255
223 237 255
223 237 255
223 237 255
223 237 255
223 237 255
223 237 255
223 237 255
223 237 255
223 237 255
223 237 255
223 237 255
223 237 255
223 237 255
223 237 255
223 237 255
223 237 255
223 237 255
223 237 255
223 237 255
223 237 255
223 237 255
223 237 255
223 237 255
223 237 255
223 237 255
223 237 255
223 237 255
223 237 255
223 237 255
223 237 255
223 237 255
223 237 255
223 237 255
223 237 255
223 237 255
223 237 255
223 237 255
223 237 255
223 237 255
223 237 255
223 237 255
223 237 255
223 237 255
223 237 255
223 237 255
223 237 255
223 237 255
223 237 255
223 237 255
223 237 255
223 237 255
223 237 255
223 237 255
223 237 255
223 237 255
223 237 255
223 237 255
223 237 255
223 237 255
223 237 255
223 237 255
223 237 255
223 237 255
223 237 255
223 237 255
223 237 255
223 237 255
223 237 255
223 237 255
223 237 255
223 237 255
223 237 255
223 237 255
223 237 255
223 237 255
223 237 255
223 237 255
223 237 255
223 237 255
223 237 255
223 237 255
223 237 255
223 237 255
223 237 255
223 237 255
223 237 255
223 237 255
223 237 255
223 237 255
223 237 255
223 237 255
223 237 255
223 237 255
223 237 255
223 237 255
223 237 255
223 237 255
223 237 255
223 237 255
223 237 255
223 237 255
223 237 255
223 237 255
223 237 255
223 237 255
223 237 255
223 237 255
223 237 255
223 237 255
223 237 255
223 237 255
223 237 255
223 237 255
223 237 255
223 237 255
223 237 255
223 237 255
223 237 255
223 237 255
223 237 255
223 237 255
223 237 255
223 237 255
223 237 255
223 237 255
223 237 255
223 237 255
223 237 255
223 237 255
223 237 255
223 237 255
223 237 255
223 237 255
223 237 255
223 237 255
223 237 255
223 237 255
223 237 255
223 237 255
223 237 255
223 237 255
223 237 255
223 237 255
223 237 255
223 237 255
223 237 255
223 237 255
223 237 255
223 237 255
223 237 255
223 237 255
223 237 255
223 237 255
223 237 255
223 237 255
223 237 255
223 237 255
223 237 255
223 237 255
223 237 255
223 237 255
223 237 255
223 237 255
223 237 255
223 237 255
223 237 255
223 237 255
223 237 255
223 237 255
223 237 255
223 237 255
223 237 255
223 237 255
223 237 255
223 237 255
223 237 255
223 237 255
223 237 255
223 237 255
223 237 255
223 237 255
223 237 255
223 237 255
223 237 255
223 237 255
223 236 255
223 236 255
223 236 255
223 236 255
223 236 255
223 236 255
223 236 255
223 236 255
223 236 255
223 236 255
223 236 255
223 236 255
223 236 255
223 236 255
223 236 255
223 236 255
223 236 255
223 236 255
223 236 255
223 236 255
223 236 255
223 236 255
223 236 255
223 236 255
223 236 255
223 236 255
223 236 255
223 236 255
223 236 255
223 236 255
223 236 255
223 236 255
223 236 255
223 236 255
223 236 255
223 236 255
223 236 255
223 236 255
223 236 255
223 236 255
223 236 255
223 236 255
223 236 255
223 236 255
223 236 255
223 236 255
223 236 255
223 236 255
223 236 255
223 236 255
223 236 255
223 236 255
223 236 255
223 236 255
223 236 255
223 236 255
223 236 255
223 236 255
223 236 255
223 236 255
223 236 255
223 236 255
223 236 255
223 236 255
223 236 255
223 236 255
223 236 255
223 236 255
223 236 255
223 236 255
223 236 255
223 236 255
223 236 255
223 236 255
223 236 255
223 236 255
223 236 255
223 236 255
223 236 255
222 236 255
222 236 255
222 236 255
222 236 255
222 236 255
222 236 255
222 236 255
222 236 255
222 236 255
222 236 255
222 236 255
222 236 255
222 236 255
222 236 255
222 236 255
222 236 255
222 236 255
222 236 255
222 236 255
222 236 255
222 236 255
222 236 255
223 236 255
223 236 255
223 236 255
223 236 255
223 236 255
223 236 255
223 236 255
223 236 255
223 236 255
223 236 255
223 236 255
223 236 255
223 236 255
223 236 255
223 236 255
223 236 255
223 236 255
223 236 255
223 236 255
223 236 255
223 236 255
223 236 255
223 236 255
223 236 255
223 236 255
223 236 255
223 236 255
223 236 255
223 236 255
223 236 255
223 236 255
223 236 255
223 236 255
223 236 255
223 236 255
223 236 255
223 236 255
223 236 255
223 236 255
223 236 255
223 236 255
223 236 255
223 236 255
223 236 255
223 236 255
223 236 255
223 236 255
223 236 255
223 236 255
223 236 255
223 236 255
223 236 255
223 236 255
223 236 255
223 236 255
223 236 255
223 236 255
223 236 255
223 236 255
223 236 255
223 236 255
223 236 255
223 236 255
223 236 255
223 236 255
223 236 255
223 236 255
223 236 255
223 236 255
223 236 255
223 236 255
223 236 255
223 236 255
223 236 255
223 236 255
223 237 255
223 237 255
223 237 255
223 237 255
223 237 255
223 237 255
223 237 255
223 237 255
223 237 255
223 237 255
223 237 255
223 237 255
223 237 255
223 237 255
223 237 255
223 237 255
223 237 255
223 237 255
223 237 255
223 237 255
223 237 255
223 237 255
223 237 255
223 237 255
223 237 255
223 237 255
223 237 255
223 237 255
223 237 255
223 237 255
223 237 255
223 237 255
223 237 255
223 237 255
223 237 255
223 237 255
223 237 255
223 237 255
223 237 255
223 237 255
223 237 255
223 237 255
223 237 255
223 237 255
223 237 255
223 237 255
223 237 255
223 237 255
223 237 255
223 237 255
223 237 255
223 237 255
223 237 255
223 237 255
223 237 255
223 237 255
223 237 255
223 237 255
223 237 255
223 237 255
223 237 255
223 237 255
223 237 255
223 237 255
223 237 255
223 237 255
223 237 255
223 237 255
223 237 255
223 237 255
223 237 255
223 237 255
223 237 255
223 237 255
223 237 255
223 237 255
223 237 255
223 237 255
223 237 255
223 237 255
223 237 255
223 237 255
223 237 255
223 237 255
223 237 255
224 237 255
224 237 255
224 237 255
224 237 255
224 237 255
224 237 255
224 237 255
224 237 255
224 237 255
224 237 255
224 237 255
224 237 255
224 237 255
224 237 255
224 237 255
224 237 255
224 237 255
224 237 255
224 237 255
224 237 255
224 237 255
224 237 255
224 237 255
224 237 255
224 237 255
224 237 255
224 237 255
224 237 255
224 237 255
224 237 255
224 237 255
224 237 255
224 237 255
224 237 255
224 237 255
224 237 255
224 237 255
224 237 255
224 237 255
224 237 255
224 237 255
224 237 255
224 237 255
224 237 255
224 237 255
224 237 255
224 237 255
224 237 255
224 237 255
224 237 255
224 237 255
224 237 255
224 237 255
224 237 255
224 237 255
224 237 255
224 237 255
224 237 255
224 237 255
224 237 255
224 237 255
224 237 255
224 237 255
224 237 255
224 237 255
224 237 255
224 237 255
224 237 255
224 237 255
224 237 255
224 237 255
224 237 255
224 237 255
224 237 255
224 237 255
224 237 255
224 237 255
224 237 255
224 237 255
223 237 255
224 237 255
223 237 255
223 237 255
223 237 255
223 237 255
223 237 255
223 237 255
223 237 255
223 237 255
223 237 255
223 237 255
223 237 255
223 237 255
223 237 255
223 237 255
223 237 255
223 237 255
223 237 255
223 237 255
223 237 255
223 237 255
223 237 255
223 237 255
223 237 255
223 237 255
223 237 255
223 237 255
223 237 255
223 237 255
223 237 255
223 237 255
223 237 255
223 237 255
223 237 255
223 237 255
223 237 255
223 237 255
223 237 255
223 237 255
223 237 255
223 237 255
223 237 255
223 237 255
223 237 255
223 237 255
223 237 255
223 237 255
223 237 255
223 237 255
223 237 255
223 237 255
223 237 255
223 237 255
223 237 255
223 237 255
223 237 255
223 237 255
223 237 255
223 237 255
223 237 255
223 237 255
223 237 255
223 237 255
223 237 255
223 237 255
223 237 255
223 237 255
223 237 255
223 237 255
223 237 255
223 237 255
223 237 255
223 237 255
223 237 255
223 237 255
223 237 255
223 237 255
223 237 255
223 237 255
223 237 255
223 237 255
223 237 255
223 237 255
223 237 255
223 237 255
223 237 255
223 236 255
223 236 255
223 236 255
223 236 255
223 236 255
223 236 255
223 236 255
223 236 255
223 236 255
223 236 255
223 236 255
223 236 255
223 236 255
223 236 255
223 236 255
223 236 255
223 236 255
223 236 255
223 236 255
223 236 255
223 236 255
223 236 255
223 236 255
223 236 255
223 236 255
223 236 255
223 236 255
223 236 255
223 236 255
223 236 255
223 236 255
223 236 255
223 236 255
223 236 255
223 236 255
223 236 255
223 236 255
223 236 255
223 236 255
223 236 255
223 236 255
223 236 255
223 236 255
223 236 255
223 236 255
223 236 255
223 236 255
223 236 255
223 236 255
223 236 255
223 236 255
223 236 255
223 236 255
223 236 255
223 236 255
223 236 255
223 236 255
223 236 255
223 236 255
223 236 255
223 236 255
223 236 255
223 236 255
223 236 255
223 236 255
223 236 255
223 236 255
223 236 255
223 236 255
223 236 255
223 236 255
223 236 255
223 236 255
223 236 255
223 236 255
223 236 255
223 236 255
223 236 255
223 236 255
223 236 255
223 236 255
223 236 255
223 236 255
223 236 255
223 236 255
223 236 255
223 236 255
223 236 255
223 236 255
223 236 255
223 236 255
223 236 255
223 236 255
223 236 255
223 236 255
223 236 255
223 236 255
223 236 255
223 236 255
223 236 255
223 236 255
223 236 255
223 236 255
223 236 255
223 236 255
223 236 255
223 236 255
223 236 255
223 236 255
223 236 255
223 236 255
223 236 255
223 236 255
223 236 255
223 236 255
223 236 255
223 236 255
223 236 255
223 236 255
223 236 255
223 236 255
223 236 255
223 236 255
223 236 255
223 237 255
223 237 255
223 237 255
223 237 255
223 237 255
223 237 255
223 237 255
223 237 255
223 237 255
223 237 255
223 237 255
223 237 255
223 237 255
223 237 255
223 237 255
223 237 255
223 237 255
223 237 255
223 237 255
223 237 255
223 237 255
223 237 255
223 237 255
223 237 255
223 237 255
223 237 255
223 237 255
223 237 255
223 237 255
223 237 255
223 237 255
223 237 255
223 237 255
223 237 255
223 237 255
223 237 255
223 237 255
223 237 255
223 237 255
223 237 255
223 237 255
223 237 255
223 237 255
223 237 255
223 237 255
223 237 255
223 237 255
223 237 255
223 237 255
223 237 255
223 237 255
223 237 255
223 237 255
223 237 255
223 237 255
223 237 255
223 237 255
223 237 255
223 237 255
223 237 255
223 237 255
223 237 255
223 237 255
223 237 255
223 237 255
223 237 255
223 237 255
223 237 255
223 237 255
223 237 255
223 237 255
223 237 255
223 237 255
223 237 255
223 237 255
223 237 255
224 237 255
223 237 255
224 237 255
224 237 255
224 237 255
224 237 255
224 237 255
224 237 255
224 237 255
224 237 255
224 237 255
224 237 255
224 237 255
224 237 255
224 237 255
224 237 255
224 237 255
224 237 255
224 237 255
224 237 255
224 237 255
224 237 255
224 237 255
224 237 255
224 237 255
224 237 255
224 237 255
224 237 255
224 237 255
224 237 255
224 237 255
224 237 255
224 237 255
224 237 255
224 237 255
224 237 255
224 237 255
224 237 255
224 237 255
224 237 255
224 237 255
224 237 255
224 237 255
224 237 255
224 237 255
224 237 255
224 237 255
224 237 255
224 237 255
224 237 255
224 237 255
224 237 255
224 237 255
224 237 255
224 237 255
224 237 255
224 237 255
224 237 255
224 237 255
224 237 255
224 237 255
224 237 255
224 237 255
224 237 255
224 237 255
224 237 255
224 237 255
224 237 255
224 237 255
224 237 255
224 237 255
224 237 255
224 237 255
224 237 255
224 237 255
224 237 255
224 237 255
224 237 255
224 237 255
224 237 255
224 237 255
224 237 255
224 237 255
224 237 255
224 237 255
224 237 255
224 237 255
224 237 255
224 237 255
224 237 255
224 237 255
224 237 255
224 237 255
224 237 255
224 237 255
224 237 255
224 237 255
224 237 255
224 237 255
224 237 255
224 237 255
224 237 255
224 237 255
224 237 255
224 237 255
224 237 255
224 237 255
224 237 255
224 237 255
224 237 255
224 237 255
224 237 255
224 237 255
224 237 255
224 237 255
224 237 255
224 237 255
224 237 255
224 237 255
224 237 255
224 237 255
224 237 255
224 237 255
224 237 255
224 237 255
224 237 255
224 237 255
224 237 255
224 237 255
224 237 255
224 237 255
224 237 255
224 237 255
224 237 255
224 237 255
224 237 255
224 237 255
224 237 255
224 237 255
224 237 255
224 237 255
224 237 255
224 237 255
224 237 255
224 237 255
224 237 255
224 237 255
223 237 255
223 237 255
223 237 255
223 237 255
223 237 255
223 237 255
223 237 255
223 237 255
223 237 255
223 237 255
223 237 255
223 237 255
223 237 255
223 237 255
223 237 255
223 237 255
223 237 255
223 237 255
223 237 255
223 237 255
223 237 255
223 237 255
223 237 255
223 237 255
223 237 255
223 237 255
223 237 255
223 237 255
223 237 255
223 237 255
223 237 255
223 237 255
223 237 255
223 237 255
223 237 255
223 237 255
223 237 255
223 237 255
223 237 255
223 237 255
223 237 255
223 237 255
223 237 255
223 237 255
223 237 255
223 237 255
223 237 255
223 237 255
223 237 255
223 237 255
223 237 255
223 237 255
223 237 255
223 237 255
223 237 255
223 237 255
223 237 255
223 237 255
223 237 255
223 237 255
223 237 255
223 237 255
223 237 255
223 237 255
223 237 255
223 237 255
223 237 255
223 237 255
223 237 255
223 237 255
223 237 255
223 237 255
223 237 255
223 237 255
223 237 255
223 237 255
223 237 255
223 237 255
223 236 255
223 236 255
223 236 255
223 236 255
223 236 255
223 236 255
223 236 255
223 236 255
223 236 255
223 236 255
223 236 255
223 236 255
223 236 255
223 236 255
223 236 255
223 236 255
223 236 255
223 236 255
223 236 255
223 236 255
223 236 255
223 236 255
223 236 255
223 236 255
223 236 255
223 236 255
223 236 255
223 236 255
223 236 255
223 236 255
223 236 255
223 236 255
223 236 255
223 236 255
223 236 255
223 236 255
223 236 255
223 236 255
223 236 255
223 236 255
223 236 255
223 236 255
223 236 255
223 236 255
223 236 255
223 236 255
223 236 255
223 236 255
223 236 255
223 236 255
223 236 255
223 236 255
223 236 255
223 236 255
223 236 255
223 236 255
223 236 255
223 236 255
223 236 255
223 236 255
223 236 255
223 236 255
223 236 255
223 236 255
223 236 255
223 236 255
223 236 255
223 236 255
223 236 255
223 236 255
223 236 255
223 236 255
223 236 255
223 236 255
223 236 255
223 236 255
223 237 255
223 237 255
223 237 255
223 237 255
223 237 255
223 237 255
223 237 255
223 237 255
223 237 255
223 237 255
223 237 255
223 237 255
223 237 255
223 237 255
223 237 255
223 237 255
223 237 255
223 237 255
223 237 255
223 237 255
223 237 255
223 237 255
223 237 255
223 237 255
223 237 255
223 237 255
223 237 255
223 237 255
223 237 255
223 237 255
223 237 255
223 237 255
223 237 255
223 237 255
223 237 255
223 237 255
223 237 255
223 237 255
223 237 255
223 237 255
223 237 255
223 237 255
223 237 255
223 237 255
223 237 255
223 237 255
223 237 255
223 237 255
223 237 255
223 237 255
223 237 255
223 237 255
223 237 255
223 237 255
223 237 255
223 237 255
223 237 255
223 237 255
223 237 255
223 237 255
223 237 255
223 237 255
223 237 255
223 237 255
223 237 255
223 237 255
223 237 255
223 237 255
223 237 255
223 237 255
223 237 255
223 237 255
223 237 255
223 237 255
223 237 255
224 237 255
224 237 255
224 237 255
224 237 255
224 237 255
224 237 255
224 237 255
224 237 255
224 237 255
224 237 255
224 237 255
224 237 255
224 237 255
224 237 255
224 237 255
224 237 255
224 237 255
224 237 255
224 237 255
224 237 255
224 237 255
224 237 255
224 237 255
224 237 255
224 237 255
224 237 255
224 237 255
224 237 255
224 237 255
224 237 255
224 237 255
224 237 255
224 237 255
224 237 255
224 237 255
224 237 255
224 237 255
224 237 255
224 237 255
224 237 255
224 237 255
224 237 255
224 237 255
224 237 255
224 237 255
224 237 255
224 237 255
224 237 255
224 237 255
224 237 255
224 237 255
224 237 255
224 237 255
224 237 255
224 237 255
224 237 255
224 237 255
224 237 255
224 237 255
224 237 255
224 237 255
224 237 255
224 237 255
224 237 255
224 237 255
224 237 255
224 237 255
224 237 255
224 237 255
224 237 255
224 237 255
224 237 255
224 237 255
224 237 255
224 237 255
224 237 255
224 237 255
224 237 255
224 237 255
224 237 255
224 237 255
224 237 255
224 237 255
224 237 255
224 237 255
224 237 255
224 237 255
224 237 255
224 237 255
224 237 255
224 237 255
224 237 255
224 237 255
224 237 255
224 237 255
224 237 255
224 237 255
224 237 255
224 237 255
224 237 255
224 237 255
224 237 255
224 237 255
224 237 255
224 237 255
224 237 255
224 237 255
224 237 255
224 237 255
224 237 255
224 237 255
224 237 255
224 237 255
224 237 255
224 237 255
224 237 255
224 237 255
224 237 255
224 237 255
224 237 255
224 237 255
224 237 255
224 237 255
224 237 255
224 237 255
224 237 255
224 237 255
224 237 255
224 237 255
224 237 255
224 237 255
224 237 255
224 237 255
224 237 255
224 237 255
224 237 255
224 237 255
224 237 255
224 237 255
224 237 255
224 237 255
224 237 255
224 237 255
224 237 255
224 237 255
224 237 255
224 237 255
224 237 255
224 237 255
224 237 255
224 237 255
224 237 255
224 237 255
224 237 255
224 237 255
224 237 255
224 237 255
224 237 255
224 237 255
224 237 255
224 237 255
224 237 255
224 237 255
224 237 255
224 237 255
224 237 255
224 237 255
224 237 255
224 237 255
224 237 255
224 237 255
224 237 255
224 237 255
224 237 255
224 237 255
224 237 255
224 237 255
224 237 255
224 237 255
224 237 255
224 237 255
224 237 255
224 237 255
224 237 255
224 237 255
224 237 255
224 237 255
224 237 255
224 237 255
224 237 255
224 237 255
224 237 255
224 237 255
224 237 255
224 237 255
224 237 255
224 237 255
223 237 255
223 237 255
223 237 255
223 237 255
223 237 255
223 237 255
223 237 255
223 237 255
223 237 255
223 237 255
223 237 255
223 237 255
223 237 255
223 237 255
223 237 255
223 237 255
223 237 255
223 237 255
223 237 255
223 237 255
223 237 255
223 237 255
223 237 255
223 237 255
223 237 255
223 237 255
223 237 255
223 237 255
223 237 255
223 237 255
223 237 255
223 237 255
223 237 255
223 237 255
223 237 255
223 237 255
223 237 255
223 237 255
223 237 255
223 237 255
223 237 255
223 237 255
223 237 255
223 237 255
223 237 255
223 237 255
223 237 255
223 237 255
223 237 255
223 237 255
223 237 255
223 237 255
223 237 255
223 237 255
223 237 255
223 237 255
223 237 255
223 237 255
223 237 255
223 237 255
223 237 255
223 237 255
223 237 255
223 237 255
223 237 255
223 237 255
223 237 255
223 237 255
223 237 255
223 237 255
223 237 255
223 237 255
223 237 255
223 237 255
223 237 255
223 236 255
223 236 255
223 236 255
223 236 255
223 236 255
223 236 255
223 236 255
223 236 255
223 236 255
223 236 255
223 236 255
223 236 255
223 236 255
223 236 255
223 236 255
223 236 255
223 236 255
223 236 255
223 236 255
223 236 255
223 236 255
223 236 255
223 236 255
223 236 255
223 236 255
223 236 255
223 236 255
223 236 255
223 236 255
223 236 255
223 237 255
223 237 255
223 237 255
223 237 255
223 237 255
223 237 255
223 237 255
223 237 255
223 237 255
223 237 255
223 237 255
223 237 255
223 237 255
223 237 255
223 237 255
223 237 255
223 237 255
223 237 255
223 237 255
223 237 255
223 237 255
223 237 255
223 237 255
223 237 255
223 237 255
223 237 255
223 237 255
223 237 255
223 237 255
223 237 255
223 237 255
223 237 255
223 237 255
223 237 255
223 237 255
223 237 255
223 237 255
223 237 255
223 237 255
223 237 255
223 237 255
223 237 255
223 237 255
223 237 255
223 237 255
223 237 255
223 237 255
223 237 255
223 237 255
223 237 255
223 237 255
223 237 255
223 237 255
223 237 255
223 237 255
223 237 255
223 237 255
223 237 255
223 237 255
223 237 255
223 237 255
223 237 255
223 237 255
223 237 255
223 237 255
223 237 255
223 237 255
223 237 255
223 237 255
223 237 255
223 237 255
223 237 255
223 237 255
223 237 255
223 237 255
223 237 255
224 237 255
224 237 255
224 237 255
224 237 255
224 237 255
224 237 255
224 237 255
224 237 255
224 237 255
224 237 255
224 237 255
224 237 255
224 237 255
224 237 255
224 237 255
224 237 255
224 237 255
224 237 255
224 237 255
224 237 255
224 237 255
224 237 255
224 237 255
224 237 255
224 237 255
224 237 255
224 237 255
224 237 255
224 237 255
224 237 255
224 237 255
224 237 255
224 237 255
224 237 255
224 237 255
224 237 255
224 237 255
224 237 255
224 237 255
224 237 255
224 237 255
224 237 255
224 237 255
224 237 255
224 237 255
224 237 255
224 237 255
224 237 255
224 237 255
224 237 255
224 237 255
224 237 255
224 237 255
224 237 255
224 237 255
224 237 255
224 237 255
224 237 255
224 237 255
224 237 255
224 237 255
224 237 255
224 237 255
224 237 255
224 237 255
224 237 255
224 237 255
224 237 255
224 237 255
224 237 255
224 237 255
224 237 255
224 237 255
224 237 255
224 237 255
224 237 255
224 237 255
224 237 255
224 237 255
224 237 255
224 237 255
224 237 255
224 237 255
224 237 255
224 237 255
224 237 255
224 237 255
224 237 255
224 237 255
224 237 255
224 237 255
224 237 255
224 237 255
224 237 255
224 237 255
224 237 255
224 237 255
224 237 255
224 237 255
224 237 255
224 237 255
224 237 255
224 237 255
224 237 255
224 237 255
224 237 255
224 237 255
224 237 255
224 237 255
224 237 255
224 237 255
224 237 255
224 237 255
224 237 255
224 237 255
224 237 255
224 237 255
224 237 255
224 237 255
224 237 255
224 237 255
224 237 255
224 237 255
224 237 255
224 237 255
224 237 255
224 237 255
224 237 255
224 237 255
224 237 255
224 237 255
224 237 255
224 237 255
224 237 255
224 237 255
224 237 255
224 237 255
224 237 255
224 237 255
224 237 255
224 237 255
224 237 255
224 237 255
224 237 255
224 237 255
224 237 255
224 237 255
224 237 255
224 237 255
224 237 255
224 237 255
224 237 255
224 237 255
224 237 255
224 237 255
224 237 255
224 237 255
224 237 255
224 237 255
224 237 255
224 237 255
224 237 255
224 237 255
224 237 255
224 237 255
224 237 255
224 237 255
224 237 255
224 237 255
224 237 255
224 237 255
224 237 255
224 237 255
224 237 255
224 237 255
224 237 255
224 237 255
224 237 255
224 237 255
224 237 255
224 237 255
224 237 255
224 237 255
224 237 255
224 237 255
224 237 255
224 237 255
224 237 255
224 237 255
224 237 255
224 237 255
224 237 255
224 237 255
224 237 255
224 237 255
224 237 255
224 237 255
224 237 255
224 237 255
224 237 255
224 237 255
224 237 255
224 237 255
224 237 255
224 237 255
224 237 255
224 237 255
224 237 255
224 237 255
224 237 255
224 237 255
224 237 255
224 237 255
224 237 255
224 237 255
224 237 255
224 237 255
224 237 255
224 237 255
224 237 255
224 237 255
224 237 255
224 237 255
224 237 255
224 237 255
224 237 255
224 237 255
224 237 255
224 237 255
224 237 255
224 237 255
224 237 255
224 237 255
224 237 255
224 237 255
224 237 255
224 237 255
224 237 255
224 237 255
224 237 255
223 237 255
223 237 255
223 237 255
223 237 255
223 237 255
223 237 255
223 237 255
223 237 255
223 237 255
223 237 255
223 237 255
223 237 255
223 237 255
223 237 255
223 237 255
223 237 255
223 237 255
223 237 255
223 237 255
223 237 255
223 237 255
223 237 255
223 237 255
223 237 255
223 237 255
223 237 255
223 237 255
223 237 255
223 237 255
223 237 255
223 237 255
223 237 255
223 237 255
223 237 255
223 237 255
223 237 255
223 237 255
223 237 255
223 237 255
223 237 255
223 237 255
223 237 255
223 237 255
223 237 255
223 237 255
223 237 255
223 237 255
223 237 255
223 237 255
223 237 255
223 237 255
223 237 255
223 237 255
223 237 255
223 237 255
223 237 255
223 237 255
223 237 255
223 237 255
223 237 255
223 237 255
223 237 255
223 237 255
223 237 255
223 237 255
223 237 255
223 237 255
223 237 255
223 237 255
223 237 255
223 237 255
223 237 255
223 237 255
223 237 255
223 237 255
223 236 255
223 236 255
223 236 255
223 236 255
223 236 255
223 237 255
223 237 255
223 237 255
223 237 255
223 237 255
223 237 255
223 237 255
223 237 255
223 237 255
223 237 255
223 237 255
223 237 255
223 237 255
223 237 255
223 237 255
223 237 255
223 237 255
223 237 255
223 237 255
223 237 255
223 237 255
223 237 255
223 237 255
223 237 255
223 237 255
223 237 255
223 237 255
223 237 255
223 237 255
223 237 255
223 237 255
223 237 255
223 237 255
223 237 255
223 237 255
223 237 255
223 237 255
223 237 255
223 237 255
223 237 255
223 237 255
223 237 255
223 237 255
223 237 255
223 237 255
223 237 255
223 237 255
223 237 255
223 237 255
223 237 255
223 237 255
223 237 255
223 237 255
223 237 255
223 237 255
223 237 255
223 237 255
223 237 255
223 237 255
223 237 255
223 237 255
224 237 255
224 237 255
224 237 255
224 237 255
224 237 255
224 237 255
224 237 255
224 237 255
224 237 255
224 237 255
224 237 255
224 237 255
224 237 255
224 237 255
224 237 255
224 237 255
224 237 255
224 237 255
224 237 255
224 237 255
224 237 255
224 237 255
224 237 255
224 237 255
224 237 255
224 237 255
224 237 255
224 237 255
224 237 255
224 237 255
224 237 255
224 237 255
224 237 255
224 237 255
224 237 255
224 237 255
224 237 255
224 237 255
224 237 255
224 237 255
224 237 255
224 237 255
224 237 255
224 237 255
224 237 255
224 237 255
224 237 255
224 237 255
224 237 255
224 237 255
224 237 255
224 237 255
224 237 255
224 237 255
224 237 255
224 237 255
224 237 255
224 237 255
224 237 255
224 237 255
224 237 255
224 237 255
224 237 255
224 237 255
224 237 255
224 237 255
224 237 255
224 237 255
224 237 255
224 237 255
224 237 255
224 237 255
224 237 255
224 237 255
224 237 255
224 237 255
224 237 255
224 237 255
224 237 255
224 237 255
224 237 255
224 237 255
224 237 255
224 237 255
224 237 255
224 237 255
224 237 255
224 237 255
224 237 255
224 237 255
224 237 255
224 237 255
224 237 255
224 237 255
224 237 255
224 237 255
224 237 255
224 237 255
224 237 255
224 237 255
224 237 255
224 237 255
224 237 255
224 237 255
224 237 255
224 237 255
224 237 255
224 237 255
224 237 255
224 237 255
224 237 255
224 237 255
225 237 255
224 237 255
225 237 255
225 237 255
225 237 255
225 237 255
225 237 255
224 237 255
225 237 255
225 237 255
225 237 255
225 237 255
225 237 255
225 237 255
225 237 255
225 237 255
225 237 255
225 237 255
225 237 255
225 237 255
225 237 255
225 237 255
225 237 255
225 237 255
225 237 255
225 237 255
225 237 255
225 237 255
225 237 255
225 237 255
225 237 255
225 237 255
225 237 255
225 237 255
225 237 255
225 237 255
225 237 255
225 237 255
225 237 255
225 237 255
225 237 255
225 237 255
225 237 255
225 237 255
225 237 255
225 237 255
225 237 255
225 237 255
225 237 255
225 237 255
224 237 255
225 237 255
224 237 255
224 237 255
224 237 255
224 237 255
224 237 255
224 237 255
224 237 255
224 237 255
224 237 255
224 237 255
224 237 255
224 237 255
224 237 255
224 237 255
224 237 255
224 237 255
224 237 255
224 237 255
224 237 255
224 237 255
224 237 255
224 237 255
224 237 255
224 237 255
224 237 255
224 237 255
224 237 255
224 237 255
224 237 255
224 237 255
224 237 255
224 237 255
224 237 255
224 237 255
224 237 255
224 237 255
224 237 255
224 237 255
224 237 255
224 237 255
224 237 255
224 237 255
224 237 255
224 237 255
224 237 255
224 237 255
224 237 255
224 237 255
224 237 255
224 237 255
224 237 255
224 237 255
224 237 255
224 237 255
224 237 255
224 237 255
224 237 255
224 237 255
224 237 255
224 237 255
224 237 255
224 237 255
224 237 255
224 237 255
224 237 255
224 237 255
224 237 255
224 237 255
224 237 255
224 237 255
224 237 255
224 237 255
224 237 255
224 237 255
224 237 255
224 237 255
224 237 255
224 237 255
224 237 255
224 237 255
224 237 255
224 237 255
224 237 255
224 237 255
224 237 255
224 237 255
224 237 255
224 237 255
224 237 255
224 237 255
224 237 255
224 237 255
224 237 255
224 237 255
224 237 255
224 237 255
224 237 255
224 237 255
224 237 255
224 237 255
224 237 255
224 237 255
224 237 255
224 237 255
224 237 255
224 237 255
224 237 255
224 237 255
224 237 255
224 237 255
224 237 255
224 237 255
224 237 255
224 237 255
223 237 255
223 237 255
223 237 255
223 237 255
223 237 255
223 237 255
223 237 255
223 237 255
223 237 255
223 237 255
223 237 255
223 237 255
223 237 255
223 237 255
223 237 255
223 237 255
223 237 255
223 237 255
223 237 255
223 237 255
223 237 255
223 237 255
223 237 255
223 237 255
223 237 255
223 237 255
223 237 255
223 237 255
223 237 255
223 237 255
223 237 255
223 237 255
223 237 255
223 237 255
223 237 255
223 237 255
223 237 255
223 237 255
223 237 255
223 237 255
223 237 255
223 237 255
223 237 255
223 237 255
223 237 255
223 237 255
223 237 255
223 237 255
223 237 255
223 237 255
223 237 255
223 237 255
223 237 255
223 237 255
223 237 255
223 237 255
223 237 255
223 237 255
223 237 255
223 237 255
223 237 255
223 237 255
223 237 255
223 237 255
223 237 255
223 237 255
223 237 255
223 237 255
223 237 255
223 237 255
223 237 255
223 237 255
223 237 255
223 237 255
223 237 255
223 237 255
223 237 255
223 237 255
223 237 255
223 237 255
223 237 255
223 237 255
223 237 255
223 237 255
223 237 255
223 237 255
223 237 255
223 237 255
223 237 255
223 237 255
223 237 255
223 237 255
223 237 255
223 237 255
223 237 255
223 237 255
223 237 255
223 237 255
223 237 255
223 237 255
223 237 255
223 237 255
223 237 255
223 237 255
224 237 255
224 237 255
224 237 255
224 237 255
224 237 255
224 237 255
224 237 255
224 237 255
224 237 255
224 237 255
224 237 255
224 237 255
224 237 255
224 237 255
224 237 255
224 237 255
224 237 255
224 237 255
224 237 255
224 237 255
224 237 255
224 237 255
224 237 255
224 237 255
224 237 255
224 237 255
224 237 255
224 237 255
224 237 255
224 237 255
224 237 255
224 237 255
224 237 255
224 237 255
224 237 255
224 237 255
224 237 255
224 237 255
224 237 255
224 237 255
224 237 255
224 237 255
224 237 255
224 237 255
224 237 255
224 237 255
224 237 255
224 237 255
224 237 255
224 237 255
224 237 255
224 237 255
224 237 255
224 237 255
224 237 255
224 237 255
224 237 255
224 237 255
224 237 255
224 237 255
224 237 255
224 237 255
224 237 255
224 237 255
224 237 255
224 237 255
224 237 255
224 237 255
224 237 255
224 237 255
224 237 255
224 237 255
224 237 255
224 237 255
224 237 255
224 237 255
224 237 255
224 237 255
224 237 255
224 237 255
224 237 255
224 237 255
224 237 255
224 237 255
224 237 255
224 237 255
224 237 255
224 237 255
224 237 255
224 237 255
224 237 255
224 237 255
224 237 255
224 237 255
224 237 255
224 237 255
224 237 255
224 237 255
224 237 255
224 237 255
224 237 255
225 237 255
225 237 255
225 237 255
225 237 255
225 237 255
225 237 255
225 237 255
225 237 255
225 237 255
225 237 255
225 237 255
225 237 255
225 237 255
225 237 255
225 237 255
225 237 255
225 237 255
225 237 255
225 237 255
225 237 255
225 237 255
225 237 255
225 237 255
225 238 255
225 237 255
225 238 255
225 238 255
225 238 255
225 238 255
225 238 255
225 238 255
225 238 255
225 238 255
225 238 255
225 238 255
225 238 255
225 238 255
225 238 255
225 238 255
225 238 255
225 238 255
225 238 255
225 238 255
225 238 255
225 238 255
225 238 255
225 238 255
225 238 255
225 238 255
225 238 255
225 238 255
225 238 255
225 238 255
225 238 255
225 238 255
225 238 255
225 238 255
225 238 255
225 238 255
225 238 255
225 238 255
225 238 255
225 238 255
225 238 255
225 238 255
225 238 255
225 238 255
225 238 255
225 238 255
225 238 255
225 238 255
225 238 255
225 238 255
225 238 255
225 238 255
225 238 255
225 238 255
225 238 255
225 238 255
225 238 255
225 238 255
225 238 255
225 238 255
225 238 255
225 238 255
225 238 255
225 238 255
225 237 255
225 237 255
225 237 255
225 237 255
225 237 255
225 237 255
225 237 255
225 237 255
225 237 255
225 237 255
225 237 255
225 237 255
225 237 255
225 237 255
225 237 255
225 237 255
225 237 255
225 237 255
225 237 255
225 237 255
225 237 255
225 237 255
225 237 255
225 237 255
225 237 255
225 237 255
225 237 255
224 237 255
224 237 255
224 237 255
224 237 255
224 237 255
224 237 255
224 237 255
224 237 255
224 237 255
224 237 255
224 237 255
224 237 255
224 237 255
224 237 255
224 237 255
224 237 255
224 237 255
224 237 255
224 237 255
224 237 255
224 237 255
224 237 255
224 237 255
224 237 255
224 237 255
224 237 255
224 237 255
224 237 255
224 237 255
224 237 255
224 237 255
224 237 255
224 237 255
224 237 255
224 237 255
224 237 255
224 237 255
224 237 255
224 237 255
224 237 255
224 237 255
224 237 255
224 237 255
224 237 255
224 237 255
224 237 255
224 237 255
224 237 255
224 237 255
224 237 255
224 237 255
224 237 255
224 237 255
224 237 255
224 237 255
224 237 255
224 237 255
224 237 255
224 237 255
224 237 255
224 237 255
224 237 255
224 237 255
224 237 255
224 237 255
224 237 255
224 237 255
224 237 255
224 237 255
224 237 255
224 237 255
224 237 255
224 237 255
224 237 255
224 237 255
224 237 255
224 237 255
224 237 255
224 237 255
224 237 255
224 237 255
224 237 255
224 237 255
224 237 255
224 237 255
224 237 255
224 237 255
224 237 255
224 237 255
224 237 255
224 237 255
224 237 255
224 237 255
224 237 255
224 237 255
224 237 255
224 237 255
224 237 255
224 237 255
223 237 255
223 237 255
223 237 255
223 237 255
223 237 255
223 237 255
223 237 255
223 237 255
223 237 255
223 237 255
223 237 255
223 237 255
223 237 255
223 237 255
223 237 255
223 237 255
223 237 255
223 237 255
223 237 255
223 237 255
223 237 255
223 237 255
223 237 255
223 237 255
223 237 255
223 237 255
223 237 255
223 237 255
223 237 255
223 237 255
223 237 255
223 237 255
223 237 255
223 237 255
223 237 255
223 237 255
223 237 255
223 237 255
223 237 255
223 237 255
223 237 255
223 237 255
223 237 255
223 237 255
223 237 255
223 237 255
223 237 255
223 237 255
223 237 255
223 237 255
223 237 255
223 237 255
223 237 255
223 237 255
223 237 255
223 237 255
223 237 255
223 237 255
223 237 255
223 237 255
223 237 255
223 237 255
223 237 255
223 237 255
223 237 255
223 237 255
223 237 255
223 237 255
223 237 255
223 237 255
224 237 255
224 237 255
224 237 255
224 237 255
224 237 255
224 237 255
224 237 255
224 237 255
224 237 255
224 237 255
224 237 255
224 237 255
224 237 255
224 237 255
224 237 255
224 237 255
224 237 255
224 237 255
224 237 255
224 237 255
224 237 255
224 237 255
224 237 255
224 237 255
224 237 255
224 237 255
224 237 255
224 237 255
224 237 255
224 237 255
224 237 255
224 237 255
224 237 255
224 237 255
224 237 255
224 237 255
224 237 255
224 237 255
224 237 255
224 237 255
224 237 255
224 237 255
224 237 255
224 237 255
224 237 255
224 237 255
224 237 255
224 237 255
224 237 255
224 237 255
224 237 255
224 237 255
224 237 255
224 237 255
224 237 255
224 237 255
224 237 255
224 237 255
224 237 255
224 237 255
224 237 255
224 237 255
224 237 255
224 237 255
224 237 255
224 237 255
224 237 255
224 237 255
224 237 255
224 237 255
224 237 255
224 237 255
224 237 255
224 237 255
224 237 255
224 237 255
224 237 255
224 237 255
224 237 255
224 237 255
224 237 255
224 237 255
224 237 255
224 237 255
224 237 255
224 237 255
224 237 255
224 237 255
224 237 255
224 237 255
224 237 255
224 237 255
224 237 255
224 237 255
224 237 255
224 237 255
225 237 255
225 237 255
225 237 255
225 237 255
225 237 255
225 237 255
225 237 255
225 237 255
225 237 255
225 237 255
225 237 255
225 237 255
225 237 255
225 237 255
225 237 255
225 237 255
225 237 255
225 237 255
225 238 255
225 238 255
225 238 255
225 238 255
225 238 255
225 238 255
225 238 255
225 238 255
225 238 255
225 238 255
225 238 255
225 238 255
225 238 255
225 238 255
225 238 255
225 238 255
225 238 255
225 238 255
225 238 255
225 238 255
225 238 255
225 238 255
225 238 255
225 238 255
225 238 255
225 238 255
225 238 255
225 238 255
225 238 255
225 238 255
225 238 255
225 238 255
225 238 255
225 238 255
225 238 255
225 238 255
225 238 255
225 238 255
225 238 255
225 238 255
225 238 255
225 238 255
225 238 255
225 238 255
225 238 255
225 238 255
225 238 255
225 238 255
225 238 255
225 238 255
225 238 255
225 238 255
225 238 255
225 238 255
225 238 255
225 238 255
225 238 255
225 238 255
225 238 255
225 238 255
225 238 255
225 238 255
225 238 255
225 238 255
225 238 255
225 238 255
225 238 255
225 238 255
225 238 255
225 238 255
225 238 255
225 238 255
225 238 255
225 238 255
225 238 255
225 238 255
225 238 255
225 238 255
225 238 255
225 238 255
225 238 255
225 238 255
225 238 255
225 238 255
225 238 255
225 238 255
225 238 255
225 238 255
225 238 255
225 238 255
225 238 255
225 238 255
225 238 255
225 238 255
225 238 255
225 238 255
225 238 255
225 238 255
225 238 255
225 238 255
225 238 255
225 238 255
225 238 255
225 238 255
225 238 255
225 238 255
225 238 255
225 238 255
225 238 255
225 238 255
225 238 255
225 238 255
225 238 255
225 238 255
225 238 255
225 238 255
225 238 255
225 237 255
225 237 255
225 237 255
225 237 255
225 237 255
225 237 255
225 237 255
225 237 255
225 237 255
225 237 255
225 237 255
225 237 255
225 237 255
225 237 255
225 237 255
225 237 255
225 237 255
225 237 255
225 237 255
224 237 255
224 237 255
224 237 255
224 237 255
224 237 255
224 237 255
224 237 255
224 237 255
224 237 255
224 237 255
224 237 255
224 237 255
224 237 255
224 237 255
224 237 255
224 237 255
224 237 255
224 237 255
224 237 255
224 237 255
224 237 255
224 237 255
224 237 255
224 237 255
224 237 255
224 237 255
224 237 255
224 237 255
224 237 255
224 237 255
224 237 255
224 237 255
224 237 255
224 237 255
224 237 255
224 237 255
224 237 255
224 237 255
224 237 255
224 237 255
224 237 255
224 237 255
224 237 255
224 237 255
224 237 255
224 237 255
224 237 255
224 237 255
224 237 255
224 237 255
224 237 255
224 237 255
224 237 255
224 237 255
224 237 255
224 237 255
224 237 255
224 237 255
224 237 255
224 237 255
224 237 255
224 237 255
224 237 255
224 237 255
224 237 255
224 237 255
224 237 255
224 237 255
224 237 255
224 237 255
224 237 255
224 237 255
224 237 255
224 237 255
224 237 255
224 237 255
224 237 255
224 237 255
224 237 255
224 237 255
224 237 255
224 237 255
224 237 255
224 237 255
224 237 255
224 237 255
224 237 255
224 237 255
224 237 255
224 237 255
224 237 255
224 237 255
224 237 255
224 237 255
224 237 255
224 237 255
223 237 255
223 237 255
223 237 255
223 237 255
223 237 255
223 237 255
223 237 255
223 237 255
223 237 255
223 237 255
223 237 255
223 237 255
223 237 255
223 237 255
223 237 255
223 237 255
223 237 255
223 237 255
223 237 255
223 237 255
223 237 255
223 237 255
223 237 255
223 237 255
223 237 255
223 237 255
223 237 255
223 237 255
223 237 255
223 237 255
223 237 255
223 237 255
223 237 255
223 237 255
223 237 255
223 237 255
223 237 255
224 237 255
224 237 255
224 237 255
224 237 255
224 237 255
224 237 255
224 237 255
224 237 255
224 237 255
224 237 255
224 237 255
224 237 255
224 237 255
224 237 255
224 237 255
224 237 255
224 237 255
224 237 255
224 237 255
224 237 255
224 237 255
224 237 255
224 237 255
224 237 255
224 237 255
224 237 255
224 237 255
224 237 255
224 237 255
224 237 255
224 237 255
224 237 255
224 237 255
224 237 255
224 237 255
224 237 255
224 237 255
224 237 255
224 237 255
224 237 255
224 237 255
224 237 255
224 237 255
224 237 255
224 237 255
224 237 255
224 237 255
224 237 255
224 237 255
224 237 255
224 237 255
224 237 255
224 237 255
224 237 255
224 237 255
224 237 255
224 237 255
224 237 255
224 237 255
224 237 255
224 237 255
224 237 255
224 237 255
224 237 255
224 237 255
224 237 255
224 237 255
224 237 255
224 237 255
224 237 255
224 237 255
224 237 255
224 237 255
224 237 255
224 237 255
224 237 255
224 237 255
224 237 255
224 237 255
224 237 255
224 237 255
224 237 255
224 237 255
224 237 255
224 237 255
224 237 255
224 237 255
224 237 255
224 237 255
224 237 255
224 237 255
224 237 255
224 237 255
224 237 255
224 237 255
224 237 255
225 237 255
225 237 255
225 237 255
225 237 255
225 237 255
225 237 255
225 237 255
225 237 255
225 237 255
225 237 255
225 237 255
225 237 255
225 237 255
225 237 255
225 237 255
225 237 255
225 238 255
225 238 255
225 238 255
225 238 255
225 238 255
225 238 255
225 238 255
225 238 255
225 238 255
225 238 255
225 238 255
225 238 255
225 238 255
225 238 255
225 238 255
225 238 255
225 238 255
225 238 255
225 238 255
225 238 255
225 238 255
225 238 255
225 238 255
225 238 255
225 238 255
225 238 255
225 238 255
225 238 255
225 238 255
225 238 255
225 238 255
225 238 255
225 238 255
225 238 255
225 238 255
225 238 255
225 238 255
225 238 255
225 238 255
225 238 255
225 238 255
225 238 255
225 238 255
225 238 255
225 238 255
225 238 255
225 238 255
225 238 255
225 238 255
225 238 255
225 238 255
225 238 255
225 238 255
225 238 255
225 238 255
225 238 255
225 238 255
225 238 255
225 238 255
225 238 255
225 238 255
225 238 255
225 238 255
225 238 255
225 238 255
225 238 255
225 238 255
225 238 255
225 238 255
225 238 255
225 238 255
225 238 255
225 238 255
225 238 255
225 238 255
225 238 255
225 238 255
225 238 255
225 238 255
225 238 255
225 238 255
225 238 255
225 238 255
225 238 255
225 238 255
225 238 255
225 238 255
225 238 255
225 238 255
225 238 255
225 238 255
225 238 255
225 238 255
225 238 255
225 238 255
225 238 255
225 238 255
225 238 255
225 238 255
225 238 255
225 238 255
225 238 255
225 238 255
225 238 255
225 238 255
225 238 255
225 238 255
225 238 255
225 238 255
225 238 255
225 238 255
225 238 255
225 238 255
225 238 255
225 238 255
225 238 255
225 238 255
225 238 255
225 238 255
225 238 255
225 238 255
225 238 255
225 238 255
225 238 255
225 238 255
225 238 255
225 238 255
225 238 255
225 238 255
225 238 255
225 238 255
225 238 255
225 238 255
225 238 255
225 238 255
225 238 255
225 238 255
225 238 255
225 238 255
225 238 255
225 238 255
225 238 255
225 238 255
225 238 255
225 238 255
225 238 255
225 238 255
225 238 255
225 238 255
225 238 255
225 238 255
225 238 255
225 238 255
225 238 255
225 238 255
225 237 255
225 237 255
225 237 255
225 237 255
225 237 255
225 237 255
225 237 255
225 237 255
225 237 255
225 237 255
225 237 255
225 237 255
225 237 255
225 237 255
225 237 255
225 237 255
225 237 255
225 237 255
224 237 255
224 237 255
224 237 255
224 237 255
224 237 255
224 237 255
224 237 255
224 237 255
224 237 255
224 237 255
224 237 255
224 237 255
224 237 255
224 237 255
224 237 255
224 237 255
224 237 255
224 237 255
224 237 255
224 237 255
224 237 255
224 237 255
224 237 255
224 237 255
224 237 255
224 237 255
224 237 255
224 237 255
224 237 255
224 237 255
224 237 255
224 237 255
224 237 255
224 237 255
224 237 255
224 237 255
224 237 255
224 237 255
224 237 255
224 237 255
224 237 255
224 237 255
224 237 255
224 237 255
224 237 255
224 237 255
224 237 255
224 237 255
224 237 255
224 237 255
224 237 255
224 237 255
224 237 255
224 237 255
224 237 255
224 237 255
224 237 255
224 237 255
224 237 255
224 237 255
224 237 255
224 237 255
224 237 255
224 237 255
224 237 255
224 237 255
224 237 255
224 237 255
224 237 255
224 237 255
224 237 255
224 237 255
224 237 255
224 237 255
224 237 255
224 237 255
224 237 255
224 237 255
224 237 255
224 237 255
224 237 255
224 237 255
224 237 255
224 237 255
224 237 255
224 237 255
224 237 255
224 237 255
224 237 255
224 237 255
224 237 255
224 237 255
224 237 255
224 237 255
224 237 255
223 237 255
223 237 255
223 237 255
223 237 255
223 237 255
223 237 255
223 237 255
223 237 255
223 237 255
223 237 255
224 237 255
224 237 255
224 237 255
224 237 255
224 237 255
224 237 255
224 237 255
224 237 255
224 237 255
224 237 255
224 237 255
224 237 255
224 237 255
224 237 255
224 237 255
224 237 255
224 237 255
224 237 255
224 237 255
224 237 255
224 237 255
224 237 255
224 237 255
224 237 255
224 237 255
224 237 255
224 237 255
224 237 255
224 237 255
224 237 255
224 237 255
224 237 255
224 237 255
224 237 255
224 237 255
224 237 255
224 237 255
224 237 255
224 237 255
224 237 255
224 237 255
224 237 255
224 237 255
224 237 255
224 237 255
224 237 255
224 237 255
224 237 255
224 237 255
224 237 255
224 237 255
224 237 255
224 237 255
224 237 255
224 237 255
224 237 255
224 237 255
224 237 255
224 237 255
224 237 255
224 237 255
224 237 255
224 237 255
224 237 255
224 237 255
224 237 255
224 237 255
224 237 255
224 237 255
224 237 255
224 237 255
224 237 255
224 237 255
224 237 255
224 237 255
224 237 255
224 237 255
224 237 255
224 237 255
224 237 255
224 237 255
224 237 255
224 237 255
224 237 255
224 237 255
224 237 255
224 237 255
224 237 255
224 237 255
224 237 255
225 237 255
225 237 255
225 237 255
225 237 255
225 237 255
225 237 255
225 237 255
225 237 255
225 237 255
225 237 255
225 237 255
225 237 255
225 237 255
225 237 255
225 237 255
225 238 255
225 238 255
225 238 255
225 238 255
225 238 255
225 238 255
225 238 255
225 238 255
225 238 255
225 238 255
225 238 255
225 238 255
225 238 255
225 238 255
225 238 255
225 238 255
225 238 255
225 238 255
225 238 255
225 238 255
225 238 255
225 238 255
225 238 255
225 238 255
225 238 255
225 238 255
225 238 255
225 238 255
225 238 255
225 238 255
225 238 255
225 238 255
225 238 255
225 238 255
225 238 255
225 238 255
225 238 255
225 238 255
225 238 255
225 238 255
225 238 255
225 238 255
225 238 255
225 238 255
225 238 255
225 238 255
225 238 255
225 238 255
225 238 255
225 238 255
225 238 255
225 238 255
225 238 255
225 238 255
225 238 255
225 238 255
225 238 255
225 238 255
225 238 255
225 238 255
225 238 255
225 238 255
225 238 255
225 238 255
225 238 255
225 238 255
225 238 255
225 238 255
225 238 255
225 238 255
225 238 255
225 238 255
225 238 255
225 238 255
225 238 255
225 238 255
225 238 255
226 238 255
225 238 255
225 238 255
226 238 255
226 238 255
226 238 255
226 238 255
226 238 255
226 238 255
226 238 255
226 238 255
226 238 255
226 238 255
226 238 255
226 238 255
226 238 255
226 238 255
226 238 255
226 238 255
226 238 255
226 238 255
226 238 255
226 238 255
226 238 255
226 238 255
226 238 255
226 238 255
226 238 255
226 238 255
226 238 255
226 238 255
226 238 255
226 238 255
226 238 255
225 238 255
225 238 255
225 238 255
225 238 255
225 238 255
225 238 255
225 238 255
225 238 255
225 238 255
225 238 255
225 238 255
225 238 255
225 238 255
225 238 255
225 238 255
225 238 255
225 238 255
225 238 255
225 238 255
225 238 255
225 238 255
225 238 255
225 238 255
225 238 255
225 238 255
225 238 255
225 238 255
225 238 255
225 238 255
225 238 255
225 238 255
225 238 255
225 238 255
225 238 255
225 238 255
225 238 255
225 238 255
225 238 255
225 238 255
225 238 255
225 238 255
225 238 255
225 238 255
225 238 255
225 238 255
225 238 255
225 238 255
225 238 255
225 238 255
225 238 255
225 238 255
225 238 255
225 238 255
225 238 255
225 238 255
225 238 255
225 238 255
225 238 255
225 238 255
225 238 255
225 238 255
225 238 255
225 238 255
225 238 255
225 238 255
225 238 255
225 238 255
225 238 255
225 238 255
225 238 255
225 238 255
225 238 255
225 238 255
225 238 255
225 238 255
225 238 255
225 238 255
225 238 255
225 237 255
225 237 255
225 237 255
225 237 255
225 237 255
225 237 255
225 237 255
225 237 255
225 237 255
225 237 255
225 237 255
225 237 255
225 237 255
225 237 255
225 237 255
225 237 255
224 237 255
224 237 255
224 237 255
224 237 255
224 237 255
224 237 255
224 237 255
224 237 255
224 237 255
224 237 255
224 237 255
224 237 255
224 237 255
224 237 255
224 237 255
224 237 255
224 237 255
224 237 255
224 237 255
224 237 255
224 237 255
224 237 255
224 237 255
224 237 255
224 237 255
224 237 255
224 237 255
224 237 255
224 237 255
224 237 255
224 237 255
224 237 255
224 237 255
224 237 255
224 237 255
224 237 255
224 237 255
224 237 255
224 237 255
224 237 255
224 237 255
224 237 255
224 237 255
224 237 255
224 237 255
224 237 255
224 237 255
224 237 255
224 237 255
224 237 255
224 237 255
224 237 255
224 237 255
224 237 255
224 237 255
224 237 255
224 237 255
224 237 255
224 237 255
224 237 255
224 237 255
224 237 255
224 237 255
224 237 255
224 237 255
224 237 255
224 237 255
224 237 255
224 237 255
224 237 255
224 237 255
224 237 255
224 237 255
224 237 255
224 237 255
224 237 255
224 237 255
224 237 255
224 237 255
224 237 255
224 237 255
224 237 255
224 237 255
224 237 255
224 237 255
224 237 255
224 237 255
224 237 255
224 237 255
224 237 255
224 237 255
224 237 255
224 237 255
224 237 255
224 237 255
224 237 255
224 237 255
224 237 255
224 237 255
224 237 255
224 237 255
224 237 255
224 237 255
224 237 255
224 237 255
224 237 255
224 237 255
224 237 255
224 237 255
224 237 255
224 237 255
224 237 255
224 237 255
224 237 255
224 237 255
224 237 255
224 237 255
224 237 255
224 237 255
224 237 255
224 237 255
224 237 255
224 237 255
224 237 255
224 237 255
224 237 255
224 237 255
224 237 255
224 237 255
224 237 255
224 237 255
224 237 255
224 237 255
224 237 255
224 237 255
224 237 255
224 237 255
224 237 255
224 237 255
224 237 255
224 237 255
224 237 255
224 237 255
224 237 255
224 237 255
224 237 255
224 237 255
224 237 255
224 237 255
224 237 255
224 237 255
224 237 255
224 237 255
224 237 255
224 237 255
224 237 255
224 237 255
224 237 255
224 237 255
224 237 255
224 237 255
224 237 255
224 237 255
224 237 255
224 237 255
224 237 255
224 237 255
225 237 255
225 237 255
225 237 255
225 237 255
225 237 255
225 237 255
225 237 255
225 237 255
225 237 255
225 237 255
225 237 255
225 237 255
225 237 255
225 237 255
225 237 255
225 238 255
225 238 255
225 238 255
225 238 255
225 238 255
225 238 255
225 238 255
225 238 255
225 238 255
225 238 255
225 238 255
225 238 255
225 238 255
225 238 255
225 238 255
225 238 255
225 238 255
225 238 255
225 238 255
225 238 255
225 238 255
225 238 255
225 238 255
225 238 255
225 238 255
225 238 255
225 238 255
225 238 255
225 238 255
225 238 255
225 238 255
225 238 255
225 238 255
225 238 255
225 238 255
225 238 255
225 238 255
225 238 255
225 238 255
225 238 255
225 238 255
225 238 255
225 238 255
225 238 255
225 238 255
225 238 255
225 238 255
225 238 255
225 238 255
225 238 255
225 238 255
225 238 255
225 238 255
225 238 255
225 238 255
225 238 255
225 238 255
225 238 255
225 238 255
225 238 255
226 238 255
226 238 255
226 238 255
226 238 255
226 238 255
226 238 255
226 238 255
226 238 255
226 238 255
226 238 255
226 238 255
226 238 255
226 238 255
226 238 255
226 238 255
226 238 255
226 238 255
226 238 255
226 238 255
226 238 255
226 238 255
226 238 255
226 238 255
226 238 255
226 238 255
226 238 255
226 238 255
226 238 255
226 238 255
226 238 255
226 238 255
226 238 255
226 238 255
226 238 255
226 238 255
226 238 255
226 238 255
226 238 255
226 238 255
226 238 255
226 238 255
226 238 255
226 238 255
226 238 255
226 238 255
226 238 255
226 238 255
226 238 255
226 238 255
226 238 255
226 238 255
226 238 255
226 238 255
226 238 255
226 238 255
226 238 255
226 238 255
226 238 255
226 238 255
226 238 255
226 238 255
226 238 255
226 238 255
226 238 255
226 238 255
226 238 255
226 238 255
226 238 255
226 238 255
226 238 255
226 238 255
226 238 255
226 238 255
226 238 255
226 238 255
226 238 255
226 238 255
226 238 255
226 238 255
226 238 255
226 238 255
226 238 255
226 238 255
226 238 255
226 238 255
226 238 255
226 238 255
226 238 255
226 238 255
226 238 255
226 238 255
226 238 255
226 238 255
226 238 255
226 238 255
225 238 255
225 238 255
225 238 255
225 238 255
225 238 255
225 238 255
225 238 255
225 238 255
225 238 255
225 238 255
225 238 255
225 238 255
225 238 255
225 238 255
225 238 255
225 238 255
225 238 255
225 238 255
225 238 255
225 238 255
225 238 255
225 238 255
225 238 255
225 238 255
225 238 255
225 238 255
225 238 255
225 238 255
225 238 255
225 238 255
225 238 255
225 238 255
225 238 255
225 238 255
225 238 255
225 238 255
225 238 255
225 238 255
225 238 255
225 238 255
225 238 255
225 238 255
225 238 255
225 238 255
225 238 255
225 238 255
225 238 255
225 238 255
225 238 255
225 238 255
225 238 255
225 238 255
225 238 255
225 238 255
225 238 255
225 238 255
225 238 255
225 238 255
225 238 255
225 238 255
225 238 255
225 238 255
225 237 255
225 237 255
225 237 255
225 237 255
225 237 255
225 237 255
225 237 255
225 237 255
225 237 255
225 237 255
225 237 255
225 237 255
225 237 255
225 237 255
224 237 255
224 237 255
224 237 255
224 237 255
224 237 255
224 237 255
224 237 255
224 237 255
224 237 255
224 237 255
224 237 255
224 237 255
224 237 255
224 237 255
224 237 255
224 237 255
224 237 255
224 237 255
224 237 255
224 237 255
224 237 255
224 237 255
224 237 255
224 237 255
224 237 255
224 237 255
224 237 255
224 237 255
224 237 255
224 237 255
224 237 255
224 237 255
224 237 255
224 237 255
224 237 255
224 237 255
224 237 255
224 237 255
224 237 255
224 237 255
224 237 255
224 237 255
224 237 255
224 237 255
224 237 255
224 237 255
224 237 255
224 237 255
224 237 255
224 237 255
224 237 255
224 237 255
224 237 255
224 237 255
224 237 255
224 237 255
224 237 255
224 237 255
224 237 255
224 237 255
224 237 255
224 237 255
224 237 255
224 237 255
224 237 255
224 237 255
224 237 255
224 237 255
224 237 255
224 237 255
224 237 255
224 237 255
224 237 255
224 237 255
224 237 255
224 237 255
224 237 255
224 237 255
224 237 255
224 237 255
224 237 255
224 237 255
224 237 255
224 237 255
224 237 255
224 237 255
224 237 255
224 237 255
224 237 255
224 237 255
224 237 255
224 237 255
224 237 255
224 237 255
224 237 255
224 237 255
224 237 255
224 237 255
224 237 255
224 237 255
224 237 255
224 237 255
224 237 255
224 237 255
224 237 255
224 237 255
224 237 255
224 237 255
224 237 255
224 237 255
224 237 255
224 237 255
224 237 255
224 237 255
224 237 255
224 237 255
224 237 255
224 237 255
224 237 255
224 237 255
224 237 255
224 237 255
224 237 255
224 237 255
224 237 255
224 237 255
224 237 255
224 237 255
224 237 255
224 237 255
224 237 255
224 237 255
224 237 255
224 237 255
224 237 255
224 237 255
224 237 255
224 237 255
224 237 255
224 237 255
225 237 255
225 237 255
225 237 255
225 237 255
225 237 255
225 237 255
225 237 255
225 237 255
225 237 255
225 237 255
225 237 255
225 237 255
225 237 255
225 237 255
225 237 255
225 238 255
225 238 255
225 238 255
225 238 255
225 238 255
225 238 255
225 238 255
225 238 255
225 238 255
225 238 255
225 238 255
225 238 255
225 238 255
225 238 255
225 238 255
225 238 255
225 238 255
225 238 255
225 238 255
225 238 255
225 238 255
225 238 255
225 238 255
225 238 255
225 238 255
225 238 255
225 238 255
225 238 255
225 238 255
225 238 255
225 238 255
225 238 255
225 238 255
225 238 255
225 238 255
225 238 255
225 238 255
225 238 255
225 238 255
225 238 255
225 238 255
225 238 255
225 238 255
225 238 255
225 238 255
225 238 255
225 238 255
225 238 255
225 238 255
225 238 255
225 238 255
225 238 255
225 238 255
225 238 255
225 238 255
225 238 255
225 238 255
226 238 255
226 238 255
226 238 255
226 238 255
226 238 255
226 238 255
226 238 255
226 238 255
226 238 255
226 238 255
226 238 255
226 238 255
226 238 255
226 238 255
226 238 255
226 238 255
226 238 255
226 238 255
226 238 255
226 238 255
226 238 255
226 238 255
226 238 255
226 238 255
226 238 255
226 238 255
226 238 255
226 238 255
226 238 255
226 238 255
226 238 255
226 238 255
226 238 255
226 238 255
226 238 255
226 238 255
226 238 255
226 238 255
226 238 255
226 238 255
226 238 255
226 238 255
226 238 255
226 238 255
226 238 255
226 238 255
226 238 255
226 238 255
226 238 255
226 238 255
226 238 255
226 238 255
226 238 255
226 238 255
226 238 255
226 238 255
226 238 255
226 238 255
226 238 255
226 238 255
226 238 255
226 238 255
226 238 255
226 238 255
226 238 255
226 238 255
226 238 255
226 238 255
226 238 255
226 238 255
226 238 255
226 238 255
226 238 255
226 238 255
226 238 255
226 238 255
226 238 255
226 238 255
226 238 255
226 238 255
226 238 255
226 238 255
226 238 255
226 238 255
226 238 255
226 238 255
226 238 255
226 238 255
226 238 255
226 238 255
226 238 255
226 238 255
226 238 255
226 238 255
226 238 255
226 238 255
226 238 255
226 238 255
226 238 255
226 238 255
226 238 255
226 238 255
226 238 255
226 238 255
226 238 255
226 238 255
226 238 255
226 238 255
226 238 255
226 238 255
226 238 255
226 238 255
226 238 255
226 238 255
226 238 255
226 238 255
226 238 255
226 238 255
226 238 255
226 238 255
226 238 255
226 238 255
226 238 255
226 238 255
226 238 255
226 238 255
226 238 255
226 238 255
226 238 255
226 238 255
226 238 255
225 238 255
225 238 255
225 238 255
225 238 255
225 238 255
225 238 255
225 238 255
225 238 255
225 238 255
225 238 255
225 238 255
225 238 255
225 238 255
225 238 255
225 238 255
225 238 255
225 238 255
225 238 255
225 238 255
225 238 255
225 238 255
225 238 255
225 238 255
225 238 255
225 238 255
225 238 255
225 238 255
225 238 255
225 238 255
225 238 255
225 238 255
225 238 255
225 238 255
225 238 255
225 238 255
225 238 255
225 238 255
225 238 255
225 238 255
225 238 255
225 238 255
225 238 255
225 238 255
225 238 255
225 238 255
225 238 255
225 238 255
225 238 255
225 238 255
225 238 255
225 238 255
225 238 255
225 238 255
225 238 255
225 238 255
225 237 255
225 237 255
225 237 255
225 237 255
225 237 255
225 237 255
225 237 255
225 237 255
225 237 255
225 237 255
225 237 255
225 237 255
225 237 255
225 237 255
225 237 255
225 237 255
224 237 255
224 237 255
224 237 255
224 237 255
224 237 255
224 237 255
224 237 255
224 237 255
224 237 255
224 237 255
224 237 255
224 237 255
224 237 255
224 237 255
224 237 255
224 237 255
224 237 255
224 237 255
224 237 255
224 237 255
224 237 255
224 237 255
224 237 255
224 237 255
224 237 255
224 237 255
224 237 255
224 237 255
224 237 255
224 237 255
224 237 255
224 237 255
224 237 255
224 237 255
224 237 255
224 237 255
224 237 255
224 237 255
224 237 255
224 237 255
224 237 255
224 237 255
224 237 255
224 237 255
224 237 255
224 237 255
224 237 255
224 237 255
224 237 255
224 237 255
224 237 255
224 237 255
224 237 255
224 237 255
224 237 255
224 237 255
224 237 255
224 237 255
224 237 255
224 237 255
224 237 255
224 237 255
224 237 255
224 237 255
224 237 255
224 237 255
224 237 255
224 237 255
224 237 255
224 237 255
224 237 255
224 237 255
224 237 255
224 237 255
224 237 255
224 237 255
224 237 255
224 237 255
224 237 255
224 237 255
224 237 255
224 237 255
224 237 255
224 237 255
224 237 255
224 237 255
224 237 255
224 237 255
224 237 255
224 237 255
224 237 255
224 237 255
224 237 255
224 237 255
224 237 255
224 237 255
224 237 255
224 237 255
224 237 255
224 237 255
224 237 255
224 237 255
224 237 255
224 237 255
224 237 255
224 237 255
224 237 255
224 237 255
224 237 255
224 237 255
224 237 255
224 237 255
224 237 255
225 237 255
225 237 255
225 237 255
225 237 255
225 237 255
225 237 255
225 237 255
225 237 255
225 237 255
225 237 255
225 237 255
225 237 255
225 237 255
225 237 255
225 237 255
225 237 255
225 238 255
225 238 255
225 238 255
225 238 255
225 238 255
225 238 255
225 238 255
225 238 255
225 238 255
225 238 255
225 238 255
225 238 255
225 238 255
225 238 255
225 238 255
225 238 255
225 238 255
225 238 255
225 238 255
225 238 255
225 238 255
225 238 255
225 238 255
225 238 255
225 238 255
225 238 255
225 238 255
225 238 255
225 238 255
225 238 255
225 238 255
225 238 255
225 238 255
225 238 255
225 238 255
225 238 255
225 238 255
225 238 255
225 238 255
225 238 255
225 238 255
225 238 255
225 238 255
225 238 255
225 238 255
225 238 255
225 238 255
225 238 255
225 238 255
225 238 255
225 238 255
225 238 255
225 238 255
226 238 255
225 238 255
226 238 255
226 238 255
226 238 255
226 238 255
226 238 255
226 238 255
226 238 255
226 238 255
226 238 255
226 238 255
226 238 255
226 238 255
226 238 255
226 238 255
226 238 255
226 238 255
226 238 255
226 238 255
226 238 255
226 238 255
226 238 255
226 238 255
226 238 255
226 238 255
226 238 255
226 238 255
226 238 255
226 238 255
226 238 255
226 238 255
226 238 255
226 238 255
226 238 255
226 238 255
226 238 255
226 238 255
226 238 255
226 238 255
226 238 255
226 238 255
226 238 255
226 238 255
226 238 255
226 238 255
226 238 255
226 238 255
226 238 255
226 238 255
226 238 255
226 238 255
226 238 255
226 238 255
226 238 255
226 238 255
226 238 255
226 238 255
226 238 255
226 238 255
226 238 255
226 238 255
226 238 255
226 238 255
226 238 255
226 238 255
226 238 255
226 238 255
226 238 255
226 238 255
226 238 255
226 238 255
226 238 255
226 238 255
226 238 255
226 238 255
226 238 255
226 238 255
226 238 255
226 238 255
226 238 255
226 238 255
226 238 255
226 238 255
226 238 255
226 238 255
226 238 255
226 238 255
226 238 255
226 238 255
226 238 255
226 238 255
226 238 255
226 238 255
226 238 255
226 238 255
226 238 255
226 238 255
226 238 255
226 238 255
226 238 255
226 238 255
226 238 255
226 238 255
226 238 255
226 238 255
226 238 255
226 238 255
226 238 255
226 238 255
226 238 255
226 238 255
226 238 255
226 238 255
226 238 255
226 238 255
226 238 255
226 238 255
226 238 255
226 238 255
226 238 255
226 238 255
226 238 255
226 238 255
226 238 255
226 238 255
226 238 255
226 238 255
226 238 255
226 238 255
226 238 255
226 238 255
226 238 255
226 238 255
226 238 255
226 238 255
226 238 255
226 238 255
226 238 255
226 238 255
226 238 255
226 238 255
226 238 255
226 238 255
226 238 255
226 238 255
226 238 255
226 238 255
226 238 255
226 238 255
226 238 255
226 238 255
226 238 255
226 238 255
226 238 255
226 238 255
226 238 255
226 238 255
226 238 255
226 238 255
226 238 255
225 238 255
225 238 255
225 238 255
225 238 255
225 238 255
225 238 255
225 238 255
225 238 255
225 238 255
225 238 255
225 238 255
225 238 255
225 238 255
225 238 255
225 238 255
225 238 255
225 238 255
225 238 255
225 238 255
225 238 255
225 238 255
225 238 255
225 238 255
225 238 255
225 238 255
225 238 255
225 238 255
225 238 255
225 238 255
225 238 255
225 238 255
225 238 255
225 238 255
225 238 255
225 238 255
225 238 255
225 238 255
225 238 255
225 238 255
225 238 255
225 238 255
225 238 255
225 238 255
225 238 255
225 238 255
225 238 255
225 238 255
225 238 255
225 238 255
225 238 255
225 238 255
225 238 255
225 238 255
225 238 255
225 237 255
225 237 255
225 237 255
225 237 255
225 237 255
225 237 255
225 237 255
225 237 255
225 237 255
225 237 255
225 237 255
225 237 255
225 237 255
225 237 255
225 237 255
225 237 255
224 237 255
224 237 255
224 237 255
224 237 255
224 237 255
224 237 255
224 237 255
224 237 255
224 237 255
224 237 255
224 237 255
224 237 255
224 237 255
224 237 255
224 237 255
224 237 255
224 237 255
224 237 255
224 237 255
224 237 255
224 237 255
224 237 255
224 237 255
224 237 255
224 237 255
224 237 255
224 237 255
224 237 255
224 237 255
224 237 255
224 237 255
224 237 255
224 237 255
224 237 255
224 237 255
224 237 255
224 237 255
224 237 255
224 237 255
224 237 255
224 237 255
224 237 255
224 237 255
224 237 255
224 237 255
224 237 255
224 237 255
224 237 255
224 237 255
224 237 255
224 237 255
224 237 255
224 237 255
224 237 255
224 237 255
224 237 255
224 237 255
224 237 255
224 237 255
224 237 255
224 237 255
224 237 255
224 237 255
224 237 255
224 237 255
224 237 255
224 237 255
224 237 255
224 237 255
224 237 255
224 237 255
224 237 255
224 237 255
224 237 255
224 237 255
224 237 255
224 237 255
224 237 255
224 237 255
224 237 255
224 237 255
224 237 255
224 237 255
224 237 255
224 237 255
224 237 255
224 237 255
224 237 255
225 237 255
225 237 255
225 237 255
225 237 255
225 237 255
225 237 255
225 237 255
225 237 255
225 237 255
225 237 255
225 237 255
225 237 255
225 237 255
225 237 255
225 237 255
225 237 255
225 238 255
225 238 255
225 238 255
225 238 255
225 238 255
225 238 255
225 238 255
225 238 255
225 238 255
225 238 255
225 238 255
225 238 255
225 238 255
225 238 255
225 238 255
225 238 255
225 238 255
225 238 255
225 238 255
225 238 255
225 238 255
225 238 255
225 238 255
225 238 255
225 238 255
225 238 255
225 238 255
225 238 255
225 238 255
225 238 255
225 238 255
225 238 255
225 238 255
225 238 255
225 238 255
225 238 255
225 238 255
225 238 255
225 238 255
225 238 255
225 238 255
225 238 255
225 238 255
225 238 255
225 238 255
225 238 255
225 238 255
225 238 255
225 238 255
225 238 255
225 238 255
225 238 255
225 238 255
226 238 255
226 238 255
226 238 255
226 238 255
226 238 255
226 238 255
226 238 255
226 238 255
226 238 255
226 238 255
226 238 255
226 238 255
226 238 255
226 238 255
226 238 255
226 238 255
226 238 255
226 238 255
226 238 255
226 238 255
226 238 255
226 238 255
226 238 255
226 238 255
226 238 255
226 238 255
226 238 255
226 238 255
226 238 255
226 238 255
226 238 255
226 238 255
226 238 255
226 238 255
226 238 255
226 238 255
226 238 255
226 238 255
226 238 255
226 238 255
226 238 255
226 238 255
226 238 255
226 238 255
226 238 255
226 238 255
226 238 255
226 238 255
226 238 255
226 238 255
226 238 255
226 238 255
226 238 255
226 238 255
226 238 255
226 238 255
226 238 255
226 238 255
226 238 255
226 238 255
226 238 255
226 238 255
226 238 255
226 238 255
226 238 255
226 238 255
226 238 255
226 238 255
226 238 255
226 238 255
226 238 255
226 239 255
226 238 255
226 239 255
226 239 255
226 239 255
226 239 255
226 239 255
226 239 255
227 239 255
227 239 255
227 239 255
227 239 255
227 239 255
227 239 255
227 239 255
227 239 255
227 239 255
227 239 255
227 239 255
227 239 255
227 239 255
227 239 255
227 239 255
227 239 255
227 239 255
227 239 255
227 239 255
227 239 255
227 239 255
227 239 255
227 239 255
227 239 255
227 239 255
227 239 255
227 239 255
227 239 255
226 239 255
226 239 255
226 239 255
226 239 255
226 239 255
226 238 255
226 239 255
226 238 255
226 238 255
226 238 255
226 238 255
226 238 255
226 238 255
226 238 255
226 238 255
226 238 255
226 238 255
226 238 255
226 238 255
226 238 255
226 238 255
226 238 255
226 238 255
226 238 255
226 238 255
226 238 255
226 238 255
226 238 255
226 238 255
226 238 255
226 238 255
226 238 255
226 238 255
226 238 255
226 238 255
226 238 255
226 238 255
226 238 255
226 238 255
226 238 255
226 238 255
226 238 255
226 238 255
226 238 255
226 238 255
226 238 255
226 238 255
226 238 255
226 238 255
226 238 255
226 238 255
226 238 255
226 238 255
226 238 255
226 238 255
226 238 255
226 238 255
226 238 255
226 238 255
226 238 255
226 238 255
226 238 255
226 238 255
226 238 255
226 238 255
226 238 255
226 238 255
226 238 255
226 238 255
226 238 255
226 238 255
226 238 255
226 238 255
226 238 255
226 238 255
226 238 255
226 238 255
226 238 255
226 238 255
226 238 255
225 238 255
225 238 255
225 238 255
225 238 255
225 238 255
225 238 255
225 238 255
225 238 255
225 238 255
225 238 255
225 238 255
225 238 255
225 238 255
225 238 255
225 238 255
225 238 255
225 238 255
225 238 255
225 238 255
225 238 255
225 238 255
225 238 255
225 238 255
225 238 255
225 238 255
225 238 255
225 238 255
225 238 255
225 238 255
225 238 255
225 238 255
225 238 255
225 238 255
225 238 255
225 238 255
225 238 255
225 238 255
225 238 255
225 238 255
225 238 255
225 238 255
225 238 255
225 238 255
225 238 255
225 238 255
225 238 255
225 238 255
225 238 255
225 238 255
225 238 255
225 238 255
225 238 255
225 237 255
225 237 255
225 237 255
225 237 255
225 237 255
225 237 255
225 237 255
225 237 255
225 237 255
225 237 255
225 237 255
225 237 255
225 237 255
225 237 255
225 237 255
224 237 255
224 237 255
224 237 255
224 237 255
224 237 255
224 237 255
224 237 255
224 237 255
224 237 255
224 237 255
224 237 255
224 237 255
224 237 255
224 237 255
224 237 255
224 237 255
224 237 255
224 237 255
224 237 255
224 237 255
224 237 255
224 237 255
224 237 255
224 237 255
224 237 255
224 237 255
224 237 255
224 237 255
224 237 255
224 237 255
224 237 255
224 237 255
224 237 255
224 237 255
224 237 255
224 237 255
224 237 255
224 237 255
224 237 255
224 237 255
224 237 255
224 237 255
224 237 255
224 237 255
224 237 255
224 237 255
224 237 255
224 237 255
224 237 255
224 237 255
224 237 255
224 237 255
224 237 255
224 237 255
224 237 255
224 237 255
224 237 255
224 237 255
224 237 255
224 237 255
224 237 255
224 237 255
224 237 255
224 237 255
224 237 255
224 237 255
225 237 255
225 237 255
225 237 255
225 237 255
225 237 255
225 237 255
225 237 255
225 237 255
225 237 255
225 237 255
225 237 255
225 237 255
225 237 255
225 237 255
225 237 255
225 237 255
225 238 255
225 238 255
225 238 255
225 238 255
225 238 255
225 238 255
225 238 255
225 238 255
225 238 255
225 238 255
225 238 255
225 238 255
225 238 255
225 238 255
225 238 255
225 238 255
225 238 255
225 238 255
225 238 255
225 238 255
225 238 255
225 238 255
225 238 255
225 238 255
225 238 255
225 238 255
225 238 255
225 238 255
225 238 255
225 238 255
225 238 255
225 238 255
225 238 255
225 238 255
225 238 255
225 238 255
225 238 255
225 238 255
225 238 255
225 238 255
225 238 255
225 238 255
225 238 255
225 238 255
225 238 255
225 238 255
225 238 255
225 238 255
225 238 255
225 238 255
225 238 255
225 238 255
226 238 255
226 238 255
226 238 255
226 238 255
226 238 255
226 238 255
226 238 255
226 238 255
226 238 255
226 238 255
226 238 255
226 238 255
226 238 255
226 238 255
226 238 255
226 238 255
226 238 255
226 238 255
226 238 255
226 238 255
226 238 255
226 238 255
226 238 255
226 238 255
226 238 255
226 238 255
226 238 255
226 238 255
226 238 255
226 238 255
226 238 255
226 238 255
226 238 255
226 238 255
226 238 255
226 238 255
226 238 255
226 238 255
226 238 255
226 238 255
226 238 255
226 238 255
226 238 255
226 238 255
226 238 255
226 238 255
226 238 255
226 238 255
226 238 255
226 238 255
226 238 255
226 238 255
226 238 255
226 238 255
226 238 255
226 238 255
226 238 255
226 238 255
226 238 255
226 238 255
226 239 255
226 239 255
226 239 255
226 239 255
227 239 255
227 239 255
227 239 255
227 239 255
227 239 255
227 239 255
227 239 255
227 239 255
227 239 255
227 239 255
227 239 255
227 239 255
227 239 255
227 239 255
227 239 255
227 239 255
227 239 255
227 239 255
227 239 255
227 239 255
227 239 255
227 239 255
227 239 255
227 239 255
227 239 255
227 239 255
227 239 255
227 239 255
227 239 255
227 239 255
227 239 255
227 239 255
227 239 255
227 239 255
227 239 255
227 239 255
227 239 255
227 239 255
227 239 255
227 239 255
227 239 255
227 239 255
227 239 255
227 239 255
227 239 255
227 239 255
227 239 255
227 239 255
227 239 255
227 239 255
227 239 255
227 239 255
227 239 255
227 239 255
227 239 255
227 239 255
227 239 255
227 239 255
227 239 255
227 239 255
227 239 255
227 239 255
227 239 255
227 239 255
227 239 255
227 239 255
227 239 255
227 239 255
227 239 255
227 239 255
227 239 255
227 239 255
227 239 255
227 239 255
227 239 255
227 239 255
227 239 255
227 239 255
227 239 255
227 239 255
227 239 255
227 239 255
227 239 255
226 239 255
226 239 255
226 239 255
226 238 255
226 238 255
226 238 255
226 238 255
226 238 255
226 238 255
226 238 255
226 238 255
226 238 255
226 238 255
226 238 255
226 238 255
226 238 255
226 238 255
226 238 255
226 238 255
226 238 255
226 238 255
226 238 255
226 238 255
226 238 255
226 238 255
226 238 255
226 238 255
226 238 255
226 238 255
226 238 255
226 238 255
226 238 255
226 238 255
226 238 255
226 238 255
226 238 255
226 238 255
226 238 255
226 238 255
226 238 255
226 238 255
226 238 255
226 238 255
226 238 255
226 238 255
226 238 255
226 238 255
226 238 255
226 238 255
226 238 255
226 238 255
226 238 255
226 238 255
226 238 255
226 238 255
226 238 255
226 238 255
226 238 255
226 238 255
226 238 255
226 238 255
226 238 255
226 238 255
225 238 255
225 238 255
225 238 255
225 238 255
225 238 255
225 238 255
225 238 255
225 238 255
225 238 255
225 238 255
225 238 255
225 238 255
225 238 255
225 238 255
225 238 255
225 238 255
225 238 255
225 238 255
225 238 255
225 238 255
225 238 255
225 238 255
225 238 255
225 238 255
225 238 255
225 238 255
225 238 255
225 238 255
225 238 255
225 238 255
225 238 255
225 238 255
225 238 255
225 238 255
225 238 255
225 238 255
225 238 255
225 238 255
225 238 255
225 238 255
225 238 255
225 238 255
225 238 255
225 238 255
225 238 255
225 238 255
225 238 255
225 238 255
225 238 255
225 238 255
225 238 255
225 238 255
225 237 255
225 237 255
225 237 255
225 237 255
225 237 255
225 237 255
225 237 255
225 237 255
225 237 255
225 237 255
225 237 255
225 237 255
225 237 255
225 237 255
225 237 255
225 237 255
224 237 255
224 237 255
224 237 255
224 237 255
224 237 255
224 237 255
224 237 255
224 237 255
224 237 255
224 237 255
224 237 255
224 237 255
224 237 255
224 237 255
224 237 255
224 237 255
224 237 255
224 237 255
224 237 255
224 237 255
224 237 255
224 237 255
224 237 255
224 237 255
224 237 255
224 237 255
224 237 255
224 237 255
224 237 255
224 237 255
224 237 255
224 237 255
224 237 255
224 237 255
224 237 255
224 237 255
224 237 255
224 237 255
224 237 255
224 237 255
224 237 255
224 237 255
224 237 255
225 237 255
225 237 255
225 237 255
225 237 255
225 237 255
225 237 255
225 237 255
225 237 255
225 237 255
225 237 255
225 237 255
225 237 255
225 237 255
225 237 255
225 237 255
225 237 255
225 238 255
225 238 255
225 238 255
225 238 255
225 238 255
225 238 255
225 238 255
225 238 255
225 238 255
225 238 255
225 238 255
225 238 255
225 238 255
225 238 255
225 238 255
225 238 255
225 238 255
225 238 255
225 238 255
225 238 255
225 238 255
225 238 255
225 238 255
225 238 255
225 238 255
225 238 255
225 238 255
225 238 255
225 238 255
225 238 255
225 238 255
225 238 255
225 238 255
225 238 255
225 238 255
225 238 255
225 238 255
225 238 255
225 238 255
225 238 255
225 238 255
225 238 255
225 238 255
225 238 255
225 238 255
225 238 255
225 238 255
225 238 255
225 238 255
225 238 255
225 238 255
225 238 255
225 238 255
226 238 255
226 238 255
226 238 255
226 238 255
226 238 255
226 238 255
226 238 255
226 238 255
226 238 255
226 238 255
226 238 255
226 238 255
226 238 255
226 238 255
226 238 255
226 238 255
226 238 255
226 238 255
226 238 255
226 238 255
226 238 255
226 238 255
226 238 255
226 238 255
226 238 255
226 238 255
226 238 255
226 238 255
226 238 255
226 238 255
226 238 255
226 238 255
226 238 255
226 238 255
226 238 255
226 238 255
226 238 255
226 238 255
226 238 255
226 238 255
226 238 255
226 238 255
226 238 255
226 238 255
226 238 255
226 238 255
226 238 255
226 238 255
226 238 255
226 238 255
226 238 255
226 238 255
226 238 255
226 238 255
226 239 255
226 239 255
226 239 255
227 239 255
227 239 255
227 239 255
227 239 255
227 239 255
227 239 255
227 239 255
227 239 255
227 239 255
227 239 255
227 239 255
227 239 255
227 239 255
227 239 255
227 239 255
227 239 255
227 239 255
227 239 255
227 239 255
227 239 255
227 239 255
227 239 255
227 239 255
227 239 255
227 239 255
227 239 255
227 239 255
227 239 255
227 239 255
227 239 255
227 239 255
227 239 255
227 239 255
227 239 255
227 239 255
227 239 255
227 239 255
227 239 255
227 239 255
227 239 255
227 239 255
227 239 255
227 239 255
227 239 255
227 239 255
227 239 255
227 239 255
227 239 255
227 239 255
227 239 255
227 239 255
227 239 255
227 239 255
227 239 255
227 239 255
227 239 255
227 239 255
227 239 255
227 239 255
227 239 255
227 239 255
227 239 255
227 239 255
227 239 255
227 239 255
227 239 255
227 239 255
227 239 255
227 239 255
227 239 255
227 239 255
227 239 255
227 239 255
227 239 255
227 239 255
227 239 255
227 239 255
227 239 255
227 239 255
227 239 255
227 239 255
227 239 255
227 239 255
227 239 255
227 239 255
227 239 255
227 239 255
227 239 255
227 239 255
227 239 255
227 239 255
227 239 255
227 239 255
227 239 255
227 239 255
227 239 255
227 239 255
227 239 255
227 239 255
227 239 255
227 239 255
227 239 255
227 239 255
227 239 255
227 239 255
227 239 255
227 239 255
227 239 255
227 239 255
227 239 255
227 239 255
227 239 255
227 239 255
227 239 255
227 239 255
227 239 255
226 239 255
226 239 255
226 239 255
226 238 255
226 238 255
226 238 255
226 238 255
226 238 255
226 238 255
226 238 255
226 238 255
226 238 255
226 238 255
226 238 255
226 238 255
226 238 255
226 238 255
226 238 255
226 238 255
226 238 255
226 238 255
226 238 255
226 238 255
226 238 255
226 238 255
226 238 255
226 238 255
226 238 255
226 238 255
226 238 255
226 238 255
226 238 255
226 238 255
226 238 255
226 238 255
226 238 255
226 238 255
226 238 255
226 238 255
226 238 255
226 238 255
226 238 255
226 238 255
226 238 255
226 238 255
226 238 255
226 238 255
226 238 255
226 238 255
226 238 255
226 238 255
226 238 255
226 238 255
226 238 255
226 238 255
226 238 255
226 238 255
226 238 255
225 238 255
225 238 255
225 238 255
225 238 255
225 238 255
225 238 255
225 238 255
225 238 255
225 238 255
225 238 255
225 238 255
225 238 255
225 238 255
225 238 255
225 238 255
225 238 255
225 238 255
225 238 255
225 238 255
225 238 255
225 238 255
225 238 255
225 238 255
225 238 255
225 238 255
225 238 255
225 238 255
225 238 255
225 238 255
225 238 255
225 238 255
225 238 255
225 238 255
225 238 255
225 238 255
225 238 255
225 238 255
225 238 255
225 238 255
225 238 255
225 238 255
225 238 255
225 238 255
225 238 255
225 238 255
225 238 255
225 238 255
225 238 255
225 238 255
225 238 255
225 238 255
225 238 255
225 238 255
225 237 255
225 237 255
225 237 255
225 237 255
225 237 255
225 237 255
225 237 255
225 237 255
225 237 255
225 237 255
225 237 255
225 237 255
225 237 255
225 237 255
225 237 255
225 237 255
224 237 255
224 237 255
224 237 255
224 237 255
224 237 255
224 237 255
224 237 255
224 237 255
224 237 255
224 237 255
224 237 255
224 237 255
224 237 255
224 237 255
224 237 255
224 237 255
224 237 255
224 237 255
224 237 255
225 237 255
225 237 255
225 237 255
225 237 255
225 237 255
225 237 255
225 237 255
225 237 255
225 237 255
225 237 255
225 237 255
225 237 255
225 237 255
225 237 255
225 237 255
225 237 255
225 237 255
225 238 255
225 238 255
225 238 255
225 238 255
225 238 255
225 238 255
225 238 255
225 238 255
225 238 255
225 238 255
225 238 255
225 238 255
225 238 255
225 238 255
225 238 255
225 238 255
225 238 255
225 238 255
225 238 255
225 238 255
225 238 255
225 238 255
225 238 255
225 238 255
225 238 255
225 238 255
225 238 255
225 238 255
225 238 255
225 238 255
225 238 255
225 238 255
225 238 255
225 238 255
225 238 255
225 238 255
225 238 255
225 238 255
225 238 255
225 238 255
225 238 255
225 238 255
225 238 255
225 238 255
225 238 255
225 238 255
225 238 255
225 238 255
225 238 255
225 238 255
225 238 255
225 238 255
226 238 255
226 238 255
226 238 255
226 238 255
226 238 255
226 238 255
226 238 255
226 238 255
226 238 255
226 238 255
226 238 255
226 238 255
226 238 255
226 238 255
226 238 255
226 238 255
226 238 255
226 238 255
226 238 255
226 238 255
226 238 255
226 238 255
226 238 255
226 238 255
226 238 255
226 238 255
226 238 255
226 238 255
226 238 255
226 238 255
226 238 255
226 238 255
226 238 255
226 238 255
226 238 255
226 238 255
226 238 255
226 238 255
226 238 255
226 238 255
226 238 255
226 238 255
226 238 255
226 238 255
226 238 255
226 238 255
226 238 255
226 238 255
226 238 255
226 238 255
226 238 255
226 238 255
226 238 255
226 238 255
226 239 255
227 239 255
227 239 255
227 239 255
227 239 255
227 239 255
227 239 255
227 239 255
227 239 255
227 239 255
227 239 255
227 239 255
227 239 255
227 239 255
227 239 255
227 239 255
227 239 255
227 239 255
227 239 255
227 239 255
227 239 255
227 239 255
227 239 255
227 239 255
227 239 255
227 239 255
227 239 255
227 239 255
227 239 255
227 239 255
227 239 255
227 239 255
227 239 255
227 239 255
227 239 255
227 239 255
227 239 255
227 239 255
227 239 255
227 239 255
227 239 255
227 239 255
227 239 255
227 239 255
227 239 255
227 239 255
227 239 255
227 239 255
227 239 255
227 239 255
227 239 255
227 239 255
227 239 255
227 239 255
227 239 255
227 239 255
227 239 255
227 239 255
227 239 255
227 239 255
227 239 255
227 239 255
227 239 255
227 239 255
227 239 255
227 239 255
227 239 255
227 239 255
227 239 255
227 239 255
227 239 255
227 239 255
227 239 255
227 239 255
227 239 255
227 239 255
227 239 255
227 239 255
227 239 255
227 239 255
227 239 255
227 239 255
227 239 255
227 239 255
227 239 255
227 239 255
227 239 255
227 239 255
227 239 255
227 239 255
227 239 255
227 239 255
227 239 255
227 239 255
227 239 255
227 239 255
227 239 255
227 239 255
227 239 255
227 239 255
227 239 255
227 239 255
227 239 255
227 239 255
227 239 255
227 239 255
227 239 255
227 239 255
227 239 255
227 239 255
227 239 255
227 239 255
227 239 255
227 239 255
227 239 255
227 239 255
227 239 255
227 239 255
227 239 255
227 239 255
227 239 255
227 239 255
227 239 255
227 239 255
227 239 255
227 239 255
227 239 255
227 239 255
227 239 255
227 239 255
227 239 255
227 239 255
227 239 255
227 239 255
227 239 255
227 239 255
227 239 255
227 239 255
227 239 255
227 239 255
227 239 255
227 239 255
227 239 255
227 239 255
226 239 255
226 239 255
226 238 255
226 238 255
226 238 255
226 238 255
226 238 255
226 238 255
226 238 255
226 238 255
226 238 255
226 238 255
226 238 255
226 238 255
226 238 255
226 238 255
226 238 255
226 238 255
226 238 255
226 238 255
226 238 255
226 238 255
226 238 255
226 238 255
226 238 255
226 238 255
226 238 255
226 238 255
226 238 255
226 238 255
226 238 255
226 238 255
226 238 255
226 238 255
226 238 255
226 238 255
226 238 255
226 238 255
226 238 255
226 238 255
226 238 255
226 238 255
226 238 255
226 238 255
226 238 255
226 238 255
226 238 255
226 238 255
226 238 255
226 238 255
226 238 255
226 238 255
226 238 255
226 238 255
226 238 255
226 238 255
225 238 255
225 238 255
225 238 255
225 238 255
225 238 255
225 238 255
225 238 255
225 238 255
225 238 255
225 238 255
225 238 255
225 238 255
225 238 255
225 238 255
225 238 255
225 238 255
225 238 255
225 238 255
225 238 255
225 238 255
225 238 255
225 238 255
225 238 255
225 238 255
225 238 255
225 238 255
225 238 255
225 238 255
225 238 255
225 238 255
225 238 255
225 238 255
225 238 255
225 238 255
225 238 255
225 238 255
225 238 255
225 238 255
225 238 255
225 238 255
225 238 255
225 238 255
225 238 255
225 238 255
225 238 255
225 238 255
225 238 255
225 238 255
225 238 255
225 238 255
225 238 255
225 238 255
225 238 255
225 237 255
225 237 255
225 237 255
225 237 255
225 237 255
225 237 255
225 237 255
225 237 255
225 237 255
225 237 255
225 237 255
225 237 255
225 237 255
225 237 255
225 237 255
225 237 255
224 237 255
224 237 255
224 237 255
224 237 255
225 237 255
225 237 255
225 237 255
225 237 255
225 237 255
225 237 255
225 237 255
225 237 255
225 237 255
225 237 255
225 238 255
225 238 255
225 238 255
225 238 255
225 238 255
225 238 255
225 238 255
225 238 255
225 238 255
225 238 255
225 238 255
225 238 255
225 238 255
225 238 255
225 238 255
225 238 255
225 238 255
225 238 255
225 238 255
225 238 255
225 238 255
225 238 255
225 238 255
225 238 255
225 238 255
225 238 255
225 238 255
225 238 255
225 238 255
225 238 255
225 238 255
225 238 255
225 238 255
225 238 255
225 238 255
225 238 255
225 238 255
225 238 255
225 238 255
225 238 255
225 238 255
225 238 255
225 238 255
225 238 255
225 238 255
225 238 255
225 238 255
225 238 255
225 238 255
225 238 255
225 238 255
225 238 255
225 238 255
226 238 255
226 238 255
226 238 255
226 238 255
226 238 255
226 238 255
226 238 255
226 238 255
226 238 255
226 238 255
226 238 255
226 238 255
226 238 255
226 238 255
226 238 255
226 238 255
226 238 255
226 238 255
226 238 255
226 238 255
226 238 255
226 238 255
226 238 255
226 238 255
226 238 255
226 238 255
226 238 255
226 238 255
226 238 255
226 238 255
226 238 255
226 238 255
226 238 255
226 238 255
226 238 255
226 238 255
226 238 255
226 238 255
226 238 255
226 238 255
226 238 255
226 238 255
226 238 255
226 238 255
226 238 255
226 238 255
226 238 255
226 238 255
226 238 255
226 238 255
226 238 255
226 238 255
226 239 255
226 239 255
226 239 255
227 239 255
227 239 255
227 239 255
227 239 255
227 239 255
227 239 255
227 239 255
227 239 255
227 239 255
227 239 255
227 239 255
227 239 255
227 239 255
227 239 255
227 239 255
227 239 255
227 239 255
227 239 255
227 239 255
227 239 255
227 239 255
227 239 255
227 239 255
227 239 255
227 239 255
227 239 255
227 239 255
227 239 255
227 239 255
227 239 255
227 239 255
227 239 255
227 239 255
227 239 255
227 239 255
227 239 255
227 239 255
227 239 255
227 239 255
227 239 255
227 239 255
227 239 255
227 239 255
227 239 255
227 239 255
227 239 255
227 239 255
227 239 255
227 239 255
227 239 255
227 239 255
227 239 255
227 239 255
227 239 255
227 239 255
227 239 255
227 239 255
227 239 255
227 239 255
227 239 255
227 239 255
227 239 255
227 239 255
227 239 255
227 239 255
227 239 255
227 239 255
228 239 255
228 239 255
228 239 255
228 239 255
228 239 255
228 239 255
228 239 255
228 239 255
228 239 255
228 239 255
228 239 255
228 239 255
228 239 255
228 239 255
228 239 255
228 239 255
228 239 255
228 239 255
228 239 255
228 239 255
228 239 255
228 239 255
228 239 255
228 239 255
228 239 255
228 239 255
228 239 255
228 239 255
228 239 255
228 239 255
228 239 255
227 239 255
227 239 255
227 239 255
227 239 255
227 239 255
227 239 255
227 239 255
227 239 255
227 239 255
227 239 255
227 239 255
227 239 255
227 239 255
227 239 255
227 239 255
227 239 255
227 239 255
227 239 255
227 239 255
227 239 255
227 239 255
227 239 255
227 239 255
227 239 255
227 239 255
227 239 255
227 239 255
227 239 255
227 239 255
227 239 255
227 239 255
227 239 255
227 239 255
227 239 255
227 239 255
227 239 255
227 239 255
227 239 255
227 239 255
227 239 255
227 239 255
227 239 255
227 239 255
227 239 255
227 239 255
227 239 255
227 239 255
227 239 255
227 239 255
227 239 255
227 239 255
227 239 255
227 239 255
227 239 255
227 239 255
227 239 255
227 239 255
227 239 255
227 239 255
227 239 255
227 239 255
227 239 255
227 239 255
227 239 255
227 239 255
227 239 255
227 239 255
226 239 255
226 239 255
226 238 255
226 238 255
226 238 255
226 238 255
226 238 255
226 238 255
226 238 255
226 238 255
226 238 255
226 238 255
226 238 255
226 238 255
226 238 255
226 238 255
226 238 255
226 238 255
226 238 255
226 238 255
226 238 255
226 238 255
226 238 255
226 238 255
226 238 255
226 238 255
226 238 255
226 238 255
226 238 255
226 238 255
226 238 255
226 238 255
226 238 255
226 238 255
226 238 255
226 238 255
226 238 255
226 238 255
226 238 255
226 238 255
226 238 255
226 238 255
226 238 255
226 238 255
226 238 255
226 238 255
226 238 255
226 238 255
226 238 255
226 238 255
226 238 255
226 238 255
226 238 255
225 238 255
225 238 255
225 238 255
225 238 255
225 238 255
225 238 255
225 238 255
225 238 255
225 238 255
225 238 255
225 238 255
225 238 255
225 238 255
225 238 255
225 238 255
225 238 255
225 238 255
225 238 255
225 238 255
225 238 255
225 238 255
225 238 255
225 238 255
225 238 255
225 238 255
225 238 255
225 238 255
225 238 255
225 238 255
225 238 255
225 238 255
225 238 255
225 238 255
225 238 255
225 238 255
225 238 255
225 238 255
225 238 255
225 238 255
225 238 255
225 238 255
225 238 255
225 238 255
225 238 255
225 238 255
225 238 255
225 238 255
225 238 255
225 238 255
225 238 255
225 238 255
225 238 255
225 238 255
225 238 255
225 237 255
225 237 255
225 237 255
225 237 255
225 237 255
225 237 255
225 237 255
225 237 255
225 237 255
225 237 255
225 238 255
225 238 255
225 238 255
225 238 255
225 238 255
225 238 255
225 238 255
225 238 255
225 238 255
225 238 255
225 238 255
225 238 255
225 238 255
225 238 255
225 238 255
225 238 255
225 238 255
225 238 255
225 238 255
225 238 255
225 238 255
225 238 255
225 238 255
225 238 255
225 238 255
225 238 255
225 238 255
225 238 255
225 238 255
225 238 255
225 238 255
225 238 255
225 238 255
225 238 255
225 238 255
225 238 255
225 238 255
225 238 255
225 238 255
225 238 255
225 238 255
225 238 255
225 238 255
225 238 255
225 238 255
225 238 255
225 238 255
225 238 255
225 238 255
225 238 255
225 238 255
225 238 255
225 238 255
225 238 255
226 238 255
226 238 255
226 238 255
226 238 255
226 238 255
226 238 255
226 238 255
226 238 255
226 238 255
226 238 255
226 238 255
226 238 255
226 238 255
226 238 255
226 238 255
226 238 255
226 238 255
226 238 255
226 238 255
226 238 255
226 238 255
226 238 255
226 238 255
226 238 255
226 238 255
226 238 255
226 238 255
226 238 255
226 238 255
226 238 255
226 238 255
226 238 255
226 238 255
226 238 255
226 238 255
226 238 255
226 238 255
226 238 255
226 238 255
226 238 255
226 238 255
226 238 255
226 238 255
226 238 255
226 238 255
226 238 255
226 238 255
226 238 255
226 238 255
226 238 255
226 238 255
226 239 255
226 239 255
227 239 255
227 239 255
227 239 255
227 239 255
227 239 255
227 239 255
227 239 255
227 239 255
227 239 255
227 239 255
227 239 255
227 239 255
227 239 255
227 239 255
227 239 255
227 239 255
227 239 255
227 239 255
227 239 255
227 239 255
227 239 255
227 239 255
227 239 255
227 239 255
227 239 255
227 239 255
227 239 255
227 239 255
227 239 255
227 239 255
227 239 255
227 239 255
227 239 255
227 239 255
227 239 255
227 239 255
227 239 255
227 239 255
227 239 255
227 239 255
227 239 255
227 239 255
227 239 255
227 239 255
227 239 255
227 239 255
227 239 255
227 239 255
227 239 255
227 239 255
227 239 255
227 239 255
227 239 255
228 239 255
228 239 255
228 239 255
228 239 255
228 239 255
228 239 255
228 239 255
228 239 255
228 239 255
228 239 255
228 239 255
228 239 255
228 239 255
228 239 255
228 239 255
228 239 255
228 239 255
228 239 255
228 239 255
228 239 255
228 239 255
228 239 255
228 239 255
228 239 255
228 239 255
228 239 255
228 239 255
228 239 255
228 239 255
228 239 255
228 239 255
228 239 255
228 239 255
228 239 255
228 239 255
228 239 255
228 239 255
228 239 255
228 239 255
228 239 255
228 239 255
228 239 255
228 239 255
228 239 255
228 239 255
228 239 255
228 239 255
228 239 255
228 239 255
228 239 255
228 239 255
228 239 255
228 239 255
228 239 255
228 239 255
228 239 255
228 239 255
228 239 255
228 239 255
228 239 255
228 239 255
228 239 255
228 239 255
228 239 255
228 239 255
228 239 255
228 239 255
228 239 255
228 239 255
228 239 255
228 239 255
228 239 255
228 239 255
228 239 255
228 239 255
228 239 255
228 239 255
228 239 255
228 239 255
227 239 255
227 239 255
227 239 255
227 239 255
227 239 255
227 239 255
227 239 255
227 239 255
227 239 255
227 239 255
227 239 255
227 239 255
227 239 255
227 239 255
227 239 255
227 239 255
227 239 255
227 239 255
227 239 255
227 239 255
227 239 255
227 239 255
227 239 255
227 239 255
227 239 255
227 239 255
227 239 255
227 239 255
227 239 255
227 239 255
227 239 255
227 239 255
227 239 255
227 239 255
227 239 255
227 239 255
227 239 255
227 239 255
227 239 255
227 239 255
227 239 255
227 239 255
227 239 255
227 239 255
227 239 255
227 239 255
227 239 255
227 239 255
227 239 255
227 239 255
227 239 255
227 239 255
227 239 255
227 239 255
226 239 255
226 239 255
226 238 255
226 238 255
226 238 255
226 238 255
226 238 255
226 238 255
226 238 255
226 238 255
226 238 255
226 238 255
226 238 255
226 238 255
226 238 255
226 238 255
226 238 255
226 238 255
226 238 255
226 238 255
226 238 255
226 238 255
226 238 255
226 238 255
226 238 255
226 238 255
226 238 255
226 238 255
226 238 255
226 238 255
226 238 255
226 238 255
226 238 255
226 238 255
226 238 255
226 238 255
226 238 255
226 238 255
226 238 255
226 238 255
226 238 255
226 238 255
226 238 255
226 238 255
226 238 255
226 238 255
226 238 255
226 238 255
226 238 255
226 238 255
226 238 255
226 238 255
226 238 255
225 238 255
225 238 255
225 238 255
225 238 255
225 238 255
225 238 255
225 238 255
225 238 255
225 238 255
225 238 255
225 238 255
225 238 255
225 238 255
225 238 255
225 238 255
225 238 255
225 238 255
225 238 255
225 238 255
225 238 255
225 238 255
225 238 255
225 238 255
225 238 255
225 238 255
225 238 255
225 238 255
225 238 255
225 238 255
225 238 255
225 238 255
225 238 255
225 238 255
225 238 255
225 238 255
225 238 255
225 238 255
225 238 255
225 238 255
225 238 255
225 238 255
225 238 255
225 238 255
225 238 255
225 238 255
225 238 255
225 238 255
225 238 255
225 238 255
225 238 255
225 238 255
225 238 255
225 238 255
225 238 255
225 238 255
225 238 255
225 238 255
225 238 255
225 238 255
225 238 255
225 238 255
225 238 255
225 238 255
225 238 255
225 238 255
225 238 255
225 238 255
225 238 255
225 238 255
225 238 255
225 238 255
225 238 255
225 238 255
225 238 255
225 238 255
225 238 255
225 238 255
225 238 255
225 238 255
225 238 255
225 238 255
225 238 255
225 238 255
225 238 255
225 238 255
225 238 255
225 238 255
225 238 255
225 238 255
225 238 255
225 238 255
225 238 255
225 238 255
225 238 255
225 238 255
225 238 255
225 238 255
225 238 255
226 238 255
226 238 255
226 238 255
226 238 255
226 238 255
226 238 255
226 238 255
226 238 255
226 238 255
226 238 255
226 238 255
226 238 255
226 238 255
226 238 255
226 238 255
226 238 255
226 238 255
226 238 255
226 238 255
226 238 255
226 238 255
226 238 255
226 238 255
226 238 255
226 238 255
226 238 255
226 238 255
226 238 255
226 238 255
226 238 255
226 238 255
226 238 255
226 238 255
226 238 255
226 238 255
226 238 255
226 238 255
226 238 255
226 238 255
226 238 255
226 238 255
226 238 255
226 238 255
226 238 255
226 238 255
226 238 255
226 238 255
226 238 255
226 238 255
226 238 255
226 238 255
226 239 255
226 239 255
227 239 255
227 239 255
227 239 255
227 239 255
227 239 255
227 239 255
227 239 255
227 239 255
227 239 255
227 239 255
227 239 255
227 239 255
227 239 255
227 239 255
227 239 255
227 239 255
227 239 255
227 239 255
227 239 255
227 239 255
227 239 255
227 239 255
227 239 255
227 239 255
227 239 255
227 239 255
227 239 255
227 239 255
227 239 255
227 239 255
227 239 255
227 239 255
227 239 255
227 239 255
227 239 255
227 239 255
227 239 255
227 239 255
227 239 255
227 239 255
227 239 255
227 239 255
227 239 255
227 239 255
227 239 255
227 239 255
227 239 255
227 239 255
228 239 255
228 239 255
228 239 255
228 239 255
228 239 255
228 239 255
228 239 255
228 239 255
228 239 255
228 239 255
228 239 255
228 239 255
228 239 255
228 239 255
228 239 255
228 239 255
228 239 255
228 239 255
228 239 255
228 239 255
228 239 255
228 239 255
228 239 255
228 239 255
228 239 255
228 239 255
228 239 255
228 239 255
228 239 255
228 239 255
228 239 255
228 239 255
228 239 255
228 239 255
228 239 255
228 239 255
228 239 255
228 239 255
228 239 255
228 239 255
228 239 255
228 239 255
228 239 255
228 239 255
228 239 255
228 239 255
228 239 255
228 239 255
228 239 255
228 239 255
228 239 255
228 239 255
228 239 255
228 239 255
228 239 255
228 239 255
228 239 255
228 239 255
228 239 255
228 239 255
228 239 255
228 239 255
228 239 255
228 239 255
228 239 255
228 239 255
228 239 255
228 239 255
228 239 255
228 239 255
228 239 255
228 239 255
228 239 255
228 239 255
228 239 255
228 239 255
228 239 255
228 239 255
228 239 255
228 239 255
228 239 255
228 239 255
228 239 255
228 239 255
228 239 255
228 239 255
228 239 255
228 239 255
228 239 255
228 239 255
228 239 255
228 239 255
228 239 255
228 239 255
228 239 255
228 239 255
228 239 255
228 239 255
228 239 255
228 239 255
228 239 255
228 239 255
228 239 255
228 239 255
228 239 255
228 239 255
228 239 255
228 239 255
228 239 255
227 239 255
227 239 255
227 239 255
227 239 255
227 239 255
227 239 255
227 239 255
227 239 255
227 239 255
227 239 255
227 239 255
227 239 255
227 239 255
227 239 255
227 239 255
227 239 255
227 239 255
227 239 255
227 239 255
227 239 255
227 239 255
227 239 255
227 239 255
227 239 255
227 239 255
227 239 255
227 239 255
227 239 255
227 239 255
227 239 255
227 239 255
227 239 255
227 239 255
227 239 255
227 239 255
227 239 255
227 239 255
227 239 255
227 239 255
227 239 255
227 239 255
227 239 255
227 239 255
227 239 255
227 239 255
227 239 255
227 239 255
227 239 255
227 239 255
226 239 255
226 239 255
226 238 255
226 238 255
226 238 255
226 238 255
226 238 255
226 238 255
226 238 255
226 238 255
226 238 255
226 238 255
226 238 255
226 238 255
226 238 255
226 238 255
226 238 255
226 238 255
226 238 255
226 238 255
226 238 255
226 238 255
226 238 255
226 238 255
226 238 255
226 238 255
226 238 255
226 238 255
226 238 255
226 238 255
226 238 255
226 238 255
226 238 255
226 238 255
226 238 255
226 238 255
226 238 255
226 238 255
226 238 255
226 238 255
226 238 255
226 238 255
226 238 255
226 238 255
226 238 255
226 238 255
226 238 255
226 238 255
226 238 255
226 238 255
226 238 255
226 238 255
225 238 255
225 238 255
225 238 255
225 238 255
225 238 255
225 238 255
225 238 255
225 238 255
225 238 255
225 238 255
225 238 255
225 238 255
225 238 255
225 238 255
225 238 255
225 238 255
225 238 255
225 238 255
225 238 255
225 238 255
225 238 255
225 238 255
225 238 255
225 238 255
225 238 255
225 238 255
225 238 255
225 238 255
225 238 255
225 238 255
225 238 255
225 238 255
225 238 255
225 238 255
225 238 255
225 238 255
225 238 255
225 238 255
225 238 255
225 238 255
225 238 255
225 238 255
225 238 255
225 238 255
225 238 255
225 238 255
225 238 255
225 238 255
225 238 255
225 238 255
225 238 255
225 238 255
225 238 255
225 238 255
225 238 255
225 238 255
225 238 255
225 238 255
225 238 255
225 238 255
225 238 255
225 238 255
225 238 255
225 238 255
225 238 255
225 238 255
225 238 255
225 238 255
225 238 255
225 238 255
225 238 255
225 238 255
225 238 255
225 238 255
225 238 255
225 238 255
225 238 255
225 238 255
225 238 255
225 238 255
225 238 255
226 238 255
226 238 255
226 238 255
226 238 255
226 238 255
226 238 255
226 238 255
226 238 255
226 238 255
226 238 255
226 238 255
226 238 255
226 238 255
226 238 255
226 238 255
226 238 255
226 238 255
226 238 255
226 238 255
226 238 255
226 238 255
226 238 255
226 238 255
226 238 255
226 238 255
226 238 255
226 238 255
226 238 255
226 238 255
226 238 255
226 238 255
226 238 255
226 238 255
226 238 255
226 238 255
226 238 255
226 238 255
226 238 255
226 238 255
226 238 255
226 238 255
226 238 255
226 238 255
226 238 255
226 238 255
226 238 255
226 238 255
226 238 255
226 238 255
226 238 255
226 239 255
226 239 255
227 239 255
227 239 255
227 239 255
227 239 255
227 239 255
227 239 255
227 239 255
227 239 255
227 239 255
227 239 255
227 239 255
227 239 255
227 239 255
227 239 255
227 239 255
227 239 255
227 239 255
227 239 255
227 239 255
227 239 255
227 239 255
227 239 255
227 239 255
227 239 255
227 239 255
227 239 255
227 239 255
227 239 255
227 239 255
227 239 255
227 239 255
227 239 255
227 239 255
227 239 255
227 239 255
227 239 255
227 239 255
227 239 255
227 239 255
227 239 255
227 239 255
227 239 255
227 239 255
227 239 255
227 239 255
227 239 255
228 239 255
228 239 255
228 239 255
228 239 255
228 239 255
228 239 255
228 239 255
228 239 255
228 239 255
228 239 255
228 239 255
228 239 255
228 239 255
228 239 255
228 239 255
228 239 255
228 239 255
228 239 255
228 239 255
228 239 255
228 239 255
228 239 255
228 239 255
228 239 255
228 239 255
228 239 255
228 239 255
228 239 255
228 239 255
228 239 255
228 239 255
228 239 255
228 239 255
228 239 255
228 239 255
228 239 255
228 239 255
228 239 255
228 239 255
226 238 249
222 235 240
223 235 241
217 231 224
214 228 214
213 228 212
210 225 204
211 226 207
207 223 193
206 221 188
206 222 193
205 221 188
197 215 157
197 215 161
197 215 159
200 217 169
198 216 163
195 213 149
194 212 144
194 213 144
189 209 125
191 210 135
194 213 147
192 211 140
190 210 135
188 208 122
190 209 128
188 208 122
191 211 135
187 208 120
188 208 125
187 207 117
189 208 120
194 213 142
191 210 137
191 211 137
195 213 151
197 215 153
202 218 171
198 216 165
199 217 163
197 215 157
204 220 182
204 221 186
210 225 204
205 221 188
213 227 211
210 225 201
214 229 217
214 228 215
217 231 226
223 235 240
224 236 244
225 237 246
228 239 254
228 239 255
228 239 255
228 239 255
228 239 255
228 239 255
228 239 255
228 239 255
228 239 255
228 239 255
228 239 255
228 239 255
228 239 255
228 239 255
228 239 255
228 239 255
228 239 255
228 239 255
228 239 255
228 239 255
228 239 255
228 239 255
228 239 255
228 239 255
228 239 255
228 239 255
228 239 255
228 239 255
228 239 255
228 239 255
228 239 255
228 239 255
228 239 255
228 239 255
228 239 255
228 239 255
228 239 255
228 239 255
228 239 255
227 239 255
227 239 255
227 239 255
227 239 255
227 239 255
227 239 255
227 239 255
227 239 255
227 239 255
227 239 255
227 239 255
227 239 255
227 239 255
227 239 255
227 239 255
227 239 255
227 239 255
227 239 255
227 239 255
227 239 255
227 239 255
227 239 255
227 239 255
227 239 255
227 239 255
227 239 255
227 239 255
227 239 255
227 239 255
227 239 255
227 239 255
227 239 255
227 239 255
227 239 255
227 239 255
227 239 255
227 239 255
227 239 255
227 239 255
227 239 255
227 239 255
227 239 255
227 239 255
227 239 255
227 239 255
226 239 255
226 239 255
226 239 255
226 238 255
226 238 255
226 238 255
226 238 255
226 238 255
226 238 255
226 238 255
226 238 255
226 238 255
226 238 255
226 238 255
226 238 255
226 238 255
226 238 255
226 238 255
226 238 255
226 238 255
226 238 255
226 238 255
226 238 255
226 238 255
226 238 255
226 238 255
226 238 255
226 238 255
226 238 255
226 238 255
226 238 255
226 238 255
226 238 255
226 238 255
226 238 255
226 238 255
226 238 255
226 238 255
226 238 255
226 238 255
226 238 255
226 238 255
226 238 255
226 238 255
226 238 255
226 238 255
226 238 255
226 238 255
226 238 255
226 238 255
226 238 255
226 238 255
226 238 255
225 238 255
225 238 255
225 238 255
225 238 255
225 238 255
225 238 255
225 238 255
225 238 255
225 238 255
225 238 255
225 238 255
225 238 255
225 238 255
225 238 255
225 238 255
225 238 255
225 238 255
225 238 255
225 238 255
225 238 255
225 238 255
225 238 255
225 238 255
225 238 255
225 238 255
225 238 255
225 238 255
225 238 255
225 238 255
225 238 255
225 238 255
225 238 255
225 238 255
225 238 255
225 238 255
225 238 255
225 238 255
225 238 255
225 238 255
225 238 255
225 238 255
225 238 255
225 238 255
225 238 255
225 238 255
225 238 255
225 238 255
225 238 255
225 238 255
225 238 255
225 238 255
225 238 255
225 238 255
225 238 255
225 238 255
225 238 255
225 238 255
225 238 255
225 238 255
225 238 255
225 238 255
225 238 255
225 238 255
226 238 255
226 238 255
226 238 255
226 238 255
226 238 255
226 238 255
226 238 255
226 238 255
226 238 255
226 238 255
226 238 255
226 238 255
226 238 255
226 238 255
226 238 255
226 238 255
226 238 255
226 238 255
226 238 255
226 238 255
226 238 255
226 238 255
226 238 255
226 238 255
226 238 255
226 238 255
226 238 255
226 238 255
226 238 255
226 238 255
226 238 255
226 238 255
226 238 255
226 238 255
226 238 255
226 238 255
226 238 255
226 238 255
226 238 255
226 238 255
226 238 255
226 238 255
226 238 255
226 238 255
226 238 255
226 238 255
226 238 255
226 238 255
226 238 255
226 238 255
226 238 255
226 239 255
226 239 255
227 239 255
227 239 255
227 239 255
227 239 255
227 239 255
227 239 255
227 239 255
227 239 255
227 239 255
227 239 255
227 239 255
227 239 255
227 239 255
227 239 255
227 239 255
227 239 255
227 239 255
227 239 255
227 239 255
227 239 255
227 239 255
227 239 255
227 239 255
227 239 255
227 239 255
227 239 255
227 239 255
227 239 255
227 239 255
227 239 255
227 239 255
227 239 255
227 239 255
227 239 255
227 239 255
227 239 255
227 239 255
227 239 255
227 239 255
227 239 255
227 239 255
227 239 255
227 239 255
227 239 255
228 239 255
228 239 255
228 239 255
228 239 255
228 239 255
228 239 255
228 239 255
228 239 255
228 239 255
228 239 255
228 239 255
228 239 255
228 239 255
228 239 255
228 239 255
228 239 255
228 239 255
228 239 255
228 239 255
228 239 255
228 239 255
228 239 255
228 239 255
228 239 255
228 239 255
228 239 255
228 239 255
228 239 255
228 239 255
228 239 255
228 239 255
228 239 255
228 239 255
228 239 255
225 237 248
221 234 234
220 233 233
213 227 209
212 226 204
203 220 184
200 218 171
202 219 175
197 215 159
192 211 135
188 208 128
187 207 120
179 201 72
177 199 44
176 199 36
175 198 0
174 198 0
174 198 0
175 198 0
173 197 0
174 197 0
173 197 0
175 198 0
174 198 0
175 198 0
174 198 0
174 197 0
174 198 0
174 198 0
176 199 0
175 198 0
175 198 0
175 198 0
174 197 0
173 197 0
174 198 0
177 199 0
175 198 0
176 199 0
176 198 0
176 198 0
174 198 0
173 197 0
174 197 0
174 197 0
175 198 0
172 197 0
174 198 0
175 198 0
174 198 0
174 197 0
175 198 0
175 198 0
175 198 0
173 197 0
176 198 0
174 198 0
174 198 0
174 198 0
175 198 0
173 197 0
174 198 0
173 197 0
173 197 0
176 199 0
174 198 0
175 198 0
175 198 0
175 198 0
174 197 0
180 203 88
178 201 72
184 206 108
192 211 140
197 215 159
198 216 169
194 213 151
205 221 188
198 216 165
212 227 209
217 230 223
216 230 221
223 236 242
225 237 245
228 239 255
228 239 255
228 239 255
228 239 255
228 239 255
228 239 255
228 239 255
228 239 255
228 239 255
228 239 255
228 239 255
228 239 255
228 239 255
228 239 255
228 239 255
228 239 255
228 239 255
228 239 255
228 239 255
228 239 255
228 239 255
228 239 255
228 239 255
228 239 255
228 239 255
228 239 255
228 239 255
228 239 255
228 239 255
228 239 255
228 239 255
228 239 255
228 239 255
228 239 255
227 239 255
227 239 255
227 239 255
227 239 255
227 239 255
227 239 255
227 239 255
227 239 255
227 239 255
227 239 255
227 239 255
227 239 255
227 239 255
227 239 255
227 239 255
227 239 255
227 239 255
227 239 255
227 239 255
227 239 255
227 239 255
227 239 255
227 239 255
227 239 255
227 239 255
227 239 255
227 239 255
227 239 255
227 239 255
227 239 255
227 239 255
227 239 255
227 239 255
227 239 255
227 239 255
227 239 255
227 239 255
227 239 255
227 239 255
227 239 255
227 239 255
227 239 255
227 239 255
227 239 255
226 239 255
226 239 255
226 238 255
226 238 255
226 238 255
226 238 255
226 238 255
226 238 255
226 238 255
226 238 255
226 238 255
226 238 255
226 238 255
226 238 255
226 238 255
226 238 255
226 238 255
226 238 255
226 238 255
226 238 255
226 238 255
226 238 255
226 238 255
226 238 255
226 238 255
226 238 255
226 238 255
226 238 255
226 238 255
226 238 255
226 238 255
226 238 255
226 238 255
226 238 255
226 238 255
226 238 255
226 238 255
226 238 255
226 238 255
226 238 255
226 238 255
226 238 255
226 238 255
226 238 255
226 238 255
226 238 255
226 238 255
226 238 255
226 238 255
226 238 255
226 238 255
226 238 255
226 238 255
225 238 255
225 238 255
225 238 255
225 238 255
225 238 255
225 238 255
225 238 255
225 238 255
225 238 255
225 238 255
225 238 255
225 238 255
225 238 255
225 238 255
225 238 255
225 238 255
225 238 255
225 238 255
225 238 255
225 238 255
225 238 255
225 238 255
225 238 255
225 238 255
225 238 255
225 238 255
225 238 255
225 238 255
225 238 255
225 238 255
225 238 255
225 238 255
225 238 255
225 238 255
225 238 255
225 238 255
225 238 255
225 238 255
225 238 255
225 238 255
225 238 255
225 238 255
225 238 255
225 238 255
225 238 255
226 238 255
226 238 255
226 238 255
226 238 255
226 238 255
226 238 255
226 238 255
226 238 255
226 238 255
226 238 255
226 238 255
226 238 255
226 238 255
226 238 255
226 238 255
226 238 255
226 238 255
226 238 255
226 238 255
226 238 255
226 238 255
226 238 255
226 238 255
226 238 255
226 238 255
226 238 255
226 238 255
226 238 255
226 238 255
226 238 255
226 238 255
226 238 255
226 238 255
226 238 255
226 238 255
226 238 255
226 238 255
226 238 255
226 238 255
226 238 255
226 238 255
226 238 255
226 238 255
226 238 255
226 238 255
226 238 255
226 238 255
226 238 255
226 238 255
226 238 255
226 238 255
226 238 255
226 239 255
227 239 255
227 239 255
227 239 255
227 239 255
227 239 255
227 239 255
227 239 255
227 239 255
227 239 255
227 239 255
227 239 255
227 239 255
227 239 255
227 239 255
227 239 255
227 239 255
227 239 255
227 239 255
227 239 255
227 239 255
227 239 255
227 239 255
227 239 255
227 239 255
227 239 255
227 239 255
227 239 255
227 239 255
227 239 255
227 239 255
227 239 255
227 239 255
227 239 255
227 239 255
227 239 255
227 239 255
227 239 255
227 239 255
227 239 255
227 239 255
227 239 255
227 239 255
227 239 255
227 239 255
228 239 255
228 239 255
228 239 255
228 239 255
228 239 255
228 239 255
228 239 255
228 239 255
228 239 255
228 239 255
228 239 255
228 239 255
228 239 255
228 239 255
228 239 255
228 239 255
228 239 255
228 239 255
228 239 255
228 239 255
228 239 255
228 239 255
228 239 255
228 239 255
228 239 255
228 239 255
228 239 255
228 239 255
228 239 255
228 239 255
228 239 255
228 240 255
226 238 249
221 234 236
220 233 234
210 225 204
203 219 175
205 221 184
200 217 169
191 210 133
182 204 95
185 205 95
175 198 25
176 199 0
175 198 0
177 199 0
174 198 0
174 198 0
174 197 0
176 198 0
174 198 0
174 197 0
175 198 0
176 198 0
174 198 0
176 199 0
174 197 0
176 199 0
173 197 0
174 198 0
174 198 0
175 198 0
173 197 0
174 197 0
173 197 0
175 198 0
174 198 0
176 199 0
176 198 0
176 199 0
175 198 0
176 198 0
174 198 0
175 198 0
174 198 0
175 198 0
175 198 0
174 197 0
176 198 0
175 198 0
175 198 0
173 197 0
175 198 0
177 199 0
177 199 0
174 198 0
174 198 0
174 197 0
174 198 0
176 199 0
174 198 0
174 198 0
174 198 0
176 199 0
175 198 0
174 198 0
175 198 0
176 198 0
174 197 0
175 198 0
174 197 0
175 198 0
175 198 0
175 198 0
175 198 0
175 198 0
173 197 0
173 197 0
173 197 0
175 198 0
175 198 0
174 197 0
174 197 0
175 198 0
176 198 0
174 197 0
174 197 0
174 198 0
172 197 0
174 198 0
174 198 0
174 197 0
174 197 0
175 198 0
174 198 0
175 198 0
175 198 0
176 199 51
183 204 95
183 204 92
191 210 137
193 212 147
205 221 186
204 221 188
207 223 193
213 227 209
222 234 237
224 236 244
228 240 255
228 239 255
228 239 255
228 239 255
228 239 255
228 239 255
228 239 255
228 239 255
228 239 255
228 239 255
228 239 255
228 239 255
228 239 255
228 239 255
228 239 255
228 239 255
228 239 255
228 239 255
228 239 255
228 239 255
228 239 255
228 239 255
228 239 255
228 239 255
228 239 255
228 239 255
228 239 255
228 239 255
228 239 255
228 239 255
228 239 255
228 239 255
227 239 255
227 239 255
227 239 255
227 239 255
227 239 255
227 239 255
227 239 255
227 239 255
227 239 255
227 239 255
227 239 255
227 239 255
227 239 255
227 239 255
227 239 255
227 239 255
227 239 255
227 239 255
227 239 255
227 239 255
227 239 255
227 239 255
227 239 255
227 239 255
227 239 255
227 239 255
227 239 255
227 239 255
227 239 255
227 239 255
227 239 255
227 239 255
227 239 255
227 239 255
227 239 255
227 239 255
227 239 255
227 239 255
227 239 255
227 239 255
227 239 255
227 239 255
227 239 255
227 239 255
226 239 255
226 239 255
226 238 255
226 238 255
226 238 255
226 238 255
226 238 255
226 238 255
226 238 255
226 238 255
226 238 255
226 238 255
226 238 255
226 238 255
226 238 255
226 238 255
226 238 255
226 238 255
226 238 255
226 238 255
226 238 255
226 238 255
226 238 255
226 238 255
226 238 255
226 238 255
226 238 255
226 238 255
226 238 255
226 238 255
226 238 255
226 238 255
226 238 255
226 238 255
226 238 255
226 238 255
226 238 255
226 238 255
226 238 255
226 238 255
226 238 255
226 238 255
226 238 255
226 238 255
226 238 255
226 238 255
226 238 255
226 238 255
226 238 255
226 238 255
226 238 255
226 238 255
226 238 255
225 238 255
225 238 255
225 238 255
225 238 255
225 238 255
225 238 255
225 238 255
225 238 255
225 238 255
225 238 255
225 238 255
225 238 255
225 238 255
225 238 255
225 238 255
225 238 255
225 238 255
225 238 255
225 238 255
225 238 255
225 238 255
225 238 255
225 238 255
225 238 255
225 238 255
225 238 255
225 238 255
226 238 255
226 238 255
226 238 255
226 238 255
226 238 255
226 238 255
226 238 255
226 238 255
226 238 255
226 238 255
226 238 255
226 238 255
226 238 255
226 238 255
226 238 255
226 238 255
226 238 255
226 238 255
226 238 255
226 238 255
226 238 255
226 238 255
226 238 255
226 238 255
226 238 255
226 238 255
226 238 255
226 238 255
226 238 255
226 238 255
226 238 255
226 238 255
226 238 255
226 238 255
226 238 255
226 238 255
226 238 255
226 238 255
226 238 255
226 238 255
226 238 255
226 238 255
226 238 255
226 238 255
226 238 255
226 238 255
226 238 255
226 238 255
226 238 255
226 238 255
226 238 255
226 238 255
226 238 255
226 239 255
227 239 255
227 239 255
227 239 255
227 239 255
227 239 255
227 239 255
227 239 255
227 239 255
227 239 255
227 239 255
227 239 255
227 239 255
227 239 255
227 239 255
227 239 255
227 239 255
227 239 255
227 239 255
227 239 255
227 239 255
227 239 255
227 239 255
227 239 255
227 239 255
227 239 255
227 239 255
227 239 255
227 239 255
227 239 255
227 239 255
227 239 255
227 239 255
227 239 255
227 239 255
227 239 255
227 239 255
227 239 255
227 239 255
227 239 255
227 239 255
227 239 255
227 239 255
227 239 255
228 239 255
228 239 255
228 239 255
228 239 255
228 239 255
228 239 255
228 239 255
228 239 255
228 239 255
228 239 255
228 239 255
228 239 255
228 239 255
228 239 255
228 239 255
228 239 255
228 239 255
228 239 255
228 239 255
228 239 255
228 239 255
228 239 255
228 239 255
228 239 255
228 239 255
228 239 255
228 239 255
228 239 255
228 239 255
228 239 255
228 240 255
227 239 253
224 236 244
217 230 224
213 227 212
211 226 206
206 222 188
199 216 165
190 209 122
180 202 88
177 200 44
174 197 0
174 198 0
173 197 0
176 199 0
174 198 0
174 198 0
176 199 0
173 197 0
175 198 0
174 198 0
175 198 0
176 199 0
175 198 0
176 199 0
175 198 0
175 198 0
174 198 0
173 197 0
173 197 0
176 199 0
176 199 0
175 198 0
176 199 0
173 197 0
174 198 0
173 197 0
173 197 0
176 198 0
174 197 0
175 198 0
175 198 0
173 197 0
173 197 0
175 198 0
175 198 0
177 199 0
174 198 0
175 198 0
176 199 0
176 198 0
174 197 0
175 198 0
174 198 0
175 198 0
174 198 0
173 197 0
174 197 0
174 197 0
175 198 0
175 198 0
175 198 0
175 198 0
175 198 0
176 199 0
175 198 0
174 198 0
175 198 0
175 198 0
175 198 0
177 199 0
173 197 0
174 198 0
175 198 0
175 198 0
175 198 0
175 198 0
173 197 0
175 198 0
174 198 0
174 198 0
176 198 0
175 198 0
174 197 0
176 199 0
174 198 0
175 198 0
176 199 0
176 199 0
176 198 0
175 198 0
174 198 0
175 198 0
175 198 0
175 198 0
174 197 0
174 198 0
175 198 0
175 198 0
174 197 0
174 198 0
175 198 0
174 198 0
175 198 0
175 198 0
175 198 0
175 198 0
174 198 0
176 199 0
175 198 0
174 198 0
174 197 0
175 198 0
175 198 0
175 198 0
175 198 0
174 198 0
177 199 51
182 203 84
187 207 117
198 216 161
203 220 181
206 222 189
215 229 218
217 231 226
224 236 244
228 240 255
228 240 255
228 240 255
228 239 255
228 239 255
228 239 255
228 239 255
228 239 255
228 239 255
228 239 255
228 239 255
228 239 255
228 239 255
228 239 255
228 239 255
228 239 255
228 239 255
228 239 255
228 239 255
228 239 255
228 239 255
228 239 255
228 239 255
228 239 255
228 239 255
228 239 255
228 239 255
228 239 255
228 239 255
228 239 255
228 239 255
228 239 255
227 239 255
227 239 255
227 239 255
227 239 255
227 239 255
227 239 255
227 239 255
227 239 255
227 239 255
227 239 255
227 239 255
227 239 255
227 239 255
227 239 255
227 239 255
227 239 255
227 239 255
227 239 255
227 239 255
227 239 255
227 239 255
227 239 255
227 239 255
227 239 255
227 239 255
227 239 255
227 239 255
227 239 255
227 239 255
227 239 255
227 239 255
227 239 255
227 239 255
227 239 255
227 239 255
227 239 255
227 239 255
227 239 255
227 239 255
227 239 255
227 239 255
227 239 255
227 239 255
226 239 255
226 238 255
226 238 255
226 238 255
226 238 255
226 238 255
226 238 255
226 238 255
226 238 255
226 238 255
226 238 255
226 238 255
226 238 255
226 238 255
226 238 255
226 238 255
226 238 255
226 238 255
226 238 255
226 238 255
226 238 255
226 238 255
226 238 255
226 238 255
226 238 255
226 238 255
226 238 255
226 238 255
226 238 255
226 238 255
226 238 255
226 238 255
226 238 255
226 238 255
226 238 255
226 238 255
226 238 255
226 238 255
226 238 255
226 238 255
226 238 255
226 238 255
226 238 255
226 238 255
226 238 255
226 238 255
226 238 255
226 238 255
226 238 255
226 238 255
226 238 255
226 238 255
226 238 255
226 238 255
225 238 255
225 238 255
225 238 255
225 238 255
225 238 255
225 238 255
225 238 255
225 238 255
225 238 255
225 238 255
226 238 255
226 238 255
226 238 255
226 238 255
226 238 255
226 238 255
226 238 255
226 238 255
226 238 255
226 238 255
226 238 255
226 238 255
226 238 255
226 238 255
226 238 255
226 238 255
226 238 255
226 238 255
226 238 255
226 238 255
226 238 255
226 238 255
226 238 255
226 238 255
226 238 255
226 238 255
226 238 255
226 238 255
226 238 255
226 238 255
226 238 255
226 238 255
226 238 255
226 238 255
226 238 255
226 238 255
226 238 255
226 238 255
226 238 255
226 238 255
226 238 255
226 238 255
226 238 255
226 238 255
226 238 255
226 238 255
226 238 255
226 238 255
226 238 255
226 238 255
226 238 255
226 238 255
226 239 255
226 239 255
227 239 255
227 239 255
227 239 255
227 239 255
227 239 255
227 239 255
227 239 255
227 239 255
227 239 255
227 239 255
227 239 255
227 239 255
227 239 255
227 239 255
227 239 255
227 239 255
227 239 255
227 239 255
227 239 255
227 239 255
227 239 255
227 239 255
227 239 255
227 239 255
227 239 255
227 239 255
227 239 255
227 239 255
227 239 255
227 239 255
227 239 255
227 239 255
227 239 255
227 239 255
227 239 255
227 239 255
227 239 255
227 239 255
227 239 255
227 239 255
227 239 255
227 239 255
227 239 255
228 239 255
228 239 255
228 239 255
228 239 255
228 239 255
228 239 255
228 239 255
228 239 255
228 239 255
228 239 255
228 239 255
228 239 255
228 239 255
228 239 255
228 239 255
228 239 255
228 239 255
228 239 255
228 239 255
228 239 255
228 239 255
228 239 255
228 239 255
228 239 255
228 239 255
228 239 255
228 239 255
228 239 255
228 240 255
228 240 255
228 240 255
226 238 250
223 236 242
218 232 227
205 221 184
202 219 179
195 213 153
193 212 140
180 202 72
177 199 25
176 198 0
175 198 0
174 198 0
174 198 0
173 197 0
175 198 0
174 198 0
174 198 0
175 198 0
174 198 0
175 198 0
175 198 0
176 199 0
175 198 0
175 198 0
175 198 0
175 198 0
176 198 0
175 198 0
173 197 0
175 198 0
175 198 0
173 197 0
175 198 0
175 198 0
176 199 0
173 197 0
175 198 0
177 199 0
173 197 0
176 199 0
173 197 0
174 198 0
174 197 0
174 198 0
175 198 0
175 198 0
174 198 0
173 197 0
172 197 0
176 199 0
174 197 0
176 199 0
174 198 0
174 198 0
175 198 0
174 198 0
174 197 0
174 198 0
175 198 0
174 197 0
174 198 0
175 198 0
173 197 0
174 198 0
174 197 0
174 198 0
174 197 0
173 197 0
176 198 0
173 197 0
175 198 0
175 198 0
175 198 0
173 197 0
174 198 0
175 198 0
175 198 0
173 197 0
173 197 0
175 198 0
173 197 0
174 198 0
175 198 0
175 198 0
174 197 0
176 199 0
173 197 0
175 198 0
174 198 0
175 198 0
176 199 0
175 198 0
174 198 0
175 198 0
175 198 0
175 198 0
175 198 0
174 198 0
175 198 0
174 198 0
174 197 0
175 198 0
175 198 0
175 198 0
174 198 0
175 198 0
175 198 0
174 198 0
174 198 0
174 198 0
174 198 0
176 199 0
174 197 0
176 199 0
173 197 0
174 198 0
176 198 0
175 198 0
174 198 0
174 197 0
175 198 0
174 198 0
174 198 0
176 199 0
175 198 0
174 198 0
174 198 0
175 198 0
174 197 0
175 198 0
175 198 0
175 198 0
176 198 0
175 198 25
184 205 102
195 213 144
199 217 165
203 219 177
213 228 212
214 228 215
221 234 237
227 239 253
228 240 255
228 240 255
228 239 255
228 239 255
228 239 255
228 239 255
228 239 255
228 239 255
228 239 255
228 239 255
228 239 255
228 239 255
228 239 255
228 239 255
228 239 255
228 239 255
228 239 255
228 239 255
228 239 255
228 239 255
228 239 255
228 239 255
228 239 255
228 239 255
228 239 255
228 239 255
228 239 255
228 239 255
228 239 255
228 239 255
228 239 255
227 239 255
227 239 255
227 239 255
227 239 255
227 239 255
227 239 255
227 239 255
227 239 255
227 239 255
227 239 255
227 239 255
227 239 255
227 239 255
227 239 255
227 239 255
227 239 255
227 239 255
227 239 255
227 239 255
227 239 255
227 239 255
227 239 255
227 239 255
227 239 255
227 239 255
227 239 255
227 239 255
227 239 255
227 239 255
227 239 255
227 239 255
227 239 255
227 239 255
227 239 255
227 239 255
227 239 255
227 239 255
227 239 255
227 239 255
227 239 255
227 239 255
227 239 255
227 239 255
226 239 255
226 238 255
226 238 255
226 238 255
226 238 255
226 238 255
226 238 255
226 238 255
226 238 255
226 238 255
226 238 255
226 238 255
226 238 255
226 238 255
226 238 255
226 238 255
226 238 255
226 238 255
226 238 255
226 238 255
226 238 255
226 238 255
226 238 255
226 238 255
226 238 255
226 238 255
226 238 255
226 238 255
226 238 255
226 238 255
226 238 255
226 238 255
226 238 255
226 238 255
226 238 255
226 238 255
226 238 255
226 238 255
226 238 255
226 238 255
226 238 255
226 238 255
226 238 255
226 238 255
226 238 255
226 238 255
226 238 255
226 238 255
226 238 255
226 238 255
226 238 255
226 238 255
226 238 255
226 238 255
225 238 255
226 238 255
226 238 255
226 238 255
226 238 255
226 238 255
226 238 255
226 238 255
226 238 255
226 238 255
226 238 255
226 238 255
226 238 255
226 238 255
226 238 255
226 238 255
226 238 255
226 238 255
226 238 255
226 238 255
226 238 255
226 238 255
226 238 255
226 238 255
226 238 255
226 238 255
226 238 255
226 238 255
226 238 255
226 238 255
226 238 255
226 238 255
226 238 255
226 238 255
226 238 255
226 238 255
226 238 255
226 238 255
226 238 255
226 238 255
226 238 255
226 238 255
226 238 255
226 238 255
226 238 255
226 238 255
226 238 255
226 239 255
227 239 255
227 239 255
227 239 255
227 239 255
227 239 255
227 239 255
227 239 255
227 239 255
227 239 255
227 239 255
227 239 255
227 239 255
227 239 255
227 239 255
227 239 255
227 239 255
227 239 255
227 239 255
227 239 255
227 239 255
227 239 255
227 239 255
227 239 255
227 239 255
227 239 255
227 239 255
227 239 255
227 239 255
227 239 255
227 239 255
227 239 255
227 239 255
227 239 255
227 239 255
227 239 255
227 239 255
227 239 255
227 239 255
227 239 255
227 239 255
227 239 255
227 239 255
227 239 255
228 239 255
228 239 255
228 239 255
228 239 255
228 239 255
228 239 255
228 239 255
228 239 255
228 239 255
228 239 255
228 239 255
228 239 255
228 239 255
228 239 255
228 239 255
228 239 255
228 239 255
228 239 255
228 239 255
228 239 255
228 239 255
228 239 255
228 239 255
228 239 255
228 239 255
228 239 255
228 239 255
228 239 255
228 240 255
228 240 255
228 240 255
228 240 255
224 236 242
215 229 218
214 228 214
206 222 189
193 212 144
190 209 128
180 202 76
174 198 25
175 198 0
175 198 0
174 197 0
174 198 0
175 198 0
173 197 0
174 198 0
175 198 0
174 198 0
175 198 0
175 198 0
174 198 0
173 197 0
173 197 0
176 199 0
174 198 0
175 198 0
176 199 0
174 198 0
175 198 0
175 198 0
176 199 0
174 198 0
174 198 0
176 198 0
175 198 0
175 198 0
176 199 0
173 197 0
174 197 0
174 198 0
173 197 0
174 198 0
174 198 0
176 199 0
175 198 0
175 198 0
175 198 0
174 198 0
175 198 0
176 199 0
175 198 0
175 198 0
173 197 0
174 197 0
175 198 0
174 198 0
175 198 0
175 198 0
174 198 0
174 198 0
175 198 0
174 198 0
174 198 0
174 198 0
175 198 0
173 197 0
174 198 0
174 198 0
174 197 0
176 198 0
175 198 0
173 197 0
174 197 0
175 198 0
174 198 0
174 198 0
173 197 0
174 198 0
174 197 0
174 198 0
175 198 0
175 198 0
173 197 0
175 198 0
173 197 0
175 198 0
175 198 0
173 197 0
174 197 0
174 198 0
175 198 0
176 198 0
177 199 0
175 198 0
174 198 0
175 198 0
174 197 0
176 199 0
176 199 0
175 198 0
175 198 0
174 197 0
175 198 0
174 197 0
174 198 0
176 199 0
174 197 0
175 198 0
174 198 0
175 198 0
175 198 0
174 198 0
175 198 0
175 198 0
174 198 0
176 199 0
173 197 0
174 198 0
175 198 0
176 198 0
175 198 0
175 198 0
175 198 0
176 198 0
174 197 0
175 198 0
174 198 0
174 198 0
176 199 0
175 198 0
176 199 0
175 198 0
175 198 0
174 198 0
177 199 0
174 198 0
176 199 0
174 197 0
174 197 0
173 197 0
176 198 0
175 198 0
174 198 0
173 197 0
176 198 0
174 198 0
173 197 0
175 198 0
175 198 0
177 199 36
184 205 99
190 209 122
200 217 171
204 220 184
212 227 209
221 233 234
222 234 237
228 240 255
228 240 255
228 240 255
228 240 255
228 239 255
228 239 255
228 239 255
228 239 255
228 239 255
228 239 255
228 239 255
228 239 255
228 239 255
228 239 255
228 239 255
228 239 255
228 239 255
228 239 255
228 239 255
228 239 255
228 239 255
228 239 255
228 239 255
228 239 255
228 239 255
228 239 255
228 239 255
228 239 255
228 239 255
228 239 255
228 239 255
227 239 255
227 239 255
227 239 255
227 239 255
227 239 255
227 239 255
227 239 255
227 239 255
227 239 255
227 239 255
227 239 255
227 239 255
227 239 255
227 239 255
227 239 255
227 239 255
227 239 255
227 239 255
227 239 255
227 239 255
227 239 255
227 239 255
227 239 255
227 239 255
227 239 255
227 239 255
227 239 255
227 239 255
227 239 255
227 239 255
227 239 255
227 239 255
227 239 255
227 239 255
227 239 255
227 239 255
227 239 255
227 239 255
227 239 255
227 239 255
227 239 255
227 239 255
227 239 255
226 239 255
226 239 255
226 238 255
226 238 255
226 238 255
226 238 255
226 238 255
226 238 255
226 238 255
226 238 255
226 238 255
226 238 255
226 238 255
226 238 255
226 238 255
226 238 255
226 238 255
226 238 255
226 238 255
226 238 255
226 238 255
226 238 255
226 238 255
226 238 255
226 238 255
226 238 255
226 238 255
226 238 255
226 238 255
226 238 255
226 238 255
226 238 255
226 238 255
226 238 255
226 238 255
226 238 255
226 238 255
226 238 255
226 238 255
226 238 255
226 238 255
226 238 255
226 238 255
226 238 255
226 238 255
226 238 255
226 238 255
226 238 255
226 238 255
226 238 255
226 238 255
226 238 255
226 238 255
226 238 255
226 238 255
226 238 255
226 238 255
226 238 255
226 238 255
226 238 255
226 238 255
226 238 255
226 238 255
226 238 255
226 238 255
226 238 255
226 238 255
226 238 255
226 238 255
226 238 255
226 238 255
226 238 255
226 238 255
226 238 255
226 238 255
226 238 255
226 238 255
226 238 255
226 238 255
226 238 255
226 238 255
226 238 255
226 238 255
226 238 255
226 238 255
226 238 255
226 238 255
226 239 255
227 239 255
227 239 255
227 239 255
227 239 255
227 239 255
227 239 255
227 239 255
227 239 255
227 239 255
227 239 255
227 239 255
227 239 255
227 239 255
227 239 255
227 239 255
227 239 255
227 239 255
227 239 255
227 239 255
227 239 255
227 239 255
227 239 255
227 239 255
227 239 255
227 239 255
227 239 255
227 239 255
227 239 255
227 239 255
227 239 255
227 239 255
227 239 255
227 239 255
227 239 255
227 239 255
227 239 255
227 239 255
227 239 255
227 239 255
227 239 255
227 239 255
227 239 255
227 239 255
228 239 255
228 239 255
228 239 255
228 239 255
228 239 255
228 239 255
228 239 255
228 239 255
228 239 255
228 239 255
228 239 255
228 239 255
228 239 255
228 239 255
228 239 255
228 239 255
228 239 255
228 239 255
228 239 255
228 239 255
228 239 255
228 239 255
228 239 255
228 239 255
228 239 255
228 239 255
228 239 255
228 240 255
228 240 255
228 240 255
228 240 255
228 240 255
226 238 250
218 231 226
211 225 204
203 220 184
198 215 159
181 203 80
178 200 51
175 198 0
174 198 0
177 199 0
176 199 0
173 197 0
173 197 0
174 198 0
175 198 0
175 198 0
174 198 0
175 198 0
175 198 0
174 198 0
175 198 0
177 199 0
175 198 0
175 198 0
173 197 0
174 198 0
175 198 0
175 198 0
175 198 0
174 198 0
174 197 0
173 197 0
174 198 0
174 197 0
176 198 0
175 198 0
176 199 0
174 198 0
175 198 0
175 198 0
175 198 0
175 198 0
174 197 0
173 197 0
175 198 0
175 198 0
175 198 0
174 198 0
175 198 0
174 198 0
174 197 0
174 198 0
174 198 0
175 198 0
175 198 0
176 199 0
174 197 0
174 198 0
174 198 0
175 198 0
175 198 0
174 198 0
174 198 0
174 198 0
175 198 0
173 197 0
176 199 0
174 198 0
176 198 0
175 198 0
174 198 0
174 198 0
175 198 0
174 198 0
175 198 0
174 198 0
174 198 0
175 198 0
174 198 0
175 198 0
175 198 0
175 198 0
174 198 0
172 197 0
176 199 0
176 198 0
174 197 0
175 198 0
173 197 0
174 198 0
176 198 0
175 198 0
174 198 0
175 198 0
177 199 0
175 198 0
175 198 0
175 198 0
176 198 0
175 198 0
173 197 0
175 198 0
175 198 0
174 198 0
174 197 0
175 198 0
175 198 0
174 198 0
176 199 0
174 198 0
174 197 0
174 198 0
174 198 0
176 199 0
175 198 0
174 198 0
175 198 0
175 198 0
174 198 0
174 198 0
174 198 0
175 198 0
174 198 0
173 197 0
174 198 0
173 197 0
175 198 0
175 198 0
174 198 0
175 198 0
175 198 0
173 197 0
173 197 0
173 197 0
176 199 0
173 197 0
175 198 0
175 198 0
173 197 0
175 198 0
174 198 0
174 198 0
173 197 0
175 198 0
175 198 0
175 198 0
175 198 0
175 198 0
175 198 0
174 197 0
176 198 0
176 199 0
173 197 0
175 198 0
173 197 0
174 198 0
176 199 0
175 198 0
174 198 0
174 198 0
175 198 0
176 198 0
175 198 0
180 202 80
185 206 108
196 214 151
202 219 177
208 224 198
218 231 226
224 236 244
228 240 255
228 240 255
228 240 255
228 240 255
228 240 255
228 239 255
228 239 255
228 239 255
228 239 255
228 239 255
228 239 255
228 239 255
228 239 255
228 239 255
228 239 255
228 239 255
228 239 255
228 239 255
228 239 255
228 239 255
228 239 255
228 239 255
228 239 255
228 239 255
228 239 255
228 239 255
228 239 255
228 239 255
228 239 255
228 239 255
228 239 255
227 239 255
227 239 255
227 239 255
227 239 255
227 239 255
227 239 255
227 239 255
227 239 255
227 239 255
227 239 255
227 239 255
227 239 255
227 239 255
227 239 255
227 239 255
227 239 255
227 239 255
227 239 255
227 239 255
227 239 255
227 239 255
227 239 255
227 239 255
227 239 255
227 239 255
227 239 255
227 239 255
227 239 255
227 239 255
227 239 255
227 239 255
227 239 255
227 239 255
227 239 255
227 239 255
227 239 255
227 239 255
227 239 255
227 239 255
227 239 255
227 239 255
227 239 255
227 239 255
227 239 255
226 239 255
226 239 255
226 238 255
226 238 255
226 238 255
226 238 255
226 238 255
226 238 255
226 238 255
226 238 255
226 238 255
226 238 255
226 238 255
226 238 255
226 238 255
226 238 255
226 238 255
226 238 255
226 238 255
226 238 255
226 238 255
226 238 255
226 238 255
226 238 255
226 238 255
226 238 255
226 238 255
226 238 255
226 238 255
226 238 255
226 238 255
226 238 255
226 238 255
226 238 255
226 238 255
226 238 255
226 238 255
226 238 255
226 238 255
226 238 255
226 238 255
226 238 255
226 238 255
226 238 255
226 238 255
226 238 255
226 238 255
226 238 255
226 238 255
226 238 255
226 238 255
226 238 255
226 238 255
226 238 255
226 238 255
226 238 255
226 238 255
226 238 255
226 238 255
226 238 255
226 238 255
226 238 255
226 238 255
226 238 255
226 238 255
226 238 255
226 238 255
226 238 255
226 238 255
226 238 255
226 238 255
226 239 255
226 239 255
227 239 255
227 239 255
227 239 255
227 239 255
227 239 255
227 239 255
227 239 255
227 239 255
227 239 255
227 239 255
227 239 255
227 239 255
227 239 255
227 239 255
227 239 255
227 239 255
227 239 255
227 239 255
227 239 255
227 239 255
227 239 255
227 239 255
227 239 255
227 239 255
227 239 255
227 239 255
227 239 255
227 239 255
227 239 255
227 239 255
227 239 255
227 239 255
227 239 255
227 239 255
227 239 255
227 239 255
227 239 255
227 239 255
227 239 255
227 239 255
227 239 255
227 239 255
227 239 255
228 239 255
228 239 255
228 239 255
228 239 255
228 239 255
228 239 255
228 239 255
228 239 255
228 239 255
228 239 255
228 239 255
228 239 255
228 239 255
228 239 255
228 239 255
228 239 255
228 239 255
228 239 255
228 239 255
228 239 255
228 239 255
228 239 255
228 239 255
228 239 255
228 239 255
228 239 255
228 239 255
228 240 255
228 240 255
228 240 255
228 240 255
228 240 255
225 237 248
217 230 223
215 229 217
204 221 186
192 211 140
188 208 125
178 200 62
173 197 0
176 198 0
176 199 0
176 199 0
175 198 0
174 198 0
175 198 0
174 198 0
177 199 0
174 198 0
175 198 0
175 198 0
174 198 0
174 198 0
174 197 0
174 198 0
175 198 0
174 198 0
174 197 0
174 198 0
175 198 0
173 197 0
175 198 0
175 198 0
174 198 0
174 197 0
174 198 0
175 198 0
174 198 0
173 197 0
174 198 0
175 198 0
175 198 0
175 198 0
174 198 0
175 198 0
173 197 0
174 197 0
177 199 0
174 198 0
174 198 0
174 198 0
173 197 0
174 197 0
174 198 0
174 198 0
175 198 0
176 198 0
175 198 0
175 198 0
174 198 0
175 198 0
175 198 0
175 198 0
175 198 0
173 197 0
175 198 0
174 198 0
176 199 0
175 198 0
174 198 0
174 198 0
175 198 0
175 198 0
176 198 0
175 198 0
174 198 0
174 197 0
174 198 0
173 197 0
175 198 0
174 198 0
173 197 0
175 198 0
176 199 0
174 198 0
174 197 0
175 198 0
174 197 0
174 197 0
175 198 0
176 199 0
175 198 0
174 197 0
175 198 0
173 197 0
175 198 0
174 198 0
175 198 0
176 198 0
175 198 0
173 197 0
175 198 0
174 197 0
176 199 0
174 198 0
175 198 0
174 197 0
174 198 0
176 199 0
175 198 0
174 198 0
175 198 0
176 198 0
173 197 0
176 198 0
174 198 0
173 197 0
175 198 0
175 198 0
174 198 0
174 198 0
174 197 0
175 198 0
173 197 0
176 199 0
174 198 0
175 198 0
175 198 0
175 198 0
174 198 0
175 198 0
174 198 0
175 198 0
175 198 0
175 198 0
175 198 0
175 198 0
174 198 0
173 197 0
175 198 0
174 197 0
175 198 0
175 198 0
174 198 0
174 198 0
174 198 0
176 199 0
174 197 0
175 198 0
175 198 0
175 198 0
174 197 0
174 197 0
174 198 0
175 198 0
173 197 0
174 198 0
173 197 0
176 199 0
176 199 0
175 198 0
174 198 0
173 197 0
174 198 0
175 198 0
173 197 0
175 198 0
173 197 0
174 198 0
174 198 0
176 199 0
174 198 0
177 199 0
175 198 0
173 197 0
173 197 0
175 198 0
175 198 0
175 198 0
178 200 57
184 205 102
191 210 133
202 219 175
210 225 199
224 236 242
227 238 252
228 240 255
228 240 255
228 240 255
228 240 255
228 240 255
228 239 255
228 239 255
228 239 255
228 239 255
228 239 255
228 239 255
228 239 255
228 239 255
228 239 255
228 239 255
228 239 255
228 239 255
228 239 255
228 239 255
228 239 255
228 239 255
228 239 255
228 239 255
228 239 255
228 239 255
228 239 255
228 239 255
228 239 255
228 239 255
228 239 255
228 239 255
228 239 255
227 239 255
227 239 255
227 239 255
227 239 255
227 239 255
227 239 255
227 239 255
227 239 255
227 239 255
227 239 255
227 239 255
227 239 255
227 239 255
227 239 255
227 239 255
227 239 255
227 239 255
227 239 255
227 239 255
227 239 255
227 239 255
227 239 255
227 239 255
227 239 255
227 239 255
227 239 255
227 239 255
227 239 255
227 239 255
227 239 255
227 239 255
227 239 255
227 239 255
227 239 255
227 239 255
227 239 255
227 239 255
227 239 255
227 239 255
227 239 255
227 239 255
227 239 255
227 239 255
226 239 255
226 239 255
226 238 255
226 238 255
226 238 255
226 238 255
226 238 255
226 238 255
226 238 255
226 238 255
226 238 255
226 238 255
226 238 255
226 238 255
226 238 255
226 238 255
226 238 255
226 238 255
226 238 255
226 238 255
226 238 255
226 238 255
226 238 255
226 238 255
226 238 255
226 238 255
226 238 255
226 238 255
226 238 255
226 238 255
226 238 255
226 238 255
226 238 255
226 238 255
226 238 255
226 238 255
226 238 255
226 238 255
226 238 255
226 238 255
226 238 255
226 238 255
226 238 255
226 238 255
226 238 255
226 238 255
226 238 255
226 238 255
226 238 255
226 238 255
226 238 255
226 238 255
226 238 255
226 238 255
226 238 255
226 238 255
226 238 255
226 238 255
226 239 255
226 239 255
227 239 255
227 239 255
227 239 255
227 239 255
227 239 255
227 239 255
227 239 255
227 239 255
227 239 255
227 239 255
227 239 255
227 239 255
227 239 255
227 239 255
227 239 255
227 239 255
227 239 255
227 239 255
227 239 255
227 239 255
227 239 255
227 239 255
227 239 255
227 239 255
227 239 255
227 239 255
227 239 255
227 239 255
227 239 255
227 239 255
227 239 255
227 239 255
227 239 255
227 239 255
227 239 255
227 239 255
227 239 255
227 239 255
227 239 255
227 239 255
227 239 255
227 239 255
228 239 255
228 239 255
228 239 255
228 239 255
228 239 255
228 239 255
228 239 255
228 239 255
228 239 255
228 239 255
228 239 255
228 239 255
228 239 255
228 239 255
228 239 255
228 239 255
228 239 255
228 239 255
228 239 255
228 239 255
228 239 255
228 239 255
228 239 255
228 239 255
228 239 255
228 239 255
228 239 255
228 240 255
228 240 255
228 240 255
228 240 255
228 240 255
228 240 255
226 238 250
215 229 215
211 226 206
201 218 173
190 209 128
187 207 108
175 198 25
174 198 0
175 198 0
175 198 0
177 199 0
175 198 0
174 198 0
175 198 0
174 198 0
175 198 0
174 198 0
174 197 0
175 198 0
175 198 0
172 197 0
174 198 0
174 197 0
175 198 0
173 197 0
173 197 0
174 198 0
174 198 0
174 198 0
175 198 0
174 197 0
175 198 0
174 197 0
174 198 0
175 198 0
174 198 0
175 198 0
173 197 0
174 198 0
174 198 0
175 198 0
175 198 0
174 198 0
175 198 0
174 197 0
176 199 0
174 198 0
174 198 0
173 197 0
175 198 0
175 198 0
173 197 0
175 198 0
174 197 0
174 198 0
176 198 0
175 198 0
175 198 0
174 198 0
173 197 0
174 197 0
175 198 0
175 198 0
176 198 0
174 198 0
175 198 0
173 197 0
174 198 0
173 197 0
174 198 0
174 198 0
173 197 0
175 198 0
175 198 0
175 198 0
172 197 0
176 199 0
174 197 0
174 198 0
175 198 0
175 198 0
175 198 0
174 197 0
174 197 0
174 198 0
171 196 0
174 197 0
173 197 0
174 198 0
177 199 0
175 198 0
174 197 0
174 197 0
175 198 0
173 197 0
175 198 0
174 198 0
173 197 0
174 198 0
175 198 0
174 198 0
175 198 0
176 198 0
175 198 0
175 198 0
175 198 0
174 197 0
175 198 0
174 198 0
174 198 0
175 198 0
174 197 0
174 198 0
174 197 0
173 197 0
174 198 0
174 198 0
173 197 0
173 197 0
173 197 0
174 198 0
175 198 0
175 198 0
177 199 0
174 198 0
174 198 0
175 198 0
173 197 0
174 198 0
175 198 0
176 199 0
174 198 0
172 197 0
175 198 0
175 198 0
176 199 0
176 198 0
174 198 0
174 197 0
174 197 0
174 197 0
174 198 0
175 198 0
176 199 0
175 198 0
174 197 0
173 197 0
175 198 0
176 199 0
175 198 0
175 198 0
174 198 0
175 198 0
174 197 0
173 197 0
174 198 0
173 197 0
173 197 0
176 199 0
174 198 0
175 198 0
174 197 0
175 198 0
175 198 0
176 199 0
175 198 0
176 199 0
176 199 0
174 198 0
173 197 0
174 198 0
175 198 0
175 198 0
174 197 0
175 198 0
176 199 0
175 198 0
176 198 0
175 198 0
175 198 0
175 198 0
174 197 0
175 198 0
174 197 0
173 197 0
174 198 0
172 197 0
175 198 0
174 198 0
177 199 36
183 204 88
188 208 122
198 215 159
208 224 198
214 229 217
222 235 241
228 240 255
228 240 255
228 240 255
228 240 255
228 240 255
228 240 255
228 239 255
228 239 255
228 239 255
228 239 255
228 239 255
228 239 255
228 239 255
228 239 255
228 239 255
228 239 255
228 239 255
228 239 255
228 239 255
228 239 255
228 239 255
228 239 255
228 239 255
228 239 255
228 239 255
228 239 255
228 239 255
228 239 255
228 239 255
228 239 255
228 239 255
228 239 255
227 239 255
227 239 255
227 239 255
227 239 255
227 239 255
227 239 255
227 239 255
227 239 255
227 239 255
227 239 255
227 239 255
227 239 255
227 239 255
227 239 255
227 239 255
227 239 255
227 239 255
227 239 255
227 239 255
227 239 255
227 239 255
227 239 255
227 239 255
227 239 255
227 239 255
227 239 255
227 239 255
227 239 255
227 239 255
227 239 255
227 239 255
227 239 255
227 239 255
227 239 255
227 239 255
227 239 255
227 239 255
227 239 255
227 239 255
227 239 255
227 239 255
227 239 255
227 239 255
227 239 255
226 239 255
226 239 255
226 238 255
226 238 255
226 238 255
226 238 255
226 238 255
226 238 255
226 238 255
226 238 255
226 238 255
226 238 255
226 238 255
226 238 255
226 238 255
226 238 255
226 238 255
226 238 255
226 238 255
226 238 255
226 238 255
226 238 255
226 238 255
226 238 255
226 238 255
226 238 255
226 238 255
226 238 255
226 238 255
226 238 255
226 238 255
226 238 255
226 238 255
226 238 255
226 238 255
226 238 255
226 238 255
226 238 255
226 238 255
226 238 255
226 238 255
226 238 255
226 238 255
226 239 255
226 239 255
227 239 255
227 239 255
227 239 255
227 239 255
227 239 255
227 239 255
227 239 255
227 239 255
227 239 255
227 239 255
227 239 255
227 239 255
227 239 255
227 239 255
227 239 255
227 239 255
227 239 255
227 239 255
227 239 255
227 239 255
227 239 255
227 239 255
227 239 255
227 239 255
227 239 255
227 239 255
227 239 255
227 239 255
227 239 255
227 239 255
227 239 255
227 239 255
227 239 255
227 239 255
227 239 255
227 239 255
227 239 255
227 239 255
227 239 255
227 239 255
227 239 255
227 239 255
227 239 255
227 239 255
228 239 255
228 239 255
228 239 255
228 239 255
228 239 255
228 239 255
228 239 255
228 239 255
228 239 255
228 239 255
228 239 255
228 239 255
228 239 255
228 239 255
228 239 255
228 239 255
228 239 255
228 239 255
228 239 255
228 239 255
228 239 255
228 239 255
228 239 255
228 239 255
228 239 255
228 239 255
228 240 255
228 240 255
228 240 255
228 240 255
228 240 255
228 240 255
228 240 255
223 236 242
216 230 221
206 222 188
198 216 163
188 208 120
182 203 84
175 198 0
174 198 0
175 198 0
176 199 0
175 198 0
176 198 0
173 197 0
175 198 0
174 198 0
176 198 0
174 197 0
176 198 0
174 198 0
176 199 0
174 198 0
174 198 0
173 197 0
175 198 0
173 197 0
173 197 0
176 199 0
174 198 0
172 196 0
173 197 0
176 199 0
174 198 0
175 198 0
175 198 0
173 197 0
173 197 0
173 197 0
174 197 0
176 199 0
176 198 0
173 197 0
175 198 0
175 198 0
175 198 0
174 198 0
175 198 0
176 199 0
173 197 0
175 198 0
174 198 0
175 198 0
175 198 0
174 198 0
174 198 0
175 198 0
174 198 0
175 198 0
174 198 0
176 198 0
175 198 0
173 197 0
174 198 0
175 198 0
174 198 0
176 199 0
173 197 0
176 199 0
175 198 0
174 198 0
175 198 0
176 199 0
174 197 0
175 198 0
174 198 0
174 197 0
174 198 0
173 197 0
174 198 0
175 198 0
174 198 0
174 198 0
177 199 0
173 197 0
174 197 0
177 199 0
173 197 0
174 197 0
174 198 0
173 197 0
174 197 0
173 197 0
174 198 0
174 198 0
174 198 0
173 197 0
176 198 0
174 197 0
174 198 0
174 197 0
174 198 0
174 197 0
174 197 0
175 198 0
176 198 0
174 198 0
173 197 0
175 198 0
175 198 0
175 198 0
174 198 0
174 197 0
176 199 0
175 198 0
175 198 0
174 198 0
174 198 0
175 198 0
174 197 0
174 198 0
175 198 0
173 197 0
175 198 0
177 199 0
175 198 0
174 198 0
173 197 0
173 197 0
174 198 0
176 199 0
173 197 0
173 197 0
173 197 0
176 198 0
174 198 0
175 198 0
174 197 0
173 197 0
173 197 0
173 197 0
174 197 0
174 197 0
174 198 0
175 198 0
175 198 0
175 198 0
174 198 0
174 198 0
175 198 0
174 198 0
175 198 0
174 197 0
175 198 0
175 198 0
176 198 0
174 198 0
174 197 0
174 198 0
174 197 0
174 198 0
174 198 0
174 198 0
175 198 0
175 198 0
174 198 0
175 198 0
175 198 0
174 197 0
174 198 0
175 198 0
174 197 0
174 198 0
176 199 0
176 199 0
174 198 0
176 198 0
175 198 0
175 198 0
174 198 0
174 198 0
175 198 0
175 198 0
175 198 0
175 198 0
175 198 0
174 198 0
175 198 0
174 198 0
174 197 0
174 197 0
174 198 0
176 198 0
174 197 0
176 199 0
175 198 0
173 197 0
174 198 0
175 198 0
174 198 0
174 198 0
174 197 0
175 198 0
173 197 0
182 203 76
192 211 140
198 215 161
205 221 186
215 228 214
225 237 246
228 240 255
228 240 255
228 240 255
228 240 255
228 240 255
228 240 255
228 240 255
228 239 255
228 239 255
228 239 255
228 239 255
228 239 255
228 239 255
228 239 255
228 239 255
228 239 255
228 239 255
228 239 255
228 239 255
228 239 255
228 239 255
228 239 255
228 239 255
228 239 255
228 239 255
228 239 255
228 239 255
228 239 255
228 239 255
228 239 255
228 239 255
228 239 255
228 239 255
227 239 255
227 239 255
227 239 255
227 239 255
227 239 255
227 239 255
227 239 255
227 239 255
227 239 255
227 239 255
227 239 255
227 239 255
227 239 255
227 239 255
227 239 255
227 239 255
227 239 255
227 239 255
227 239 255
227 239 255
227 239 255
227 239 255
227 239 255
227 239 255
227 239 255
227 239 255
227 239 255
227 239 255
227 239 255
227 239 255
227 239 255
227 239 255
227 239 255
227 239 255
227 239 255
227 239 255
227 239 255
227 239 255
227 239 255
227 239 255
227 239 255
227 239 255
227 239 255
227 239 255
226 239 255
226 239 255
226 238 255
226 238 255
226 238 255
226 238 255
226 238 255
226 238 255
226 238 255
226 238 255
226 238 255
226 238 255
226 238 255
226 238 255
226 238 255
226 238 255
226 238 255
226 238 255
226 238 255
226 238 255
226 238 255
226 238 255
226 238 255
226 238 255
226 238 255
226 238 255
226 238 255
226 238 255
226 238 255
226 239 255
226 239 255
227 239 255
227 239 255
227 239 255
227 239 255
227 239 255
227 239 255
227 239 255
227 239 255
227 239 255
227 239 255
227 239 255
227 239 255
227 239 255
227 239 255
227 239 255
227 239 255
227 239 255
227 239 255
227 239 255
227 239 255
227 239 255
227 239 255
227 239 255
227 239 255
227 239 255
227 239 255
227 239 255
227 239 255
227 239 255
227 239 255
227 239 255
227 239 255
227 239 255
227 239 255
227 239 255
227 239 255
227 239 255
227 239 255
227 239 255
227 239 255
227 239 255
227 239 255
227 239 255
227 239 255
228 239 255
228 239 255
228 239 255
228 239 255
228 239 255
228 239 255
228 239 255
228 239 255
228 239 255
228 239 255
228 239 255
228 239 255
228 239 255
228 239 255
228 239 255
228 239 255
228 239 255
228 239 255
228 239 255
228 239 255
228 239 255
228 239 255
228 239 255
228 239 255
228 239 255
228 239 255
228 240 255
228 240 255
228 240 255
228 240 255
228 240 255
228 240 255
228 240 255
228 240 255
222 235 238
216 230 221
206 222 191
199 216 163
187 208 120
179 201 62
177 199 0
176 199 0
177 199 0
174 198 0
174 198 0
175 198 0
174 197 0
175 198 0
174 198 0
175 198 0
175 198 0
175 198 0
176 198 0
175 198 0
174 198 0
176 199 0
175 198 0
174 198 0
173 197 0
175 198 0
173 197 0
175 198 0
175 198 0
174 198 0
174 197 0
175 198 0
176 198 0
175 198 0
175 198 0
174 198 0
174 198 0
174 198 0
176 199 0
174 197 0
174 198 0
174 198 0
174 197 0
174 198 0
173 197 0
175 198 0
173 197 0
173 197 0
175 198 0
172 197 0
176 198 0
175 198 0
175 198 0
174 198 0
173 197 0
174 197 0
174 198 0
174 198 0
176 198 0
174 197 0
175 198 0
174 197 0
175 198 0
175 198 0
175 198 0
175 198 0
174 198 0
174 197 0
174 198 0
174 197 0
175 198 0
173 197 0
175 198 0
174 197 0
173 197 0
175 198 0
173 197 0
173 197 0
174 198 0
174 198 0
173 197 0
175 198 0
173 197 0
174 198 0
175 198 0
173 197 0
174 198 0
174 198 0
176 199 0
173 197 0
175 198 0
173 197 0
174 197 0
175 198 0
175 198 0
175 198 0
175 198 0
175 198 0
175 198 0
174 198 0
175 198 0
175 198 0
175 198 0
175 198 0
174 198 0
175 198 0
175 198 0
172 197 0
175 198 0
174 198 0
175 198 0
175 198 0
177 199 0
175 198 0
174 198 0
174 198 0
174 198 0
173 197 0
175 198 0
173 197 0
175 198 0
174 198 0
174 198 0
174 197 0
174 198 0
175 198 0
174 198 0
175 198 0
174 197 0
175 198 0
173 197 0
176 198 0
175 198 0
173 197 0
175 198 0
173 197 0
175 198 0
174 198 0
175 198 0
174 198 0
174 198 0
173 197 0
175 198 0
174 197 0
175 198 0
174 198 0
175 198 0
174 198 0
175 198 0
174 198 0
173 197 0
175 198 0
175 198 0
173 197 0
173 197 0
173 197 0
176 199 0
173 197 0
174 198 0
176 199 0
174 197 0
174 197 0
176 199 0
174 198 0
174 197 0
174 197 0
175 198 0
175 198 0
174 197 0
174 197 0
175 198 0
174 197 0
177 199 0
176 199 0
175 198 0
175 198 0
175 198 0
174 197 0
175 198 0
175 198 0
174 198 0
175 198 0
174 197 0
175 198 0
175 198 0
173 197 0
174 198 0
175 198 0
175 198 0
176 199 0
177 199 0
175 198 0
173 197 0
175 198 0
175 198 0
174 197 0
175 198 0
174 197 0
174 197 0
175 198 0
174 197 0
176 199 0
175 198 0
173 197 0
175 198 0
175 198 0
175 198 0
175 198 0
176 199 0
175 198 0
175 198 0
174 198 0
175 198 0
174 198 0
183 204 95
190 210 130
195 214 153
208 223 196
219 232 230
225 237 248
228 240 255
228 240 255
228 240 255
228 240 255
228 240 255
228 240 255
228 240 255
228 239 255
228 239 255
228 239 255
228 239 255
228 239 255
228 239 255
228 239 255
228 239 255
228 239 255
228 239 255
228 239 255
228 239 255
228 239 255
228 239 255
228 239 255
228 239 255
228 239 255
228 239 255
228 239 255
228 239 255
228 239 255
228 239 255
228 239 255
228 239 255
228 239 255
228 239 255
228 239 255
227 239 255
227 239 255
227 239 255
227 239 255
227 239 255
227 239 255
227 239 255
227 239 255
227 239 255
227 239 255
227 239 255
227 239 255
227 239 255
227 239 255
227 239 255
227 239 255
227 239 255
227 239 255
227 239 255
227 239 255
227 239 255
227 239 255
227 239 255
227 239 255
227 239 255
227 239 255
227 239 255
227 239 255
227 239 255
227 239 255
227 239 255
227 239 255
227 239 255
227 239 255
227 239 255
227 239 255
227 239 255
227 239 255
227 239 255
227 239 255
227 239 255
227 239 255
227 239 255
227 239 255
226 239 255
226 239 255
226 238 255
226 238 255
226 238 255
226 238 255
226 238 255
226 238 255
226 238 255
226 238 255
226 238 255
226 238 255
226 238 255
226 238 255
226 238 255
226 239 255
226 239 255
227 239 255
227 239 255
227 239 255
227 239 255
227 239 255
227 239 255
227 239 255
227 239 255
227 239 255
227 239 255
227 239 255
227 239 255
227 239 255
227 239 255
227 239 255
227 239 255
227 239 255
227 239 255
227 239 255
227 239 255
227 239 255
227 239 255
227 239 255
227 239 255
227 239 255
227 239 255
227 239 255
227 239 255
227 239 255
227 239 255
227 239 255
227 239 255
227 239 255
227 239 255
227 239 255
227 239 255
227 239 255
227 239 255
227 239 255
227 239 255
227 239 255
227 239 255
227 239 255
227 239 255
227 239 255
228 239 255
228 239 255
228 239 255
228 239 255
228 239 255
228 239 255
228 239 255
228 239 255
228 239 255
228 239 255
228 239 255
228 239 255
228 239 255
228 239 255
228 239 255
228 239 255
228 239 255
228 239 255
228 239 255
228 239 255
228 239 255
228 239 255
228 239 255
228 239 255
228 239 255
228 239 255
228 240 255
228 240 255
228 240 255
228 240 255
228 240 255
228 240 255
228 240 255
228 240 255
228 240 255
220 232 230
208 224 198
206 222 188
194 213 149
184 205 99
175 198 0
175 198 0
174 198 0
175 198 0
175 198 0
176 198 0
174 198 0
174 198 0
176 199 0
174 198 0
176 198 0
175 198 0
175 198 0
174 198 0
176 199 0
176 199 0
175 198 0
174 198 0
176 199 0
175 198 0
174 198 0
175 198 0
174 198 0
174 198 0
173 197 0
176 199 0
175 198 0
174 198 0
175 198 0
174 198 0
173 197 0
174 198 0
176 198 0
174 198 0
176 199 0
175 198 0
175 198 0
174 197 0
174 197 0
174 198 0
173 197 0
174 198 0
174 198 0
174 198 0
174 198 0
175 198 0
175 198 0
175 198 0
174 198 0
175 198 0
174 198 0
174 198 0
173 197 0
173 197 0
175 198 0
174 198 0
175 198 0
173 197 0
175 198 0
175 198 0
176 199 0
174 197 0
173 197 0
175 198 0
175 198 0
175 198 0
174 198 0
174 197 0
174 198 0
174 197 0
175 198 0
173 197 0
175 198 0
174 198 0
175 198 0
175 198 0
175 198 0
173 197 0
174 198 0
173 197 0
174 198 0
175 198 0
175 198 0
172 196 0
174 198 0
173 197 0
174 198 0
174 197 0
175 198 0
173 197 0
176 198 0
174 198 0
175 198 0
175 198 0
174 198 0
176 199 0
176 199 0
174 197 0
175 198 0
176 199 0
174 198 0
175 198 0
175 198 0
174 197 0
176 199 0
174 198 0
174 198 0
174 198 0
174 198 0
174 198 0
173 197 0
174 198 0
175 198 0
175 198 0
175 198 0
173 197 0
175 198 0
175 198 0
174 198 0
176 198 0
174 197 0
173 196 0
175 198 0
174 197 0
175 198 0
175 198 0
174 198 0
173 197 0
177 199 0
174 198 0
175 198 0
174 198 0
174 197 0
174 198 0
174 197 0
175 198 0
174 198 0
174 198 0
174 197 0
175 198 0
174 197 0
174 197 0
173 197 0
175 198 0
174 198 0
174 198 0
175 198 0
176 199 0
173 197 0
174 198 0
174 198 0
173 197 0
174 198 0
175 198 0
173 197 0
174 198 0
174 197 0
174 198 0
174 197 0
176 199 0
174 198 0
174 198 0
174 198 0
175 198 0
177 199 0
174 198 0
173 197 0
176 199 0
174 198 0
176 199 0
175 198 0
175 198 0
175 198 0
173 197 0
175 198 0
175 198 0
174 197 0
173 197 0
173 197 0
173 197 0
175 198 0
174 198 0
174 197 0
175 198 0
175 198 0
174 197 0
174 198 0
174 197 0
174 197 0
175 198 0
175 198 0
175 198 0
176 199 0
174 198 0
175 198 0
175 198 0
174 198 0
175 198 0
174 198 0
175 198 0
175 198 0
176 198 0
175 198 0
173 197 0
174 197 0
173 197 0
175 198 0
175 198 0
174 198 0
175 198 0
174 198 0
174 198 0
174 198 0
175 198 0
175 198 0
176 199 0
175 198 0
175 198 0
174 197 0
175 198 25
181 203 95
190 210 135
200 217 171
209 224 199
220 233 234
227 238 250
228 240 255
228 240 255
228 240 255
228 240 255
228 240 255
228 240 255
228 240 255
228 240 255
228 239 255
228 239 255
228 239 255
228 239 255
228 239 255
228 239 255
228 239 255
228 239 255
228 239 255
228 239 255
228 239 255
228 239 255
228 239 255
228 239 255
228 239 255
228 239 255
228 239 255
228 239 255
228 239 255
228 239 255
228 239 255
228 239 255
228 239 255
228 239 255
228 239 255
228 239 255
227 239 255
227 239 255
227 239 255
227 239 255
227 239 255
227 239 255
227 239 255
227 239 255
227 239 255
227 239 255
227 239 255
227 239 255
227 239 255
227 239 255
227 239 255
227 239 255
227 239 255
227 239 255
227 239 255
227 239 255
227 239 255
227 239 255
227 239 255
227 239 255
227 239 255
227 239 255
227 239 255
227 239 255
227 239 255
227 239 255
227 239 255
227 239 255
227 239 255
227 239 255
227 239 255
227 239 255
227 239 255
227 239 255
227 239 255
227 239 255
227 239 255
227 239 255
227 239 255
227 239 255
227 239 255
226 239 255
226 239 255
226 238 255
226 238 255
226 238 255
227 239 255
227 239 255
227 239 255
227 239 255
227 239 255
227 239 255
227 239 255
227 239 255
227 239 255
227 239 255
227 239 255
227 239 255
227 239 255
227 239 255
227 239 255
227 239 255
227 239 255
227 239 255
227 239 255
227 239 255
227 239 255
227 239 255
227 239 255
227 239 255
227 239 255
227 239 255
227 239 255
227 239 255
227 239 255
227 239 255
227 239 255
227 239 255
227 239 255
227 239 255
227 239 255
227 239 255
227 239 255
227 239 255
227 239 255
227 239 255
227 239 255
227 239 255
227 239 255
227 239 255
228 239 255
228 239 255
228 239 255
228 239 255
228 239 255
228 239 255
228 239 255
228 239 255
228 239 255
228 239 255
228 239 255
228 239 255
228 239 255
228 239 255
228 239 255
228 239 255
228 239 255
228 239 255
228 239 255
228 239 255
228 239 255
228 239 255
228 239 255
228 239 255
228 239 255
228 239 255
228 240 255
228 240 255
228 240 255
228 240 255
228 240 255
228 240 255
228 240 255
228 240 255
228 240 255
225 237 245
219 232 230
206 222 188
199 216 163
184 205 99
177 200 51
173 197 0
174 197 0
174 198 0
176 199 0
175 198 0
174 198 0
175 198 0
175 198 0
174 198 0
176 198 0
175 198 0
174 198 0
175 198 0
174 197 0
175 198 0
176 198 0
173 197 0
173 197 0
176 198 0
174 198 0
174 197 0
174 198 0
174 198 0
175 198 0
175 198 0
176 198 0
175 198 0
175 198 0
174 198 0
175 198 0
174 197 0
174 197 0
175 198 0
175 198 0
175 198 0
174 198 0
174 198 0
175 198 0
174 198 0
174 198 0
174 198 0
175 198 0
173 197 0
174 198 0
175 198 0
174 198 0
175 198 0
175 198 0
175 198 0
175 198 0
174 198 0
175 198 0
175 198 0
175 198 0
174 198 0
175 198 0
174 198 0
175 198 0
174 198 0
174 198 0
174 198 0
175 198 0
174 197 0
173 197 0
175 198 0
174 198 0
175 198 0
174 198 0
174 198 0
175 198 0
175 198 0
175 198 0
173 197 0
175 198 0
175 198 0
174 198 0
174 198 0
173 197 0
175 198 0
176 199 0
175 198 0
175 198 0
174 198 0
175 198 0
174 198 0
174 197 0
174 198 0
173 197 0
174 198 0
174 197 0
173 197 0
174 198 0
173 197 0
176 199 0
176 199 0
174 197 0
174 198 0
173 197 0
174 198 0
176 198 0
173 197 0
175 198 0
174 198 0
174 197 0
173 197 0
175 198 0
176 198 0
175 198 0
175 198 0
175 198 0
175 198 0
176 198 0
175 198 0
174 198 0
176 198 0
175 198 0
174 198 0
174 198 0
174 198 0
176 199 0
174 197 0
174 198 0
175 198 0
174 198 0
173 197 0
174 198 0
175 198 0
176 199 0
174 198 0
174 197 0
174 198 0
175 198 0
173 197 0
176 199 0
175 198 0
175 198 0
175 198 0
173 197 0
175 198 0
175 198 0
174 198 0
175 198 0
175 198 0
175 198 0
174 198 0
174 197 0
174 198 0
174 198 0
174 197 0
175 198 0
176 198 0
177 199 0
174 197 0
175 198 0
175 198 0
175 198 0
176 198 0
174 198 0
176 199 0
175 198 0
175 198 0
174 198 0
174 198 0
176 199 0
174 197 0
174 198 0
174 198 0
175 198 0
174 198 0
174 198 0
174 198 0
175 198 0
176 199 0
174 198 0
175 198 0
175 198 0
175 198 0
175 198 0
176 199 0
175 198 0
175 198 0
176 199 0
174 198 0
175 198 0
175 198 0
173 197 0
174 198 0
177 199 0
173 197 0
175 198 0
175 198 0
175 198 0
175 198 0
175 198 0
174 198 0
175 198 0
176 199 0
174 198 0
175 198 0
175 198 0
175 198 0
174 198 0
175 198 0
176 199 0
173 197 0
173 197 0
174 198 0
175 198 0
173 197 0
174 197 0
175 198 0
173 197 0
176 198 0
175 198 0
176 198 0
174 197 0
175 198 0
176 199 0
175 198 0
176 199 0
175 198 0
174 198 0
174 198 0
176 199 0
175 198 0
174 198 0
174 198 0
176 198 0
176 199 0
174 198 0
176 199 36
190 209 128
201 218 169
204 221 184
210 225 204
224 236 242
228 240 255
228 240 255
228 240 255
228 240 255
228 240 255
228 240 255
228 240 255
228 240 255
228 240 255
228 239 255
228 239 255
228 239 255
228 239 255
228 239 255
228 239 255
228 239 255
228 239 255
228 239 255
228 239 255
228 239 255
228 239 255
228 239 255
228 239 255
228 239 255
228 239 255
228 239 255
228 239 255
228 239 255
228 239 255
228 239 255
228 239 255
228 239 255
228 239 255
228 239 255
228 239 255
228 239 255
227 239 255
227 239 255
227 239 255
227 239 255
227 239 255
227 239 255
227 239 255
227 239 255
227 239 255
227 239 255
227 239 255
227 239 255
227 239 255
227 239 255
227 239 255
227 239 255
227 239 255
227 239 255
227 239 255
227 239 255
227 239 255
227 239 255
227 239 255
227 239 255
227 239 255
227 239 255
227 239 255
227 239 255
227 239 255
227 239 255
227 239 255
227 239 255
227 239 255
227 239 255
227 239 255
227 239 255
227 239 255
227 239 255
227 239 255
227 239 255
227 239 255
227 239 255
227 239 255
227 239 255
227 239 255
227 239 255
227 239 255
227 239 255
227 239 255
227 239 255
227 239 255
227 239 255
227 239 255
227 239 255
227 239 255
227 239 255
227 239 255
227 239 255
227 239 255
227 239 255
227 239 255
227 239 255
227 239 255
227 239 255
227 239 255
227 239 255
227 239 255
227 239 255
227 239 255
227 239 255
227 239 255
227 239 255
227 239 255
227 239 255
227 239 255
227 239 255
227 239 255
227 239 255
227 239 255
227 239 255
228 239 255
228 239 255
228 239 255
228 239 255
228 239 255
228 239 255
228 239 255
228 239 255
228 239 255
228 239 255
228 239 255
228 239 255
228 239 255
228 239 255
228 239 255
228 239 255
228 239 255
228 239 255
228 239 255
228 239 255
228 239 255
228 239 255
228 239 255
228 239 255
228 239 255
228 239 255
228 239 255
228 240 255
228 240 255
228 240 255
228 240 255
228 240 255
228 240 255
228 240 255
228 240 255
228 240 255
228 240 255
223 235 238
211 226 207
206 222 189
191 211 137
181 202 80
176 198 0
175 198 0
176 198 0
175 198 0
175 198 0
174 198 0
175 198 0
175 198 0
175 198 0
174 198 0
174 198 0
174 198 0
176 199 0
174 198 0
174 198 0
173 197 0
176 198 0
174 198 0
174 198 0
174 198 0
174 197 0
176 198 0
174 198 0
175 198 0
176 199 0
174 198 0
172 197 0
174 198 0
172 196 0
174 198 0
175 198 0
173 197 0
176 199 0
176 199 0
173 197 0
175 198 0
175 198 0
176 199 0
174 198 0
175 198 0
174 197 0
174 198 0
175 198 0
176 199 0
175 198 0
173 197 0
174 198 0
175 198 0
174 198 0
176 199 0
173 197 0
173 197 0
175 198 0
175 198 0
175 198 0
174 197 0
174 197 0
175 198 0
176 199 0
174 198 0
175 198 0
176 199 0
175 198 0
175 198 0
175 198 0
175 198 0
177 199 0
174 198 0
173 197 0
173 197 0
173 197 0
175 198 0
175 198 0
175 198 0
176 198 0
174 198 0
174 198 0
175 198 0
174 198 0
174 197 0
174 198 0
176 199 0
175 198 0
174 198 0
174 197 0
175 198 0
174 198 0
174 198 0
174 198 0
174 198 0
175 198 0
174 198 0
174 198 0
173 197 0
174 198 0
174 198 0
174 198 0
173 197 0
174 198 0
173 197 0
174 197 0
176 199 0
174 198 0
174 198 0
175 198 0
175 198 0
174 198 0
175 198 0
174 198 0
176 198 0
174 197 0
175 198 0
174 198 0
175 198 0
175 198 0
174 198 0
173 197 0
174 197 0
174 198 0
174 197 0
173 197 0
174 197 0
175 198 0
176 198 0
174 198 0
173 197 0
176 199 0
175 198 0
176 198 0
176 199 0
174 198 0
175 198 0
174 198 0
173 197 0
174 197 0
174 198 0
175 198 0
175 198 0
175 198 0
174 197 0
174 198 0
175 198 0
176 199 0
176 199 0
175 198 0
175 198 0
173 197 0
173 197 0
175 198 0
174 197 0
174 198 0
174 198 0
175 198 0
175 198 0
175 198 0
174 198 0
175 198 0
174 198 0
176 198 0
174 198 0
174 198 0
175 198 0
175 198 0
175 198 0
174 198 0
175 198 0
175 198 0
173 197 0
175 198 0
175 198 0
174 197 0
175 198 0
174 198 0
175 198 0
173 197 0
174 198 0
176 199 0
174 198 0
175 198 0
174 197 0
173 197 0
175 198 0
174 198 0
174 197 0
174 198 0
174 197 0
175 198 0
174 198 0
175 198 0
174 197 0
176 199 0
175 198 0
174 198 0
175 198 0
173 197 0
174 197 0
175 198 0
175 198 0
175 198 0
175 198 0
175 198 0
175 198 0
175 198 0
175 198 0
176 199 0
172 197 0
175 198 0
173 197 0
177 199 0
175 198 0
175 198 0
174 198 0
175 198 0
174 198 0
176 199 0
176 199 0
175 198 0
175 198 0
173 197 0
175 198 0
175 198 0
174 197 0
176 199 0
176 199 0
176 199 0
173 197 0
175 198 0
175 198 0
175 198 0
176 199 0
174 198 0
174 198 0
174 198 0
174 198 0
175 198 0
175 198 0
175 198 0
175 198 0
174 198 0
174 198 0
175 198 0
174 198 0
183 204 92
188 208 120
206 222 189
213 228 214
223 235 241
228 239 254
228 240 255
228 240 255
228 240 255
228 240 255
228 240 255
228 240 255
228 240 255
228 240 255
228 240 255
228 239 255
228 239 255
228 239 255
228 239 255
228 239 255
228 239 255
228 239 255
228 239 255
228 239 255
228 239 255
228 239 255
228 239 255
228 239 255
228 239 255
228 239 255
228 239 255
228 239 255
228 239 255
228 239 255
228 239 255
228 239 255
228 239 255
228 239 255
228 239 255
228 239 255
228 239 255
228 239 255
227 239 255
227 239 255
227 239 255
227 239 255
227 239 255
227 239 255
227 239 255
227 239 255
227 239 255
227 239 255
227 239 255
227 239 255
227 239 255
227 239 255
227 239 255
227 239 255
227 239 255
227 239 255
227 239 255
227 239 255
227 239 255
227 239 255
227 239 255
227 239 255
227 239 255
227 239 255
227 239 255
227 239 255
227 239 255
227 239 255
227 239 255
227 239 255
227 239 255
227 239 255
227 239 255
227 239 255
227 239 255
227 239 255
227 239 255
227 239 255
227 239 255
227 239 255
227 239 255
227 239 255
227 239 255
227 239 255
227 239 255
227 239 255
227 239 255
227 239 255
227 239 255
227 239 255
227 239 255
227 239 255
227 239 255
227 239 255
227 239 255
227 239 255
227 239 255
227 239 255
227 239 255
227 239 255
227 239 255
227 239 255
227 239 255
227 239 255
227 239 255
227 239 255
227 239 255
228 239 255
228 239 255
228 239 255
228 239 255
228 239 255
228 239 255
228 239 255
228 239 255
228 239 255
228 239 255
228 239 255
228 239 255
228 239 255
228 239 255
228 239 255
228 239 255
228 239 255
228 239 255
228 239 255
228 239 255
228 239 255
228 239 255
228 239 255
228 239 255
228 239 255
228 239 255
228 240 255
228 240 255
228 240 255
228 240 255
228 240 255
228 240 255
228 240 255
228 240 255
228 240 255
228 240 255
227 239 253
220 233 233
207 222 191
202 218 175
188 208 122
176 199 51
174 197 0
174 198 0
175 198 0
175 198 0
175 198 0
175 198 0
173 197 0
175 198 0
175 198 0
175 198 0
176 198 0
176 199 0
174 198 0
175 198 0
172 197 0
175 198 0
175 198 0
174 198 0
174 198 0
174 198 0
174 198 0
175 198 0
174 198 0
174 198 0
175 198 0
175 198 0
175 198 0
174 198 0
176 199 0
174 197 0
174 198 0
175 198 0
173 197 0
175 198 0
176 198 0
174 198 0
175 198 0
173 197 0
175 198 0
175 198 0
173 197 0
174 197 0
174 198 0
174 198 0
175 198 0
174 197 0
175 198 0
176 199 0
175 198 0
175 198 0
173 197 0
175 198 0
175 198 0
175 198 0
173 197 0
173 197 0
174 198 0
173 197 0
175 198 0
174 198 0
174 198 0
174 197 0
175 198 0
175 198 0
173 197 0
174 197 0
174 198 0
176 199 0
175 198 0
175 198 0
175 198 0
176 199 0
175 198 0
175 198 0
174 197 0
174 198 0
175 198 0
174 198 0
176 199 0
175 198 0
175 198 0
175 198 0
175 198 0
173 197 0
175 198 0
175 198 0
173 197 0
174 198 0
174 198 0
175 198 0
176 198 0
174 198 0
174 198 0
173 197 0
173 197 0
174 197 0
175 198 0
174 198 0
175 198 0
175 198 0
174 198 0
175 198 0
173 197 0
177 199 0
173 197 0
174 198 0
175 198 0
173 197 0
174 198 0
175 198 0
176 198 0
175 198 0
175 198 0
174 197 0
175 198 0
176 199 0
173 197 0
175 198 0
174 197 0
173 197 0
174 198 0
174 198 0
173 197 0
175 198 0
175 198 0
175 198 0
174 197 0
174 198 0
176 199 0
174 197 0
175 198 0
174 197 0
175 198 0
176 199 0
175 198 0
173 197 0
174 198 0
175 198 0
174 198 0
175 198 0
173 197 0
175 198 0
173 197 0
173 197 0
175 198 0
175 198 0
174 197 0
177 199 0
174 197 0
173 197 0
176 199 0
174 197 0
176 198 0
174 198 0
174 197 0
176 199 0
174 198 0
173 197 0
173 197 0
173 197 0
174 198 0
175 198 0
174 198 0
175 198 0
174 198 0
173 197 0
174 197 0
175 198 0
174 198 0
174 198 0
176 199 0
175 198 0
174 198 0
175 198 0
174 198 0
173 197 0
175 198 0
174 197 0
174 198 0
174 198 0
174 198 0
176 199 0
175 198 0
174 197 0
174 198 0
175 198 0
175 198 0
173 197 0
176 199 0
174 197 0
176 199 0
175 198 0
175 198 0
176 199 0
175 198 0
175 198 0
174 198 0
175 198 0
175 198 0
175 198 0
174 198 0
173 197 0
175 198 0
176 199 0
175 198 0
174 197 0
175 198 0
174 198 0
176 199 0
175 198 0
175 198 0
176 199 0
175 198 0
173 197 0
173 197 0
175 198 0
175 198 0
175 198 0
173 197 0
176 198 0
175 198 0
176 199 0
174 198 0
175 198 0
175 198 0
174 198 0
174 198 0
174 198 0
173 197 0
174 198 0
175 198 0
175 198 0
174 197 0
176 198 0
174 198 0
175 198 0
173 197 0
175 198 0
175 198 0
174 197 0
175 198 0
175 198 0
176 199 0
172 197 0
173 197 0
175 198 0
175 198 0
175 198 0
175 198 0
174 197 0
174 198 0
175 198 0
174 198 25
193 212 140
199 216 165
210 225 204
223 236 241
228 239 254
228 240 255
228 240 255
228 240 255
228 240 255
228 240 255
228 240 255
228 240 255
228 240 255
228 240 255
228 240 255
228 239 255
228 239 255
228 239 255
228 239 255
228 239 255
228 239 255
228 239 255
228 239 255
228 239 255
228 239 255
228 239 255
228 239 255
228 239 255
228 239 255
228 239 255
228 239 255
228 239 255
228 239 255
228 239 255
228 239 255
228 239 255
228 239 255
228 239 255
228 239 255
228 239 255
228 239 255
228 239 255
227 239 255
227 239 255
227 239 255
227 239 255
227 239 255
227 239 255
227 239 255
227 239 255
227 239 255
227 239 255
227 239 255
227 239 255
227 239 255
227 239 255
227 239 255
227 239 255
227 239 255
227 239 255
227 239 255
227 239 255
227 239 255
227 239 255
227 239 255
227 239 255
227 239 255
227 239 255
227 239 255
227 239 255
227 239 255
227 239 255
227 239 255
227 239 255
227 239 255
227 239 255
227 239 255
227 239 255
227 239 255
227 239 255
227 239 255
227 239 255
227 239 255
227 239 255
227 239 255
227 239 255
227 239 255
227 239 255
227 239 255
227 239 255
227 239 255
227 239 255
227 239 255
227 239 255
227 239 255
227 239 255
227 239 255
227 239 255
228 239 255
228 239 255
228 239 255
228 239 255
228 239 255
228 239 255
228 239 255
228 239 255
228 239 255
228 239 255
228 239 255
228 239 255
228 239 255
228 239 255
228 239 255
228 239 255
228 239 255
228 239 255
228 239 255
228 239 255
228 239 255
228 239 255
228 239 255
228 239 255
228 239 255
228 239 255
228 239 255
228 240 255
228 240 255
228 240 255
228 240 255
228 240 255
228 240 255
228 240 255
228 240 255
228 240 255
228 240 255
229 240 255
228 239 254
221 234 236
211 225 203
203 220 181
188 207 114
180 201 51
175 198 0
175 198 0
176 199 0
175 198 0
176 198 0
174 198 0
173 197 0
174 197 0
174 197 0
176 199 0
175 198 0
175 198 0
174 198 0
175 198 0
174 198 0
175 198 0
174 198 0
175 198 0
175 198 0
174 197 0
175 198 0
176 199 0
172 197 0
174 198 0
174 198 0
174 198 0
174 198 0
175 198 0
174 198 0
174 198 0
174 198 0
175 198 0
174 197 0
173 197 0
177 199 0
176 198 0
174 197 0
174 198 0
177 199 0
175 198 0
172 197 0
176 199 0
175 198 0
175 198 0
175 198 0
174 197 0
174 198 0
176 198 0
175 198 0
174 197 0
174 198 0
174 198 0
175 198 0
174 198 0
175 198 0
173 197 0
174 198 0
173 197 0
174 197 0
175 198 0
174 197 0
173 197 0
174 198 0
174 197 0
176 199 0
174 198 0
174 198 0
174 198 0
173 197 0
175 198 0
174 197 0
175 198 0
173 197 0
175 198 0
175 198 0
173 197 0
174 198 0
173 196 0
174 198 0
177 199 0
175 198 0
175 198 0
174 197 0
175 198 0
175 198 0
173 197 0
175 198 0
174 198 0
175 198 0
175 198 0
174 197 0
174 198 0
174 198 0
174 198 0
174 197 0
176 199 0
175 198 0
173 197 0
174 198 0
174 198 0
175 198 0
175 198 0
174 198 0
175 198 0
175 198 0
173 197 0
175 198 0
175 198 0
176 199 0
176 199 0
174 198 0
173 197 0
174 197 0
175 198 0
175 198 0
174 198 0
175 198 0
174 198 0
176 199 0
174 197 0
176 198 0
175 198 0
174 198 0
173 197 0
172 196 0
175 198 0
175 198 0
175 198 0
175 198 0
175 198 0
174 197 0
175 198 0
174 198 0
173 197 0
174 198 0
174 198 0
174 198 0
174 198 0
173 197 0
174 197 0
174 198 0
175 198 0
175 198 0
174 197 0
174 198 0
174 197 0
175 198 0
174 198 0
172 197 0
176 199 0
177 199 0
175 198 0
175 198 0
175 198 0
176 199 0
173 197 0
175 198 0
175 198 0
176 199 0
174 198 0
176 199 0
174 197 0
175 198 0
173 197 0
175 198 0
174 198 0
173 197 0
173 197 0
173 197 0
175 198 0
175 198 0
176 199 0
175 198 0
174 198 0
175 198 0
175 198 0
175 198 0
174 198 0
176 199 0
174 198 0
173 197 0
174 198 0
174 198 0
174 198 0
172 197 0
175 198 0
176 199 0
174 197 0
175 198 0
173 197 0
176 199 0
175 198 0
174 198 0
174 198 0
174 198 0
174 198 0
176 198 0
174 198 0
173 197 0
174 198 0
173 197 0
176 199 0
174 198 0
175 198 0
174 198 0
174 198 0
176 199 0
174 197 0
174 198 0
174 198 0
173 197 0
174 198 0
174 198 0
175 198 0
175 198 0
175 198 0
174 197 0
176 199 0
176 198 0
175 198 0
175 198 0
174 198 0
175 198 0
174 197 0
175 198 0
175 198 0
174 198 0
175 198 0
174 198 0
173 197 0
175 198 0
174 198 0
175 198 0
173 197 0
175 198 0
174 197 0
175 198 0
175 198 0
174 198 0
174 198 0
175 198 0
174 197 0
175 198 0
174 198 0
175 198 0
175 198 0
174 198 0
173 197 0
173 197 0
174 198 0
176 199 0
176 199 0
174 198 0
176 199 0
175 198 0
173 197 0
174 198 0
175 198 0
175 198 0
173 197 0
175 198 0
176 199 0
175 198 36
184 205 105
203 219 179
211 225 201
219 232 228
227 238 252
229 240 255
228 240 255
228 240 255
228 240 255
228 240 255
228 240 255
228 240 255
228 240 255
228 240 255
228 240 255
228 240 255
228 239 255
228 239 255
228 239 255
228 239 255
228 239 255
228 239 255
228 239 255
228 239 255
228 239 255
228 239 255
228 239 255
228 239 255
228 239 255
228 239 255
228 239 255
228 239 255
228 239 255
228 239 255
228 239 255
228 239 255
228 239 255
228 239 255
228 239 255
228 239 255
228 239 255
228 239 255
228 239 255
227 239 255
227 239 255
227 239 255
227 239 255
227 239 255
227 239 255
227 239 255
227 239 255
227 239 255
227 239 255
227 239 255
227 239 255
227 239 255
227 239 255
227 239 255
227 239 255
227 239 255
227 239 255
227 239 255
227 239 255
227 239 255
227 239 255
227 239 255
227 239 255
227 239 255
227 239 255
227 239 255
227 239 255
227 239 255
227 239 255
227 239 255
227 239 255
227 239 255
227 239 255
227 239 255
227 239 255
227 239 255
227 239 255
227 239 255
227 239 255
227 239 255
227 239 255
227 239 255
227 239 255
227 239 255
228 239 255
228 239 255
228 239 255
228 239 255
228 239 255
228 239 255
228 239 255
228 239 255
228 239 255
228 239 255
228 239 255
228 239 255
228 239 255
228 239 255
228 239 255
228 239 255
228 239 255
228 239 255
228 239 255
228 239 255
228 239 255
228 239 255
228 239 255
228 239 255
228 239 255
228 239 255
228 239 255
228 240 255
228 240 255
228 240 255
228 240 255
228 240 255
228 240 255
228 240 255
228 240 255
228 240 255
228 240 255
229 240 255
228 239 254
218 231 226
214 228 214
196 214 153
187 207 114
177 200 36
175 198 0
176 199 0
175 198 0
175 198 0
175 198 0
175 198 0
175 198 0
176 199 0
174 198 0
174 198 0
175 198 0
177 199 0
174 197 0
175 198 0
175 198 0
176 198 0
173 197 0
175 198 0
174 198 0
174 198 0
175 198 0
175 198 0
173 197 0
175 198 0
176 199 0
176 198 0
175 198 0
175 198 0
176 199 0
176 199 0
175 198 0
176 198 0
175 198 0
176 199 0
175 198 0
176 199 0
175 198 0
176 198 0
176 199 0
174 197 0
174 198 0
176 199 0
173 197 0
174 198 0
175 198 0
175 198 0
173 197 0
174 198 0
174 198 0
175 198 0
175 198 0
173 197 0
175 198 0
174 198 0
172 197 0
174 198 0
174 198 0
176 199 0
174 198 0
176 198 0
175 198 0
174 197 0
174 197 0
175 198 0
174 198 0
174 198 0
175 198 0
175 198 0
174 197 0
173 197 0
174 197 0
172 197 0
174 197 0
175 198 0
173 197 0
175 198 0
175 198 0
176 198 0
174 198 0
174 198 0
175 198 0
177 199 0
176 199 0
174 198 0
174 197 0
174 197 0
174 197 0
173 197 0
175 198 0
173 197 0
174 198 0
175 198 0
174 197 0
175 198 0
175 198 0
174 198 0
175 198 0
176 198 0
175 198 0
173 197 0
175 198 0
175 198 0
175 198 0
175 198 0
172 196 0
175 198 0
174 197 0
174 198 0
173 197 0
176 199 0
173 197 0
174 198 0
174 198 0
174 198 0
175 198 0
174 198 0
175 198 0
174 197 0
174 198 0
175 198 0
174 198 0
174 197 0
175 198 0
175 198 0
173 197 0
175 198 0
176 199 0
174 198 0
174 197 0
175 198 0
175 198 0
176 198 0
175 198 0
176 199 0
176 199 0
174 197 0
175 198 0
176 199 0
175 198 0
174 197 0
175 198 0
174 198 0
173 197 0
174 198 0
173 197 0
174 198 0
174 197 0
175 198 0
176 198 0
173 197 0
174 198 0
176 198 0
176 199 0
176 198 0
174 198 0
176 198 0
174 198 0
174 198 0
173 197 0
172 197 0
173 197 0
174 198 0
174 198 0
174 198 0
174 198 0
173 197 0
175 198 0
174 198 0
174 197 0
173 197 0
174 198 0
175 198 0
175 198 0
173 197 0
174 198 0
176 198 0
174 198 0
175 198 0
174 198 0
175 198 0
174 198 0
175 198 0
173 197 0
174 197 0
174 198 0
173 197 0
176 199 0
175 198 0
175 198 0
175 198 0
175 198 0
175 198 0
174 197 0
176 198 0
175 198 0
174 198 0
176 198 0
173 197 0
175 198 0
174 198 0
174 198 0
175 198 0
174 197 0
175 198 0
175 198 0
175 198 0
174 197 0
174 197 0
173 197 0
174 198 0
174 197 0
175 198 0
173 197 0
175 198 0
174 197 0
176 198 0
173 197 0
173 197 0
175 198 0
176 199 0
175 198 0
174 198 0
174 197 0
176 199 0
174 198 0
173 197 0
175 198 0
175 198 0
176 199 0
174 198 0
175 198 0
174 198 0
173 197 0
174 197 0
175 198 0
174 198 0
176 199 0
174 198 0
175 198 0
176 198 0
175 198 0
176 199 0
175 198 0
174 197 0
175 198 0
175 198 0
173 197 0
174 198 0
175 198 0
175 198 0
174 197 0
174 198 0
175 198 0
173 197 0
175 198 0
173 197 0
174 197 0
174 198 0
176 199 0
176 198 0
175 198 0
174 198 0
175 198 0
176 198 0
176 199 0
175 198 0
175 198 0
175 198 0
175 198 0
176 198 0
174 198 0
174 197 0
176 199 25
188 208 125
195 214 153
206 222 193
218 231 224
227 239 253
229 240 255
228 240 255
228 240 255
228 240 255
228 240 255
228 240 255
228 240 255
228 240 255
228 240 255
228 240 255
228 240 255
228 239 255
228 239 255
228 239 255
228 239 255
228 239 255
228 239 255
228 239 255
228 239 255
228 239 255
228 239 255
228 239 255
228 239 255
228 239 255
228 239 255
228 239 255
228 239 255
228 239 255
228 239 255
228 239 255
228 239 255
228 239 255
228 239 255
228 239 255
228 239 255
228 239 255
228 239 255
228 239 255
227 239 255
227 239 255
227 239 255
227 239 255
227 239 255
227 239 255
227 239 255
227 239 255
227 239 255
227 239 255
227 239 255
227 239 255
227 239 255
227 239 255
227 239 255
227 239 255
227 239 255
227 239 255
227 239 255
227 239 255
227 239 255
227 239 255
227 239 255
227 239 255
227 239 255
227 239 255
227 239 255
227 239 255
227 239 255
227 239 255
227 239 255
227 239 255
227 239 255
227 239 255
228 239 255
228 239 255
228 239 255
228 239 255
228 239 255
228 239 255
228 239 255
228 239 255
228 239 255
228 239 255
228 239 255
228 239 255
228 239 255
228 239 255
228 239 255
228 239 255
228 239 255
228 239 255
228 239 255
228 239 255
228 239 255
228 239 255
228 239 255
228 239 255
228 239 255
228 239 255
228 239 255
228 240 255
228 240 255
228 240 255
228 240 255
228 240 255
228 240 255
228 240 255
228 240 255
228 240 255
228 240 255
228 240 255
229 240 255
229 240 255
222 234 236
211 226 206
198 215 159
188 208 120
178 200 57
175 198 0
176 199 0
174 198 0
174 198 0
172 197 0
173 197 0
175 198 0
175 198 0
174 198 0
174 198 0
175 198 0
176 199 0
176 199 0
174 198 0
175 198 0
174 198 0
174 198 0
173 197 0
174 198 0
174 197 0
174 197 0
174 197 0
176 198 0
174 198 0
174 198 0
174 198 0
175 198 0
175 198 0
175 198 0
174 197 0
173 197 0
174 198 0
173 197 0
173 197 0
176 198 0
174 198 0
174 198 0
173 197 0
174 198 0
176 198 0
174 198 0
175 198 0
173 197 0
174 198 0
175 198 0
176 198 0
174 198 0
174 198 0
174 198 0
173 197 0
173 197 0
175 198 0
175 198 0
173 197 0
173 197 0
176 198 0
174 197 0
174 198 0
175 198 0
174 198 0
174 198 0
173 197 0
174 198 0
174 198 0
175 198 0
174 198 0
174 197 0
177 199 0
174 198 0
173 197 0
174 198 0
176 199 0
174 197 0
173 197 0
173 197 0
175 198 0
174 197 0
175 198 0
176 199 0
174 197 0
174 198 0
175 198 0
173 197 0
175 198 0
174 197 0
175 198 0
175 198 0
175 198 0
173 197 0
174 198 0
175 198 0
174 197 0
175 198 0
176 198 0
174 198 0
174 197 0
174 198 0
175 198 0
174 198 0
173 197 0
175 198 0
175 198 0
174 197 0
175 198 0
175 198 0
175 198 0
175 198 0
175 198 0
173 197 0
173 197 0
174 197 0
174 197 0
173 197 0
174 198 0
173 197 0
174 197 0
174 197 0
175 198 0
175 198 0
175 198 0
174 197 0
175 198 0
175 198 0
173 197 0
174 197 0
175 198 0
173 197 0
173 197 0
176 199 0
172 196 0
175 198 0
174 198 0
177 199 0
175 198 0
173 197 0
175 198 0
173 197 0
175 198 0
175 198 0
174 198 0
175 198 0
175 198 0
174 197 0
174 198 0
175 198 0
176 199 0
176 199 0
173 197 0
174 198 0
174 197 0
175 198 0
174 197 0
174 198 0
174 198 0
174 198 0
175 198 0
177 199 0
172 196 0
174 198 0
175 198 0
175 198 0
175 198 0
175 198 0
173 197 0
173 197 0
175 198 0
172 197 0
172 197 0
173 197 0
175 198 0
175 198 0
174 198 0
176 198 0
174 197 0
176 198 0
176 199 0
174 198 0
175 198 0
174 198 0
175 198 0
175 198 0
174 197 0
175 198 0
175 198 0
174 198 0
174 198 0
175 198 0
175 198 0
175 198 0
175 198 0
174 198 0
174 198 0
174 197 0
175 198 0
176 198 0
175 198 0
174 198 0
176 199 0
175 198 0
174 198 0
175 198 0
173 197 0
176 199 0
173 197 0
175 198 0
176 198 0
174 198 0
174 198 0
175 198 0
174 198 0
174 198 0
175 198 0
174 198 0
175 198 0
174 198 0
174 198 0
177 199 0
175 198 0
174 197 0
174 197 0
176 199 0
174 197 0
174 198 0
177 199 0
177 199 0
176 198 0
176 199 0
175 198 0
175 198 0
174 197 0
175 198 0
175 198 0
175 198 0
176 199 0
174 197 0
174 197 0
174 197 0
173 197 0
175 198 0
174 198 0
174 198 0
175 198 0
174 198 0
174 198 0
174 198 0
175 198 0
175 198 0
174 197 0
175 198 0
174 198 0
175 198 0
175 198 0
175 198 0
174 198 0
173 197 0
173 197 0
177 199 0
173 197 0
174 198 0
175 198 0
174 198 0
175 198 0
176 199 0
174 198 0
175 198 0
176 199 0
175 198 0
176 199 0
173 197 0
174 198 0
172 196 0
176 199 0
175 198 0
176 198 0
174 198 0
175 198 0
174 198 0
176 199 0
175 198 0
175 198 0
176 199 0
175 198 0
177 199 44
187 207 114
201 218 175
209 224 199
221 233 233
228 239 254
229 240 255
229 240 255
228 240 255
228 240 255
228 240 255
228 240 255
228 240 255
228 240 255
228 240 255
228 240 255
228 240 255
228 240 255
228 239 255
228 239 255
228 239 255
228 239 255
228 239 255
228 239 255
228 239 255
228 239 255
228 239 255
228 239 255
228 239 255
228 239 255
228 239 255
228 239 255
228 239 255
228 239 255
228 239 255
228 239 255
228 239 255
228 239 255
228 239 255
228 239 255
228 239 255
228 239 255
228 239 255
228 239 255
228 239 255
227 239 255
227 239 255
227 239 255
227 239 255
227 239 255
227 239 255
227 239 255
227 239 255
227 239 255
227 239 255
227 239 255
227 239 255
227 239 255
227 239 255
227 239 255
227 239 255
227 239 255
227 239 255
227 239 255
227 239 255
227 239 255
227 239 255
228 239 255
228 239 255
228 239 255
228 239 255
228 239 255
228 239 255
228 239 255
228 239 255
228 239 255
228 239 255
228 239 255
228 239 255
228 239 255
228 239 255
228 239 255
228 239 255
228 239 255
228 239 255
228 239 255
228 239 255
228 239 255
228 239 255
228 239 255
228 239 255
228 239 255
228 239 255
228 239 255
228 239 255
228 240 255
228 240 255
228 240 255
228 240 255
228 240 255
228 240 255
228 240 255
228 240 255
228 240 255
228 240 255
229 240 255
229 240 255
228 239 254
222 234 236
211 226 206
196 214 157
192 211 137
177 200 57
174 197 0
175 198 0
175 198 0
177 199 0
175 198 0
176 199 0
174 198 0
176 199 0
174 197 0
174 198 0
174 198 0
173 197 0
174 198 0
176 199 0
174 197 0
174 198 0
176 198 0
175 198 0
174 197 0
175 198 0
176 199 0
175 198 0
174 197 0
175 198 0
176 199 0
175 198 0
174 198 0
175 198 0
174 198 0
174 198 0
174 198 0
174 198 0
174 198 0
173 197 0
175 198 0
174 198 0
174 198 0
173 197 0
175 198 0
175 198 0
176 198 0
175 198 0
175 198 0
175 198 0
174 198 0
175 198 0
175 198 0
172 197 0
175 198 0
174 198 0
175 198 0
173 197 0
175 198 0
176 198 0
175 198 0
175 198 0
173 197 0
174 197 0
174 198 0
174 198 0
175 198 0
174 198 0
175 198 0
173 197 0
174 197 0
176 199 0
174 197 0
175 198 0
175 198 0
175 198 0
175 198 0
176 198 0
175 198 0
175 198 0
175 198 0
174 197 0
174 198 0
175 198 0
175 198 0
175 198 0
175 198 0
176 199 0
174 198 0
174 198 0
175 198 0
174 198 0
176 199 0
174 198 0
174 197 0
173 197 0
173 197 0
174 198 0
175 198 0
174 197 0
174 197 0
175 198 0
174 197 0
174 198 0
175 198 0
174 198 0
174 198 0
173 197 0
176 199 0
173 197 0
175 198 0
175 198 0
174 197 0
172 196 0
174 198 0
176 199 0
174 198 0
175 198 0
175 198 0
175 198 0
173 197 0
177 199 0
174 197 0
174 197 0
175 198 0
173 197 0
174 198 0
175 198 0
175 198 0
175 198 0
174 198 0
173 197 0
174 197 0
174 198 0
175 198 0
175 198 0
176 198 0
175 198 0
175 198 0
174 197 0
174 198 0
175 198 0
172 196 0
174 198 0
174 197 0
175 198 0
177 199 0
173 196 0
174 197 0
175 198 0
175 198 0
175 197 0
172 197 0
175 198 0
174 197 0
175 198 0
175 198 0
174 198 0
174 198 0
174 198 0
174 198 0
173 197 0
175 198 0
176 198 0
174 198 0
174 198 0
173 197 0
175 198 0
173 197 0
175 198 0
174 197 0
175 198 0
175 198 0
175 198 0
176 198 0
175 198 0
174 198 0
174 198 0
175 198 0
174 198 0
173 197 0
175 198 0
174 197 0
175 198 0
176 199 0
174 197 0
175 198 0
175 198 0
174 198 0
175 198 0
174 197 0
174 198 0
174 198 0
174 198 0
174 197 0
175 197 0
174 198 0
175 198 0
173 197 0
174 198 0
174 197 0
174 197 0
175 198 0
175 198 0
175 198 0
174 198 0
175 198 0
175 198 0
175 198 0
174 197 0
176 198 0
175 198 0
173 197 0
175 198 0
175 198 0
175 198 0
173 197 0
175 198 0
175 198 0
175 198 0
175 198 0
174 197 0
174 198 0
174 198 0
173 197 0
175 198 0
175 198 0
174 197 0
175 198 0
176 198 0
174 198 0
174 197 0
174 198 0
174 198 0
176 198 0
176 198 0
174 198 0
174 197 0
175 198 0
174 198 0
174 197 0
174 197 0
175 198 0
175 198 0
175 198 0
174 198 0
175 198 0
174 198 0
175 198 0
175 198 0
173 197 0
176 199 0
174 198 0
175 198 0
175 198 0
174 198 0
174 198 0
175 198 0
177 199 0
173 197 0
174 198 0
176 199 0
174 197 0
174 198 0
173 197 0
175 198 0
173 197 0
175 198 0
175 198 0
174 197 0
174 197 0
176 199 0
175 198 0
175 198 0
175 198 0
174 198 0
174 198 0
176 199 0
173 197 0
176 198 0
175 198 0
175 198 0
173 197 0
175 198 0
174 198 0
175 198 0
175 198 0
175 198 0
176 198 0
174 198 0
173 197 0
176 199 0
173 197 0
176 199 0
173 197 0
176 198 0
175 198 0
174 198 0
178 200 44
186 206 108
199 216 159
211 225 201
220 233 231
228 239 254
229 240 255
229 240 255
228 240 255
228 240 255
228 240 255
228 240 255
228 240 255
228 240 255
228 240 255
228 240 255
228 240 255
228 240 255
228 239 255
228 239 255
228 239 255
228 239 255
228 239 255
228 239 255
228 239 255
228 239 255
228 239 255
228 239 255
228 239 255
228 239 255
228 239 255
228 239 255
228 239 255
228 239 255
228 239 255
228 239 255
228 239 255
228 239 255
228 239 255
228 239 255
228 239 255
228 239 255
228 239 255
228 239 255
228 239 255
228 239 255
227 239 255
227 239 255
227 239 255
227 239 255
227 239 255
227 239 255
227 239 255
227 239 255
227 239 255
227 239 255
228 239 255
228 239 255
228 239 255
228 239 255
228 239 255
228 239 255
228 239 255
228 239 255
228 239 255
228 239 255
228 239 255
228 239 255
228 239 255
228 239 255
228 239 255
228 239 255
228 239 255
228 239 255
228 239 255
228 239 255
228 239 255
228 239 255
228 239 255
228 239 255
228 239 255
228 239 255
228 239 255
228 239 255
228 239 255
228 240 255
228 240 255
228 240 255
228 240 255
228 240 255
228 240 255
228 240 255
228 240 255
228 240 255
228 240 255
229 240 255
229 240 255
229 240 255
224 236 245
216 230 223
203 220 181
190 210 130
179 201 67
174 198 0
175 198 0
176 199 0
175 198 0
174 198 0
174 198 0
174 198 0
175 198 0
174 198 0
176 198 0
175 198 0
174 197 0
175 198 0
175 198 0
173 197 0
174 198 0
174 197 0
174 197 0
176 199 0
176 199 0
175 198 0
176 199 0
176 199 0
175 198 0
176 199 0
175 198 0
175 198 0
175 198 0
174 197 0
174 198 0
174 198 0
174 198 0
174 197 0
175 198 0
175 198 0
172 197 0
176 198 0
175 198 0
175 198 0
173 197 0
175 198 0
173 197 0
175 198 0
173 197 0
174 198 0
174 198 0
175 198 0
174 197 0
175 198 0
176 198 0
174 198 0
174 198 0
175 198 0
174 198 0
174 197 0
175 198 0
176 199 0
174 198 0
174 198 0
175 198 0
175 198 0
173 197 0
173 197 0
174 198 0
174 198 0
175 198 0
173 197 0
175 198 0
175 198 0
174 198 0
175 198 0
174 197 0
173 197 0
175 198 0
175 198 0
174 198 0
176 199 0
174 197 0
174 198 0
174 198 0
174 198 0
174 198 0
175 198 0
174 197 0
176 198 0
173 197 0
175 198 0
176 199 0
176 198 0
175 198 0
175 198 0
173 197 0
174 198 0
176 198 0
174 198 0
176 199 0
175 198 0
175 198 0
176 198 0
176 199 0
175 198 0
176 199 0
172 196 0
174 198 0
173 197 0
175 198 0
175 198 0
175 198 0
174 197 0
174 198 0
174 198 0
174 198 0
174 198 0
173 197 0
176 198 0
174 197 0
173 197 0
176 199 0
174 198 0
175 198 0
174 198 0
174 197 0
175 198 0
174 197 0
174 198 0
175 198 0
174 198 0
174 198 0
176 199 0
174 198 0
174 197 0
174 197 0
173 197 0
175 198 0
174 198 0
174 197 0
175 197 0
174 198 0
174 198 0
174 198 0
174 198 0
174 197 0
176 198 0
174 197 0
173 197 0
174 198 0
174 198 0
176 199 0
175 198 0
176 199 0
174 198 0
173 197 0
173 197 0
173 197 0
173 197 0
173 197 0
174 198 0
177 199 0
175 198 0
174 198 0
173 197 0
174 197 0
173 197 0
173 197 0
174 198 0
173 197 0
175 198 0
174 197 0
174 197 0
174 198 0
174 197 0
175 198 0
176 198 0
175 198 0
174 198 0
174 197 0
175 198 0
174 198 0
173 197 0
175 198 0
176 198 0
174 198 0
173 197 0
175 198 0
174 197 0
176 198 0
175 198 0
173 197 0
175 198 0
173 197 0
176 198 0
173 197 0
174 198 0
176 198 0
173 197 0
175 198 0
175 198 0
174 198 0
173 197 0
175 198 0
174 197 0
174 198 0
174 197 0
174 198 0
175 198 0
175 198 0
175 198 0
174 198 0
173 197 0
177 199 0
174 197 0
174 197 0
175 198 0
174 198 0
175 198 0
176 199 0
173 197 0
175 198 0
172 196 0
174 198 0
174 197 0
176 199 0
176 198 0
175 198 0
174 198 0
174 198 0
175 198 0
175 198 0
174 198 0
175 198 0
174 198 0
173 197 0
174 197 0
176 198 0
174 198 0
175 198 0
175 198 0
175 198 0
175 198 0
174 198 0
174 198 0
174 198 0
174 198 0
174 198 0
173 197 0
176 198 0
174 198 0
174 198 0
176 199 0
174 198 0
173 197 0
175 198 0
175 198 0
174 197 0
174 198 0
176 199 0
173 197 0
174 198 0
173 197 0
172 197 0
176 199 0
174 198 0
172 196 0
175 198 0
174 198 0
175 198 0
174 198 0
176 199 0
173 197 0
176 199 0
174 198 0
175 198 0
175 198 0
174 198 0
175 198 0
175 198 0
175 198 0
174 197 0
174 197 0
174 197 0
174 197 0
175 198 0
174 198 0
175 198 0
174 197 0
176 199 0
174 198 0
177 199 0
176 198 0
175 198 0
174 198 0
173 197 0
175 198 0
176 199 0
175 198 0
175 198 0
174 198 0
174 197 0
174 198 0
176 198 0
176 199 0
173 197 0
182 203 88
194 212 142
200 217 169
214 228 212
225 237 245
229 240 255
229 240 255
229 240 255
228 240 255
228 240 255
228 240 255
228 240 255
228 240 255
228 240 255
228 240 255
228 240 255
228 240 255
228 240 255
228 239 255
228 239 255
228 239 255
228 239 255
228 239 255
228 239 255
228 239 255
228 239 255
228 239 255
228 239 255
228 239 255
228 239 255
228 239 255
228 239 255
228 239 255
228 239 255
228 239 255
228 239 255
228 239 255
228 239 255
228 239 255
228 239 255
228 239 255
228 239 255
228 239 255
228 239 255
228 239 255
228 239 255
227 239 255
227 239 255
227 239 255
228 239 255
228 239 255
228 239 255
228 239 255
228 239 255
228 239 255
228 239 255
228 239 255
228 239 255
228 239 255
228 239 255
228 239 255
228 239 255
228 239 255
228 239 255
228 239 255
228 239 255
228 239 255
228 239 255
228 239 255
228 239 255
228 239 255
228 239 255
228 239 255
228 239 255
228 239 255
228 240 255
228 240 255
228 240 255
228 240 255
228 240 255
228 240 255
228 240 255
228 240 255
228 240 255
228 240 255
229 240 255
229 240 255
229 240 255
228 239 254
217 230 220
208 223 193
188 208 117
180 202 80
175 198 25
173 197 0
174 197 0
176 199 0
175 198 0
174 198 0
175 198 0
175 198 0
177 199 0
176 198 0
176 199 0
174 197 0
174 198 0
175 198 0
174 198 0
176 199 0
175 198 0
174 198 0
175 198 0
175 198 0
175 198 0
175 198 0
174 198 0
174 198 0
176 198 0
175 198 0
174 198 0
174 198 0
175 198 0
173 197 0
174 197 0
175 198 0
175 198 0
174 198 0
175 198 0
174 198 0
173 197 0
174 198 0
176 199 0
174 197 0
177 199 0
174 197 0
175 198 0
174 197 0
173 197 0
174 197 0
176 199 0
175 198 0
175 198 0
175 198 0
175 198 0
174 198 0
176 199 0
175 198 0
174 198 0
174 197 0
173 197 0
175 198 0
173 197 0
175 198 0
175 198 0
173 197 0
175 198 0
174 197 0
175 198 0
175 198 0
174 198 0
174 197 0
175 198 0
172 197 0
177 199 0
175 198 0
173 197 0
175 198 0
174 197 0
174 198 0
174 197 0
174 197 0
176 199 0
175 198 0
175 198 0
174 198 0
174 197 0
174 197 0
174 198 0
174 197 0
175 198 0
175 198 0
175 198 0
174 198 0
176 199 0
175 198 0
172 197 0
174 198 0
174 198 0
174 198 0
173 197 0
174 197 0
175 198 0
174 198 0
174 198 0
175 198 0
175 198 0
175 198 0
176 199 0
175 198 0
174 198 0
174 198 0
175 198 0
175 198 0
174 197 0
173 196 0
174 197 0
174 197 0
174 197 0
175 198 0
174 197 0
173 197 0
173 197 0
174 197 0
174 197 0
175 198 0
174 197 0
174 197 0
174 197 0
173 197 0
175 198 0
172 197 0
175 198 0
174 197 0
175 198 0
174 198 0
175 198 0
174 198 0
174 197 0
172 196 0
176 199 0
172 196 0
174 197 0
173 196 0
173 197 0
175 198 0
174 198 0
174 197 0
175 198 0
173 197 0
175 198 0
174 197 0
174 197 0
175 198 0
173 197 0
173 197 0
174 198 0
175 198 0
173 197 0
176 198 0
175 198 0
176 199 0
174 198 0
176 198 0
174 197 0
175 198 0
174 197 0
173 197 0
176 198 0
175 198 0
174 197 0
174 197 0
174 198 0
174 198 0
174 197 0
175 198 0
174 198 0
175 198 0
175 198 0
174 197 0
173 197 0
174 197 0
173 197 0
176 199 0
173 197 0
175 198 0
174 198 0
174 197 0
175 198 0
173 197 0
175 198 0
175 198 0
174 198 0
174 198 0
174 198 0
174 197 0
174 198 0
174 198 0
174 198 0
174 198 0
175 198 0
173 197 0
174 197 0
174 198 0
174 197 0
174 197 0
174 198 0
174 198 0
174 198 0
177 199 0
176 199 0
175 198 0
175 198 0
173 197 0
173 197 0
175 198 0
173 197 0
175 198 0
174 197 0
175 198 0
173 197 0
174 198 0
178 200 0
172 197 0
174 197 0
173 197 0
174 198 0
174 197 0
173 197 0
176 198 0
175 198 0
174 198 0
174 198 0
175 198 0
175 198 0
176 199 0
175 198 0
173 197 0
173 197 0
172 196 0
176 199 0
175 198 0
176 198 0
175 198 0
174 198 0
176 198 0
174 198 0
173 197 0
175 198 0
175 198 0
174 198 0
174 198 0
175 198 0
176 199 0
174 197 0
175 198 0
174 198 0
173 197 0
174 198 0
176 198 0
174 198 0
172 197 0
174 198 0
174 198 0
175 198 0
173 197 0
174 197 0
175 198 0
174 198 0
173 197 0
174 198 0
173 197 0
175 198 0
175 198 0
174 198 0
174 198 0
175 198 0
174 198 0
174 197 0
173 197 0
174 198 0
175 198 0
173 197 0
174 198 0
174 198 0
174 198 0
175 198 0
176 198 0
175 198 0
175 198 0
176 199 0
174 198 0
175 198 0
175 198 0
174 197 0
175 198 0
176 199 0
174 198 0
174 198 0
176 198 0
176 198 0
175 198 0
175 198 0
176 199 0
174 198 0
174 198 0
176 199 0
175 198 0
174 198 0
174 197 0
176 199 0
175 198 0
173 197 0
175 198 0
175 198 0
176 199 0
184 205 105
193 212 142
202 219 179
221 234 234
226 238 249
229 240 255
229 240 255
229 240 255
228 240 255
228 240 255
228 240 255
228 240 255
228 240 255
228 240 255
228 240 255
228 240 255
228 240 255
228 240 255
228 239 255
228 239 255
228 239 255
228 239 255
228 239 255
228 239 255
228 239 255
228 239 255
228 239 255
228 239 255
228 239 255
228 239 255
228 239 255
228 239 255
228 239 255
228 239 255
228 239 255
228 239 255
228 239 255
228 239 255
228 239 255
228 239 255
228 239 255
228 239 255
228 239 255
228 239 255
228 239 255
228 239 255
228 239 255
228 239 255
228 239 255
228 239 255
228 239 255
228 239 255
228 239 255
228 239 255
228 239 255
228 239 255
228 239 255
228 239 255
228 239 255
228 239 255
228 239 255
228 239 255
228 239 255
228 239 255
228 240 255
228 240 255
228 240 255
228 240 255
228 240 255
228 240 255
228 240 255
228 240 255
228 240 255
228 240 255
229 240 255
229 240 255
229 240 255
229 240 255
229 240 255
222 235 240
212 227 207
202 219 179
186 207 114
178 200 57
176 199 0
175 198 0
174 198 0
175 198 0
175 198 0
176 199 0
175 198 0
176 199 0
174 198 0
174 198 0
174 198 0
175 198 0
174 198 0
176 199 0
175 198 0
174 198 0
173 197 0
175 198 0
175 198 0
175 198 0
174 198 0
175 198 0
175 198 0
175 198 0
176 199 0
175 198 0
173 197 0
174 197 0
174 198 0
174 197 0
175 198 0
175 198 0
174 198 0
175 198 0
174 198 0
176 199 0
174 198 0
176 199 0
175 198 0
175 198 0
175 198 0
174 198 0
175 198 0
176 198 0
176 198 0
175 198 0
175 198 0
175 198 0
173 197 0
175 198 0
173 197 0
174 197 0
174 198 0
176 198 0
173 197 0
174 198 0
174 198 0
175 198 0
174 198 0
174 197 0
174 198 0
175 198 0
177 199 0
174 197 0
174 197 0
177 199 0
176 198 0
175 198 0
174 198 0
174 198 0
174 198 0
174 198 0
175 198 0
175 198 0
175 198 0
176 199 0
172 196 0
176 199 0
173 197 0
176 199 0
175 198 0
176 198 0
174 198 0
174 198 0
174 198 0
174 198 0
175 198 0
175 198 0
174 198 0
175 198 0
174 198 0
174 198 0
175 198 0
175 198 0
176 199 0
174 198 0
174 197 0
174 198 0
174 197 0
173 196 0
174 197 0
176 198 0
174 197 0
172 197 0
175 198 0
175 198 0
175 198 0
175 198 0
174 198 0
175 198 0
175 198 0
174 197 0
175 198 0
175 198 0
175 198 0
174 197 0
175 198 0
175 198 0
174 198 0
175 198 0
173 197 0
175 198 0
175 198 0
174 197 0
176 199 0
175 198 0
174 197 0
174 198 0
174 197 0
174 197 0
174 198 0
175 198 0
175 198 0
175 198 0
175 198 0
173 197 0
174 198 0
175 198 0
174 198 0
172 197 0
173 197 0
176 199 0
173 197 0
175 198 0
174 198 0
174 198 0
173 197 0
175 198 0
175 198 0
175 198 0
173 197 0
174 197 0
175 198 0
174 197 0
173 197 0
172 197 0
173 197 0
175 198 0
175 198 0
174 198 0
174 198 0
175 198 0
175 198 0
174 198 0
176 199 0
175 198 0
175 197 0
176 199 0
174 198 0
174 197 0
172 196 0
174 198 0
173 197 0
172 196 0
174 198 0
174 198 0
173 197 0
173 197 0
174 197 0
173 197 0
172 196 0
174 197 0
173 197 0
175 198 0
174 197 0
175 198 0
173 197 0
174 197 0
174 197 0
174 197 0
175 198 0
176 199 0
176 199 0
176 199 0
175 198 0
175 198 0
175 198 0
174 198 0
175 198 0
173 197 0
176 198 0
172 195 0
174 198 0
175 198 0
174 198 0
175 198 0
174 197 0
175 198 0
175 198 0
175 198 0
174 197 0
175 198 0
175 198 0
175 198 0
173 197 0
174 197 0
174 198 0
175 198 0
176 199 0
174 198 0
174 198 0
173 197 0
176 198 0
174 198 0
174 197 0
173 197 0
175 198 0
173 197 0
174 197 0
174 198 0
175 198 0
174 198 0
174 198 0
176 198 0
174 197 0
174 198 0
173 197 0
174 198 0
174 197 0
175 198 0
174 197 0
174 198 0
175 198 0
174 197 0
174 197 0
175 198 0
172 197 0
172 197 0
176 198 0
174 198 0
175 198 0
174 198 0
175 198 0
173 197 0
174 198 0
174 198 0
174 198 0
175 198 0
174 198 0
173 197 0
175 198 0
175 198 0
172 197 0
175 198 0
175 198 0
174 198 0
174 198 0
175 198 0
174 198 0
174 198 0
174 198 0
176 198 0
176 198 0
174 198 0
174 198 0
171 196 0
173 197 0
175 198 0
173 197 0
174 198 0
175 198 0
174 198 0
175 198 0
175 198 0
175 198 0
174 198 0
176 199 0
174 198 0
175 198 0
174 198 0
173 197 0
173 197 0
175 198 0
174 198 0
175 198 0
175 198 0
175 198 0
175 198 0
174 198 0
174 198 0
175 198 0
174 197 0
175 198 0
177 199 0
174 198 0
175 198 0
176 199 0
174 198 0
175 198 0
175 198 0
174 198 0
175 198 0
175 198 0
174 198 0
174 198 0
175 198 0
174 198 0
173 197 0
174 198 0
175 198 0
173 197 25
181 203 84
198 215 161
210 225 198
222 235 238
229 240 255
229 240 255
229 240 255
229 240 255
229 240 255
228 240 255
228 240 255
228 240 255
228 240 255
228 240 255
228 240 255
228 240 255
228 240 255
228 240 255
228 240 255
228 239 255
228 239 255
228 239 255
228 239 255
228 239 255
228 239 255
228 239 255
228 239 255
228 239 255
228 239 255
228 239 255
228 239 255
228 239 255
228 239 255
228 239 255
228 239 255
228 239 255
228 239 255
228 239 255
228 239 255
228 239 255
228 239 255
228 239 255
228 239 255
228 239 255
228 239 255
228 239 255
228 239 255
228 239 255
228 239 255
228 239 255
228 239 255
228 239 255
228 239 255
228 239 255
228 240 255
228 240 255
228 240 255
228 240 255
228 240 255
228 240 255
228 240 255
228 240 255
228 240 255
228 240 255
229 240 255
229 240 255
229 240 255
229 240 255
229 240 255
225 237 245
216 230 221
204 220 181
189 209 128
179 201 72
174 198 0
175 198 0
174 197 0
174 198 0
174 198 0
175 198 0
174 198 0
175 198 0
176 199 0
175 198 0
173 197 0
175 198 0
175 198 0
177 199 0
172 197 0
172 197 0
176 199 0
174 198 0
174 198 0
174 197 0
176 199 0
175 198 0
175 198 0
174 198 0
175 198 0
175 198 0
174 198 0
174 198 0
175 198 0
173 197 0
175 198 0
173 197 0
175 198 0
175 198 0
175 198 0
175 198 0
176 199 0
175 198 0
173 197 0
175 198 0
176 198 0
175 198 0
172 197 0
174 197 0
173 197 0
175 198 0
175 198 0
174 197 0
175 198 0
174 198 0
174 198 0
174 198 0
174 198 0
175 198 0
174 198 0
175 198 0
172 197 0
175 198 0
176 199 0
176 198 0
175 198 0
175 198 0
175 198 0
174 197 0
174 197 0
174 198 0
174 198 0
175 198 0
174 197 0
174 198 0
175 198 0
175 198 0
175 198 0
175 198 0
173 197 0
175 198 0
174 197 0
175 198 0
173 197 0
173 197 0
173 197 0
174 197 0
174 197 0
174 197 0
176 198 0
174 197 0
175 198 0
175 198 0
174 198 0
174 198 0
175 198 0
176 199 0
174 198 0
176 199 0
174 197 0
176 198 0
175 198 0
175 198 0
174 197 0
174 198 0
173 197 0
176 199 0
174 198 0
175 198 0
173 197 0
174 198 0
174 197 0
173 197 0
173 197 0
175 198 0
175 198 0
176 198 0
173 197 0
174 198 0
175 198 0
175 198 0
174 198 0
174 197 0
174 198 0
175 198 0
175 198 0
176 198 0
173 197 0
173 197 0
175 198 0
173 197 0
174 197 0
173 197 0
175 198 0
176 199 0
174 197 0
174 197 0
174 198 0
173 196 0
174 197 0
174 197 0
173 197 0
175 198 0
173 197 0
173 197 0
175 198 0
175 198 0
173 197 0
176 198 0
174 198 0
175 197 0
173 197 0
174 198 0
176 199 0
175 198 0
175 198 0
173 196 0
174 197 0
174 198 0
174 198 0
173 197 0
173 197 0
172 196 0
175 198 0
174 198 0
173 197 0
174 198 0
174 197 0
174 197 0
173 196 0
176 198 0
174 197 0
174 198 0
174 198 0
175 198 0
174 197 0
175 198 0
174 198 0
174 197 0
172 197 0
174 198 0
175 198 0
175 198 0
174 198 0
174 197 0
175 198 0
171 196 0
175 198 0
173 197 0
174 198 0
174 198 0
173 197 0
175 198 0
174 198 0
174 197 0
175 198 0
173 197 0
175 198 0
173 197 0
175 198 0
174 198 0
173 197 0
174 198 0
173 197 0
174 197 0
173 197 0
174 198 0
174 197 0
174 198 0
175 198 0
174 198 0
173 197 0
176 199 0
175 198 0
176 199 0
175 198 0
174 197 0
175 198 0
175 198 0
174 197 0
175 198 0
172 197 0
174 197 0
174 198 0
174 198 0
173 197 0
174 198 0
177 199 0
175 198 0
175 198 0
175 198 0
176 198 0
173 197 0
172 197 0
174 198 0
175 198 0
174 198 0
177 199 0
176 198 0
175 198 0
175 198 0
175 198 0
175 198 0
175 198 0
175 198 0
174 198 0
174 198 0
174 198 0
174 197 0
176 199 0
172 197 0
174 198 0
172 197 0
174 198 0
173 197 0
174 198 0
175 198 0
175 198 0
174 198 0
175 198 0
175 198 0
172 196 0
173 197 0
174 197 0
174 197 0
174 198 0
174 198 0
172 197 0
173 197 0
175 198 0
175 198 0
175 198 0
175 198 0
174 198 0
175 198 0
174 197 0
174 198 0
176 198 0
175 198 0
174 198 0
176 199 0
174 198 0
173 197 0
176 199 0
174 198 0
175 198 0
175 198 0
175 198 0
173 197 0
175 198 0
175 198 0
174 198 0
174 197 0
174 198 0
173 197 0
175 198 0
174 198 0
175 198 0
175 198 0
175 198 0
174 198 0
174 197 0
175 198 0
174 197 0
175 198 0
174 198 0
177 199 0
175 198 0
175 198 0
174 197 0
176 198 0
174 198 0
174 197 0
175 198 0
176 198 0
176 198 0
175 198 0
174 198 0
173 197 0
175 198 0
174 198 0
174 198 0
175 198 0
174 198 0
174 198 0
174 198 0
175 198 0
174 198 0
174 197 0
173 197 0
174 198 0
174 198 0
175 198 0
175 198 0
175 198 0
178 200 57
193 212 144
207 223 193
216 230 220
226 237 248
229 240 255
229 240 255
229 240 255
229 240 255
229 240 255
228 240 255
228 240 255
228 240 255
228 240 255
228 240 255
228 240 255
228 240 255
228 240 255
228 240 255
228 240 255
228 239 255
228 239 255
228 239 255
228 239 255
228 239 255
228 239 255
228 239 255
228 239 255
228 239 255
228 239 255
228 239 255
228 239 255
228 239 255
228 239 255
228 239 255
228 239 255
228 239 255
228 239 255
228 239 255
228 239 255
228 239 255
228 239 255
228 239 255
228 239 255
228 239 255
228 240 255
228 240 255
228 240 255
228 240 255
228 240 255
228 240 255
228 240 255
228 240 255
228 240 255
228 240 255
229 240 255
229 240 255
229 240 255
229 240 255
229 240 255
228 239 253
221 234 236
211 226 204
199 216 165
185 206 105
177 199 0
175 198 0
175 198 0
175 198 0
174 198 0
175 198 0
175 198 0
175 198 0
176 198 0
175 198 0
176 199 0
175 198 0
175 198 0
174 198 0
175 198 0
174 198 0
174 198 0
175 198 0
175 198 0
173 197 0
176 199 0
174 198 0
173 197 0
175 198 0
176 199 0
174 198 0
176 199 0
175 198 0
175 198 0
174 198 0
174 198 0
174 198 0
174 198 0
173 197 0
174 198 0
175 198 0
175 198 0
175 198 0
173 197 0
174 198 0
173 197 0
174 197 0
175 198 0
173 197 0
174 198 0
174 198 0
176 198 0
174 198 0
174 198 0
175 198 0
175 198 0
175 198 0
175 198 0
175 198 0
175 198 0
173 197 0
175 198 0
174 198 0
173 197 0
174 198 0
175 198 0
175 198 0
174 198 0
175 198 0
176 198 0
175 198 0
174 197 0
175 198 0
175 198 0
176 198 0
174 198 0
174 198 0
173 197 0
176 198 0
176 199 0
174 197 0
174 197 0
175 198 0
176 198 0
175 198 0
173 197 0
175 198 0
175 198 0
174 198 0
175 198 0
175 198 0
175 198 0
173 197 0
175 198 0
174 198 0
174 198 0
175 198 0
175 198 0
174 197 0
175 198 0
174 198 0
175 198 0
175 198 0
174 198 0
175 198 0
174 198 0
175 198 0
174 198 0
175 198 0
176 198 0
174 197 0
174 198 0
175 198 0
174 198 0
174 197 0
175 198 0
173 197 0
175 198 0
173 197 0
175 197 0
174 197 0
174 198 0
174 198 0
173 197 0
172 196 0
174 197 0
174 198 0
174 197 0
175 198 0
173 197 0
174 197 0
174 198 0
173 197 0
173 197 0
173 197 0
175 198 0
176 198 0
175 198 0
174 197 0
175 198 0
175 198 0
174 198 0
173 197 0
174 197 0
173 197 0
174 198 0
173 196 0
176 199 0
174 198 0
175 198 0
173 197 0
174 197 0
174 197 0
172 196 0
173 196 0
174 198 0
174 198 0
174 198 0
175 198 0
175 198 0
174 197 0
174 197 0
174 197 0
174 197 0
172 195 0
174 198 0
175 198 0
174 197 0
174 197 0
172 197 0
173 197 0
175 198 0
175 197 0
175 198 0
173 196 0
175 198 0
174 197 0
172 196 0
175 198 0
175 198 0
173 197 0
175 198 0
174 198 0
174 197 0
173 197 0
172 196 0
174 197 0
174 198 0
174 198 0
173 197 0
173 197 0
175 198 0
173 197 0
174 197 0
174 198 0
174 197 0
176 198 0
173 197 0
175 197 0
172 196 0
174 198 0
174 198 0
174 198 0
173 197 0
175 198 0
174 198 0
174 197 0
175 198 0
174 198 0
173 197 0
174 198 0
175 198 0
174 197 0
173 197 0
174 198 0
175 198 0
174 198 0
174 198 0
175 198 0
174 198 0
174 197 0
175 198 0
174 198 0
174 198 0
175 198 0
173 197 0
175 198 0
173 197 0
174 198 0
174 198 0
174 198 0
174 198 0
174 197 0
174 197 0
174 198 0
174 197 0
176 198 0
175 198 0
174 197 0
175 198 0
174 198 0
174 198 0
174 198 0
175 198 0
176 198 0
174 197 0
175 198 0
175 198 0
174 198 0
175 198 0
174 198 0
176 199 0
172 196 0
174 198 0
174 198 0
175 198 0
175 198 0
175 198 0
175 198 0
175 198 0
175 198 0
175 198 0
173 197 0
174 198 0
176 199 0
175 198 0
174 197 0
173 197 0
174 198 0
174 197 0
173 197 0
174 197 0
175 198 0
174 198 0
175 198 0
174 198 0
176 198 0
174 198 0
173 197 0
175 198 0
175 198 0
174 198 0
175 198 0
175 198 0
174 197 0
174 198 0
174 198 0
176 199 0
174 198 0
174 198 0
175 198 0
175 198 0
176 199 0
174 198 0
174 197 0
174 198 0
176 198 0
175 198 0
174 198 0
174 198 0
175 198 0
174 198 0
174 198 0
175 198 0
175 198 0
174 197 0
175 198 0
175 198 0
176 199 0
174 198 0
174 198 0
177 199 0
175 198 0
173 197 0
174 197 0
174 198 0
177 199 0
174 197 0
174 198 0
173 197 0
175 198 0
175 198 0
175 198 0
176 199 0
174 197 0
175 198 0
175 198 0
175 198 0
176 199 0
175 198 0
174 198 0
174 197 0
173 197 0
174 198 0
176 199 0
174 198 0
174 198 0
172 197 0
174 198 0
173 197 0
176 199 0
174 198 0
175 198 0
175 198 0
176 199 0
180 202 80
196 214 155
211 225 203
218 232 227
229 240 255
229 240 255
229 240 255
229 240 255
229 240 255
229 240 255
228 240 255
228 240 255
228 240 255
228 240 255
228 240 255
228 240 255
228 240 255
228 240 255
228 240 255
228 240 255
228 239 255
228 239 255
228 239 255
228 239 255
228 239 255
228 239 255
228 239 255
228 239 255
228 239 255
228 239 255
228 239 255
228 239 255
228 239 255
228 239 255
228 239 255
228 240 255
228 240 255
228 240 255
228 240 255
228 240 255
228 240 255
228 240 255
228 240 255
228 240 255
228 240 255
229 240 255
229 240 255
229 240 255
229 240 255
229 240 255
229 240 255
226 238 249
215 229 218
205 221 188
187 207 111
180 202 76
175 198 0
175 198 0
174 198 0
177 199 0
175 198 0
174 197 0
174 198 0
175 198 0
175 198 0
177 199 0
175 198 0
174 198 0
173 197 0
174 198 0
175 198 0
173 197 0
175 198 0
174 197 0
176 198 0
175 198 0
174 198 0
174 198 0
175 198 0
174 198 0
174 198 0
174 198 0
173 197 0
176 199 0
173 197 0
174 198 0
174 198 0
175 198 0
174 198 0
173 197 0
174 198 0
174 198 0
175 198 0
174 198 0
174 197 0
174 198 0
174 197 0
174 198 0
174 198 0
174 198 0
174 197 0
175 198 0
173 197 0
174 198 0
175 198 0
173 197 0
172 196 0
175 198 0
174 198 0
174 198 0
174 197 0
173 197 0
176 199 0
172 197 0
176 199 0
173 197 0
176 199 0
174 197 0
175 198 0
175 198 0
174 198 0
176 199 0
174 197 0
175 198 0
174 198 0
175 198 0
173 197 0
176 199 0
175 198 0
175 198 0
175 198 0
175 198 0
174 198 0
174 197 0
174 198 0
175 198 0
175 198 0
173 197 0
176 199 0
173 197 0
174 198 0
174 198 0
173 197 0
173 197 0
174 198 0
176 199 0
175 198 0
174 198 0
174 198 0
174 197 0
174 198 0
176 199 0
175 198 0
175 198 0
174 197 0
174 197 0
173 197 0
175 198 0
175 198 0
175 198 0
175 198 0
174 198 0
175 198 0
176 198 0
174 198 0
173 197 0
175 198 0
176 199 0
173 197 0
176 199 0
175 198 0
174 198 0
175 198 0
176 199 0
174 198 0
176 199 0
175 198 0
173 197 0
175 198 0
175 198 0
174 198 0
174 197 0
176 198 0
174 197 0
174 198 0
175 198 0
175 198 0
174 197 0
174 197 0
173 197 0
175 198 0
174 198 0
174 197 0
174 198 0
173 197 0
175 198 0
174 197 0
173 197 0
174 197 0
172 196 0
175 198 0
174 198 0
174 198 0
175 198 0
174 197 0
175 198 0
175 198 0
172 197 0
174 197 0
175 198 0
175 198 0
174 197 0
173 197 0
175 198 0
173 197 0
173 197 0
174 198 0
173 197 0
173 197 0
174 198 0
173 197 0
174 197 0
172 196 0
175 198 0
173 196 0
173 196 0
174 196 0
174 197 0
176 199 0
173 197 0
174 197 0
175 198 0
176 199 0
173 197 0
176 199 0
174 197 0
174 197 0
175 198 0
173 196 0
173 197 0
173 197 0
174 198 0
174 198 0
174 197 0
175 198 0
175 198 0
172 197 0
172 196 0
172 195 0
174 193 19
174 194 11
174 196 0
175 198 0
176 199 0
174 197 0
172 196 0
173 197 0
174 197 0
174 198 0
175 198 0
173 197 0
174 198 0
174 197 0
174 198 0
174 198 0
174 198 0
176 199 0
173 197 0
175 198 0
175 198 0
174 198 0
174 198 0
174 198 0
174 197 0
174 197 0
174 198 0
173 197 0
175 198 0
173 197 0
174 198 0
175 198 0
174 198 0
175 198 0
176 199 0
174 198 0
176 199 0
173 197 0
173 197 0
174 197 0
175 198 0
174 197 0
174 198 0
173 197 0
174 198 0
174 197 0
174 198 0
176 199 0
174 198 0
175 198 0
174 198 0
175 198 0
175 198 0
175 198 0
173 197 0
175 198 0
173 197 0
173 197 0
174 197 0
175 198 0
176 198 0
176 198 0
176 199 0
173 197 0
174 197 0
173 197 0
173 197 0
176 199 0
175 198 0
174 198 0
175 198 0
174 197 0
175 198 0
174 197 0
175 198 0
174 198 0
177 199 0
174 198 0
174 197 0
174 197 0
175 198 0
175 198 0
173 197 0
175 198 0
176 199 0
174 198 0
175 198 0
175 198 0
174 198 0
174 198 0
176 199 0
175 198 0
176 199 0
175 198 0
174 198 0
175 198 0
175 198 0
174 198 0
173 197 0
174 198 0
174 198 0
175 198 0
174 198 0
174 198 0
174 198 0
175 198 0
174 198 0
174 198 0
173 197 0
175 198 0
174 198 0
173 197 0
174 198 0
172 197 0
174 197 0
175 198 0
176 199 0
174 198 0
173 197 0
174 198 0
175 198 0
174 198 0
175 198 0
176 199 0
174 198 0
174 197 0
176 198 0
175 198 0
175 198 0
174 198 0
173 197 0
173 197 0
174 198 0
177 199 0
174 198 0
174 197 0
174 198 0
174 198 0
176 199 0
173 197 0
175 198 0
175 198 0
176 199 0
175 198 0
175 198 0
172 197 0
174 198 0
174 197 0
175 198 0
175 198 0
175 198 0
175 198 0
173 197 0
174 198 0
175 198 0
178 201 62
193 211 140
204 221 186
215 229 217
224 236 242
229 240 255
229 240 255
229 240 255
229 240 255
229 240 255
229 240 255
228 240 255
228 240 255
228 240 255
228 240 255
228 240 255
228 240 255
228 240 255
228 240 255
228 240 255
228 240 255
228 239 255
228 239 255
228 239 255
228 239 255
228 239 255
228 240 255
228 240 255
228 240 255
228 240 255
228 240 255
228 240 255
228 240 255
228 240 255
228 240 255
228 240 255
229 240 255
229 240 255
229 240 255
229 240 255
229 240 255
229 240 255
228 239 254
219 232 227
210 225 199
196 214 153
187 207 111
176 198 0
176 199 0
176 198 0
175 198 0
175 198 0
173 197 0
175 198 0
176 199 0
174 197 0
174 198 0
174 198 0
176 199 0
174 198 0
174 197 0
174 198 0
173 197 0
174 197 0
174 197 0
174 198 0
175 198 0
174 197 0
177 199 0
174 198 0
175 198 0
174 198 0
174 198 0
175 198 0
175 198 0
174 197 0
175 198 0
174 198 0
175 198 0
176 198 0
175 198 0
174 198 0
175 198 0
174 198 0
175 198 0
174 198 0
175 198 0
176 199 0
175 198 0
174 198 0
175 198 0
175 198 0
174 198 0
175 198 0
174 197 0
174 198 0
173 197 0
174 198 0
174 198 0
175 198 0
175 198 0
173 197 0
175 198 0
175 198 0
176 199 0
174 198 0
175 198 0
175 198 0
174 197 0
173 197 0
172 197 0
175 198 0
174 197 0
175 198 0
175 198 0
175 198 0
174 198 0
175 198 0
174 198 0
175 198 0
174 198 0
175 198 0
174 198 0
176 198 0
175 198 0
176 198 0
175 198 0
174 198 0
175 198 0
175 198 0
175 198 0
174 198 0
174 197 0
175 198 0
174 198 0
175 198 0
174 197 0
174 198 0
176 198 0
173 197 0
175 198 0
173 197 0
174 198 0
174 197 0
174 197 0
174 197 0
173 197 0
175 198 0
174 198 0
173 197 0
174 198 0
176 198 0
174 198 0
174 197 0
173 197 0
172 196 0
173 197 0
173 197 0
174 198 0
174 198 0
175 198 0
174 198 0
173 197 0
175 198 0
175 198 0
175 198 0
176 198 0
175 198 0
174 198 0
174 198 0
174 198 0
173 197 0
174 198 0
174 198 0
175 198 0
174 198 0
176 199 0
174 197 0
175 197 0
175 198 0
175 198 0
174 198 0
175 198 0
173 197 0
174 197 0
174 198 0
174 197 0
174 198 0
175 198 0
175 198 0
176 199 0
173 197 0
175 198 0
173 197 0
174 198 0
176 198 0
172 196 0
175 197 0
172 196 0
173 196 0
175 198 0
173 197 0
173 197 0
175 197 0
174 197 0
174 197 0
172 196 0
175 198 0
171 196 0
173 197 0
174 197 0
171 195 0
175 198 0
173 197 0
176 198 0
172 196 0
175 198 0
175 198 0
174 197 0
174 197 0
172 195 0
175 198 0
174 197 0
175 198 0
175 198 0
174 198 0
173 197 0
173 197 0
174 197 0
174 198 0
175 198 0
173 196 0
174 198 0
173 197 0
173 197 0
173 197 0
173 197 0
174 198 0
175 198 0
175 198 0
174 196 0
179 189 56
185 183 84
187 179 100
192 179 110
192 180 114
191 179 114
192 179 113
189 179 106
186 183 88
181 186 72
174 192 30
175 198 0
175 198 0
175 198 0
173 197 0
174 198 0
175 198 0
175 198 0
174 197 0
175 198 0
173 197 0
174 197 0
173 196 0
174 198 0
174 198 0
175 198 0
174 197 0
175 198 0
174 198 0
174 197 0
173 197 0
174 198 0
174 198 0
175 198 0
173 197 0
175 198 0
174 197 0
174 198 0
173 197 0
174 198 0
175 198 0
176 198 0
174 198 0
175 198 0
173 197 0
176 199 0
176 198 0
174 198 0
173 197 0
175 198 0
174 198 0
174 198 0
175 198 0
175 198 0
174 197 0
175 198 0
174 197 0
173 197 0
174 198 0
175 198 0
175 198 0
174 198 0
174 197 0
174 198 0
174 198 0
176 199 0
174 197 0
174 198 0
174 198 0
174 198 0
174 197 0
174 198 0
174 198 0
174 198 0
175 198 0
176 198 0
174 198 0
175 198 0
176 198 0
176 199 0
176 199 0
174 198 0
175 198 0
173 197 0
175 198 0
175 198 0
176 199 0
174 198 0
175 198 0
175 198 0
174 198 0
173 197 0
175 198 0
175 198 0
175 198 0
174 197 0
175 198 0
173 197 0
175 198 0
174 198 0
173 197 0
175 198 0
175 198 0
175 198 0
173 197 0
174 198 0
174 198 0
174 198 0
174 198 0
176 199 0
176 199 0
174 198 0
175 198 0
175 198 0
174 198 0
175 198 0
175 198 0
176 198 0
174 197 0
175 198 0
173 197 0
175 198 0
173 197 0
174 197 0
175 198 0
175 198 0
174 198 0
175 198 0
176 199 0
173 197 0
175 198 0
175 198 0
175 198 0
174 197 0
174 198 0
174 198 0
174 198 0
175 198 0
173 197 0
175 198 0
175 198 0
175 198 0
173 197 0
176 199 0
174 198 0
175 198 0
174 198 0
175 198 0
175 198 0
175 198 0
175 198 0
174 198 0
173 197 0
175 198 0
176 199 0
176 198 0
175 198 0
175 198 0
174 197 0
175 198 0
174 198 0
174 198 0
175 198 0
174 198 0
181 203 92
191 210 133
208 223 191
216 229 220
229 240 255
229 240 255
229 240 255
229 240 255
229 240 255
229 240 255
229 240 255
228 240 255
228 240 255
228 240 255
228 240 255
228 240 255
228 240 255
228 240 255
228 240 255
228 240 255
228 240 255
228 240 255
228 240 255
228 240 255
228 240 255
228 240 255
228 240 255
229 240 255
229 240 255
229 240 255
229 240 255
229 240 255
229 240 255
228 239 254
216 229 218
206 222 189
193 212 142
180 202 72
174 198 0
174 198 0
174 198 0
175 198 0
174 198 0
175 198 0
176 199 0
175 198 0
174 197 0
174 198 0
177 199 0
174 198 0
173 197 0
173 197 0
175 198 0
174 198 0
173 197 0
175 198 0
176 199 0
173 197 0
176 198 0
175 198 0
174 198 0
173 197 0
174 198 0
175 198 0
174 198 0
173 197 0
174 197 0
174 198 0
174 197 0
172 197 0
174 198 0
173 197 0
175 198 0
174 198 0
174 198 0
176 199 0
175 198 0
173 197 0
175 198 0
175 198 0
176 198 0
174 197 0
175 198 0
174 198 0
175 198 0
172 197 0
174 197 0
177 199 0
174 198 0
174 198 0
174 197 0
175 198 0
173 197 0
175 198 0
174 198 0
175 198 0
175 198 0
175 198 0
174 198 0
175 198 0
174 197 0
175 198 0
175 198 0
174 198 0
176 198 0
175 198 0
175 198 0
174 197 0
174 198 0
175 198 0
174 198 0
175 198 0
172 197 0
175 198 0
175 198 0
174 198 0
175 198 0
175 198 0
174 197 0
175 198 0
175 198 0
174 198 0
173 197 0
174 198 0
174 198 0
174 198 0
174 197 0
176 199 0
175 198 0
175 198 0
174 198 0
175 198 0
174 198 0
175 198 0
175 198 0
173 197 0
176 199 0
175 198 0
175 198 0
173 197 0
174 198 0
175 198 0
174 197 0
175 198 0
173 197 0
174 198 0
174 197 0
173 197 0
176 199 0
174 198 0
175 198 0
174 197 0
175 198 0
174 197 0
175 198 0
176 199 0
173 197 0
173 197 0
174 197 0
175 198 0
175 198 0
172 196 0
175 198 0
174 198 0
174 198 0
173 197 0
174 198 0
173 197 0
174 197 0
174 197 0
174 197 0
174 197 0
176 198 0
174 197 0
174 197 0
174 198 0
174 197 0
174 197 0
175 198 0
172 196 0
174 198 0
174 198 0
174 198 0
174 196 0
174 197 0
173 197 0
175 198 0
172 196 0
173 197 0
173 197 0
174 198 0
174 197 0
175 198 0
175 198 0
173 196 0
175 198 0
173 197 0
174 197 0
173 196 0
175 198 0
175 198 0
173 197 0
175 198 0
173 196 0
176 198 0
174 197 0
175 197 0
176 198 0
174 197 0
175 198 0
175 198 0
174 198 0
174 197 0
172 196 0
174 197 0
172 196 0
172 196 0
173 195 0
174 197 0
174 198 0
173 197 0
174 197 0
174 197 0
174 198 0
175 197 0
175 198 0
174 197 0
173 197 0
173 196 0
173 196 0
174 197 0
173 196 0
173 196 0
174 196 0
180 187 63
193 182 103
191 179 114
187 177 114
183 175 114
181 174 114
179 174 114
180 174 114
180 174 114
182 175 114
184 176 114
188 177 114
192 180 113
184 185 82
176 194 28
174 198 0
175 198 0
174 197 0
173 197 0
174 197 0
174 198 0
173 197 0
174 197 0
174 198 0
174 198 0
173 197 0
174 198 0
175 198 0
173 197 0
174 198 0
172 197 0
176 199 0
175 198 0
173 197 0
174 197 0
174 198 0
173 197 0
173 197 0
175 198 0
174 198 0
175 198 0
174 198 0
176 199 0
173 197 0
173 197 0
175 198 0
174 197 0
176 198 0
175 198 0
174 198 0
175 198 0
172 197 0
175 198 0
174 197 0
172 197 0
175 198 0
174 197 0
175 198 0
175 198 0
175 198 0
175 198 0
175 198 0
174 198 0
176 199 0
175 198 0
174 198 0
175 198 0
173 197 0
176 199 0
173 197 0
175 198 0
174 198 0
174 198 0
174 198 0
174 197 0
176 198 0
175 198 0
175 198 0
175 198 0
175 198 0
173 197 0
174 198 0
175 198 0
174 198 0
173 197 0
174 198 0
175 198 0
175 198 0
174 198 0
176 199 0
174 198 0
175 198 0
175 198 0
176 198 0
175 198 0
176 199 0
174 198 0
174 198 0
174 197 0
174 198 0
174 198 0
174 198 0
173 197 0
175 198 0
174 198 0
175 198 0
174 198 0
173 197 0
173 197 0
174 197 0
175 198 0
174 198 0
175 198 0
174 197 0
174 197 0
173 197 0
173 197 0
173 197 0
175 198 0
174 197 0
175 198 0
175 198 0
174 198 0
176 198 0
174 197 0
175 198 0
173 197 0
174 197 0
174 198 0
176 198 0
176 198 0
176 199 0
175 198 0
175 198 0
174 198 0
176 199 0
175 198 0
174 198 0
173 197 0
174 198 0
174 198 0
174 198 0
175 198 0
174 198 0
175 198 0
175 198 0
174 198 0
174 198 0
175 198 0
173 197 0
174 198 0
175 198 0
175 198 0
174 198 0
175 198 0
174 198 0
175 198 0
176 198 0
175 198 0
174 198 0
175 198 0
175 198 0
175 198 0
176 199 0
174 197 0
175 198 0
174 198 0
174 198 0
174 198 0
175 198 0
178 200 51
193 211 135
203 220 181
216 229 217
229 240 255
229 240 255
229 240 255
229 240 255
229 240 255
229 240 255
229 240 255
228 240 255
228 240 255
228 240 255
228 240 255
228 240 255
228 240 255
228 240 255
229 240 255
229 240 255
229 240 255
229 240 255
229 240 255
229 240 255
229 240 255
224 236 242
208 223 196
203 220 181
189 209 128
175 198 36
174 197 0
175 198 0
175 198 0
175 198 0
176 198 0
173 197 0
176 199 0
173 197 0
175 198 0
175 198 0
175 198 0
175 198 0
174 197 0
173 197 0
175 198 0
175 198 0
176 198 0
175 198 0
175 198 0
174 198 0
173 197 0
174 198 0
176 199 0
172 197 0
174 197 0
175 198 0
174 198 0
174 198 0
172 197 0
174 198 0
175 198 0
174 198 0
175 198 0
175 198 0
175 198 0
175 198 0
174 197 0
175 198 0
174 198 0
175 198 0
174 198 0
175 198 0
174 198 0
175 198 0
176 198 0
175 198 0
176 199 0
176 199 0
175 198 0
175 198 0
174 198 0
174 198 0
174 197 0
173 197 0
175 198 0
175 198 0
173 197 0
176 198 0
174 198 0
174 197 0
175 198 0
174 198 0
174 198 0
174 198 0
175 198 0
175 198 0
175 198 0
173 197 0
174 198 0
175 198 0
174 197 0
174 198 0
173 197 0
175 198 0
175 198 0
174 198 0
174 198 0
174 198 0
174 198 0
176 198 0
174 198 0
173 197 0
175 198 0
173 197 0
173 197 0
175 198 0
174 198 0
175 198 0
175 198 0
174 198 0
174 198 0
174 197 0
174 197 0
174 197 0
173 197 0
175 198 0
174 198 0
172 197 0
173 197 0
175 198 0
174 197 0
174 198 0
174 198 0
174 198 0
175 198 0
174 197 0
175 198 0
174 198 0
174 198 0
175 198 0
173 197 0
172 197 0
174 198 0
175 198 0
175 198 0
176 199 0
174 198 0
173 197 0
174 197 0
175 198 0
174 197 0
174 198 0
175 198 0
175 198 0
175 198 0
173 197 0
175 198 0
173 197 0
175 198 0
174 198 0
174 197 0
175 198 0
173 197 0
175 198 0
176 198 0
175 198 0
175 198 0
175 198 0
175 198 0
174 197 0
174 197 0
175 198 0
174 198 0
174 197 0
175 198 0
173 196 0
174 197 0
174 198 0
173 197 0
175 198 0
175 198 0
175 198 0
174 197 0
172 195 0
176 199 0
173 197 0
175 198 0
174 198 0
173 197 0
173 197 0
176 198 0
173 196 0
173 197 0
173 197 0
173 197 0
173 197 0
175 198 0
170 195 0
173 197 0
175 198 0
172 196 0
174 197 0
172 195 0
173 196 0
174 197 0
173 197 0
173 196 0
173 197 0
174 197 0
174 197 0
174 197 0
172 196 0
175 197 0
173 197 0
174 198 0
174 196 0
173 196 0
174 197 0
173 197 0
175 198 0
175 198 0
174 197 0
174 197 0
173 196 0
173 196 0
176 199 0
174 197 0
174 198 0
175 192 34
187 179 94
191 179 114
186 177 114
181 174 114
178 173 114
175 172 114
173 171 114
173 170 114
172 170 114
173 171 114
174 171 114
176 172 114
179 173 114
183 175 114
189 178 114
191 179 109
178 188 58
174 197 0
175 198 0
173 197 0
174 198 0
174 197 0
175 198 0
174 198 0
174 198 0
173 197 0
173 196 0
174 197 0
175 198 0
175 198 0
175 198 0
175 198 0
173 197 0
174 198 0
173 197 0
174 197 0
174 198 0
174 197 0
175 198 0
174 198 0
175 198 0
174 197 0
174 198 0
173 197 0
173 196 0
174 198 0
175 198 0
174 198 0
176 199 0
173 197 0
174 198 0
175 198 0
175 198 0
174 198 0
173 197 0
174 198 0
174 197 0
173 197 0
175 198 0
175 198 0
174 198 0
174 198 0
175 198 0
176 199 0
174 198 0
175 198 0
175 198 0
175 198 0
175 198 0
172 197 0
175 198 0
173 197 0
174 198 0
173 197 0
174 198 0
172 196 0
175 198 0
176 199 0
175 198 0
174 198 0
174 198 0
173 197 0
173 197 0
176 199 0
176 199 0
174 198 0
175 198 0
176 198 0
174 198 0
174 198 0
175 198 0
173 197 0
173 197 0
174 198 0
175 198 0
175 198 0
174 198 0
173 197 0
173 197 0
174 198 0
175 198 0
175 198 0
175 198 0
175 198 0
174 198 0
175 198 0
175 198 0
175 198 0
176 198 0
174 198 0
176 199 0
174 198 0
174 198 0
175 198 0
177 199 0
175 198 0
174 197 0
174 198 0
175 198 0
174 198 0
175 198 0
175 198 0
175 198 0
175 198 0
175 198 0
176 198 0
174 197 0
175 198 0
175 198 0
175 198 0
173 197 0
173 197 0
173 197 0
173 197 0
176 198 0
174 198 0
174 198 0
175 198 0
173 197 0
175 198 0
175 198 0
174 198 0
174 197 0
174 198 0
175 198 0
175 198 0
173 197 0
175 198 0
174 197 0
175 198 0
173 197 0
176 199 0
174 198 0
175 198 0
176 199 0
174 198 0
173 197 0
175 198 0
173 197 0
176 199 0
175 198 0
175 198 0
173 197 0
174 198 0
175 198 0
177 199 0
174 197 0
172 197 0
175 198 0
174 198 0
173 197 0
176 199 0
175 198 0
174 198 0
174 198 0
177 200 44
192 211 137
201 218 173
209 224 201
224 236 244
229 240 255
229 240 255
229 240 255
229 240 255
229 240 255
229 240 255
229 240 255
229 240 255
229 240 255
229 240 255
229 240 255
228 239 254
220 233 231
205 221 186
202 219 177
186 207 117
174 197 0
176 199 0
175 198 0
176 199 0
174 198 0
175 198 0
175 198 0
175 198 0
175 198 0
176 199 0
175 198 0
175 198 0
175 198 0
176 199 0
176 199 0
175 198 0
175 198 0
175 198 0
174 198 0
174 198 0
173 197 0
175 198 0
174 197 0
173 197 0
174 198 0
174 197 0
174 198 0
174 197 0
174 198 0
176 199 0
176 199 0
175 198 0
175 198 0
175 198 0
174 198 0
174 198 0
176 198 0
174 198 0
175 198 0
175 198 0
174 197 0
173 197 0
174 197 0
172 197 0
174 198 0
174 198 0
174 198 0
176 198 0
175 198 0
174 198 0
174 198 0
175 198 0
173 197 0
175 198 0
174 198 0
174 198 0
174 198 0
174 197 0
175 198 0
176 199 0
174 198 0
176 198 0
176 199 0
175 198 0
175 198 0
175 198 0
175 198 0
174 197 0
175 198 0
175 198 0
175 198 0
176 199 0
175 198 0
174 198 0
175 198 0
175 198 0
175 198 0
175 198 0
174 198 0
175 198 0
176 199 0
173 197 0
176 199 0
175 198 0
174 198 0
175 198 0
174 197 0
175 198 0
174 198 0
174 198 0
175 198 0
175 198 0
174 197 0
174 198 0
176 198 0
175 198 0
175 198 0
175 198 0
174 198 0
174 198 0
176 198 0
175 198 0
173 197 0
175 198 0
174 198 0
172 197 0
174 197 0
176 198 0
173 197 0
175 198 0
175 198 0
174 198 0
175 198 0
174 197 0
176 199 0
175 198 0
173 197 0
174 197 0
175 198 0
173 197 0
175 198 0
173 197 0
175 198 0
173 197 0
173 197 0
174 197 0
174 198 0
174 198 0
176 199 0
173 197 0
174 198 0
174 197 0
175 198 0
174 197 0
173 197 0
174 198 0
176 199 0
171 195 0
174 197 0
175 198 0
175 198 0
174 198 0
174 197 0
174 197 0
175 198 0
175 198 0
174 197 0
173 197 0
175 198 0
173 197 0
174 198 0
172 197 0
174 197 0
174 198 0
174 198 0
175 198 0
176 199 0
173 197 0
173 196 0
175 198 0
175 198 0
175 198 0
173 197 0
175 198 0
172 196 0
173 197 0
173 197 0
175 198 0
175 198 0
173 197 0
174 198 0
173 196 0
174 197 0
174 198 0
176 198 0
174 197 0
174 197 0
174 197 0
175 198 0
175 197 0
176 198 0
171 194 0
174 198 0
174 197 0
173 196 0
174 198 0
173 197 0
173 196 0
172 195 0
174 197 0
176 198 0
174 198 0
174 197 0
174 197 0
176 198 0
172 196 0
172 196 0
171 195 0
173 197 0
172 195 0
173 197 0
172 197 0
171 182 36
192 179 106
190 178 114
184 176 114
179 173 114
175 172 114
173 170 114
170 169 114
168 169 114
168 168 114
167 168 114
167 168 114
168 169 114
170 169 114
173 171 114
176 172 114
181 174 114
186 176 114
192 180 114
180 182 72
172 195 0
174 197 0
175 198 0
173 196 0
174 197 0
175 198 0
175 198 0
174 197 0
174 197 0
173 197 0
174 197 0
175 198 0
175 198 0
172 196 0
173 197 0
174 197 0
175 198 0
175 198 0
174 197 0
174 197 0
174 197 0
175 198 0
175 198 0
175 198 0
174 198 0
174 198 0
176 199 0
172 197 0
175 198 0
173 197 0
174 198 0
175 198 0
175 198 0
174 198 0
174 197 0
174 198 0
173 197 0
174 198 0
175 198 0
176 199 0
173 197 0
176 198 0
173 197 0
173 197 0
175 198 0
174 198 0
174 198 0
174 198 0
176 199 0
175 198 0
176 198 0
174 198 0
176 199 0
173 197 0
175 198 0
174 197 0
173 197 0
174 198 0
175 198 0
175 198 0
175 198 0
177 199 0
175 198 0
174 198 0
175 198 0
174 198 0
175 198 0
175 198 0
173 197 0
176 199 0
175 198 0
175 198 0
175 198 0
174 198 0
174 198 0
175 198 0
175 198 0
174 197 0
173 197 0
175 198 0
176 198 0
174 198 0
174 197 0
174 198 0
175 198 0
175 198 0
175 198 0
175 198 0
174 197 0
175 198 0
173 197 0
175 198 0
174 198 0
173 197 0
172 197 0
175 198 0
174 197 0
174 197 0
175 198 0
175 198 0
175 198 0
176 199 0
175 198 0
175 198 0
174 198 0
175 198 0
174 198 0
175 198 0
174 197 0
175 198 0
176 199 0
175 198 0
177 199 0
174 197 0
175 198 0
174 198 0
174 198 0
175 198 0
174 197 0
175 198 0
174 198 0
173 197 0
175 198 0
174 198 0
174 198 0
174 198 0
175 198 0
176 199 0
174 198 0
174 198 0
174 198 0
177 199 0
174 198 0
174 198 0
176 199 0
175 198 0
175 198 0
175 198 0
176 198 0
175 198 0
175 198 0
176 199 0
172 197 0
174 198 0
175 198 0
174 197 0
173 197 0
175 198 0
175 198 0
175 198 0
177 199 0
172 197 0
175 198 0
175 198 0
175 198 0
175 198 0
174 197 0
175 198 0
176 198 0
173 197 0
175 198 0
175 198 0
186 206 102
194 213 149
212 226 207
220 233 230
228 239 254
229 240 255
229 240 255
229 240 255
217 230 223
208 223 194
195 213 151
180 202 76
175 198 0
175 198 0
175 198 0
174 198 0
175 198 0
173 197 0
176 198 0
173 197 0
174 198 0
175 198 0
175 198 0
174 198 0
174 198 0
174 198 0
175 198 0
174 198 0
174 198 0
176 199 0
174 198 0
174 198 0
176 199 0
175 198 0
175 198 0
174 198 0
175 198 0
174 197 0
174 197 0
174 198 0
172 197 0
175 198 0
174 197 0
175 198 0
175 198 0
174 198 0
175 198 0
175 198 0
175 198 0
173 197 0
175 198 0
175 198 0
175 198 0
175 198 0
173 197 0
174 197 0
174 198 0
174 198 0
173 197 0
176 199 0
174 198 0
176 199 0
175 198 0
175 198 0
175 198 0
174 198 0
177 199 0
175 198 0
174 198 0
174 198 0
175 198 0
175 198 0
174 197 0
173 197 0
174 198 0
174 198 0
175 198 0
174 198 0
173 197 0
175 198 0
174 198 0
176 198 0
173 197 0
176 198 0
174 197 0
174 197 0
175 198 0
175 198 0
174 197 0
173 197 0
175 198 0
173 197 0
175 198 0
173 197 0
174 198 0
176 198 0
174 198 0
174 197 0
175 198 0
175 198 0
175 198 0
175 198 0
173 197 0
174 198 0
175 198 0
174 197 0
174 197 0
174 198 0
174 197 0
174 198 0
175 198 0
174 198 0
174 198 0
175 198 0
174 198 0
173 197 0
175 198 0
177 199 0
174 197 0
175 198 0
174 198 0
174 198 0
173 197 0
174 197 0
175 198 0
176 198 0
175 198 0
173 197 0
173 197 0
176 199 0
176 198 0
175 198 0
174 198 0
174 198 0
175 198 0
175 198 0
174 198 0
173 197 0
175 198 0
175 198 0
175 198 0
177 199 0
174 198 0
175 198 0
174 198 0
176 198 0
175 198 0
174 198 0
174 198 0
172 196 0
175 198 0
173 197 0
175 198 0
174 197 0
173 197 0
175 198 0
174 198 0
175 198 0
174 198 0
174 197 0
174 197 0
173 197 0
174 197 0
174 197 0
175 198 0
174 198 0
175 197 0
174 198 0
174 197 0
172 196 0
173 197 0
174 197 0
174 197 0
174 197 0
174 197 0
174 198 0
175 198 0
174 198 0
175 198 0
174 197 0
176 199 0
173 197 0
175 197 0
175 198 0
174 197 0
174 197 0
171 195 0
174 197 0
174 197 0
175 198 0
176 199 0
173 197 0
173 197 0
174 197 0
175 198 0
171 195 0
172 196 0
174 196 0
171 196 0
173 197 0
172 195 0
175 198 0
174 197 0
175 198 0
173 197 0
172 196 0
175 198 0
174 197 0
173 197 0
174 197 0
172 195 0
173 196 0
171 196 0
172 196 0
174 197 0
174 197 0
174 197 0
169 184 28
193 179 108
190 179 114
184 176 114
179 174 114
175 171 114
172 170 114
169 169 114
167 168 114
165 167 114
164 167 114
164 167 114
164 167 114
165 167 114
167 168 114
169 169 114
172 170 114
176 172 114
180 174 114
186 177 114
193 180 114
175 177 62
173 196 0
175 198 0
175 198 0
173 197 0
174 197 0
173 196 0
174 198 0
175 198 0
175 198 0
173 196 0
176 198 0
174 197 0
175 198 0
175 198 0
174 197 0
174 197 0
174 197 0
173 197 0
175 198 0
176 199 0
175 198 0
173 197 0
173 197 0
173 197 0
173 196 0
173 196 0
173 197 0
173 197 0
175 198 0
174 198 0
173 197 0
173 197 0
174 198 0
176 199 0
175 198 0
174 197 0
173 197 0
174 198 0
174 198 0
175 198 0
175 198 0
174 198 0
174 197 0
175 198 0
174 198 0
176 198 0
176 199 0
174 198 0
174 198 0
174 198 0
175 198 0
174 198 0
174 197 0
174 198 0
174 198 0
174 198 0
173 197 0
173 197 0
174 198 0
174 197 0
174 198 0
174 198 0
174 197 0
176 199 0
174 198 0
175 198 0
174 197 0
176 198 0
174 197 0
174 197 0
175 198 0
173 197 0
173 197 0
175 198 0
175 198 0
176 198 0
177 199 0
176 199 0
174 198 0
173 197 0
176 198 0
172 197 0
175 198 0
175 198 0
175 198 0
175 198 0
176 198 0
174 198 0
174 198 0
176 198 0
174 198 0
175 198 0
175 198 0
176 199 0
176 199 0
175 198 0
175 198 0
174 198 0
175 198 0
175 198 0
175 198 0
173 197 0
176 199 0
175 198 0
174 197 0
174 198 0
173 197 0
174 197 0
174 197 0
176 199 0
174 198 0
175 198 0
176 199 0
174 197 0
173 197 0
175 198 0
173 197 0
175 198 0
174 198 0
175 198 0
174 197 0
174 198 0
175 198 0
175 198 0
175 198 0
175 198 0
174 198 0
174 198 0
175 198 0
174 198 0
174 198 0
174 198 0
175 198 0
175 198 0
174 197 0
176 199 0
173 197 0
174 198 0
176 198 0
176 198 0
173 197 0
177 199 0
176 199 0
174 197 0
175 198 0
175 198 0
176 198 0
175 198 0
176 199 0
174 198 0
174 197 0
174 198 0
175 198 0
175 198 0
175 198 0
174 198 0
176 199 0
174 197 0
174 198 0
177 199 0
174 198 0
174 198 0
175 198 0
176 198 0
175 198 0
176 199 51
190 210 128
201 218 175
218 231 226
174 198 0
174 198 0
174 198 0
176 198 0
173 197 0
173 197 0
174 198 0
175 198 0
175 198 0
174 198 0
175 198 0
175 198 0
175 198 0
174 198 0
175 198 0
174 198 0
175 198 0
174 198 0
176 199 0
174 198 0
176 198 0
174 198 0
174 198 0
174 198 0
174 198 0
174 198 0
174 198 0
175 198 0
175 198 0
174 197 0
175 198 0
174 197 0
175 198 0
177 199 0
174 197 0
175 198 0
174 198 0
175 198 0
174 198 0
176 198 0
176 199 0
175 198 0
177 199 0
175 198 0
175 198 0
175 198 0
176 199 0
174 197 0
174 198 0
175 198 0
175 198 0
174 198 0
174 198 0
175 198 0
174 198 0
173 197 0
175 198 0
173 197 0
175 198 0
173 197 0
175 198 0
175 198 0
174 198 0
175 198 0
175 198 0
175 198 0
174 198 0
176 199 0
174 197 0
174 197 0
174 198 0
174 198 0
175 198 0
173 197 0
176 199 0
176 198 0
175 198 0
174 198 0
173 197 0
174 198 0
175 198 0
174 198 0
175 198 0
175 198 0
175 198 0
175 198 0
174 198 0
174 198 0
174 198 0
175 198 0
175 198 0
175 198 0
173 197 0
175 198 0
174 198 0
176 199 0
174 198 0
174 198 0
173 197 0
175 198 0
174 198 0
176 199 0
175 198 0
175 198 0
174 198 0
175 198 0
174 198 0
174 197 0
174 197 0
174 198 0
176 198 0
174 198 0
174 198 0
175 198 0
174 197 0
175 198 0
175 198 0
176 198 0
175 198 0
174 198 0
173 197 0
174 198 0
175 198 0
174 198 0
175 198 0
174 197 0
175 198 0
173 197 0
174 198 0
173 197 0
175 198 0
174 198 0
174 198 0
175 198 0
174 198 0
173 197 0
175 198 0
175 198 0
174 197 0
173 196 0
173 197 0
172 196 0
175 198 0
175 198 0
174 198 0
172 196 0
176 198 0
176 198 0
173 197 0
173 197 0
174 197 0
175 198 0
176 199 0
173 197 0
174 197 0
175 198 0
174 197 0
176 198 0
175 198 0
172 196 0
174 198 0
174 198 0
172 196 0
173 197 0
174 197 0
175 198 0
173 196 0
174 198 0
174 197 0
174 197 0
173 197 0
172 196 0
175 198 0
174 197 0
173 196 0
174 197 0
175 198 0
173 197 0
172 196 0
172 195 0
173 197 0
173 197 0
172 196 0
174 197 0
173 197 0
173 197 0
173 197 0
176 198 0
174 197 0
175 197 0
174 197 0
173 197 0
173 196 0
175 198 0
174 197 0
174 197 0
174 197 0
173 196 0
172 195 0
175 197 0
172 196 0
173 197 0
173 196 0
173 196 0
173 195 0
172 195 0
173 197 0
173 196 0
169 187 0
189 177 99
192 179 114
186 176 114
180 174 114
176 172 114
172 170 114
169 169 114
167 168 114
165 167 114
163 166 114
162 166 114
162 166 114
162 166 114
163 166 114
165 167 114
167 168 114
170 169 114
173 171 114
177 172 114
182 175 114
187 177 114
194 180 112
176 181 59
174 197 0
173 197 0
173 197 0
173 197 0
173 197 0
173 197 0
174 198 0
175 198 0
173 196 0
175 198 0
174 198 0
173 196 0
175 198 0
174 197 0
175 198 0
174 198 0
174 197 0
173 197 0
173 197 0
175 198 0
175 198 0
175 198 0
174 198 0
174 198 0
173 197 0
173 197 0
173 197 0
175 198 0
174 197 0
175 198 0
176 198 0
173 197 0
173 197 0
174 197 0
174 197 0
175 198 0
175 198 0
174 198 0
175 198 0
175 198 0
174 198 0
174 197 0
174 198 0
174 197 0
175 198 0
175 198 0
174 197 0
174 197 0
175 198 0
172 197 0
175 198 0
175 198 0
174 197 0
174 198 0
174 197 0
175 198 0
175 198 0
173 197 0
174 197 0
174 198 0
174 198 0
175 198 0
174 198 0
174 198 0
174 198 0
175 198 0
174 198 0
173 197 0
174 198 0
174 197 0
175 198 0
173 197 0
175 198 0
174 197 0
174 197 0
175 198 0
174 198 0
175 198 0
175 198 0
175 198 0
174 198 0
174 198 0
175 198 0
174 198 0
175 198 0
175 198 0
176 198 0
175 198 0
175 198 0
174 198 0
175 198 0
174 198 0
173 197 0
173 197 0
174 198 0
176 198 0
175 198 0
175 198 0
175 198 0
175 198 0
174 197 0
175 198 0
174 198 0
174 198 0
176 199 0
174 198 0
174 198 0
174 198 0
174 198 0
176 199 0
174 198 0
175 198 0
175 198 0
173 197 0
176 199 0
174 197 0
174 197 0
175 198 0
175 198 0
175 198 0
175 198 0
172 197 0
175 198 0
174 198 0
174 198 0
174 197 0
174 198 0
174 198 0
173 197 0
174 198 0
175 198 0
174 198 0
174 198 0
177 199 0
174 197 0
176 198 0
174 197 0
174 197 0
174 198 0
174 198 0
174 198 0
174 198 0
174 198 0
175 198 0
174 197 0
175 198 0
174 198 0
174 198 0
175 198 0
174 198 0
175 198 0
175 198 0
173 197 0
175 198 0
176 198 0
174 197 0
175 198 0
174 198 0
173 197 0
174 197 0
174 197 0
174 197 0
175 198 0
175 198 0
174 198 0
174 198 0
175 198 0
175 198 0
172 197 0
175 198 0
173 197 0
175 198 0
174 198 0
173 197 0
175 198 0
175 198 0
174 198 0
174 198 0
175 198 0
175 198 0
175 198 0
175 198 0
174 198 0
174 198 0
176 198 0
175 198 0
176 198 0
175 198 0
174 198 0
175 198 0
174 198 0
174 198 0
174 198 0
174 198 0
174 198 0
175 198 0
173 197 0
175 198 0
173 197 0
175 198 0
174 197 0
174 198 0
175 198 0
174 198 0
175 198 0
175 198 0
173 197 0
175 198 0
175 198 0
175 198 0
175 198 0
174 198 0
174 198 0
175 198 0
175 198 0
174 198 0
174 198 0
174 197 0
175 198 0
174 198 0
174 198 0
175 198 0
173 197 0
174 198 0
173 197 0
174 197 0
175 198 0
173 197 0
174 198 0
175 198 0
174 197 0
175 198 0
176 198 0
174 198 0
175 198 0
174 198 0
174 197 0
175 198 0
179 200 0
175 198 0
175 198 0
174 198 0
175 198 0
176 198 0
176 198 0
174 198 0
175 198 0
175 198 0
173 197 0
174 197 0
174 198 0
176 199 0
174 198 0
174 198 0
175 198 0
175 198 0
174 198 0
174 198 0
175 198 0
176 198 0
173 197 0
174 198 0
174 198 0
176 198 0
173 197 0
173 197 0
175 198 0
175 198 0
175 198 0
174 198 0
175 198 0
175 198 0
174 198 0
174 198 0
173 197 0
174 197 0
174 198 0
174 198 0
176 199 0
174 198 0
175 198 0
174 198 0
175 198 0
175 198 0
173 197 0
173 197 0
173 197 0
174 198 0
175 198 0
174 198 0
176 198 0
175 198 0
174 198 0
173 197 0
175 198 0
175 198 0
175 198 0
176 199 0
174 198 0
176 199 0
175 198 0
175 198 0
173 197 0
174 198 0
174 198 0
175 198 0
174 198 0
177 199 0
174 197 0
176 199 0
174 197 0
175 198 0
174 198 0
174 197 0
175 198 0
175 198 0
176 198 0
174 197 0
174 198 0
173 197 0
175 198 0
174 198 0
174 198 0
173 197 0
176 199 0
174 197 0
174 197 0
175 197 0
174 197 0
175 198 0
175 198 0
173 197 0
174 197 0
174 197 0
172 196 0
174 198 0
173 197 0
174 197 0
173 196 0
175 198 0
173 197 0
173 197 0
174 198 0
175 198 0
172 196 0
171 195 0
173 197 0
173 197 0
174 197 0
173 197 0
173 197 0
172 195 0
171 195 0
174 198 0
172 196 0
175 198 0
173 197 0
173 197 0
173 197 0
174 198 0
174 197 0
174 197 0
175 198 0
174 197 0
172 195 0
174 197 0
174 196 0
173 196 0
172 196 0
171 194 0
174 197 0
173 196 0
174 197 0
172 193 0
172 195 0
171 194 0
178 170 74
195 181 114
189 178 114
183 175 114
179 173 114
175 171 114
171 170 114
168 168 114
166 167 114
164 167 114
163 166 114
162 166 114
161 165 114
162 166 114
163 166 114
164 166 114
166 167 114
168 168 114
171 170 114
175 172 114
179 173 114
185 176 114
191 179 114
191 177 103
169 185 11
174 197 0
175 198 0
174 197 0
173 197 0
175 198 0
175 198 0
174 198 0
173 197 0
174 197 0
174 197 0
175 198 0
174 198 0
173 197 0
174 197 0
174 198 0
175 198 0
174 197 0
175 198 0
174 197 0
174 198 0
173 196 0
174 197 0
174 198 0
174 197 0
173 197 0
174 197 0
175 198 0
173 197 0
175 198 0
174 197 0
175 198 0
174 198 0
175 198 0
174 198 0
174 198 0
175 198 0
174 198 0
173 197 0
174 198 0
173 197 0
175 198 0
174 198 0
174 198 0
174 198 0
175 198 0
173 197 0
175 198 0
174 197 0
174 197 0
175 198 0
175 198 0
173 197 0
175 198 0
174 198 0
174 197 0
174 198 0
172 197 0
174 198 0
173 197 0
174 197 0
173 197 0
174 197 0
175 198 0
175 198 0
174 198 0
176 198 0
174 198 0
174 198 0
175 198 0
174 197 0
175 198 0
175 198 0
176 198 0
174 197 0
175 198 0
173 197 0
173 197 0
175 198 0
174 198 0
175 198 0
175 198 0
175 198 0
175 198 0
176 198 0
174 198 0
173 197 0
174 198 0
175 198 0
174 198 0
174 198 0
174 197 0
175 198 0
173 197 0
174 198 0
175 198 0
174 198 0
173 197 0
173 197 0
175 198 0
175 198 0
174 197 0
175 198 0
175 198 0
174 197 0
174 198 0
174 197 0
173 197 0
176 198 0
176 199 0
175 198 0
174 198 0
174 198 0
174 198 0
175 198 0
174 198 0
175 198 0
174 198 0
174 198 0
177 199 0
174 198 0
175 198 0
174 198 0
175 198 0
175 198 0
174 198 0
174 198 0
175 198 0
173 197 0
174 198 0
174 198 0
174 198 0
174 198 0
176 199 0
175 198 0
175 198 0
174 198 0
175 198 0
176 198 0
175 198 0
173 197 0
175 198 0
175 198 0
175 198 0
172 197 0
172 197 0
175 198 0
175 198 0
175 198 0
174 198 0
175 198 0
173 197 0
173 197 0
176 199 0
175 198 0
175 198 0
174 198 0
174 198 0
176 198 0
175 198 0
174 198 0
177 199 0
175 198 0
173 197 0
176 198 0
175 198 0
176 199 0
175 198 0
175 198 0
174 198 0
173 197 0
174 198 0
176 199 0
174 198 0
173 197 0
174 198 0
173 197 0
174 198 0
172 197 0
176 199 0
174 198 0
174 198 0
174 198 0
172 197 0
175 198 0
176 199 0
172 197 0
174 197 0
176 199 0
174 198 0
173 197 0
175 198 0
175 198 0
174 198 0
174 198 0
174 198 0
173 197 0
175 198 0
175 198 0
174 198 0
176 199 0
174 198 0
173 197 0
175 198 0
174 198 0
174 197 0
175 198 0
174 198 0
174 198 0
174 197 0
175 198 0
173 197 0
173 197 0
174 198 0
174 197 0
174 198 0
175 198 0
175 198 0
174 198 0
177 199 0
176 199 0
176 199 0
174 197 0
176 198 0
175 198 0
173 197 0
175 198 0
175 198 0
177 199 0
174 197 0
174 198 0
174 198 0
175 198 0
175 198 0
174 197 0
176 199 0
175 198 0
174 198 0
175 198 0
173 197 0
175 198 0
174 198 0
174 198 0
175 198 0
174 198 0
176 199 0
176 198 0
174 197 0
175 198 0
175 198 0
174 198 0
175 198 0
176 199 0
174 198 0
175 198 0
174 198 0
176 198 0
173 197 0
175 198 0
174 197 0
174 198 0
176 199 0
175 198 0
175 198 0
175 198 0
175 198 0
175 198 0
175 198 0
172 197 0
174 198 0
174 198 0
176 199 0
174 198 0
174 198 0
173 197 0
173 197 0
175 198 0
174 198 0
176 199 0
176 198 0
174 197 0
174 197 0
174 198 0
174 198 0
175 198 0
175 198 0
174 197 0
174 198 0
176 198 0
174 198 0
175 198 0
174 198 0
174 197 0
173 197 0
174 198 0
174 198 0
174 198 0
174 197 0
176 198 0
175 198 0
175 198 0
174 198 0
174 197 0
174 198 0
174 197 0
173 197 0
172 196 0
174 197 0
174 198 0
175 198 0
175 198 0
174 197 0
175 198 0
174 197 0
172 196 0
176 199 0
173 197 0
172 195 0
173 196 0
174 197 0
173 197 0
173 197 0
175 198 0
175 198 0
173 197 0
174 197 0
174 198 0
173 197 0
176 198 0
173 196 0
174 198 0
173 197 0
175 198 0
172 196 0
175 198 0
173 196 0
172 196 0
175 198 0
174 197 0
173 196 0
173 197 0
175 198 0
174 197 0
173 197 0
175 197 0
176 199 0
175 198 0
174 198 0
173 197 0
173 197 0
173 196 0
172 195 0
172 195 0
171 194 0
173 197 0
173 196 0
175 198 0
172 195 0
156 180 80
140 165 110
105 133 153
86 117 166
66 102 178
67 103 178
73 108 175
82 114 169
104 133 152
134 159 121
158 181 80
172 195 0
173 196 0
172 196 0
174 197 0
173 195 0
173 195 0
162 172 0
190 177 101
193 180 114
187 177 114
182 175 114
178 173 114
174 171 114
171 170 114
168 168 114
166 167 114
164 167 114
163 166 114
162 166 114
162 166 114
162 166 114
163 166 114
164 167 114
166 167 114
168 168 114
171 170 114
174 171 114
178 173 114
183 175 114
188 178 114
195 181 114
173 176 57
173 196 0
175 198 0
175 198 0
173 197 0
175 197 0
174 197 0
173 196 0
173 197 0
174 198 0
176 199 0
175 198 0
175 197 0
173 197 0
175 198 0
173 197 0
175 198 0
173 197 0
174 197 0
173 197 0
176 198 0
174 197 0
174 197 0
174 197 0
176 199 0
176 198 0
173 197 0
175 198 0
173 197 0
175 198 0
173 197 0
176 198 0
173 197 0
174 198 0
174 198 0
174 197 0
175 198 0
174 198 0
175 198 0
175 198 0
174 198 0
174 198 0
174 198 0
173 197 0
175 198 0
176 199 0
174 197 0
174 198 0
174 198 0
176 199 0
175 198 0
173 197 0
174 198 0
174 198 0
173 197 0
174 198 0
174 198 0
173 197 0
175 198 0
175 198 0
173 197 0
174 198 0
173 197 0
175 198 0
175 198 0
174 198 0
174 198 0
174 197 0
175 198 0
173 197 0
175 198 0
174 197 0
175 198 0
173 197 0
174 198 0
173 197 0
174 198 0
174 198 0
175 198 0
175 198 0
177 199 0
176 198 0
174 198 0
174 197 0
175 198 0
175 198 0
176 198 0
174 197 0
174 198 0
174 198 0
175 198 0
174 197 0
174 198 0
175 198 0
174 197 0
176 198 0
175 198 0
176 198 0
175 198 0
174 198 0
175 198 0
174 198 0
174 198 0
175 198 0
175 198 0
174 198 0
176 199 0
175 198 0
174 198 0
173 197 0
175 198 0
174 198 0
174 198 0
174 198 0
174 198 0
174 198 0
175 198 0
174 198 0
174 197 0
174 198 0
174 198 0
174 198 0
174 198 0
175 198 0
175 198 0
173 197 0
176 198 0
173 197 0
175 198 0
175 198 0
175 198 0
174 197 0
173 197 0
174 198 0
174 198 0
175 198 0
172 197 0
174 198 0
176 199 0
174 197 0
174 198 0
175 198 0
174 198 0
175 198 0
173 197 0
175 198 0
174 198 0
175 198 0
174 198 0
176 199 0
175 198 0
173 197 0
176 199 0
176 198 0
175 198 0
175 198 0
175 198 0
176 199 0
176 198 0
174 198 0
174 198 0
176 199 0
175 198 0
174 198 0
175 198 0
176 199 0
173 197 0
173 197 0
175 198 0
175 198 0
175 198 0
175 198 0
176 198 0
175 198 0
174 198 0
175 198 0
174 197 0
175 198 0
175 198 0
176 198 0
175 198 0
174 197 0
175 198 0
174 197 0
174 198 0
175 198 0
175 198 0
175 198 0
174 197 0
174 198 0
175 198 0
175 198 0
175 198 0
174 198 0
174 197 0
175 198 0
176 198 0
175 198 0
176 199 0
175 198 0
173 197 0
174 197 0
174 198 0
176 199 0
173 197 0
175 198 0
174 198 0
175 198 0
174 197 0
175 198 0
174 198 0
175 198 0
174 197 0
175 198 0
175 198 0
174 198 0
174 198 0
172 197 0
174 198 0
173 197 0
174 198 0
175 198 0
175 198 0
174 198 0
176 198 0
175 198 0
176 199 0
174 197 0
175 198 0
174 198 0
175 198 0
175 198 0
174 198 0
174 198 0
174 198 0
176 199 0
174 198 0
177 199 0
173 197 0
174 198 0
174 198 0
174 198 0
174 198 0
175 198 0
174 198 0
175 198 0
175 198 0
175 198 0
174 198 0
173 197 0
172 197 0
174 198 0
175 198 0
175 198 0
174 197 0
173 197 0
174 198 0
174 197 0
174 198 0
175 198 0
176 199 0
174 198 0
174 198 0
176 199 0
174 198 0
173 197 0
174 198 0
174 198 0
175 198 0
176 198 0
175 198 0
173 197 0
175 198 0
174 198 0
176 199 0
174 198 0
175 198 0
174 197 0
175 198 0
174 198 0
174 197 0
176 199 0
173 196 0
174 197 0
176 199 0
174 198 0
175 198 0
175 198 0
172 196 0
174 198 0
174 197 0
174 198 0
175 198 0
174 197 0
176 199 0
175 198 0
175 198 0
174 197 0
173 197 0
174 197 0
174 198 0
175 198 0
174 198 0
174 198 0
174 197 0
173 197 0
175 198 0
175 198 0
176 198 0
174 198 0
175 198 0
176 198 0
175 198 0
172 197 0
175 198 0
176 199 0
174 197 0
174 198 0
175 198 0
175 198 0
173 197 0
174 197 0
174 198 0
173 196 0
174 197 0
174 197 0
176 198 0
173 197 0
173 197 0
174 197 0
174 197 0
175 198 0
175 198 0
175 198 0
173 197 0
174 198 0
172 196 0
173 196 0
174 197 0
175 198 0
174 198 0
173 197 0
172 195 0
172 196 0
173 196 0
174 197 0
173 196 0
175 198 0
172 195 0
172 195 0
172 195 0
174 197 0
173 196 0
170 194 0
173 196 0
172 195 25
140 165 110
91 121 163
62 99 181
61 99 180
61 99 181
61 99 181
62 99 181
61 99 181
61 99 181
62 99 181
61 99 181
62 99 180
62 99 180
98 127 155
142 167 104
173 196 0
175 197 0
170 194 0
171 191 0
167 161 52
198 182 114
192 179 114
187 177 114
182 175 114
178 173 114
175 171 114
172 170 114
169 169 114
167 168 114
165 167 114
164 167 114
163 166 114
163 166 114
163 166 114
164 166 114
165 167 114
167 168 114
169 169 114
171 170 114
174 171 114
178 173 114
182 175 114
188 177 114
193 180 114
187 174 95
169 187 0
174 197 0
174 197 0
173 196 0
173 196 0
174 197 0
174 197 0
172 195 0
176 198 0
175 197 0
174 197 0
174 197 0
174 197 0
175 198 0
172 196 0
173 197 0
174 198 0
174 198 0
174 198 0
174 198 0
175 198 0
175 198 0
174 197 0
175 198 0
175 198 0
174 198 0
174 198 0
174 198 0
174 198 0
175 198 0
174 198 0
174 198 0
174 198 0
175 198 0
174 198 0
175 198 0
176 198 0
173 197 0
174 197 0
174 197 0
174 198 0
175 198 0
175 198 0
173 197 0
174 198 0
175 198 0
176 199 0
175 198 0
175 198 0
176 199 0
173 197 0
175 198 0
175 198 0
174 198 0
177 199 0
172 196 0
173 197 0
176 199 0
173 197 0
174 198 0
173 197 0
174 198 0
176 198 0
173 197 0
174 198 0
174 198 0
174 198 0
174 198 0
175 198 0
174 198 0
174 198 0
176 198 0
174 198 0
174 198 0
174 198 0
174 198 0
175 198 0
175 198 0
173 197 0
174 198 0
174 197 0
174 197 0
175 198 0
175 198 0
173 197 0
176 198 0
173 197 0
175 198 0
174 198 0
173 197 0
174 198 0
174 198 0
174 197 0
175 198 0
175 198 0
173 197 0
174 198 0
175 198 0
177 199 0
173 197 0
175 198 0
174 198 0
176 199 0
174 198 0
175 198 0
174 198 0
175 198 0
175 198 0
175 198 0
175 198 0
174 197 0
174 198 0
175 198 0
174 198 0
176 198 0
174 198 0
177 199 0
174 198 0
174 198 0
174 198 0
175 198 0
175 198 0
173 197 0
175 198 0
174 198 0
173 197 0
174 197 0
174 197 0
175 198 0
175 198 0
174 198 0
175 198 0
175 198 0
176 198 0
174 198 0
173 197 0
176 198 0
173 197 0
174 198 0
174 197 0
175 198 0
175 198 0
174 198 0
174 197 0
174 198 0
176 199 0
175 198 0
173 197 0
173 197 0
174 198 0
176 199 0
174 198 0
175 198 0
174 198 0
175 198 0
173 197 0
175 198 0
176 199 0
176 199 0
175 198 0
176 199 0
174 198 0
175 198 0
173 197 0
174 198 0
175 198 0
174 198 0
175 198 0
177 199 0
175 198 0
175 198 0
175 198 0
175 198 0
175 198 0
175 198 0
173 197 0
176 199 0
174 198 0
174 198 0
176 199 0
173 197 0
174 198 0
173 197 0
173 197 0
175 198 0
174 198 0
174 198 0
176 199 0
175 198 0
174 198 0
175 198 0
176 199 0
173 197 0
175 198 0
176 199 0
175 198 0
173 197 0
174 198 0
175 198 0
175 198 0
174 198 0
174 198 0
175 198 0
173 197 0
175 198 0
175 198 0
173 197 0
174 198 0
173 197 0
174 197 0
173 197 0
175 198 0
174 198 0
174 198 0
174 198 0
174 198 0
174 197 0
175 198 0
175 198 0
176 198 0
174 198 0
176 199 0
175 198 0
174 198 0
173 196 0
175 198 0
176 199 0
177 199 0
175 198 0
175 198 0
174 197 0
174 198 0
176 198 0
173 197 0
175 198 0
176 199 0
175 198 0
175 198 0
173 197 0
175 198 0
176 198 0
174 198 0
174 198 0
174 198 0
175 198 0
174 198 0
175 198 0
173 197 0
175 198 0
175 197 0
175 198 0
173 197 0
174 197 0
173 197 0
175 198 0
173 197 0
174 198 0
176 199 0
175 198 0
174 197 0
173 197 0
174 198 0
173 197 0
173 197 0
174 198 0
172 197 0
173 197 0
174 198 0
174 198 0
175 198 0
173 197 0
172 196 0
175 198 0
173 197 0
174 198 0
176 198 0
173 197 0
175 198 0
175 198 0
174 198 0
173 197 0
175 198 0
173 197 0
175 198 0
175 198 0
173 197 0
174 198 0
175 198 0
174 198 0
174 197 0
175 198 0
173 197 0
174 198 0
176 198 0
174 198 0
173 197 0
175 198 0
174 197 0
174 198 0
175 198 0
174 197 0
173 197 0
175 197 0
174 197 0
175 198 0
172 196 0
173 197 0
174 198 0
173 197 0
174 198 0
175 198 0
173 197 0
174 198 0
174 198 0
175 198 0
175 198 0
173 196 0
173 197 0
173 197 0
173 197 0
175 198 0
175 198 0
173 196 0
174 198 0
174 197 0
174 198 0
174 197 0
174 197 0
173 197 0
175 198 0
174 198 0
174 197 0
173 196 0
174 197 0
173 197 0
171 195 0
172 196 0
172 196 0
175 198 0
176 198 0
172 196 0
174 197 0
175 198 0
172 196 0
171 195 0
174 196 0
174 197 0
174 197 0
173 197 0
174 196 0
172 195 0
173 197 0
172 195 0
155 178 84
93 123 163
61 98 177
62 99 181
62 99 181
62 99 181
61 99 181
61 98 181
61 99 181
62 99 181
62 99 181
62 99 181
61 99 180
61 99 180
61 98 180
62 99 178
61 98 177
94 123 161
158 182 76
172 194 0
166 179 0
169 162 58
197 182 114
192 179 114
187 177 114
183 175 114
179 174 114
176 172 114
173 171 114
171 170 114
169 169 114
167 168 114
166 167 114
165 167 114
165 167 114
165 167 114
166 167 114
167 168 114
168 168 114
170 169 114
172 170 114
175 172 114
179 173 114
183 175 114
187 177 114
193 180 114
197 181 111
164 173 0
173 196 0
173 196 0
173 196 0
173 197 0
175 198 0
174 197 0
175 198 0
174 197 0
175 198 0
173 197 0
175 198 0
174 197 0
174 197 0
172 197 0
172 196 0
175 198 0
174 197 0
175 198 0
174 197 0
174 198 0
174 197 0
175 198 0
175 198 0
175 198 0
173 196 0
174 197 0
174 197 0
175 198 0
175 198 0
172 197 0
174 197 0
174 197 0
173 196 0
174 198 0
174 198 0
173 197 0
175 198 0
174 197 0
174 197 0
175 198 0
173 197 0
172 197 0
175 198 0
176 199 0
175 198 0
176 199 0
175 198 0
175 198 0
176 198 0
173 197 0
174 197 0
176 199 0
175 198 0
175 198 0
173 197 0
176 199 0
173 197 0
173 197 0
174 198 0
174 198 0
175 198 0
175 198 0
176 199 0
175 198 0
176 198 0
175 198 0
175 198 0
174 197 0
174 197 0
175 198 0
175 198 0
174 198 0
173 197 0
176 198 0
176 198 0
174 198 0
175 198 0
175 198 0
174 197 0
174 198 0
176 199 0
175 198 0
175 198 0
174 197 0
175 198 0
174 198 0
173 197 0
175 198 0
174 198 0
174 198 0
175 198 0
173 197 0
174 198 0
174 198 0
175 198 0
175 198 0
175 198 0
173 197 0
175 198 0
174 198 0
175 198 0
175 198 0
175 198 0
175 198 0
174 198 0
175 198 0
175 198 0
176 199 0
176 198 0
175 198 0
174 198 0
174 198 0
175 198 0
174 198 0
176 199 0
176 198 0
174 198 0
175 198 0
174 197 0
173 197 0
174 197 0
175 198 0
173 197 0
176 198 0
177 199 0
175 198 0
174 198 0
176 198 0
174 197 0
175 198 0
174 198 0
174 197 0
175 198 0
174 197 0
174 198 0
175 198 0
174 198 0
175 198 0
173 197 0
174 198 0
173 197 0
173 197 0
174 198 0
175 198 0
173 197 0
174 198 0
175 198 0
174 198 0
175 198 0
175 198 0
175 198 0
175 198 0
174 198 0
175 198 0
174 198 0
174 198 0
175 198 0
173 197 0
175 198 0
174 198 0
175 198 0
176 199 0
174 198 0
175 198 0
173 197 0
175 198 0
175 198 0
173 197 0
175 198 0
174 198 0
176 199 0
176 199 0
174 198 0
174 198 0
174 198 0
173 197 0
174 197 0
174 198 0
175 198 0
176 198 0
175 198 0
175 198 0
173 197 0
175 198 0
173 197 0
175 198 0
175 198 0
173 197 0
174 197 0
177 199 0
176 198 0
174 197 0
174 197 0
176 198 0
174 198 0
174 197 0
174 198 0
175 198 0
174 198 0
173 197 0
174 198 0
174 198 0
175 198 0
174 198 0
175 198 0
175 198 0
174 197 0
176 198 0
174 197 0
174 197 0
175 198 0
174 198 0
176 199 0
174 197 0
175 198 0
175 198 0
175 198 0
175 198 0
174 197 0
175 198 0
173 197 0
174 198 0
174 198 0
176 199 0
175 198 0
175 198 0
174 198 0
175 198 0
174 198 0
174 198 0
174 198 0
175 198 0
176 198 0
174 197 0
174 198 0
175 198 0
173 197 0
174 198 0
174 198 0
174 198 0
176 198 0
175 198 0
174 198 0
174 198 0
175 198 0
176 199 0
176 198 0
175 198 0
176 198 0
175 198 0
174 197 0
176 199 0
174 198 0
173 197 0
176 199 0
174 198 0
174 198 0
175 198 0
174 198 0
175 198 0
174 198 0
175 198 0
175 198 0
175 198 0
175 198 0
173 197 0
174 198 0
173 197 0
175 198 0
175 198 0
174 197 0
173 197 0
175 198 0
173 196 0
175 198 0
174 197 0
174 197 0
175 198 0
175 198 0
174 198 0
173 197 0
176 198 0
175 198 0
175 198 0
174 198 0
175 198 0
174 198 0
172 197 0
175 198 0
175 198 0
176 198 0
175 198 0
172 197 0
175 198 0
175 198 0
174 198 0
174 198 0
175 198 0
174 197 0
174 197 0
173 197 0
175 198 0
174 196 0
173 197 0
176 198 0
175 198 0
175 198 0
173 197 0
173 197 0
174 198 0
175 198 0
173 196 0
174 198 0
174 198 0
174 197 0
174 197 0
174 198 0
172 196 0
173 196 0
175 198 0
172 196 0
174 198 0
177 199 0
174 197 0
174 198 0
174 197 0
173 196 0
175 198 0
172 195 0
174 197 0
173 197 0
173 196 0
174 197 0
173 196 0
174 197 0
174 196 0
172 196 0
174 197 0
175 198 0
175 197 0
170 194 0
173 196 0
174 196 0
175 198 0
170 194 0
173 196 0
174 197 0
172 196 0
174 197 0
173 196 0
172 196 0
130 155 124
64 100 171
62 99 179
62 99 180
62 99 180
61 99 180
61 99 181
62 99 181
61 99 181
61 99 181
62 99 181
61 99 181
61 98 181
62 99 181
62 99 180
61 99 180
62 99 179
62 99 177
61 98 177
68 103 175
145 168 99
159 162 0
172 164 67
197 182 114
193 180 114
188 178 114
184 176 114
181 174 114
178 173 114
175 172 114
173 171 114
171 170 114
170 169 114
169 169 114
168 168 114
168 168 114
168 168 114
168 168 114
169 169 114
170 169 114
172 170 114
174 171 114
177 172 114
180 174 114
184 176 114
188 178 114
193 180 114
199 183 114
161 161 22
173 196 0
174 197 0
173 196 0
172 196 0
173 196 0
173 196 0
175 197 0
173 196 0
174 198 0
174 198 0
172 196 0
174 197 0
173 197 0
174 198 0
176 199 0
174 197 0
175 198 0
174 197 0
174 197 0
174 197 0
174 198 0
174 198 0
173 197 0
174 197 0
174 197 0
174 197 0
173 197 0
175 198 0
175 198 0
176 198 0
175 198 0
174 198 0
175 198 0
173 197 0
174 198 0
172 196 0
176 198 0
174 197 0
173 197 0
174 198 0
174 198 0
174 197 0
175 198 0
174 198 0
174 198 0
173 197 0
175 198 0
175 198 0
174 198 0
175 198 0
174 197 0
175 198 0
173 197 0
175 198 0
174 198 0
174 197 0
173 197 0
173 197 0
175 198 0
174 197 0
175 198 0
176 199 0
174 198 0
174 198 0
173 197 0
175 198 0
174 197 0
173 197 0
176 198 0
174 198 0
174 198 0
176 198 0
174 198 0
174 197 0
175 198 0
175 198 0
176 199 0
173 197 0
174 198 0
174 198 0
176 198 0
175 198 0
174 198 0
173 197 0
175 198 0
175 198 0
175 198 0
174 198 0
173 197 0
174 198 0
174 197 0
174 198 0
174 198 0
173 197 0
176 198 0
175 198 0
176 199 0
175 198 0
175 198 0
175 198 0
174 198 0
173 197 0
174 198 0
174 197 0
176 199 0
174 198 0
175 198 0
172 197 0
174 198 0
174 198 0
174 197 0
174 198 0
173 197 0
175 198 0
175 198 0
172 197 0
175 198 0
174 198 0
174 197 0
174 197 0
174 198 0
173 197 0
174 198 0
175 198 0
175 198 0
174 198 0
174 198 0
176 199 0
173 197 0
173 197 0
174 198 0
175 198 0
174 197 0
175 198 0
175 198 0
174 198 0
173 197 0
175 198 0
175 198 0
176 198 0
175 198 0
175 198 0
174 198 0
173 197 0
175 198 0
176 199 0
174 198 0
173 197 0
173 197 0
176 199 0
176 199 0
175 198 0
175 198 0
176 198 0
175 198 0
176 199 0
173 197 0
174 197 0
176 199 0
173 197 0
173 197 0
176 199 0
173 197 0
175 198 0
173 197 0
175 198 0
174 198 0
175 198 0
175 198 0
174 198 0
176 198 0
175 198 0
174 198 0
175 198 0
176 198 0
174 198 0
173 197 0
176 198 0
174 198 0
175 198 0
173 197 0
174 198 0
175 198 0
173 197 0
174 198 0
174 197 0
174 198 0
174 198 0
174 198 0
174 198 0
173 197 0
174 197 0
176 199 0
175 198 0
174 198 0
175 198 0
175 198 0
176 199 0
174 197 0
175 198 0
173 197 0
174 198 0
173 197 0
174 198 0
174 198 0
176 199 0
174 197 0
174 198 0
176 199 0
175 198 0
176 199 0
175 198 0
175 198 0
174 198 0
174 198 0
175 198 0
175 198 0
175 198 0
174 198 0
175 198 0
175 198 0
174 198 0
175 198 0
174 198 0
175 198 0
174 197 0
174 198 0
175 198 0
175 198 0
173 197 0
175 198 0
174 197 0
173 196 0
175 198 0
173 197 0
173 197 0
175 198 0
176 199 0
175 198 0
175 198 0
174 198 0
174 198 0
174 198 0
175 198 0
175 198 0
175 198 0
175 198 0
174 198 0
174 198 0
173 197 0
174 198 0
174 198 0
173 197 0
175 198 0
175 198 0
175 198 0
176 199 0
173 197 0
174 198 0
175 198 0
176 198 0
175 198 0
174 197 0
174 197 0
175 198 0
175 198 0
173 197 0
174 198 0
175 198 0
173 197 0
175 198 0
174 198 0
175 198 0
175 198 0
173 197 0
174 198 0
175 198 0
173 196 0
175 198 0
174 198 0
175 198 0
174 197 0
174 197 0
174 198 0
175 198 0
173 197 0
175 198 0
174 198 0
176 199 0
173 197 0
174 198 0
173 197 0
173 197 0
174 197 0
175 198 0
175 198 0
175 198 0
174 197 0
173 197 0
174 198 0
174 198 0
175 198 0
177 199 0
173 197 0
172 196 0
173 196 0
174 197 0
174 198 0
173 197 0
175 197 0
176 198 0
173 197 0
175 197 0
175 198 0
173 197 0
174 198 0
172 195 0
174 197 0
174 197 0
177 199 0
173 197 0
173 197 0
174 198 0
171 195 0
175 198 0
174 198 0
173 196 0
172 196 0
172 196 0
175 198 0
173 197 0
173 197 0
173 196 0
174 198 0
172 196 0
172 196 0
174 197 0
172 195 0
174 197 0
173 196 0
173 196 0
174 197 0
173 196 0
175 197 0
173 196 0
167 191 0
172 196 0
173 196 0
173 196 0
170 194 25
121 147 136
62 99 178
62 99 178
62 99 178
62 99 180
62 99 178
62 99 181
61 98 181
62 99 181
61 98 179
61 99 181
61 99 181
62 99 181
62 99 180
62 99 181
62 99 181
62 99 181
62 99 178
62 99 180
62 99 177
62 99 174
62 98 176
117 127 117
169 162 56
198 183 114
189 176 112
164 157 104
148 145 101
170 164 109
181 174 114
178 173 114
176 172 114
174 171 114
173 171 114
172 170 114
171 170 114
171 170 114
171 170 114
171 170 114
172 170 114
173 171 114
175 172 114
177 172 114
180 174 114
182 175 114
186 176 114
190 178 114
194 180 114
199 183 113
157 154 19
172 194 0
174 197 0
174 197 0
173 195 0
174 197 0
174 196 0
172 197 0
175 197 0
173 196 0
174 196 0
173 197 0
175 198 0
172 196 0
174 197 0
174 197 0
175 198 0
173 197 0
172 196 0
175 198 0
173 196 0
173 196 0
175 198 0
174 197 0
175 198 0
176 198 0
173 197 0
174 197 0
175 198 0
175 198 0
175 198 0
176 198 0
173 197 0
174 197 0
176 199 0
173 197 0
173 197 0
175 198 0
176 199 0
176 198 0
175 198 0
174 197 0
175 198 0
174 197 0
172 196 0
175 198 0
174 198 0
175 198 0
174 198 0
175 198 0
175 198 0
174 198 0
175 198 0
174 198 0
175 198 0
176 198 0
173 197 0
175 198 0
174 198 0
173 197 0
174 198 0
175 198 0
174 198 0
174 198 0
175 198 0
174 197 0
174 198 0
174 198 0
174 198 0
174 198 0
175 198 0
175 198 0
175 198 0
174 197 0
175 198 0
175 198 0
174 198 0
175 198 0
175 198 0
173 197 0
174 198 0
176 199 0
175 198 0
174 197 0
175 198 0
173 197 0
173 197 0
174 198 0
175 198 0
173 197 0
176 199 0
175 198 0
174 198 0
173 197 0
174 197 0
174 198 0
175 198 0
174 198 0
175 198 0
176 198 0
174 198 0
174 198 0
175 198 0
174 198 0
175 198 0
174 198 0
175 198 0
174 198 0
173 197 0
175 198 0
175 198 0
174 198 0
174 198 0
174 197 0
174 197 0
174 198 0
174 198 0
174 198 0
174 198 0
174 198 0
174 198 0
174 197 0
174 198 0
174 197 0
174 198 0
175 198 0
173 197 0
174 198 0
175 198 0
174 198 0
175 198 0
174 198 0
172 197 0
173 197 0
174 198 0
176 199 0
175 198 0
174 198 0
175 198 0
175 198 0
174 197 0
176 199 0
173 197 0
175 198 0
175 198 0
175 198 0
174 197 0
174 197 0
174 198 0
174 198 0
175 198 0
173 197 0
175 198 0
177 199 0
175 198 0
174 198 0
177 199 0
175 198 0
175 198 0
174 198 0
175 198 0
174 197 0
174 198 0
174 198 0
175 198 0
175 198 0
175 198 0
176 199 0
173 197 0
176 198 0
174 198 0
177 199 0
174 198 0
174 198 0
174 198 0
173 197 0
175 198 0
174 198 0
174 197 0
174 198 0
175 198 0
175 198 0
176 199 0
175 198 0
175 198 0
175 198 0
174 197 0
175 198 0
173 197 0
175 198 0
173 197 0
173 197 0
175 198 0
173 197 0
174 198 0
175 198 0
175 198 0
174 198 0
172 197 0
174 198 0
175 198 0
174 197 0
174 197 0
176 199 0
174 198 0
174 198 0
175 198 0
175 198 0
173 197 0
174 198 0
174 198 0
173 197 0
174 198 0
175 198 0
175 198 0
175 198 0
174 198 0
176 199 0
175 198 0
176 199 0
175 198 0
175 198 0
174 198 0
175 198 0
175 198 0
174 198 0
175 198 0
175 198 0
175 198 0
174 198 0
174 198 0
174 198 0
173 197 0
174 198 0
173 197 0
175 198 0
173 197 0
175 198 0
176 199 0
175 198 0
175 198 0
174 198 0
174 197 0
174 198 0
175 198 0
173 197 0
175 198 0
174 198 0
173 197 0
175 198 0
176 198 0
176 199 0
174 198 0
174 198 0
175 198 0
173 197 0
174 197 0
174 198 0
173 197 0
174 198 0
175 198 0
176 199 0
174 197 0
174 198 0
176 199 0
174 198 0
175 198 0
174 198 0
174 197 0
174 197 0
174 197 0
175 198 0
174 197 0
175 198 0
175 198 0
174 197 0
174 197 0
174 197 0
174 198 0
175 198 0
174 198 0
173 197 0
175 198 0
174 198 0
173 197 0
176 198 0
175 198 0
175 198 0
174 197 0
174 198 0
173 197 0
176 198 0
174 198 0
174 198 0
175 198 0
175 198 0
176 198 0
175 198 0
175 198 0
174 198 0
175 198 0
174 197 0
174 197 0
172 197 0
175 198 0
174 198 0
175 198 0
175 198 0
173 197 0
172 196 0
173 197 0
172 196 0
174 197 0
174 197 0
174 198 0
174 197 0
171 196 0
174 197 0
174 197 0
174 197 0
175 198 0
174 197 0
173 197 0
172 195 0
175 198 0
172 196 0
175 198 0
173 197 0
174 197 0
172 196 0
173 196 0
172 196 0
175 198 0
170 194 0
173 197 0
172 196 0
174 197 0
172 196 0
173 196 0
174 198 0
174 197 0
173 196 0
174 197 0
174 197 0
173 197 0
175 197 0
174 198 0
173 196 0
171 194 0
171 194 0
127 153 122
62 99 175
61 98 177
63 100 178
62 99 178
62 99 181
62 99 180
61 99 181
62 99 180
61 99 181
62 99 180
62 99 181
62 99 180
62 99 181
61 99 181
62 99 181
62 99 180
62 99 180
62 99 179
62 98 177
62 98 174
61 98 174
62 98 175
61 97 169
124 131 111
183 170 101
99 102 76
52 69 65
53 72 70
53 72 71
106 111 88
179 172 113
179 173 114
178 173 114
176 172 114
175 172 114
175 171 114
174 171 114
174 171 114
175 171 114
176 172 114
177 172 114
178 173 114
180 174 114
182 175 114
185 176 114
188 178 114
191 179 114
195 181 114
196 180 108
155 153 0
170 190 0
172 195 0
174 196 0
173 197 0
174 197 0
174 197 0
174 197 0
174 197 0
173 196 0
175 198 0
173 196 0
173 197 0
174 197 0
173 197 0
173 197 0
174 197 0
174 197 0
175 198 0
172 196 0
173 197 0
173 197 0
175 198 0
174 197 0
173 197 0
175 198 0
174 197 0
174 197 0
174 197 0
173 196 0
174 197 0
174 198 0
173 197 0
175 198 0
174 198 0
173 197 0
175 198 0
176 198 0
175 198 0
174 197 0
174 197 0
175 198 0
174 197 0
175 198 0
176 198 0
175 198 0
173 197 0
174 198 0
175 198 0
175 198 0
176 198 0
174 197 0
173 197 0
174 198 0
175 198 0
175 197 0
175 198 0
176 199 0
176 199 0
175 198 0
176 199 0
175 198 0
175 198 0
174 198 0
175 198 0
175 198 0
174 198 0
175 198 0
173 197 0
175 198 0
174 198 0
173 197 0
174 197 0
177 199 0
176 199 0
175 198 0
174 197 0
174 198 0
174 198 0
176 199 0
175 198 0
177 199 0
174 197 0
174 197 0
175 198 0
174 198 0
176 198 0
172 197 0
174 198 0
174 198 0
175 198 0
173 197 0
176 198 0
174 198 0
174 198 0
175 197 0
172 197 0
173 197 0
174 198 0
176 198 0
173 197 0
175 198 0
176 199 0
175 198 0
175 198 0
175 198 0
174 197 0
173 197 0
176 199 0
174 198 0
173 197 0
175 198 0
173 197 0
173 197 0
176 198 0
172 197 0
176 199 0
175 198 0
175 198 0
175 198 0
175 198 0
174 197 0
174 198 0
174 198 0
176 198 0
175 198 0
174 197 0
176 199 0
175 198 0
175 198 0
173 197 0
176 199 0
175 198 0
175 198 0
174 198 0
175 198 0
176 199 0
175 198 0
176 198 0
173 197 0
173 197 0
175 198 0
175 198 0
173 197 0
173 197 0
174 198 0
174 197 0
176 199 0
176 198 0
174 198 0
175 198 0
176 198 0
174 198 0
176 199 0
174 198 0
173 197 0
174 198 0
174 198 0
176 199 0
174 197 0
176 199 0
173 197 0
173 197 0
175 198 0
175 198 0
173 197 0
174 198 0
176 198 0
175 198 0
175 198 0
177 199 0
175 198 0
175 198 0
175 198 0
175 198 0
174 198 0
176 199 0
175 198 0
174 198 0
175 198 0
176 199 0
176 199 0
173 197 0
175 198 0
175 198 0
172 197 0
177 199 0
175 198 0
174 198 0
176 199 0
176 199 0
175 198 0
175 198 0
176 198 0
176 198 0
174 198 0
175 198 0
173 197 0
176 199 0
174 198 0
173 197 0
175 198 0
174 198 0
175 198 0
174 197 0
174 198 0
175 198 0
173 197 0
175 198 0
175 198 0
176 199 0
173 197 0
174 198 0
173 197 0
174 197 0
174 198 0
175 198 0
174 197 0
174 198 0
174 197 0
175 198 0
176 198 0
175 198 0
174 198 0
174 198 0
175 198 0
174 198 0
174 197 0
175 198 0
174 198 0
174 198 0
173 197 0
174 197 0
174 198 0
175 198 0
174 197 0
175 198 0
174 197 0
175 198 0
174 197 0
175 198 0
174 197 0
175 198 0
175 198 0
176 199 0
173 197 0
173 197 0
174 197 0
174 198 0
175 198 0
173 197 0
173 197 0
174 197 0
175 198 0
173 197 0
175 198 0
174 197 0
174 198 0
174 198 0
173 197 0
175 198 0
174 198 0
175 198 0
175 198 0
175 198 0
175 198 0
174 198 0
174 198 0
174 198 0
175 198 0
174 197 0
175 198 0
175 198 0
174 197 0
174 198 0
176 199 0
175 198 0
175 198 0
175 198 0
173 197 0
175 198 0
174 198 0
174 197 0
174 198 0
174 198 0
174 198 0
173 197 0
174 198 0
175 198 0
175 198 0
174 197 0
172 196 0
173 197 0
174 198 0
173 197 0
174 197 0
174 198 0
174 197 0
174 197 0
174 198 0
174 198 0
175 198 0
175 197 0
173 197 0
174 198 0
174 197 0
173 197 0
174 198 0
174 198 0
174 197 0
174 197 0
173 197 0
175 198 0
176 199 0
174 197 0
172 196 0
174 197 0
173 196 0
173 197 0
176 199 0
172 196 0
174 196 0
173 196 0
174 198 0
173 197 0
172 196 0
173 196 0
175 198 0
173 196 0
175 198 0
173 197 0
172 196 0
174 197 0
173 196 0
173 196 0
173 197 0
172 195 0
173 197 0
172 195 0
172 196 0
173 197 0
171 194 0
172 196 0
174 196 0
171 193 0
172 194 0
172 195 0
169 193 0
173 196 0
146 170 92
63 99 175
62 99 176
62 98 174
62 99 176
62 99 179
63 100 180
62 99 180
61 99 178
62 99 181
62 99 181
62 99 180
62 99 178
62 99 180
62 99 177
62 99 179
62 99 178
61 99 178
62 99 177
62 99 179
62 99 177
61 98 174
61 98 178
62 98 174
62 98 172
61 96 163
91 100 89
48 63 57
48 64 58
51 68 65
53 71 69
54 73 71
102 108 85
181 174 113
181 174 114
180 174 114
179 174 114
179 173 114
178 173 114
178 173 114
179 173 114
179 174 114
180 174 114
182 175 114
183 175 114
185 176 114
188 178 114
191 179 114
194 180 114
198 182 114
180 169 81
156 153 0
170 186 0
174 195 0
173 196 0
173 195 0
174 197 0
175 198 0
171 195 0
174 196 0
175 197 0
173 197 0
174 198 0
174 197 0
175 198 0
174 197 0
174 196 0
175 198 0
174 197 0
172 196 0
174 196 0
173 197 0
174 197 0
174 196 0
175 198 0
174 198 0
174 198 0
174 197 0
173 197 0
174 197 0
174 197 0
172 196 0
177 199 0
174 198 0
173 197 0
174 198 0
174 198 0
175 198 0
175 198 0
174 197 0
175 198 0
174 197 0
175 198 0
172 197 0
174 198 0
174 198 0
174 198 0
174 198 0
175 198 0
174 198 0
172 197 0
176 198 0
174 198 0
174 198 0
174 198 0
174 197 0
175 198 0
174 198 0
175 198 0
174 198 0
173 197 0
174 198 0
175 198 0
174 197 0
176 199 0
173 197 0
175 198 0
174 198 0
174 198 0
174 198 0
175 198 0
174 198 0
172 196 0
174 197 0
174 198 0
175 198 0
174 197 0
175 198 0
174 198 0
175 198 0
175 198 0
174 197 0
174 198 0
175 198 0
174 197 0
175 198 0
174 198 0
174 197 0
174 197 0
173 196 0
176 199 0
175 198 0
175 198 0
175 198 0
176 198 0
175 198 0
175 198 0
175 198 0
174 198 0
176 198 0
175 198 0
173 197 0
174 198 0
175 198 0
175 198 0
174 198 0
176 199 0
174 198 0
173 197 0
175 198 0
174 197 0
175 198 0
174 198 0
175 198 0
175 198 0
175 198 0
174 197 0
174 198 0
174 197 0
176 199 0
175 198 0
174 198 0
174 198 0
175 198 0
174 198 0
175 198 0
174 198 0
174 197 0
174 198 0
175 198 0
175 198 0
174 197 0
176 199 0
173 197 0
175 198 0
175 198 0
173 197 0
173 197 0
173 197 0
175 198 0
174 198 0
175 198 0
175 198 0
176 199 0
174 198 0
174 198 0
173 197 0
176 198 0
176 199 0
175 198 0
175 198 0
174 198 0
173 197 0
173 197 0
176 198 0
174 198 0
176 199 0
174 198 0
175 198 0
175 198 0
173 197 0
174 198 0
173 197 0
174 198 0
176 198 0
175 198 0
174 198 0
175 198 0
174 197 0
175 198 0
173 197 0
174 198 0
174 197 0
174 198 0
174 198 0
176 199 0
173 197 0
176 199 0
175 198 0
176 199 0
174 198 0
175 198 0
173 197 0
175 198 0
175 198 0
176 198 0
172 197 0
175 198 0
175 198 0
176 199 0
174 198 0
174 198 0
175 198 0
175 198 0
176 199 0
174 198 0
174 198 0
176 199 0
173 197 0
176 199 0
175 198 0
174 198 0
175 198 0
175 198 0
175 198 0
175 198 0
175 198 0
173 197 0
173 197 0
176 199 0
175 198 0
176 198 0
174 198 0
176 199 0
174 198 0
174 198 0
173 197 0
173 197 0
174 197 0
174 198 0
174 198 0
175 198 0
174 198 0
175 198 0
173 197 0
176 199 0
175 198 0
173 197 0
173 197 0
174 198 0
175 198 0
174 198 0
173 197 0
173 197 0
174 197 0
173 197 0
175 198 0
174 197 0
174 198 0
177 199 0
175 198 0
174 198 0
176 198 0
175 198 0
173 197 0
173 197 0
175 198 0
173 197 0
176 199 0
174 198 0
175 198 0
174 198 0
174 198 0
174 198 0
176 198 0
175 198 0
174 197 0
174 198 0
174 197 0
174 197 0
175 198 0
175 198 0
175 198 0
174 198 0
174 198 0
174 198 0
174 198 0
174 197 0
174 197 0
175 198 0
174 197 0
175 198 0
175 198 0
173 197 0
176 198 0
174 198 0
175 198 0
173 197 0
176 199 0
173 197 0
175 198 0
173 197 0
175 198 0
174 198 0
174 198 0
172 197 0
174 197 0
173 197 0
173 196 0
174 198 0
175 198 0
174 198 0
174 198 0
175 198 0
173 197 0
173 196 0
176 199 0
174 198 0
176 198 0
174 197 0
174 197 0
175 198 0
174 197 0
174 197 0
177 199 0
173 197 0
173 197 0
173 196 0
173 197 0
175 198 0
176 199 0
176 198 0
173 197 0
173 197 0
173 197 0
175 198 0
173 197 0
172 196 0
175 198 0
174 197 0
174 198 0
174 197 0
173 197 0
172 195 0
173 197 0
174 197 0
175 198 0
174 197 0
169 193 0
174 197 0
173 196 0
173 197 0
172 196 0
173 196 0
174 197 0
173 197 0
171 194 0
171 195 0
171 196 0
171 195 0
173 196 0
173 196 0
171 195 0
172 194 0
173 195 0
174 198 0
170 193 0
175 198 0
167 190 0
166 190 47
70 104 163
62 99 171
62 99 174
62 99 175
62 99 173
62 99 180
62 99 175
62 99 177
61 99 179
62 99 179
62 99 180
63 100 180
62 99 181
62 100 181
62 99 178
63 99 179
63 100 181
62 99 174
62 99 176
61 98 177
62 99 175
62 98 170
62 98 172
62 99 176
62 99 172
62 97 165
60 94 158
43 57 57
46 60 52
47 63 58
50 65 60
53 71 69
54 73 71
146 143 99
185 176 114
184 176 114
183 175 114
183 175 114
182 175 114
182 175 114
183 175 114
183 175 114
184 176 114
186 176 114
187 177 114
189 178 114
191 179 114
194 180 114
197 182 114
197 181 110
160 156 36
157 153 0
172 191 0
173 194 0
173 196 0
174 196 0
172 195 0
175 198 0
174 197 0
173 196 0
172 196 0
172 195 0
173 197 0
174 197 0
173 196 0
174 197 0
174 196 0
174 197 0
175 196 0
173 196 0
174 198 0
174 197 0
173 197 0
174 197 0
174 197 0
174 197 0
174 197 0
174 198 0
173 197 0
174 197 0
175 198 0
173 197 0
174 197 0
174 197 0
175 198 0
173 197 0
174 198 0
172 197 0
176 199 0
172 197 0
174 198 0
174 198 0
174 197 0
175 198 0
176 199 0
173 197 0
174 197 0
176 198 0
174 197 0
174 198 0
173 197 0
174 197 0
174 198 0
175 198 0
174 198 0
174 198 0
174 198 0
173 197 0
174 197 0
173 197 0
175 198 0
175 198 0
173 197 0
174 198 0
174 198 0
176 198 0
175 198 0
174 197 0
176 199 0
175 198 0
175 198 0
175 198 0
174 198 0
174 197 0
174 198 0
173 197 0
173 197 0
174 198 0
174 197 0
175 198 0
173 197 0
173 197 0
175 198 0
175 198 0
174 198 0
174 198 0
175 198 0
173 197 0
175 198 0
175 198 0
175 198 0
174 197 0
175 198 0
174 198 0
176 199 0
174 198 0
175 198 0
175 198 0
175 198 0
175 198 0
175 198 0
174 197 0
176 198 0
173 197 0
174 198 0
173 197 0
175 198 0
174 198 0
173 197 0
175 198 0
175 198 0
173 197 0
175 198 0
174 197 0
174 197 0
174 198 0
174 198 0
175 198 0
174 197 0
176 199 0
174 198 0
173 197 0
175 198 0
176 199 0
175 198 0
175 198 0
173 197 0
176 199 0
174 198 0
176 199 0
175 198 0
174 197 0
176 198 0
174 198 0
174 198 0
174 198 0
174 198 0
175 198 0
174 197 0
175 198 0
175 198 0
176 199 0
174 198 0
175 198 0
174 197 0
175 198 0
173 197 0
174 198 0
174 198 0
175 198 0
175 198 0
175 198 0
175 198 0
174 198 0
173 197 0
175 198 0
175 198 0
176 198 0
174 198 0
174 198 0
175 198 0
174 198 0
176 198 0
175 198 0
175 198 0
175 198 0
173 197 0
175 198 0
173 197 0
175 198 0
175 198 0
174 197 0
174 198 0
175 198 0
174 197 0
174 198 0
175 198 0
173 197 0
175 198 0
176 199 0
174 198 0
176 199 0
174 197 0
174 198 0
174 197 0
175 198 0
175 198 0
173 197 0
174 197 0
175 198 0
174 197 0
174 198 0
175 198 0
174 198 0
173 197 0
173 197 0
175 198 0
175 198 0
173 197 0
175 198 0
174 198 0
174 197 0
175 198 0
174 198 0
174 198 0
174 197 0
174 198 0
174 198 0
175 198 0
174 198 0
175 198 0
175 198 0
175 198 0
174 197 0
175 198 0
174 198 0
175 198 0
175 198 0
174 198 0
175 198 0
173 197 0
176 198 0
174 198 0
175 198 0
174 198 0
175 198 0
176 199 0
177 199 0
174 198 0
173 197 0
174 198 0
174 197 0
176 198 0
175 198 0
175 198 0
175 198 0
176 199 0
173 197 0
174 198 0
174 197 0
174 198 0
175 198 0
175 198 0
175 198 0
175 198 0
175 198 0
176 199 0
175 198 0
175 198 0
175 198 0
174 198 0
175 198 0
174 198 0
174 198 0
173 197 0
171 196 0
175 198 0
175 198 0
176 199 0
174 198 0
173 197 0
175 198 0
174 198 0
174 197 0
174 197 0
174 198 0
175 198 0
175 198 0
173 197 0
175 198 0
174 198 0
174 198 0
174 198 0
176 198 0
175 198 0
173 197 0
173 197 0
174 197 0
175 198 0
174 197 0
175 198 0
175 198 0
174 197 0
175 198 0
174 197 0
175 198 0
174 197 0
173 197 0
173 197 0
172 196 0
174 197 0
175 198 0
175 198 0
175 198 0
174 197 0
173 197 0
174 198 0
175 198 0
173 196 0
174 198 0
176 198 0
176 198 0
171 195 0
175 198 0
175 198 0
175 198 0
173 196 0
173 196 0
176 198 0
176 199 0
174 197 0
174 198 0
173 196 0
172 195 0
172 196 0
172 196 0
174 197 0
176 199 0
174 198 0
172 196 0
172 197 0
174 197 0
173 196 0
173 197 0
173 196 0
173 197 0
172 195 0
172 196 0
172 196 0
172 195 0
171 195 0
172 196 0
172 195 0
172 196 0
170 193 0
173 197 0
174 197 0
171 194 0
174 196 0
171 195 0
171 195 0
172 195 0
172 194 0
172 196 0
172 195 0
169 193 0
172 195 0
172 195 0
174 197 0
123 149 115
62 98 169
62 99 174
62 98 172
63 99 177
62 99 178
62 99 175
62 99 175
62 99 179
62 99 175
62 99 178
62 99 181
62 99 179
62 99 177
62 99 179
62 99 181
62 99 180
62 99 179
62 99 178
63 99 178
62 99 174
63 100 177
62 99 173
62 99 173
62 98 168
62 98 166
63 99 171
61 97 166
51 75 111
42 56 49
46 60 54
49 66 62
51 69 65
53 70 65
96 102 80
189 178 114
189 178 114
188 177 114
187 177 114
187 177 114
187 177 114
187 177 114
188 177 114
188 178 114
190 178 114
191 179 114
193 180 114
195 181 114
197 182 114
198 182 112
169 162 60
155 152 0
154 151 0
171 192 0
174 197 0
173 196 0
172 194 0
174 196 0
174 196 0
175 198 0
172 194 0
173 194 0
173 196 0
172 195 0
175 197 0
174 197 0
174 196 0
175 197 0
175 198 0
172 196 0
173 197 0
173 196 0
174 196 0
173 197 0
173 196 0
173 196 0
175 197 0
175 198 0
175 198 0
173 197 0
173 196 0
175 198 0
173 197 0
173 197 0
174 197 0
174 198 0
174 198 0
173 197 0
177 199 0
175 198 0
175 198 0
174 198 0
174 197 0
174 197 0
173 196 0
173 197 0
174 198 0
174 197 0
174 198 0
176 198 0
174 197 0
175 198 0
175 198 0
175 198 0
173 197 0
175 198 0
174 198 0
174 197 0
176 199 0
175 198 0
174 197 0
175 198 0
176 199 0
174 197 0
173 197 0
174 198 0
174 198 0
176 199 0
174 197 0
174 198 0
172 197 0
174 197 0
174 198 0
176 198 0
176 199 0
176 198 0
173 197 0
173 197 0
175 198 0
175 198 0
175 198 0
176 199 0
174 197 0
175 198 0
173 197 0
174 198 0
176 198 0
173 197 0
173 197 0
175 198 0
175 198 0
174 197 0
175 198 0
174 198 0
174 197 0
175 198 0
175 198 0
174 198 0
174 198 0
174 198 0
175 198 0
174 197 0
173 197 0
175 198 0
175 198 0
175 198 0
175 198 0
174 198 0
176 198 0
172 197 0
175 198 0
175 198 0
175 198 0
176 199 0
175 198 0
174 197 0
176 199 0
175 198 0
175 198 0
174 198 0
175 198 0
173 197 0
174 198 0
173 197 0
175 198 0
176 198 0
176 199 0
176 198 0
173 197 0
173 197 0
172 197 0
175 198 0
174 198 0
174 197 0
173 197 0
175 198 0
175 198 0
175 198 0
175 198 0
176 198 0
173 197 0
173 197 0
175 198 0
174 197 0
174 198 0
175 198 0
173 197 0
173 197 0
174 198 0
175 198 0
176 199 0
174 198 0
174 197 0
175 198 0
173 197 0
175 198 0
174 198 0
173 197 0
175 198 0
174 198 0
176 198 0
175 198 0
174 198 0
174 198 0
176 198 0
176 198 0
174 198 0
174 198 0
174 198 0
175 198 0
175 198 0
175 198 0
174 197 0
174 198 0
173 197 0
176 198 0
176 199 0
174 198 0
175 198 0
175 198 0
174 197 0
174 198 0
175 198 0
173 197 0
175 198 0
176 199 0
173 197 0
175 198 0
175 198 0
174 198 0
174 198 0
175 198 0
175 198 0
175 198 0
175 198 0
175 198 0
174 198 0
175 198 0
173 197 0
173 197 0
174 197 0
175 198 0
174 198 0
175 198 0
175 198 0
173 197 0
175 198 0
175 198 0
175 198 0
175 198 0
173 197 0
175 198 0
174 198 0
175 198 0
173 197 0
175 198 0
174 197 0
174 198 0
173 197 0
175 198 0
177 199 0
174 198 0
176 198 0
174 198 0
173 197 0
175 198 0
174 198 0
175 198 0
174 198 0
176 199 0
175 198 0
173 197 0
174 198 0
174 198 0
176 198 0
174 197 0
175 198 0
175 198 0
174 197 0
175 198 0
173 197 0
173 197 0
174 198 0
174 198 0
174 198 0
175 198 0
175 198 0
175 198 0
173 197 0
174 198 0
173 197 0
175 198 0
174 197 0
175 198 0
176 199 0
173 197 0
175 198 0
174 198 0
176 198 0
173 197 0
175 198 0
174 198 0
174 198 0
173 197 0
174 198 0
173 197 0
174 197 0
174 198 0
174 198 0
175 198 0
176 199 0
175 198 0
174 198 0
174 198 0
174 198 0
175 198 0
174 198 0
175 198 0
175 198 0
173 197 0
176 199 0
175 198 0
173 197 0
174 198 0
174 197 0
173 196 0
173 197 0
176 199 0
174 198 0
172 196 0
174 198 0
173 197 0
174 198 0
174 198 0
175 198 0
175 198 0
174 197 0
174 198 0
173 197 0
175 198 0
173 197 0
172 196 0
171 196 0
174 197 0
173 196 0
173 196 0
174 197 0
173 197 0
174 197 0
174 198 0
173 197 0
173 197 0
173 196 0
172 196 0
174 197 0
173 197 0
174 197 0
174 197 0
174 197 0
172 196 0
172 196 0
171 195 0
175 198 0
175 198 0
172 196 0
172 195 0
174 198 0
170 195 0
173 196 0
173 196 0
171 195 0
175 198 0
173 197 0
173 197 0
174 198 0
171 194 0
171 195 0
169 193 0
170 193 0
173 196 0
169 192 0
170 195 0
171 194 0
173 196 0
173 196 0
170 193 0
171 195 0
170 192 0
166 190 0
166 190 40
67 102 165
62 99 170
62 98 167
62 99 173
62 98 170
62 99 176
62 99 175
62 99 176
63 99 176
62 99 177
62 99 176
62 99 177
62 99 174
63 99 178
62 99 175
63 100 180
62 99 178
62 99 176
61 98 174
62 98 172
62 99 179
62 99 177
62 99 173
62 99 172
62 98 169
62 98 170
61 97 167
62 97 165
58 92 152
39 51 48
42 54 45
46 61 50
51 67 58
52 69 63
55 74 68
181 169 108
193 180 114
192 180 114
191 179 114
191 179 114
191 179 114
191 179 114
192 179 114
193 180 114
194 180 114
195 181 114
197 182 114
198 183 114
194 179 105
169 161 57
155 153 0
155 152 0
154 152 0
172 195 0
172 195 0
174 196 0
173 195 0
172 195 0
172 195 0
174 195 0
173 195 0
172 194 0
173 196 0
174 197 0
173 196 0
173 195 0
173 196 0
174 197 0
175 198 0
174 197 0
174 197 0
174 197 0
171 195 0
173 196 0
173 197 0
174 197 0
174 197 0
173 197 0
171 196 0
174 197 0
176 198 0
173 196 0
174 197 0
173 197 0
175 198 0
175 198 0
174 198 0
174 197 0
174 197 0
174 198 0
174 198 0
175 197 0
173 197 0
174 197 0
175 198 0
175 198 0
174 198 0
173 197 0
174 198 0
173 196 0
174 197 0
174 197 0
175 198 0
174 198 0
175 198 0
176 198 0
173 197 0
175 198 0
175 198 0
174 197 0
175 198 0
175 198 0
172 196 0
175 198 0
174 197 0
174 198 0
175 198 0
176 198 0
174 198 0
175 198 0
174 198 0
173 197 0
174 197 0
173 197 0
174 198 0
175 198 0
174 197 0
175 198 0
174 197 0
174 198 0
174 198 0
175 198 0
174 198 0
175 198 0
176 198 0
174 198 0
173 197 0
174 198 0
174 198 0
173 197 0
175 198 0
173 197 0
175 198 0
174 198 0
175 198 0
175 198 0
175 198 0
175 198 0
175 198 0
172 197 0
176 198 0
174 198 0
174 198 0
173 197 0
175 198 0
175 198 0
174 198 0
174 198 0
174 198 0
176 199 0
174 198 0
175 198 0
176 199 0
175 198 0
175 198 0
175 198 0
175 198 0
174 198 0
173 197 0
174 197 0
174 198 0
175 198 0
175 198 0
174 198 0
173 197 0
175 198 0
173 197 0
174 198 0
175 198 0
177 199 0
175 198 0
176 198 0
177 199 0
177 199 0
174 198 0
174 198 0
174 198 0
173 197 0
175 198 0
175 198 0
174 198 0
174 198 0
176 199 0
176 198 0
174 198 0
174 198 0
175 198 0
175 198 0
175 198 0
177 199 0
175 198 0
175 198 0
174 198 0
176 199 0
175 198 0
176 199 0
175 198 0
175 198 0
175 198 0
175 198 0
175 198 0
176 198 0
175 198 0
176 198 0
175 198 0
174 198 0
174 197 0
175 198 0
174 198 0
175 198 0
174 198 0
175 198 0
175 198 0
174 198 0
174 198 0
174 197 0
174 198 0
176 199 0
175 198 0
175 198 0
174 198 0
174 198 0
172 196 0
174 198 0
174 197 0
175 198 0
176 199 0
174 197 0
173 197 0
174 198 0
174 198 0
174 198 0
176 198 0
174 198 0
175 198 0
175 198 0
174 198 0
173 197 0
173 197 0
175 198 0
175 198 0
175 198 0
174 198 0
172 196 0
175 198 0
174 197 0
175 198 0
173 197 0
176 198 0
176 199 0
174 198 0
174 198 0
175 198 0
174 198 0
173 197 0
174 198 0
175 198 0
174 198 0
174 197 0
174 197 0
176 199 0
175 198 0
173 197 0
174 197 0
176 198 0
174 198 0
176 199 0
175 198 0
174 197 0
174 198 0
172 197 0
174 197 0
174 198 0
173 197 0
176 198 0
175 198 0
173 197 0
174 197 0
175 198 0
173 197 0
173 197 0
176 199 0
175 198 0
174 198 0
175 198 0
175 198 0
173 197 0
173 197 0
175 198 0
175 198 0
174 198 0
175 198 0
175 198 0
175 198 0
174 197 0
175 198 0
174 198 0
174 198 0
175 198 0
176 199 0
174 197 0
175 198 0
174 198 0
175 198 0
174 197 0
174 197 0
172 197 0
176 198 0
174 198 0
176 199 0
175 198 0
173 197 0
175 198 0
175 198 0
174 198 0
174 197 0
175 198 0
174 197 0
173 197 0
174 198 0
175 198 0
173 197 0
174 198 0
176 199 0
176 198 0
175 198 0
174 198 0
174 197 0
173 197 0
175 198 0
174 198 0
173 197 0
174 198 0
174 198 0
176 198 0
175 198 0
174 198 0
173 197 0
174 197 0
174 197 0
174 198 0
175 198 0
174 197 0
174 197 0
171 196 0
174 197 0
174 197 0
175 198 0
175 198 0
172 196 0
173 196 0
174 197 0
174 198 0
174 197 0
173 196 0
174 197 0
173 196 0
171 196 0
173 197 0
173 197 0
174 197 0
173 197 0
172 195 0
173 197 0
172 195 0
175 198 0
173 197 0
172 195 0
173 196 0
172 196 0
172 195 0
171 194 0
171 194 0
173 196 0
172 195 0
175 198 0
168 192 0
173 196 0
169 192 0
172 195 0
169 192 0
169 192 0
172 195 0
170 194 0
170 193 0
174 197 0
172 195 0
171 193 0
172 195 0
122 148 111
62 98 161
62 99 172
62 99 166
63 99 175
61 98 176
63 100 176
61 98 171
61 98 173
62 99 172
62 99 176
62 99 177
62 99 181
62 99 177
62 99 176
62 99 174
63 99 178
62 99 174
62 99 173
62 99 175
62 99 175
62 99 177
63 100 178
62 98 167
61 98 174
62 99 169
62 99 175
62 98 166
61 96 158
62 97 162
49 71 98
38 50 39
44 58 48
49 64 52
50 67 57
54 72 63
173 161 104
198 182 114
197 182 114
196 181 114
196 181 114
196 181 114
196 181 114
196 182 114
197 182 114
198 182 114
199 183 114
190 177 99
175 166 71
157 154 16
156 153 0
155 152 0
154 151 0
159 162 0
173 194 0
173 194 0
172 194 0
173 194 0
174 196 0
171 195 0
172 195 0
172 194 0
173 196 0
174 197 0
173 195 0
173 197 0
174 197 0
172 196 0
174 197 0
173 196 0
173 197 0
174 197 0
173 197 0
174 198 0
175 198 0
173 196 0
174 197 0
176 198 0
173 197 0
173 197 0
176 198 0
174 198 0
173 196 0
173 196 0
174 198 0
175 198 0
173 197 0
174 197 0
174 197 0
175 198 0
174 197 0
174 197 0
173 197 0
173 197 0
173 196 0
174 197 0
174 198 0
174 198 0
173 197 0
173 197 0
173 197 0
174 197 0
174 197 0
176 198 0
174 198 0
174 197 0
172 196 0
176 198 0
174 197 0
174 197 0
176 199 0
175 198 0
174 197 0
174 198 0
173 197 0
174 197 0
176 199 0
174 198 0
174 198 0
174 198 0
174 198 0
175 198 0
175 198 0
174 197 0
173 197 0
174 198 0
173 197 0
174 197 0
175 198 0
174 198 0
175 198 0
174 198 0
176 198 0
173 197 0
174 198 0
173 197 0
174 198 0
175 198 0
174 197 0
173 197 0
173 197 0
174 198 0
175 198 0
177 199 0
175 198 0
176 198 0
175 198 0
174 198 0
175 198 0
174 198 0
175 198 0
176 198 0
174 198 0
174 198 0
175 198 0
173 197 0
175 198 0
174 198 0
175 198 0
173 197 0
175 198 0
175 198 0
174 198 0
172 196 0
174 198 0
174 198 0
177 199 0
175 198 0
174 198 0
174 198 0
174 198 0
175 198 0
173 197 0
176 199 0
174 198 0
174 197 0
174 198 0
174 198 0
173 197 0
175 198 0
175 198 0
175 198 0
175 198 0
174 198 0
176 199 0
174 198 0
174 198 0
176 199 0
173 197 0
175 198 0
174 197 0
175 198 0
174 198 0
172 197 0
175 198 0
174 198 0
175 198 0
175 198 0
175 198 0
174 198 0
174 198 0
173 197 0
175 198 0
177 199 0
175 198 0
175 198 0
177 199 0
176 198 0
175 198 0
174 198 0
174 198 0
177 199 0
174 198 0
174 198 0
174 197 0
174 198 0
173 197 0
175 198 0
176 199 0
175 198 0
174 198 0
175 198 0
173 197 0
172 196 0
174 198 0
173 197 0
175 198 0
174 198 0
174 198 0
173 197 0
175 198 0
174 198 0
174 198 0
175 198 0
174 197 0
174 198 0
175 198 0
173 197 0
173 197 0
175 198 0
176 199 0
176 198 0
174 198 0
174 197 0
176 198 0
176 199 0
175 198 0
173 197 0
175 198 0
174 198 0
175 198 0
176 198 0
175 198 0
175 198 0
174 198 0
175 198 0
174 198 0
174 198 0
174 198 0
173 197 0
174 198 0
174 198 0
174 198 0
174 198 0
175 198 0
176 198 0
173 197 0
174 197 0
175 198 0
175 198 0
176 199 0
175 198 0
174 198 0
176 199 0
173 197 0
175 198 0
176 199 0
175 198 0
174 198 0
176 199 0
173 197 0
175 198 0
172 197 0
175 198 0
174 197 0
176 198 0
174 198 0
174 198 0
175 198 0
174 198 0
175 198 0
174 198 0
174 198 0
176 199 0
175 198 0
174 197 0
175 198 0
174 198 0
174 198 0
172 196 0
175 198 0
175 198 0
174 198 0
175 198 0
173 197 0
174 197 0
173 197 0
173 197 0
173 197 0
175 198 0
174 197 0
173 197 0
174 198 0
174 198 0
174 198 0
175 198 0
173 197 0
174 198 0
174 197 0
175 198 0
174 198 0
176 199 0
175 198 0
175 198 0
176 199 0
176 199 0
174 198 0
174 198 0
174 198 0
174 197 0
175 198 0
175 198 0
174 197 0
172 196 0
176 199 0
174 198 0
175 198 0
173 196 0
173 197 0
174 198 0
176 199 0
174 198 0
173 197 0
174 198 0
175 198 0
174 197 0
175 198 0
173 197 0
175 198 0
175 198 0
171 195 0
175 198 0
173 197 0
173 197 0
174 197 0
174 197 0
174 197 0
174 197 0
173 197 0
174 198 0
174 197 0
173 196 0
173 196 0
174 197 0
174 198 0
176 198 0
172 196 0
173 197 0
174 197 0
171 194 0
175 198 0
174 197 0
175 197 0
176 198 0
174 197 0
174 197 0
174 198 0
172 196 0
173 196 0
172 195 0
174 196 0
171 195 0
173 197 0
172 195 0
169 192 0
174 198 0
171 195 0
173 196 0
173 196 0
171 195 0
172 195 0
172 195 0
170 194 0
173 196 0
173 196 0
174 198 0
170 193 0
170 193 0
168 192 0
168 192 0
100 128 139
61 97 160
62 99 170
62 99 171
62 98 169
63 100 177
62 99 172
62 99 178
63 99 174
62 99 175
62 99 175
62 99 176
63 100 177
62 99 175
62 99 180
62 99 173
62 99 175
62 99 173
61 98 167
62 99 174
62 99 174
63 99 173
62 99 175
62 99 170
63 99 172
63 99 170
62 98 167
61 97 167
62 98 162
61 97 157
54 83 128
38 49 36
45 57 44
49 64 51
51 68 56
52 71 59
145 142 54
171 163 62
179 169 80
183 172 88
186 174 94
189 176 97
189 176 97
182 171 85
181 170 84
175 166 70
162 157 39
155 152 0
154 151 0
155 152 0
156 152 0
154 151 0
155 152 0
167 179 0
173 194 0
174 196 0
172 194 0
173 195 0
171 193 0
173 195 0
173 193 0
173 194 0
171 193 0
172 196 0
173 195 0
172 194 0
172 196 0
173 196 0
175 198 0
173 196 0
173 196 0
175 198 0
173 196 0
174 196 0
175 197 0
174 198 0
174 197 0
172 196 0
173 197 0
173 197 0
173 197 0
174 198 0
173 196 0
175 198 0
174 197 0
175 198 0
175 198 0
175 198 0
174 197 0
173 197 0
173 197 0
175 198 0
175 198 0
175 198 0
176 199 0
174 197 0
174 198 0
176 198 0
174 198 0
175 198 0
177 199 0
172 197 0
173 197 0
174 198 0
174 197 0
174 198 0
173 197 0
174 198 0
175 198 0
175 198 0
174 197 0
174 198 0
175 198 0
174 198 0
173 197 0
174 197 0
175 198 0
175 198 0
174 197 0
174 197 0
173 197 0
175 198 0
174 197 0
173 197 0
174 197 0
172 197 0
174 198 0
175 198 0
173 197 0
175 198 0
175 198 0
174 198 0
174 198 0
173 197 0
175 198 0
174 197 0
176 199 0
174 198 0
176 198 0
175 198 0
174 198 0
175 198 0
175 198 0
173 197 0
175 198 0
174 198 0
175 198 0
174 198 0
174 198 0
174 198 0
174 198 0
174 198 0
174 198 0
174 197 0
174 198 0
175 198 0
175 198 0
174 197 0
173 197 0
174 198 0
175 198 0
174 198 0
176 198 0
173 197 0
175 198 0
173 197 0
173 197 0
176 199 0
174 198 0
173 197 0
174 198 0
175 198 0
173 197 0
174 198 0
175 198 0
175 198 0
175 198 0
175 198 0
173 197 0
173 197 0
173 197 0
175 198 0
175 198 0
175 198 0
173 197 0
176 199 0
176 198 0
175 198 0
175 198 0
174 198 0
173 197 0
175 198 0
174 198 0
175 198 0
175 198 0
175 198 0
175 198 0
174 198 0
173 197 0
173 197 0
175 198 0
173 197 0
174 198 0
175 198 0
174 197 0
174 198 0
174 197 0
174 197 0
174 198 0
175 198 0
173 197 0
174 198 0
175 198 0
175 198 0
175 198 0
174 198 0
174 198 0
175 198 0
174 198 0
175 198 0
175 198 0
176 199 0
175 198 0
173 197 0
176 198 0
175 198 0
174 198 0
173 197 0
174 197 0
176 198 0
176 199 0
176 198 0
175 198 0
174 198 0
175 198 0
173 197 0
175 198 0
174 197 0
174 198 0
174 198 0
174 198 0
175 198 0
174 198 0
175 198 0
174 197 0
175 198 0
174 197 0
175 198 0
174 198 0
175 198 0
176 199 0
174 197 0
176 199 0
175 198 0
175 198 0
176 199 0
175 198 0
174 197 0
176 198 0
175 198 0
174 197 0
173 197 0
175 198 0
174 198 0
176 198 0
175 198 0
175 198 0
175 198 0
174 198 0
175 198 0
174 198 0
174 198 0
174 198 0
175 198 0
174 198 0
175 198 0
174 197 0
175 198 0
175 198 0
174 198 0
175 198 0
175 198 0
174 198 0
173 197 0
174 198 0
175 198 0
175 198 0
173 197 0
174 197 0
174 197 0
173 197 0
175 198 0
173 197 0
175 198 0
174 198 0
174 198 0
173 197 0
175 198 0
175 198 0
176 199 0
175 198 0
174 197 0
175 198 0
173 197 0
174 198 0
173 197 0
175 198 0
174 198 0
175 198 0
174 197 0
173 197 0
175 198 0
174 198 0
175 198 0
172 197 0
172 196 0
174 198 0
176 198 0
175 198 0
175 198 0
176 199 0
173 197 0
174 197 0
174 197 0
174 197 0
173 197 0
173 197 0
174 198 0
174 198 0
176 198 0
174 197 0
173 197 0
175 198 0
175 198 0
174 198 0
174 198 0
175 198 0
174 197 0
173 197 0
175 198 0
174 198 0
175 198 0
174 198 0
173 197 0
174 198 0
172 196 0
175 198 0
175 198 0
174 197 0
173 197 0
175 198 0
173 197 0
173 197 0
173 197 0
175 198 0
174 197 0
174 198 0
172 195 0
174 197 0
175 198 0
173 197 0
172 196 0
175 198 0
172 196 0
172 196 0
171 195 0
174 197 0
173 197 0
174 197 0
172 196 0
174 197 0
173 196 0
173 196 0
174 197 0
172 195 0
173 196 0
173 197 0
174 197 0
174 197 0
171 195 0
167 191 0
173 196 0
172 196 0
170 195 0
173 196 0
173 196 0
174 197 0
170 192 0
171 195 0
170 193 0
173 195 0
170 193 0
172 195 0
167 191 0
172 195 0
169 192 0
168 191 0
168 192 0
167 191 0
161 184 51
65 100 153
62 99 167
62 99 167
62 98 172
63 100 173
62 98 173
62 98 165
62 99 174
63 100 178
62 99 171
62 99 174
63 99 172
62 98 171
63 99 174
61 98 168
62 99 173
62 99 172
63 99 173
62 99 172
62 98 166
63 99 174
62 98 168
61 98 168
62 98 166
62 99 169
62 99 170
62 98 166
62 98 164
62 97 159
61 96 159
61 93 147
36 47 37
43 55 39
45 59 43
47 61 44
50 67 50
147 145 18
153 151 0
155 153 0
154 151 0
155 152 0
154 152 0
153 151 0
155 153 0
157 153 0
155 152 0
154 152 0
156 152 0
155 152 0
155 152 0
155 152 0
153 150 0
154 151 0
171 191 0
170 190 0
172 193 0
170 190 0
171 193 0
170 194 0
172 196 0
171 193 0
174 196 0
173 195 0
173 196 0
173 196 0
172 195 0
171 193 0
174 197 0
174 197 0
173 197 0
173 196 0
173 196 0
173 196 0
173 196 0
173 196 0
174 197 0
174 197 0
172 195 0
174 196 0
175 197 0
174 197 0
173 196 0
173 196 0
173 197 0
173 196 0
175 197 0
174 197 0
174 197 0
172 196 0
174 197 0
174 197 0
175 198 0
175 198 0
173 197 0
173 196 0
174 198 0
175 198 0
174 197 0
175 198 0
173 197 0
173 197 0
173 197 0
173 197 0
173 197 0
173 197 0
175 198 0
174 197 0
175 198 0
173 197 0
175 197 0
176 198 0
174 198 0
174 198 0
175 198 0
174 198 0
175 198 0
175 198 0
174 197 0
176 199 0
173 197 0
175 198 0
173 197 0
173 197 0
175 198 0
175 198 0
173 197 0
174 198 0
174 198 0
173 197 0
175 198 0
175 198 0
174 197 0
174 197 0
175 198 0
175 198 0
174 197 0
174 198 0
174 198 0
174 198 0
175 198 0
173 197 0
173 197 0
174 198 0
174 198 0
175 198 0
174 198 0
174 198 0
175 198 0
173 197 0
172 196 0
175 198 0
174 198 0
175 198 0
176 198 0
174 197 0
175 198 0
175 198 0
174 198 0
174 198 0
175 198 0
173 197 0
175 198 0
174 198 0
174 198 0
174 198 0
175 198 0
174 197 0
176 199 0
174 198 0
173 197 0
176 198 0
175 198 0
174 198 0
174 198 0
174 198 0
174 197 0
174 197 0
177 199 0
174 198 0
175 198 0
175 198 0
174 198 0
173 197 0
175 198 0
175 198 0
173 197 0
175 198 0
174 198 0
175 198 0
175 198 0
174 197 0
176 199 0
173 197 0
174 197 0
177 199 0
174 198 0
175 198 0
176 199 0
173 197 0
174 198 0
174 197 0
171 196 0
174 197 0
175 198 0
173 197 0
174 198 0
174 198 0
174 197 0
174 197 0
175 198 0
174 198 0
175 198 0
174 198 0
175 198 0
174 198 0
175 198 0
176 199 0
175 198 0
174 198 0
174 198 0
173 197 0
174 198 0
174 198 0
175 198 0
174 198 0
173 197 0
175 198 0
175 198 0
175 198 0
175 198 0
175 198 0
175 198 0
174 197 0
175 198 0
174 198 0
173 197 0
174 198 0
175 198 0
174 198 0
176 198 0
174 198 0
176 199 0
174 197 0
174 198 0
174 197 0
176 198 0
174 197 0
173 197 0
176 199 0
174 197 0
175 198 0
174 197 0
175 198 0
174 198 0
173 197 0
174 198 0
174 198 0
174 198 0
174 198 0
175 198 0
176 198 0
176 199 0
174 198 0
175 198 0
175 198 0
174 198 0
174 198 0
175 198 0
174 198 0
175 198 0
174 197 0
173 197 0
176 199 0
174 198 0
174 198 0
174 198 0
175 198 0
172 196 0
174 198 0
174 198 0
174 198 0
172 197 0
173 197 0
174 198 0
174 197 0
173 197 0
174 198 0
175 198 0
175 198 0
174 198 0
173 197 0
174 198 0
172 197 0
174 198 0
174 198 0
174 197 0
173 197 0
175 198 0
175 198 0
173 197 0
174 197 0
173 197 0
175 198 0
173 197 0
174 198 0
174 197 0
175 198 0
176 199 0
174 198 0
174 198 0
172 197 0
174 197 0
172 196 0
174 198 0
174 198 0
174 197 0
175 198 0
174 197 0
175 198 0
172 197 0
175 198 0
174 197 0
173 197 0
176 198 0
173 196 0
175 198 0
173 197 0
174 197 0
175 198 0
174 198 0
173 197 0
174 198 0
175 198 0
175 198 0
174 197 0
175 198 0
174 197 0
174 198 0
175 198 0
173 197 0
175 198 0
174 198 0
173 196 0
175 198 0
174 198 0
173 197 0
173 197 0
174 198 0
173 197 0
174 197 0
175 198 0
174 198 0
174 198 0
174 197 0
173 196 0
174 197 0
173 197 0
174 197 0
174 198 0
174 197 0
174 197 0
173 197 0
172 196 0
173 197 0
173 197 0
175 198 0
173 196 0
172 196 0
173 196 0
174 197 0
172 196 0
174 198 0
173 197 0
175 197 0
173 197 0
171 196 0
171 194 0
175 198 0
173 197 0
175 198 0
173 196 0
173 196 0
174 197 0
170 194 0
173 196 0
170 194 0
171 194 0
170 194 0
171 194 0
172 195 0
173 196 0
167 190 0
169 193 0
171 195 0
172 195 0
168 192 0
169 193 0
169 193 0
167 191 0
160 184 60
61 96 153
63 99 166
62 98 162
63 99 165
61 98 166
62 98 169
62 99 172
62 99 171
62 98 171
63 99 172
63 99 171
63 99 174
62 98 171
63 99 171
63 99 170
61 98 167
63 99 174
62 99 170
62 99 173
63 99 169
62 98 163
62 99 171
62 98 168
62 98 170
63 100 177
62 99 170
62 98 167
62 98 165
62 97 163
61 95 152
59 92 141
44 63 71
40 53 32
43 56 40
48 64 47
89 96 41
147 145 0
147 145 0
147 146 0
151 149 0
153 151 0
154 151 0
151 148 0
153 151 0
154 151 0
153 150 0
153 151 0
155 152 0
154 151 0
154 151 0
153 151 0
153 148 0
163 173 0
171 191 0
174 194 0
170 190 0
170 191 0
172 193 0
171 191 0
172 193 0
174 194 0
172 194 0
173 195 0
173 195 0
174 197 0
172 195 0
173 196 0
172 195 0
173 196 0
174 197 0
175 196 0
174 196 0
171 194 0
172 196 0
173 196 0
175 198 0
173 196 0
173 197 0
174 197 0
173 197 0
174 197 0
174 198 0
174 197 0
175 198 0
174 197 0
173 197 0
173 196 0
173 196 0
173 197 0
174 197 0
175 198 0
175 198 0
174 197 0
175 198 0
173 196 0
175 198 0
173 197 0
174 197 0
175 198 0
172 196 0
173 197 0
175 198 0
175 198 0
174 198 0
175 198 0
175 198 0
176 198 0
175 198 0
173 197 0
174 198 0
172 195 0
175 198 0
175 198 0
174 198 0
175 198 0
174 198 0
175 198 0
175 198 0
174 198 0
173 197 0
174 198 0
173 197 0
174 198 0
174 198 0
172 197 0
176 199 0
175 198 0
174 198 0
174 197 0
174 197 0
174 197 0
174 197 0
175 198 0
174 198 0
173 197 0
174 198 0
173 197 0
174 197 0
175 198 0
173 197 0
175 198 0
174 198 0
175 198 0
175 198 0
174 197 0
174 198 0
175 198 0
175 198 0
174 198 0
174 197 0
174 197 0
174 198 0
173 197 0
174 198 0
175 198 0
175 198 0
174 198 0
174 198 0
174 198 0
176 199 0
175 198 0
174 198 0
174 198 0
174 198 0
174 198 0
176 199 0
175 198 0
174 198 0
176 199 0
174 197 0
174 198 0
174 198 0
176 198 0
174 198 0
175 198 0
175 198 0
175 198 0
173 197 0
173 197 0
173 197 0
174 198 0
173 197 0
173 197 0
175 198 0
174 198 0
174 197 0
175 198 0
175 198 0
175 198 0
174 197 0
173 197 0
176 198 0
174 198 0
174 198 0
172 197 0
173 197 0
174 197 0
175 198 0
175 198 0
175 198 0
174 198 0
175 198 0
173 197 0
175 198 0
175 198 0
174 198 0
173 197 0
174 198 0
174 198 0
173 197 0
176 198 0
175 198 0
174 197 0
176 199 0
175 198 0
175 198 0
174 197 0
174 198 0
174 197 0
175 198 0
176 199 0
175 198 0
175 198 0
174 198 0
174 198 0
175 198 0
175 198 0
175 198 0
175 198 0
175 198 0
173 197 0
175 198 0
175 198 0
175 198 0
175 198 0
173 197 0
175 198 0
175 198 0
174 198 0
173 197 0
175 198 0
175 198 0
174 198 0
174 198 0
174 197 0
175 198 0
174 198 0
174 198 0
174 197 0
176 199 0
174 198 0
174 197 0
174 198 0
174 198 0
174 198 0
175 198 0
173 197 0
173 197 0
174 198 0
176 199 0
174 197 0
175 198 0
175 198 0
176 199 0
174 198 0
172 197 0
173 197 0
174 197 0
174 198 0
174 198 0
175 198 0
173 197 0
174 197 0
175 198 0
174 198 0
173 197 0
174 197 0
173 197 0
177 199 0
173 197 0
174 198 0
173 197 0
174 197 0
175 197 0
173 197 0
174 198 0
174 197 0
174 198 0
174 198 0
173 197 0
175 198 0
174 198 0
174 198 0
176 199 0
175 198 0
173 197 0
175 198 0
176 199 0
174 198 0
175 198 0
175 198 0
174 198 0
174 197 0
173 197 0
175 198 0
175 198 0
175 198 0
175 198 0
175 198 0
175 198 0
173 197 0
175 198 0
175 198 0
174 197 0
175 198 0
173 197 0
174 198 0
175 198 0
174 198 0
173 197 0
174 197 0
174 198 0
174 197 0
175 198 0
175 198 0
174 197 0
173 197 0
173 197 0
175 198 0
175 198 0
175 198 0
175 198 0
174 198 0
176 199 0
174 197 0
174 197 0
172 196 0
174 198 0
173 197 0
174 198 0
175 198 0
174 197 0
174 197 0
173 196 0
171 195 0
173 197 0
174 198 0
172 197 0
172 197 0
173 197 0
174 197 0
174 198 0
174 198 0
174 197 0
175 198 0
174 197 0
175 198 0
173 197 0
175 198 0
172 196 0
173 197 0
174 197 0
172 196 0
172 195 0
173 196 0
173 197 0
171 195 0
172 196 0
173 197 0
173 196 0
173 197 0
172 195 0
173 196 0
173 196 0
171 195 0
171 195 0
173 196 0
173 196 0
172 196 0
173 196 0
170 194 0
172 194 0
170 194 0
173 196 0
171 195 0
174 197 0
170 194 0
168 193 0
168 192 0
171 195 0
173 196 0
170 193 0
169 193 0
169 193 0
168 191 0
171 194 0
169 192 0
166 190 0
164 187 0
136 161 94
62 98 161
62 99 165
63 99 167
62 99 169
62 98 171
62 98 171
62 98 167
62 98 162
62 98 168
62 98 169
61 98 163
62 99 172
61 98 166
62 99 170
62 99 170
62 98 169
62 98 166
62 98 169
62 98 166
63 99 169
62 98 166
61 98 165
62 98 165
62 99 169
62 99 166
63 99 164
62 98 164
62 98 163
62 98 162
61 96 149
62 96 150
46 64 75
42 55 30
47 62 38
63 72 33
120 119 0
135 134 0
141 139 0
144 141 0
150 147 0
151 149 0
147 145 0
151 149 0
152 150 0
152 150 0
153 149 0
154 150 0
155 151 0
153 150 0
153 149 0
150 147 0
156 156 0
171 190 0
171 190 0
170 189 0
169 187 0
172 193 0
170 192 0
172 193 0
173 195 0
171 193 0
172 193 0
171 192 0
172 192 0
172 195 0
173 196 0
174 197 0
175 197 0
174 195 0
174 196 0
173 196 0
173 196 0
174 196 0
174 197 0
173 196 0
173 196 0
174 197 0
173 197 0
173 197 0
172 196 0
175 198 0
174 197 0
172 196 0
173 196 0
175 198 0
175 198 0
173 197 0
174 198 0
173 197 0
175 198 0
173 197 0
173 196 0
175 197 0
173 197 0
173 197 0
173 196 0
175 198 0
174 198 0
174 198 0
175 198 0
174 197 0
175 198 0
174 197 0
173 196 0
174 198 0
173 197 0
174 198 0
175 198 0
176 199 0
174 198 0
174 197 0
174 197 0
174 198 0
175 198 0
174 198 0
175 198 0
175 198 0
174 197 0
174 198 0
174 198 0
173 197 0
174 197 0
176 199 0
175 198 0
175 198 0
174 198 0
175 198 0
175 198 0
174 197 0
174 198 0
175 198 0
174 198 0
175 198 0
174 198 0
174 198 0
174 198 0
173 197 0
176 198 0
174 197 0
174 198 0
174 198 0
174 198 0
175 198 0
174 197 0
174 198 0
174 197 0
175 198 0
175 198 0
176 198 0
174 197 0
175 198 0
173 197 0
173 197 0
175 198 0
175 198 0
176 199 0
175 198 0
174 198 0
175 198 0
174 198 0
177 199 0
174 197 0
176 199 0
176 199 0
172 197 0
175 198 0
174 197 0
174 198 0
177 199 0
176 199 0
174 197 0
176 199 0
175 198 0
174 198 0
175 198 0
175 198 0
176 199 0
174 198 0
175 198 0
176 199 0
174 198 0
176 198 0
175 198 0
175 198 0
173 197 0
173 197 0
175 198 0
175 198 0
175 198 0
176 198 0
173 197 0
175 198 0
175 198 0
175 198 0
174 197 0
175 198 0
173 197 0
173 197 0
173 197 0
175 198 0
175 198 0
174 198 0
174 198 0
175 198 0
175 198 0
173 197 0
173 197 0
174 198 0
175 198 0
173 197 0
175 198 0
175 198 0
175 198 0
173 197 0
174 198 0
174 198 0
173 197 0
177 199 0
174 198 0
174 198 0
175 198 0
176 199 0
173 197 0
174 198 0
175 198 0
174 198 0
174 198 0
174 198 0
174 198 0
174 198 0
173 197 0
175 198 0
174 198 0
178 200 0
174 198 0
175 198 0
174 197 0
174 198 0
175 198 0
176 199 0
174 197 0
176 199 0
175 198 0
175 198 0
173 197 0
174 197 0
175 198 0
175 198 0
174 197 0
174 198 0
175 198 0
174 198 0
175 198 0
173 197 0
175 198 0
174 198 0
176 198 0
173 197 0
174 198 0
174 197 0
174 197 0
174 197 0
174 198 0
175 198 0
175 198 0
173 197 0
175 198 0
174 198 0
175 198 0
175 198 0
175 198 0
174 198 0
175 198 0
175 198 0
175 198 0
174 198 0
173 197 0
174 198 0
176 199 0
174 197 0
175 198 0
175 198 0
175 198 0
174 198 0
173 197 0
174 198 0
175 198 0
173 197 0
175 198 0
176 199 0
174 198 0
174 198 0
174 198 0
176 198 0
175 198 0
175 198 0
173 197 0
174 198 0
175 198 0
174 198 0
174 198 0
174 198 0
172 197 0
176 199 0
174 198 0
175 198 0
173 197 0
176 199 0
176 199 0
174 197 0
174 198 0
172 197 0
173 197 0
175 198 0
175 198 0
173 197 0
175 198 0
175 198 0
173 197 0
175 198 0
175 198 0
174 198 0
174 197 0
175 198 0
173 197 0
174 197 0
174 198 0
175 198 0
174 197 0
174 197 0
173 197 0
174 198 0
174 197 0
174 197 0
173 197 0
175 198 0
173 196 0
174 197 0
174 197 0
174 197 0
175 198 0
174 197 0
173 197 0
174 198 0
174 197 0
176 198 0
173 196 0
173 197 0
173 197 0
174 197 0
174 198 0
173 197 0
172 196 0
175 198 0
175 198 0
173 197 0
172 196 0
173 196 0
174 197 0
173 197 0
173 197 0
173 197 0
173 197 0
174 198 0
175 198 0
172 196 0
174 197 0
173 197 0
174 197 0
173 196 0
174 197 0
172 196 0
173 196 0
173 196 0
173 197 0
173 197 0
175 198 0
173 195 0
173 196 0
170 194 0
172 196 0
174 197 0
171 195 0
173 196 0
172 196 0
170 194 0
168 192 0
171 194 0
171 194 0
168 191 0
168 191 0
169 191 0
171 193 0
169 192 0
166 190 0
169 192 0
169 192 0
165 188 0
164 188 0
135 159 88
61 96 145
62 98 157
61 97 161
62 98 164
62 98 163
61 98 163
63 99 166
62 98 169
61 98 167
62 98 167
62 99 173
62 98 167
63 99 169
63 99 169
62 98 165
61 98 168
62 98 167
62 98 162
62 99 173
63 99 164
62 98 162
61 97 160
62 98 157
63 99 171
62 98 159
61 97 155
63 98 161
61 97 161
60 96 149
61 95 149
61 95 145
82 91 84
75 76 11
91 89 12
104 102 0
115 113 0
125 123 0
132 131 0
139 137 0
146 142 0
144 141 0
147 143 0
145 142 0
148 145 0
150 146 0
151 148 0
152 149 0
153 149 0
150 146 0
151 145 0
151 146 0
164 179 0
169 185 0
171 189 0
171 190 0
171 191 0
172 193 0
172 192 0
174 195 0
171 192 0
174 196 0
173 195 0
173 196 0
174 196 0
173 195 0
173 196 0
171 193 0
174 196 0
173 196 0
175 197 0
173 196 0
171 194 0
173 195 0
174 196 0
172 195 0
174 197 0
172 196 0
174 196 0
174 197 0
174 198 0
174 197 0
173 197 0
173 197 0
173 197 0
174 197 0
175 198 0
175 197 0
174 197 0
172 196 0
174 197 0
172 196 0
174 197 0
174 197 0
175 198 0
173 197 0
175 198 0
175 198 0
172 197 0
175 198 0
174 198 0
176 199 0
176 199 0
175 198 0
173 197 0
176 198 0
175 198 0
175 198 0
173 196 0
175 198 0
175 198 0
175 198 0
175 198 0
173 197 0
175 197 0
175 198 0
173 197 0
174 198 0
173 197 0
174 198 0
173 197 0
176 198 0
174 197 0
174 197 0
175 198 0
175 198 0
175 198 0
174 198 0
174 197 0
174 197 0
174 198 0
175 198 0
175 198 0
175 198 0
175 198 0
174 197 0
175 198 0
175 198 0
175 198 0
173 197 0
176 198 0
176 199 0
176 198 0
173 197 0
176 199 0
174 198 0
175 198 0
175 198 0
175 198 0
174 197 0
174 198 0
174 198 0
174 198 0
173 197 0
174 197 0
172 197 0
174 198 0
173 197 0
173 197 0
175 198 0
176 199 0
174 197 0
174 198 0
175 198 0
176 199 0
174 198 0
175 198 0
175 198 0
173 197 0
174 197 0
175 198 0
173 197 0
175 198 0
175 198 0
174 197 0
176 198 0
174 198 0
173 197 0
174 198 0
176 198 0
174 198 0
175 198 0
176 198 0
175 198 0
175 198 0
175 198 0
174 198 0
174 198 0
174 198 0
174 197 0
173 197 0
175 198 0
174 198 0
174 198 0
174 198 0
175 198 0
174 198 0
175 198 0
176 199 0
175 198 0
174 198 0
176 198 0
175 198 0
174 198 0
175 198 0
174 198 0
177 199 0
173 197 0
174 197 0
173 197 0
176 198 0
175 198 0
174 197 0
174 198 0
173 197 0
174 198 0
174 198 0
174 198 0
174 198 0
173 197 0
174 198 0
174 198 0
175 198 0
175 198 0
175 198 0
176 198 0
174 198 0
174 197 0
173 197 0
174 197 0
174 197 0
176 198 0
175 198 0
174 198 0
173 197 0
174 197 0
175 198 0
174 198 0
174 198 0
174 197 0
175 198 0
174 198 0
175 198 0
175 198 0
173 197 0
174 198 0
173 197 0
174 198 0
175 198 0
174 198 0
176 199 0
175 198 0
175 198 0
175 198 0
174 197 0
175 198 0
173 197 0
174 197 0
174 198 0
175 198 0
174 198 0
173 197 0
174 198 0
174 198 0
175 198 0
175 198 0
174 198 0
174 198 0
174 197 0
174 198 0
175 198 0
173 197 0
173 197 0
175 198 0
175 198 0
173 197 0
174 198 0
174 198 0
174 198 0
175 198 0
175 198 0
173 197 0
174 198 0
174 198 0
175 198 0
173 197 0
175 198 0
174 197 0
176 199 0
173 197 0
173 197 0
174 198 0
174 198 0
174 198 0
173 197 0
174 198 0
174 197 0
177 199 0
175 198 0
175 198 0
175 198 0
174 198 0
174 197 0
174 198 0
174 198 0
175 198 0
175 198 0
175 198 0
173 197 0
174 197 0
173 197 0
176 198 0
173 197 0
174 197 0
173 197 0
175 198 0
174 198 0
174 197 0
173 197 0
175 198 0
175 198 0
175 198 0
175 198 0
174 198 0
174 197 0
174 197 0
173 197 0
174 198 0
173 197 0
175 198 0
174 197 0
175 198 0
176 199 0
174 198 0
175 198 0
175 198 0
176 199 0
174 197 0
173 197 0
172 196 0
176 198 0
175 198 0
175 198 0
171 196 0
174 197 0
174 198 0
172 197 0
172 196 0
173 196 0
173 197 0
176 198 0
173 197 0
173 197 0
174 197 0
174 198 0
174 197 0
173 197 0
173 196 0
173 197 0
175 198 0
172 196 0
173 196 0
174 197 0
173 196 0
174 197 0
173 196 0
173 196 0
173 197 0
174 197 0
172 196 0
173 197 0
173 196 0
174 197 0
173 196 0
171 194 0
176 198 0
173 196 0
174 197 0
170 193 0
171 195 0
172 196 0
173 196 0
168 192 0
169 193 0
171 194 0
167 190 0
170 193 0
169 192 0
171 194 0
172 196 0
181 202 76
185 206 108
187 207 125
191 210 137
189 209 130
180 202 72
173 197 0
173 196 0
170 194 0
158 180 31
141 164 82
107 133 103
68 102 151
61 97 158
62 98 161
62 98 162
61 97 163
62 98 164
62 99 171
62 98 168
62 98 163
62 98 168
62 98 165
61 98 169
62 99 169
62 98 163
62 98 168
62 99 163
62 99 167
62 99 169
62 97 156
62 98 162
62 98 160
61 98 162
62 98 162
62 98 156
61 97 158
62 98 162
62 98 160
62 97 155
62 97 153
60 94 139
92 96 81
94 90 0
103 98 0
102 100 0
116 114 0
130 126 0
130 128 0
145 141 0
143 139 0
146 143 0
146 143 0
141 138 0
149 146 0
148 144 0
149 144 0
152 147 0
148 142 0
150 145 0
155 149 0
161 171 0
169 185 0
169 184 0
169 185 0
169 188 0
171 190 0
171 191 0
169 189 0
173 193 0
173 192 0
171 193 0
173 195 0
172 193 0
173 194 0
171 192 0
173 195 0
173 195 0
173 195 0
173 195 0
173 196 0
173 197 0
172 195 0
173 196 0
174 196 0
175 197 0
172 196 0
174 196 0
173 195 0
174 197 0
174 197 0
174 197 0
173 197 0
174 198 0
172 195 0
173 196 0
175 198 0
173 196 0
174 197 0
172 196 0
173 197 0
174 197 0
174 197 0
176 198 0
175 198 0
174 197 0
174 198 0
173 196 0
175 198 0
175 198 0
175 198 0
174 198 0
173 197 0
173 197 0
175 198 0
174 197 0
173 197 0
174 197 0
174 197 0
175 198 0
175 198 0
174 198 0
173 197 0
174 197 0
174 198 0
175 198 0
174 198 0
173 196 0
175 198 0
176 198 0
175 198 0
174 198 0
172 196 0
175 198 0
174 198 0
174 198 0
175 198 0
173 197 0
175 198 0
174 198 0
174 198 0
174 198 0
175 198 0
173 197 0
174 197 0
175 198 0
174 198 0
174 198 0
175 198 0
175 198 0
175 198 0
174 197 0
173 197 0
176 198 0
173 197 0
174 197 0
174 198 0
174 198 0
175 198 0
174 198 0
173 197 0
173 197 0
175 198 0
174 197 0
174 198 0
174 198 0
173 197 0
175 198 0
174 198 0
174 198 0
176 199 0
174 198 0
174 197 0
174 197 0
175 198 0
174 198 0
175 198 0
175 198 0
174 198 0
174 198 0
176 199 0
175 198 0
172 197 0
174 198 0
176 199 0
173 197 0
174 198 0
175 198 0
174 198 0
174 198 0
176 198 0
174 198 0
175 198 0
175 198 0
175 198 0
177 199 0
174 198 0
173 197 0
174 198 0
175 198 0
176 199 0
174 198 0
174 198 0
174 197 0
175 198 0
174 197 0
174 198 0
175 198 0
173 197 0
175 198 0
175 198 0
176 199 0
174 198 0
175 198 0
174 197 0
174 198 0
175 198 0
176 199 0
177 199 0
175 198 0
175 198 0
176 199 0
175 198 0
173 197 0
175 198 0
174 198 0
175 198 0
174 198 0
173 197 0
174 198 0
174 198 0
173 197 0
175 198 0
176 198 0
175 198 0
174 198 0
174 198 0
173 197 0
173 197 0
173 197 0
175 198 0
175 198 0
175 198 0
174 198 0
177 199 0
174 198 0
175 198 0
175 198 0
174 198 0
175 198 0
173 197 0
174 198 0
174 198 0
175 198 0
175 198 0
174 198 0
176 199 0
175 198 0
175 198 0
175 198 0
173 197 0
175 198 0
174 197 0
176 198 0
175 198 0
173 197 0
176 199 0
173 197 0
177 199 0
174 198 0
173 197 0
175 198 0
174 197 0
174 198 0
174 198 0
175 198 0
175 198 0
174 198 0
174 198 0
174 198 0
174 197 0
173 197 0
174 198 0
175 198 0
175 198 0
174 198 0
174 197 0
174 198 0
173 197 0
173 197 0
175 198 0
174 198 0
175 198 0
174 198 0
174 198 0
174 197 0
175 198 0
174 198 0
174 198 0
175 198 0
173 197 0
175 198 0
174 198 0
173 197 0
173 197 0
173 197 0
173 197 0
173 197 0
175 198 0
175 198 0
173 197 0
176 199 0
173 197 0
174 197 0
175 198 0
174 198 0
174 197 0
175 198 0
176 199 0
172 196 0
175 198 0
173 197 0
174 197 0
174 198 0
174 197 0
174 198 0
174 198 0
174 197 0
173 197 0
174 198 0
175 198 0
172 196 0
175 198 0
175 198 0
176 199 0
174 198 0
174 198 0
175 197 0
174 198 0
174 197 0
175 197 0
175 198 0
173 197 0
176 198 0
174 198 0
172 196 0
174 197 0
172 196 0
174 198 0
176 199 0
174 197 0
174 198 0
174 197 0
174 197 0
173 197 0
172 196 0
173 197 0
173 196 0
171 195 0
173 196 0
172 196 0
174 197 0
174 198 0
174 197 0
175 198 0
173 197 0
173 197 0
172 196 0
173 196 0
172 195 0
174 197 0
176 198 0
173 196 0
173 196 0
174 197 0
172 196 0
175 197 0
174 197 0
173 196 0
173 197 0
173 196 0
172 195 0
173 196 0
173 197 0
172 196 0
174 197 0
173 197 0
169 194 0
174 198 0
172 195 0
175 198 0
172 196 0
171 195 0
170 194 0
169 193 0
173 197 0
177 199 51
196 214 163
209 225 214
216 231 238
221 235 255
220 235 255
219 234 255
219 234 255
219 234 255
220 235 255
219 233 245
207 223 203
193 212 149
122 146 154
61 97 158
73 106 148
103 129 120
86 115 135
60 96 151
61 97 158
62 98 168
62 97 162
61 98 162
62 98 163
61 97 160
62 98 164
62 98 167
62 98 167
62 98 166
63 99 164
62 98 165
61 98 162
62 98 160
62 98 163
62 98 162
63 99 165
62 98 160
62 98 159
61 96 151
62 98 159
62 98 162
61 97 152
61 97 153
61 96 142
60 95 138
60 95 144
99 101 65
108 100 0
113 108 0
112 107 0
124 118 0
128 125 0
130 126 0
135 130 0
138 133 0
143 138 0
140 137 0
141 136 0
145 140 0
148 142 0
147 141 0
148 141 0
147 140 0
150 143 0
162 167 0
161 173 0
169 187 0
167 186 0
168 185 0
169 185 0
171 191 0
171 189 0
169 187 0
172 190 0
170 192 0
168 187 0
171 192 0
173 194 0
171 193 0
174 194 0
173 195 0
172 196 0
174 195 0
172 194 0
173 196 0
173 195 0
174 196 0
172 194 0
172 195 0
174 197 0
175 198 0
173 196 0
172 195 0
174 197 0
173 196 0
174 197 0
176 198 0
173 197 0
174 196 0
175 198 0
175 198 0
175 198 0
173 196 0
175 198 0
174 197 0
175 198 0
174 196 0
174 197 0
174 197 0
174 197 0
173 197 0
173 197 0
174 198 0
174 197 0
175 198 0
174 197 0
175 198 0
175 198 0
175 198 0
175 198 0
174 198 0
176 198 0
175 198 0
174 197 0
173 196 0
174 197 0
175 198 0
175 198 0
175 198 0
172 197 0
175 198 0
175 198 0
175 198 0
174 198 0
175 198 0
174 197 0
173 196 0
173 197 0
175 198 0
176 198 0
174 197 0
174 198 0
174 198 0
175 198 0
174 198 0
175 198 0
174 198 0
175 198 0
175 198 0
173 197 0
174 198 0
176 199 0
173 197 0
175 198 0
174 197 0
175 198 0
174 198 0
174 197 0
174 198 0
176 198 0
174 197 0
175 198 0
175 198 0
175 198 0
174 198 0
174 198 0
174 197 0
175 198 0
174 198 0
173 197 0
176 199 0
174 198 0
174 198 0
174 198 0
174 198 0
176 198 0
173 197 0
174 198 0
175 198 0
174 198 0
174 197 0
175 198 0
173 197 0
175 198 0
175 198 0
173 197 0
175 198 0
176 198 0
175 198 0
174 198 0
173 197 0
175 198 0
175 198 0
173 197 0
177 199 0
175 198 0
175 198 0
176 199 0
174 197 0
174 197 0
172 197 0
176 199 0
175 198 0
174 198 0
176 199 0
176 198 0
174 197 0
176 199 0
174 198 0
174 198 0
174 198 0
175 198 0
175 198 0
175 198 0
173 197 0
174 198 0
173 197 0
175 198 0
174 198 0
173 197 0
175 198 0
175 198 0
173 197 0
174 197 0
175 198 0
174 198 0
175 198 0
174 198 0
175 198 0
175 198 0
174 198 0
174 197 0
174 198 0
176 198 0
175 198 0
174 198 0
175 198 0
175 198 0
175 198 0
173 197 0
175 198 0
174 197 0
174 198 0
174 198 0
174 198 0
176 199 0
174 197 0
175 198 0
175 198 0
174 198 0
174 198 0
175 198 0
174 197 0
174 198 0
174 198 0
174 198 0
175 198 0
173 197 0
174 198 0
176 198 0
174 198 0
175 198 0
172 197 0
175 198 0
174 197 0
174 198 0
174 198 0
175 198 0
172 197 0
175 198 0
176 199 0
173 197 0
175 198 0
176 199 0
173 197 0
174 198 0
173 197 0
175 198 0
173 197 0
174 198 0
176 199 0
175 198 0
174 198 0
173 197 0
174 198 0
174 198 0
175 198 0
174 197 0
174 198 0
175 198 0
174 197 0
174 197 0
174 198 0
174 198 0
175 198 0
175 198 0
176 198 0
174 197 0
173 197 0
173 197 0
174 198 0
175 198 0
174 198 0
174 198 0
175 198 0
174 198 0
174 197 0
173 197 0
174 198 0
174 197 0
174 198 0
173 197 0
173 197 0
172 196 0
174 198 0
173 197 0
175 198 0
176 199 0
174 197 0
174 197 0
174 198 0
174 197 0
174 198 0
175 198 0
174 198 0
174 198 0
174 197 0
176 199 0
174 197 0
174 198 0
173 197 0
175 198 0
173 197 0
175 198 0
175 198 0
175 198 0
174 197 0
173 197 0
174 197 0
174 198 0
174 198 0
174 198 0
173 197 0
175 198 0
173 197 0
174 197 0
174 197 0
174 198 0
174 197 0
175 197 0
173 197 0
173 197 0
174 197 0
175 198 0
176 198 0
174 197 0
174 197 0
173 196 0
174 198 0
175 198 0
174 197 0
174 197 0
174 197 0
173 196 0
175 198 0
173 197 0
173 197 0
174 197 0
174 197 0
174 197 0
174 197 0
173 197 0
173 197 0
173 197 0
174 198 0
172 196 0
173 197 0
173 196 0
171 195 0
173 196 0
174 197 0
173 196 0
172 195 0
173 197 0
172 196 0
173 196 0
174 197 0
173 197 0
172 194 0
172 195 0
169 193 0
167 192 0
174 197 0
171 195 0
174 197 0
171 194 0
171 195 0
175 198 0
179 201 72
205 221 194
219 233 246
218 234 255
216 233 255
214 231 255
212 231 255
212 230 255
211 230 255
212 230 255
213 231 255
213 231 255
214 231 255
217 233 255
219 234 255
182 199 231
62 98 171
61 98 166
61 97 163
67 102 152
81 112 137
66 101 158
61 96 155
62 98 163
62 98 164
61 98 162
61 97 155
62 98 160
63 99 162
62 98 160
62 98 160
61 96 149
61 98 164
61 97 155
61 97 153
61 97 153
62 98 164
62 98 160
61 97 157
62 98 156
61 97 150
62 98 157
62 98 156
62 98 159
61 97 149
62 96 147
60 94 141
60 94 141
117 118 54
107 100 0
104 98 0
107 101 0
118 113 0
117 111 0
122 117 0
130 124 0
124 120 0
136 130 0
140 133 0
142 135 0
146 137 0
141 133 0
147 138 0
143 136 0
149 144 0
158 162 0
164 175 0
167 181 0
164 177 0
163 178 0
167 182 0
170 187 0
166 183 0
170 189 0
169 187 0
171 190 0
171 191 0
170 191 0
170 192 0
171 195 0
171 193 0
174 194 0
171 193 0
174 195 0
173 194 0
171 194 0
173 196 0
175 198 0
173 196 0
173 195 0
173 195 0
174 197 0
173 196 0
174 195 0
173 196 0
175 197 0
175 198 0
174 196 0
175 197 0
173 196 0
173 196 0
173 197 0
174 197 0
174 198 0
172 194 0
175 198 0
174 197 0
173 196 0
174 197 0
174 198 0
174 197 0
175 197 0
175 198 0
174 197 0
174 197 0
173 197 0
175 198 0
175 198 0
174 197 0
173 197 0
174 197 0
174 198 0
174 198 0
173 197 0
173 197 0
175 198 0
176 199 0
174 197 0
174 197 0
175 198 0
175 198 0
174 197 0
176 198 0
175 198 0
174 198 0
175 198 0
173 197 0
174 198 0
174 198 0
174 198 0
174 198 0
174 197 0
173 197 0
174 197 0
175 198 0
175 198 0
173 197 0
174 198 0
175 198 0
175 198 0
175 198 0
175 198 0
175 198 0
173 197 0
176 199 0
173 197 0
175 198 0
173 197 0
175 198 0
173 196 0
173 197 0
174 198 0
175 198 0
174 197 0
175 198 0
175 197 0
176 198 0
175 198 0
175 198 0
174 197 0
175 198 0
174 197 0
174 198 0
175 198 0
175 198 0
176 198 0
174 198 0
176 199 0
172 197 0
175 198 0
173 197 0
173 197 0
174 197 0
174 198 0
173 197 0
174 198 0
175 198 0
176 198 0
174 198 0
175 198 0
173 197 0
175 198 0
174 198 0
176 199 0
174 198 0
175 198 0
174 198 0
174 198 0
174 198 0
174 198 0
174 198 0
173 197 0
175 198 0
177 199 0
174 197 0
174 198 0
174 197 0
173 197 0
174 198 0
174 198 0
176 198 0
175 198 0
174 198 0
174 197 0
176 199 0
173 197 0
173 197 0
176 198 0
175 198 0
175 198 0
174 198 0
175 198 0
174 198 0
175 198 0
174 198 0
175 198 0
173 197 0
175 198 0
175 198 0
174 198 0
173 197 0
175 198 0
174 198 0
175 198 0
174 198 0
174 197 0
174 198 0
174 198 0
176 199 0
177 199 0
175 198 0
175 198 0
174 197 0
175 198 0
175 198 0
174 198 0
174 198 0
174 198 0
174 198 0
175 198 0
177 199 0
174 197 0
175 198 0
173 197 0
176 199 0
175 198 0
174 198 0
176 199 0
175 198 0
175 198 0
175 198 0
174 198 0
173 197 0
175 198 0
174 198 0
175 198 0
175 198 0
175 198 0
173 197 0
175 198 0
173 197 0
174 198 0
173 197 0
175 198 0
175 198 0
174 197 0
175 198 0
173 197 0
174 198 0
173 197 0
177 199 0
175 198 0
174 197 0
175 198 0
175 198 0
175 198 0
175 198 0
174 197 0
176 198 0
175 198 0
175 198 0
175 198 0
174 197 0
174 197 0
175 198 0
176 199 0
174 198 0
174 198 0
174 198 0
174 197 0
175 198 0
175 198 0
176 198 0
175 198 0
175 198 0
173 197 0
173 197 0
173 197 0
174 197 0
174 197 0
174 198 0
174 198 0
176 198 0
174 198 0
174 198 0
174 198 0
174 198 0
175 198 0
173 197 0
174 197 0
175 198 0
175 198 0
175 198 0
174 198 0
174 197 0
175 198 0
174 198 0
176 198 0
173 196 0
175 198 0
174 198 0
175 198 0
174 198 0
173 197 0
174 197 0
174 197 0
175 198 0
174 198 0
175 198 0
174 198 0
174 197 0
174 198 0
173 197 0
174 197 0
174 198 0
175 198 0
175 198 0
173 196 0
173 197 0
174 197 0
175 198 0
175 198 0
176 198 0
176 198 0
175 198 0
175 198 0
174 198 0
173 197 0
174 197 0
173 197 0
174 197 0
170 194 0
172 196 0
174 197 0
175 198 0
173 196 0
174 197 0
172 195 0
174 197 0
174 197 0
175 198 0
173 197 0
173 197 0
174 197 0
173 197 0
173 197 0
173 197 0
173 196 0
173 196 0
174 197 0
175 197 0
171 194 0
173 196 0
173 196 0
172 196 0
172 196 0
174 197 0
173 196 0
173 196 0
173 197 0
173 196 0
172 195 0
173 196 0
170 194 0
172 195 0
171 195 0
167 191 0
174 197 0
173 196 0
192 212 149
220 234 249
218 234 255
214 231 255
212 231 255
213 231 255
216 233 255
217 232 248
207 224 209
206 223 204
204 221 194
205 221 194
203 221 196
209 226 217
216 232 248
216 232 255
215 232 255
163 182 221
62 99 173
63 99 176
61 97 155
61 98 164
66 100 148
66 100 150
61 97 153
62 98 161
60 96 145
61 97 165
62 98 160
61 96 150
62 98 161
63 99 162
63 99 159
62 98 163
62 98 158
62 98 160
61 97 155
61 96 149
62 98 160
62 98 160
60 96 151
62 98 158
62 98 149
62 98 155
61 97 148
60 95 132
60 95 138
61 95 142
70 98 132
119 120 0
108 104 0
111 103 0
121 109 0
109 100 0
109 102 0
120 111 0
123 112 0
135 126 0
133 126 0
136 128 0
137 127 0
139 130 0
141 131 0
140 131 0
151 149 0
153 159 0
159 165 0
162 172 0
169 182 0
165 175 0
168 186 0
168 182 0
169 187 0
166 183 0
172 191 0
171 190 0
173 194 0
170 191 0
172 193 0
170 190 0
171 192 0
172 193 0
172 193 0
172 195 0
174 197 0
173 195 0
170 193 0
171 194 0
172 194 0
173 196 0
174 197 0
172 196 0
175 197 0
174 197 0
175 196 0
175 197 0
172 195 0
172 195 0
172 194 0
174 196 0
174 197 0
176 198 0
173 196 0
176 198 0
175 198 0
173 196 0
173 197 0
175 198 0
174 198 0
174 195 0
174 197 0
174 198 0
174 197 0
175 198 0
175 198 0
175 198 0
174 197 0
175 198 0
175 198 0
177 199 0
174 198 0
174 197 0
176 199 0
172 196 0
175 198 0
174 198 0
175 197 0
174 197 0
175 198 0
174 197 0
175 198 0
175 198 0
174 197 0
176 199 0
175 198 0
173 196 0
175 198 0
173 197 0
174 197 0
174 197 0
176 199 0
174 198 0
175 198 0
172 197 0
173 197 0
174 198 0
175 197 0
175 198 0
175 198 0
174 197 0
174 198 0
176 198 0
174 197 0
174 197 0
175 198 0
174 198 0
175 198 0
176 199 0
174 198 0
174 198 0
175 198 0
175 198 0
174 198 0
175 198 0
174 197 0
174 198 0
173 197 0
173 197 0
175 198 0
175 198 0
175 198 0
174 197 0
176 199 0
174 198 0
177 199 0
174 197 0
173 197 0
174 198 0
175 198 0
175 198 0
175 198 0
175 198 0
175 198 0
174 198 0
177 199 0
174 197 0
173 197 0
174 197 0
173 197 0
173 197 0
174 197 0
173 197 0
173 197 0
174 198 0
174 198 0
174 198 0
174 198 0
174 198 0
177 199 0
175 198 0
176 198 0
174 198 0
175 198 0
175 198 0
176 198 0
173 197 0
173 197 0
174 198 0
175 198 0
174 198 0
175 198 0
176 199 0
174 197 0
173 197 0
174 197 0
175 198 0
174 198 0
175 198 0
176 198 0
175 198 0
174 197 0
175 198 0
174 198 0
175 198 0
175 198 0
174 198 0
175 198 0
175 198 0
175 198 0
174 197 0
174 198 0
174 197 0
173 197 0
174 198 0
173 197 0
176 198 0
174 198 0
175 198 0
175 198 0
175 198 0
175 198 0
174 198 0
175 198 0
174 198 0
175 198 0
174 197 0
175 198 0
175 198 0
174 197 0
173 197 0
173 197 0
175 198 0
174 197 0
174 198 0
175 198 0
175 198 0
176 199 0
176 198 0
173 197 0
174 197 0
175 198 0
174 198 0
174 198 0
176 199 0
175 198 0
174 198 0
174 198 0
173 197 0
174 198 0
174 198 0
176 199 0
176 198 0
176 198 0
175 198 0
174 198 0
175 198 0
176 198 0
174 197 0
173 197 0
175 198 0
175 198 0
175 198 0
173 197 0
175 198 0
174 197 0
174 198 0
172 197 0
175 198 0
173 197 0
174 198 0
173 197 0
174 198 0
175 198 0
175 198 0
175 198 0
175 198 0
175 198 0
176 199 0
175 198 0
176 199 0
173 197 0
175 198 0
176 199 0
175 198 0
174 198 0
174 198 0
175 198 0
174 197 0
174 198 0
175 198 0
174 198 0
173 197 0
176 199 0
175 198 0
174 198 0
174 197 0
175 198 0
175 198 0
174 197 0
174 197 0
174 198 0
176 199 0
174 197 0
175 198 0
174 197 0
176 198 0
174 198 0
175 198 0
172 197 0
178 200 0
172 196 0
172 197 0
173 197 0
173 197 0
174 198 0
174 198 0
174 198 0
174 197 0
175 198 0
175 198 0
176 199 0
173 197 0
173 197 0
175 198 0
172 197 0
175 198 0
174 197 0
174 198 0
175 198 0
176 199 0
174 198 0
173 197 0
173 196 0
174 197 0
174 198 0
176 198 0
172 196 0
174 197 0
175 198 0
173 197 0
175 198 0
174 197 0
173 197 0
173 196 0
173 196 0
173 197 0
174 197 0
174 198 0
174 197 0
173 196 0
176 198 0
176 198 0
172 196 0
173 197 0
172 196 0
174 198 0
174 197 0
175 198 0
175 198 0
174 197 0
174 197 0
174 198 0
173 197 0
175 198 0
171 195 0
170 193 0
172 196 0
172 195 0
173 197 0
174 197 0
171 194 0
173 196 0
171 195 0
170 194 0
168 192 0
170 193 0
171 194 0
169 192 0
177 200 51
210 225 212
220 235 255
215 232 255
213 231 255
215 232 250
207 224 209
194 213 153
177 200 51
174 197 0
172 196 0
172 196 0
174 198 0
173 197 0
175 198 0
172 195 0
175 198 25
96 124 149
99 127 188
154 175 216
117 141 200
62 99 175
62 98 170
61 96 154
61 97 160
63 98 150
67 101 149
61 97 160
61 97 160
62 98 159
61 97 154
61 96 150
61 97 153
61 97 155
61 97 155
62 97 160
62 98 154
62 98 157
62 98 157
61 97 156
61 97 150
61 97 144
62 97 152
61 97 153
62 97 151
61 96 149
60 95 140
61 96 139
60 95 134
60 95 132
88 107 93
128 131 0
121 123 0
109 108 0
111 108 0
106 98 0
116 105 0
114 101 0
128 115 0
131 118 0
126 113 0
131 116 0
134 122 0
134 123 0
144 142 0
152 152 0
163 170 0
156 161 0
163 174 0
163 173 0
167 179 0
169 182 0
165 180 0
166 181 0
167 184 0
170 189 0
171 188 0
171 191 0
169 187 0
171 191 0
169 189 0
169 190 0
169 190 0
171 191 0
170 191 0
173 193 0
172 195 0
172 194 0
171 193 0
171 194 0
171 192 0
172 195 0
172 195 0
175 196 0
173 196 0
173 196 0
172 196 0
172 195 0
174 197 0
170 194 0
173 197 0
173 196 0
173 197 0
174 197 0
174 198 0
175 197 0
175 198 0
173 197 0
173 196 0
175 196 0
173 196 0
174 197 0
174 197 0
173 197 0
174 197 0
174 197 0
174 197 0
177 199 0
173 197 0
176 198 0
173 196 0
173 197 0
174 198 0
174 198 0
173 197 0
174 197 0
175 198 0
175 198 0
174 197 0
176 198 0
173 197 0
174 197 0
174 197 0
176 198 0
173 197 0
176 198 0
176 198 0
174 198 0
174 198 0
173 197 0
176 199 0
173 197 0
174 198 0
175 198 0
177 199 0
173 197 0
176 199 0
174 197 0
176 198 0
174 198 0
173 197 0
173 197 0
175 198 0
174 197 0
175 198 0
175 198 0
175 198 0
173 197 0
174 197 0
176 198 0
176 198 0
173 197 0
173 197 0
174 198 0
173 197 0
173 197 0
175 198 0
175 198 0
174 197 0
174 198 0
175 198 0
175 198 0
175 198 0
173 197 0
174 198 0
174 198 0
176 198 0
176 198 0
176 199 0
173 197 0
175 198 0
174 197 0
174 197 0
174 198 0
174 198 0
174 198 0
175 198 0
174 197 0
176 198 0
174 198 0
175 198 0
173 197 0
176 199 0
174 198 0
174 197 0
175 198 0
174 197 0
175 198 0
174 198 0
173 197 0
175 198 0
174 198 0
176 198 0
174 198 0
174 197 0
173 197 0
174 198 0
174 197 0
175 198 0
173 197 0
175 198 0
174 198 0
175 198 0
175 198 0
174 198 0
174 198 0
174 198 0
176 198 0
173 197 0
173 197 0
175 198 0
174 197 0
173 197 0
174 198 0
174 198 0
174 198 0
175 198 0
175 198 0
175 198 0
174 198 0
175 198 0
177 199 0
175 198 0
174 198 0
172 197 0
174 198 0
174 198 0
175 198 0
175 198 0
175 198 0
176 199 0
173 197 0
175 198 0
173 197 0
175 198 0
174 198 0
173 197 0
174 197 0
176 199 0
174 198 0
174 198 0
174 198 0
175 198 0
174 197 0
174 197 0
173 197 0
177 199 0
175 198 0
173 197 0
174 198 0
174 198 0
174 198 0
175 198 0
174 198 0
175 198 0
174 197 0
174 197 0
174 198 0
175 198 0
174 198 0
173 197 0
173 197 0
175 198 0
173 197 0
172 197 0
175 198 0
175 198 0
174 198 0
176 199 0
175 198 0
175 198 0
176 198 0
174 197 0
175 198 0
175 198 0
175 198 0
175 198 0
175 198 0
174 198 0
174 198 0
172 197 0
175 198 0
175 198 0
173 197 0
174 197 0
175 198 0
172 196 0
176 199 0
175 198 0
174 197 0
174 198 0
175 198 0
174 198 0
173 197 0
175 198 0
174 198 0
174 198 0
173 197 0
174 198 0
174 197 0
175 198 0
173 197 0
176 199 0
172 197 0
175 198 0
175 198 0
176 199 0
174 197 0
174 197 0
174 197 0
173 197 0
173 197 0
174 198 0
172 196 0
175 198 0
176 199 0
174 198 0
173 197 0
174 197 0
174 197 0
175 198 0
172 197 0
176 199 0
175 198 0
174 198 0
173 197 0
175 198 0
175 198 0
174 198 0
173 197 0
174 197 0
173 197 0
172 196 0
173 196 0
175 198 0
175 198 0
175 198 0
175 198 0
173 197 0
174 197 0
173 197 0
174 197 0
172 196 0
174 197 0
174 198 0
174 197 0
174 197 0
175 198 0
174 198 0
171 195 0
175 198 0
174 197 0
173 197 0
174 197 0
174 197 0
175 198 0
173 197 0
173 197 0
173 197 0
174 198 0
175 198 0
172 196 0
174 197 0
173 196 0
174 197 0
172 196 0
175 198 0
175 198 0
174 197 0
172 196 0
174 198 0
172 195 0
174 197 0
174 198 0
172 196 0
173 197 0
171 194 0
173 197 0
173 197 0
170 194 0
171 195 0
173 196 0
172 196 0
172 196 0
170 194 0
173 195 0
172 195 0
172 196 0
173 197 0
181 203 92
216 231 236
219 234 255
214 232 255
217 233 253
204 222 199
179 201 76
173 197 0
173 197 0
173 196 0
172 196 0
172 195 0
174 197 0
175 197 0
170 193 0
171 195 0
173 196 0
171 193 0
109 136 124
61 97 152
61 97 160
82 112 173
65 101 175
61 98 172
62 98 170
61 97 162
60 96 148
60 95 150
60 96 148
60 96 150
61 96 154
60 96 145
61 97 157
61 97 156
62 98 155
62 97 154
62 97 153
62 97 149
62 98 163
62 97 154
63 98 158
62 97 151
60 95 145
60 96 143
61 96 142
61 96 143
61 96 145
61 96 148
61 96 144
62 97 147
60 93 135
103 114 46
129 136 0
123 125 0
116 113 0
113 114 0
112 111 0
115 112 0
118 113 0
115 110 0
127 123 0
129 125 0
131 128 0
145 142 0
144 143 0
152 156 0
156 163 0
155 160 0
155 162 0
158 167 0
161 169 0
163 177 0
167 180 0
168 182 0
165 178 0
168 185 0
167 184 0
170 189 0
169 188 0
169 187 0
170 190 0
172 193 0
169 192 0
171 192 0
171 192 0
173 194 0
173 193 0
172 193 0
171 194 0
171 194 0
170 192 0
171 193 0
174 195 0
173 195 0
172 194 0
172 194 0
174 197 0
173 196 0
172 196 0
172 195 0
175 198 0
174 197 0
172 195 0
172 196 0
174 198 0
173 197 0
173 196 0
176 198 0
173 197 0
173 196 0
174 197 0
173 197 0
174 197 0
173 197 0
173 196 0
171 196 0
173 196 0
174 197 0
174 197 0
174 197 0
174 198 0
174 197 0
173 196 0
174 197 0
172 196 0
176 198 0
175 198 0
175 198 0
174 197 0
174 197 0
175 198 0
174 198 0
173 197 0
175 197 0
174 197 0
173 197 0
173 197 0
175 198 0
174 198 0
174 197 0
173 197 0
175 198 0
173 197 0
173 197 0
174 197 0
174 198 0
175 198 0
176 199 0
175 198 0
176 198 0
174 198 0
174 198 0
175 198 0
174 198 0
173 197 0
174 197 0
172 197 0
174 198 0
175 198 0
173 197 0
173 197 0
174 198 0
173 197 0
174 198 0
174 197 0
174 198 0
172 197 0
175 198 0
173 197 0
174 198 0
174 198 0
175 198 0
175 198 0
174 198 0
175 198 0
174 197 0
174 198 0
175 198 0
175 198 0
173 197 0
175 198 0
172 197 0
174 197 0
175 198 0
174 197 0
175 198 0
175 198 0
173 197 0
173 197 0
173 197 0
174 197 0
175 198 0
174 198 0
174 198 0
175 198 0
174 197 0
174 198 0
174 198 0
174 198 0
174 197 0
175 198 0
175 198 0
174 197 0
175 198 0
176 198 0
173 197 0
175 198 0
175 198 0
175 198 0
176 199 0
176 199 0
175 198 0
173 197 0
175 198 0
175 198 0
175 198 0
174 198 0
176 199 0
174 198 0
174 198 0
174 198 0
174 198 0
174 198 0
175 198 0
173 197 0
175 198 0
174 198 0
174 198 0
176 198 0
176 198 0
174 198 0
173 197 0
175 198 0
175 198 0
174 198 0
173 197 0
174 198 0
173 197 0
175 198 0
174 197 0
175 198 0
174 197 0
173 197 0
175 198 0
175 198 0
174 198 0
175 198 0
174 198 0
174 198 0
175 198 0
174 198 0
174 198 0
174 198 0
175 198 0
174 198 0
175 198 0
173 197 0
174 198 0
176 198 0
174 197 0
175 198 0
176 199 0
174 198 0
175 198 0
175 198 0
175 198 0
175 198 0
173 197 0
175 198 0
175 198 0
174 198 0
174 198 0
175 198 0
175 198 0
173 197 0
174 198 0
176 198 0
174 198 0
175 198 0
173 197 0
175 198 0
176 198 0
174 197 0
176 198 0
174 198 0
175 198 0
174 198 0
176 198 0
173 197 0
175 198 0
174 198 0
176 198 0
173 197 0
175 198 0
175 198 0
175 198 0
176 199 0
174 198 0
173 197 0
173 197 0
174 198 0
174 198 0
176 198 0
174 197 0
173 197 0
176 199 0
174 198 0
175 198 0
173 197 0
174 198 0
174 198 0
174 197 0
173 197 0
176 199 0
173 197 0
176 198 0
172 196 0
174 198 0
174 198 0
175 198 0
176 199 0
174 198 0
174 197 0
173 197 0
175 198 0
173 196 0
176 199 0
175 198 0
175 198 0
173 197 0
174 198 0
175 198 0
175 198 0
173 197 0
174 198 0
175 198 0
174 198 0
173 197 0
174 197 0
174 198 0
174 198 0
174 197 0
175 198 0
172 197 0
176 198 0
174 197 0
174 198 0
174 198 0
173 197 0
173 197 0
174 198 0
174 198 0
174 197 0
172 196 0
175 198 0
173 197 0
173 197 0
175 198 0
173 197 0
173 197 0
172 197 0
175 198 0
174 197 0
172 196 0
172 197 0
174 197 0
174 197 0
173 197 0
174 197 0
175 198 0
173 197 0
174 197 0
174 197 0
174 197 0
173 197 0
173 196 0
173 196 0
172 196 0
173 196 0
174 197 0
174 197 0
175 198 0
170 194 0
174 197 0
173 197 0
172 195 0
172 196 0
173 196 0
172 195 0
173 196 0
171 195 0
172 195 0
172 195 0
170 194 0
174 197 0
173 195 0
172 195 0
171 195 0
172 195 0
180 202 84
214 229 227
218 234 255
215 232 255
211 228 226
183 205 99
173 196 0
174 197 0
173 197 0
172 196 0
172 196 0
170 193 0
168 191 0
169 192 0
168 190 0
167 190 0
167 191 0
172 195 0
169 192 0
132 155 90
60 95 139
61 96 145
61 97 159
61 98 162
61 98 171
63 100 172
62 98 167
62 98 161
62 98 157
60 95 145
63 98 147
60 96 149
60 96 148
60 95 142
61 97 152
61 96 148
61 96 145
61 96 151
61 97 154
60 95 151
61 97 149
61 97 153
62 98 154
60 95 136
60 95 147
61 96 144
61 96 143
60 95 141
61 95 137
59 93 128
60 95 136
68 97 119
121 130 18
122 130 0
126 131 0
121 129 0
117 117 0
125 129 0
119 119 0
116 118 0
134 137 0
133 133 0
132 133 0
135 136 0
142 145 0
152 157 0
144 148 0
152 156 0
156 165 0
158 167 0
162 174 0
160 171 0
166 181 0
166 179 0
166 181 0
169 186 0
166 185 0
169 187 0
170 187 0
171 190 0
171 192 0
168 187 0
170 190 0
169 189 0
170 190 0
171 192 0
170 191 0
170 192 0
173 195 0
172 195 0
169 192 0
173 195 0
171 193 0
171 194 0
172 194 0
169 191 0
172 194 0
174 197 0
173 197 0
174 197 0
173 197 0
174 196 0
174 197 0
171 194 0
174 195 0
172 196 0
174 197 0
174 197 0
174 197 0
173 196 0
172 196 0
174 197 0
174 197 0
174 197 0
174 196 0
174 198 0
174 197 0
174 197 0
174 197 0
172 195 0
174 197 0
176 198 0
173 197 0
175 198 0
174 197 0
175 197 0
175 198 0
174 197 0
175 198 0
174 197 0
175 198 0
172 196 0
173 197 0
174 197 0
174 198 0
176 198 0
174 197 0
173 196 0
174 198 0
175 198 0
174 197 0
174 198 0
175 198 0
175 198 0
175 198 0
174 197 0
175 198 0
174 197 0
175 198 0
171 195 0
173 197 0
174 198 0
174 198 0
174 198 0
175 198 0
175 198 0
173 197 0
174 198 0
174 197 0
176 198 0
176 199 0
173 197 0
176 198 0
175 198 0
174 198 0
174 198 0
175 198 0
175 198 0
173 197 0
174 198 0
175 198 0
175 198 0
173 197 0
174 197 0
174 198 0
174 197 0
174 198 0
173 197 0
174 198 0
174 198 0
175 198 0
174 198 0
176 199 0
174 198 0
175 198 0
174 198 0
174 198 0
174 197 0
175 198 0
175 198 0
174 198 0
174 197 0
174 197 0
174 197 0
175 198 0
174 198 0
174 198 0
173 197 0
172 197 0
172 197 0
175 198 0
174 198 0
174 198 0
175 198 0
174 198 0
174 197 0
174 198 0
176 199 0
172 197 0
176 198 0
176 198 0
174 198 0
175 198 0
176 198 0
176 199 0
174 198 0
174 198 0
175 198 0
174 198 0
174 198 0
174 198 0
174 198 0
175 198 0
175 198 0
176 198 0
175 198 0
174 197 0
172 197 0
174 197 0
175 198 0
175 198 0
175 198 0
173 197 0
174 197 0
175 198 0
175 198 0
175 198 0
175 198 0
174 197 0
174 197 0
174 198 0
174 198 0
174 198 0
176 199 0
174 198 0
175 198 0
174 198 0
175 198 0
175 198 0
173 197 0
176 199 0
173 197 0
175 198 0
174 198 0
176 199 0
175 198 0
174 198 0
174 198 0
173 197 0
172 197 0
174 198 0
174 198 0
175 198 0
175 198 0
174 198 0
176 199 0
172 197 0
174 198 0
174 198 0
174 197 0
173 197 0
174 197 0
173 197 0
174 197 0
175 198 0
175 198 0
174 198 0
174 197 0
175 198 0
174 198 0
173 197 0
175 198 0
174 198 0
174 197 0
175 198 0
173 197 0
174 198 0
171 196 0
174 198 0
176 199 0
173 197 0
174 198 0
176 198 0
173 197 0
173 197 0
175 198 0
175 198 0
175 198 0
175 198 0
175 198 0
172 197 0
173 197 0
175 198 0
175 198 0
175 198 0
175 198 0
174 198 0
175 198 0
174 197 0
174 198 0
174 197 0
173 197 0
175 198 0
173 197 0
174 198 0
175 198 0
175 198 0
175 198 0
174 197 0
173 197 0
174 198 0
176 198 0
175 198 0
174 198 0
175 198 0
174 198 0
173 197 0
174 198 0
175 198 0
176 198 0
175 198 0
175 198 0
173 197 0
173 197 0
173 196 0
175 198 0
173 197 0
173 197 0
174 198 0
177 199 0
174 198 0
176 198 0
174 197 0
174 197 0
172 196 0
174 197 0
174 197 0
174 198 0
173 196 0
175 198 0
174 198 0
172 196 0
174 197 0
175 198 0
173 197 0
173 196 0
175 198 0
175 198 0
173 197 0
173 197 0
174 197 0
174 198 0
176 198 0
173 197 0
175 198 0
174 197 0
174 198 0
173 196 0
175 198 0
172 196 0
174 197 0
173 196 0
176 198 0
174 197 0
174 197 0
173 196 0
172 196 0
174 197 0
174 198 0
173 196 0
172 196 0
173 196 0
174 197 0
173 197 0
174 197 0
173 196 0
173 196 0
173 197 0
172 195 0
171 195 0
173 196 0
174 197 0
171 195 0
172 196 0
173 196 0
173 196 0
170 193 0
169 193 0
174 198 0
174 197 0
211 227 217
219 234 255
216 233 255
198 216 177
173 196 25
174 197 0
172 196 0
171 195 0
170 193 0
171 195 0
169 192 0
168 191 0
171 194 0
174 197 0
168 192 0
166 190 0
170 193 0
165 188 0
167 190 0
160 184 25
89 117 118
61 96 141
60 95 151
60 95 149
62 97 159
61 98 166
62 99 172
62 98 160
60 95 145
59 95 147
59 94 143
60 95 139
59 94 134
61 96 144
60 95 137
61 96 141
60 96 144
62 98 154
60 95 134
62 98 153
59 94 136
61 97 143
61 96 140
61 96 143
60 95 137
61 95 134
62 97 150
61 96 136
61 95 134
59 93 137
57 91 122
110 127 75
126 134 0
133 145 0
129 139 0
117 128 0
123 131 0
123 128 0
137 143 0
134 139 0
141 147 0
139 140 0
145 150 0
149 156 0
148 150 0
154 161 0
154 160 0
158 168 0
161 170 0
162 172 0
163 175 0
163 174 0
165 177 0
162 173 0
163 180 0
169 186 0
170 188 0
167 183 0
169 189 0
167 186 0
172 189 0
169 190 0
168 188 0
169 190 0
171 192 0
171 192 0
171 193 0
169 192 0
170 192 0
172 193 0
174 196 0
173 194 0
171 193 0
173 196 0
171 193 0
174 196 0
174 196 0
174 196 0
171 194 0
174 197 0
174 197 0
173 196 0
172 195 0
174 197 0
173 197 0
173 196 0
173 196 0
174 197 0
174 196 0
174 197 0
177 199 0
172 196 0
174 197 0
173 196 0
174 197 0
174 197 0
174 198 0
175 198 0
173 197 0
175 198 0
174 198 0
174 197 0
173 197 0
173 197 0
174 197 0
175 198 0
173 196 0
174 197 0
174 197 0
172 197 0
173 197 0
174 197 0
173 196 0
172 197 0
175 198 0
174 197 0
174 197 0
173 197 0
176 199 0
173 197 0
174 198 0
176 198 0
175 198 0
174 198 0
174 198 0
174 198 0
175 198 0
173 196 0
175 198 0
173 197 0
175 198 0
173 197 0
177 199 0
174 198 0
173 197 0
175 198 0
174 198 0
176 198 0
175 198 0
173 197 0
174 198 0
175 198 0
174 198 0
173 197 0
176 198 0
173 197 0
173 197 0
174 198 0
175 198 0
174 198 0
175 198 0
175 198 0
175 198 0
175 198 0
175 198 0
174 198 0
174 197 0
174 198 0
174 197 0
174 198 0
175 198 0
175 198 0
175 198 0
175 198 0
174 198 0
174 198 0
173 197 0
174 198 0
175 198 0
174 198 0
174 197 0
174 197 0
173 197 0
174 197 0
175 198 0
174 198 0
175 198 0
175 198 0
173 197 0
174 198 0
174 198 0
174 198 0
175 198 0
175 198 0
173 197 0
176 199 0
173 197 0
174 198 0
174 198 0
176 198 0
175 198 0
176 198 0
174 198 0
173 197 0
174 197 0
176 198 0
173 197 0
175 198 0
174 197 0
175 198 0
175 198 0
174 198 0
175 198 0
174 198 0
172 197 0
173 197 0
175 198 0
173 197 0
174 198 0
174 197 0
174 197 0
175 198 0
173 197 0
174 198 0
176 198 0
174 198 0
176 198 0
175 198 0
173 197 0
173 197 0
174 197 0
174 198 0
173 197 0
174 198 0
173 197 0
174 198 0
174 197 0
174 197 0
175 198 0
175 198 0
174 197 0
175 198 0
175 198 0
174 198 0
174 198 0
173 197 0
174 198 0
175 198 0
174 198 0
175 198 0
173 197 0
175 198 0
175 198 0
174 198 0
174 198 0
175 198 0
172 197 0
174 198 0
174 198 0
175 198 0
175 198 0
174 198 0
174 198 0
173 197 0
175 198 0
176 199 0
174 197 0
174 198 0
174 198 0
173 197 0
175 198 0
175 198 0
174 198 0
175 198 0
174 198 0
175 198 0
174 198 0
173 197 0
175 198 0
174 198 0
175 198 0
175 198 0
175 198 0
175 198 0
174 198 0
175 198 0
175 198 0
174 197 0
174 198 0
174 197 0
173 197 0
174 197 0
172 196 0
174 197 0
175 198 0
173 197 0
175 198 0
176 198 0
173 197 0
173 197 0
174 198 0
174 198 0
174 197 0
174 198 0
172 196 0
173 197 0
175 198 0
174 198 0
175 198 0
175 198 0
174 198 0
174 198 0
174 197 0
173 197 0
175 198 0
174 198 0
174 197 0
174 198 0
174 198 0
174 198 0
176 199 0
175 198 0
174 197 0
173 197 0
174 198 0
174 197 0
173 197 0
174 197 0
174 198 0
174 198 0
174 198 0
176 198 0
174 198 0
174 198 0
174 198 0
176 199 0
174 198 0
175 198 0
175 198 0
174 197 0
174 197 0
174 198 0
175 198 0
173 197 0
173 197 0
174 198 0
175 198 0
173 197 0
176 198 0
173 196 0
174 198 0
173 197 0
174 197 0
175 198 0
174 198 0
175 198 0
176 199 0
175 198 0
175 198 0
174 198 0
171 196 0
175 198 0
172 196 0
174 198 0
173 196 0
173 196 0
172 196 0
174 198 0
174 197 0
173 196 0
174 197 0
174 197 0
172 195 0
172 196 0
172 195 0
170 194 0
173 196 0
175 198 0
170 194 0
171 195 0
173 196 0
174 197 0
174 197 0
170 194 0
172 195 0
172 195 0
171 195 0
172 195 0
175 198 0
192 211 147
221 235 255
217 233 255
197 216 171
175 198 0
173 196 0
174 197 0
171 194 0
171 193 0
172 196 0
170 193 0
170 193 0
171 194 0
169 193 0
168 192 0
162 187 0
164 188 0
164 187 0
161 184 0
166 189 0
161 184 0
133 157 70
58 92 120
60 95 139
60 96 151
60 95 148
60 96 155
61 96 156
62 98 161
61 96 156
60 95 148
59 94 140
62 96 137
60 95 141
60 95 136
60 96 139
60 96 144
61 96 142
59 94 130
61 96 143
60 96 140
59 94 130
61 97 144
61 96 141
62 97 144
61 96 139
60 95 140
61 96 140
60 94 125
58 92 128
58 92 126
68 96 103
119 131 18
125 133 0
129 138 0
133 145 0
141 154 0
131 142 0
141 150 0
135 142 0
135 138 0
145 155 0
132 142 0
140 146 0
150 159 0
152 164 0
152 161 0
156 166 0
157 168 0
161 175 0
160 172 0
157 167 0
162 176 0
164 178 0
164 182 0
163 177 0
165 179 0
169 186 0
169 188 0
168 186 0
169 189 0
168 186 0
170 191 0
172 192 0
168 188 0
171 192 0
172 193 0
173 193 0
170 192 0
172 193 0
172 193 0
171 193 0
171 192 0
171 194 0
172 196 0
172 195 0
174 197 0
173 196 0
174 196 0
174 196 0
174 197 0
172 194 0
173 196 0
172 194 0
175 197 0
174 197 0
173 195 0
175 197 0
173 196 0
174 196 0
175 198 0
174 197 0
174 197 0
172 196 0
173 197 0
173 196 0
174 196 0
171 194 0
173 197 0
173 197 0
175 198 0
174 198 0
173 197 0
173 197 0
173 196 0
172 196 0
173 196 0
174 197 0
174 198 0
175 198 0
174 198 0
174 197 0
175 198 0
174 197 0
175 197 0
173 197 0
174 197 0
174 197 0
174 197 0
174 197 0
174 198 0
177 199 0
175 198 0
176 199 0
174 198 0
175 198 0
173 196 0
174 198 0
174 198 0
175 198 0
172 196 0
174 197 0
173 197 0
175 198 0
175 198 0
174 198 0
174 197 0
173 197 0
174 198 0
175 198 0
174 197 0
174 198 0
174 197 0
174 198 0
175 198 0
174 198 0
175 198 0
175 198 0
174 198 0
175 198 0
174 197 0
173 197 0
175 198 0
175 198 0
174 198 0
174 198 0
174 197 0
176 198 0
174 198 0
175 198 0
174 198 0
174 197 0
175 198 0
175 198 0
175 198 0
174 198 0
173 196 0
175 198 0
173 197 0
173 197 0
174 198 0
174 197 0
175 198 0
176 199 0
174 198 0
174 197 0
174 197 0
173 197 0
175 198 0
175 198 0
172 197 0
174 197 0
175 198 0
173 197 0
174 198 0
174 197 0
175 198 0
175 198 0
175 198 0
173 197 0
173 197 0
175 198 0
175 198 0
177 199 0
175 198 0
175 198 0
175 198 0
174 198 0
175 198 0
173 197 0
175 198 0
174 198 0
174 198 0
172 196 0
175 198 0
175 198 0
174 198 0
175 198 0
176 198 0
174 197 0
175 198 0
173 197 0
173 197 0
174 198 0
175 198 0
176 199 0
174 198 0
174 197 0
174 198 0
174 197 0
174 198 0
175 198 0
174 197 0
174 198 0
176 199 0
174 197 0
175 198 0
175 198 0
175 198 0
174 198 0
176 199 0
174 198 0
175 198 0
175 198 0
174 198 0
173 197 0
175 198 0
175 198 0
175 198 0
175 198 0
174 198 0
173 197 0
174 198 0
176 199 0
174 198 0
175 198 0
175 198 0
175 198 0
175 198 0
176 198 0
174 198 0
174 197 0
176 198 0
175 198 0
175 198 0
175 198 0
176 199 0
173 197 0
173 197 0
174 198 0
173 197 0
175 198 0
174 198 0
174 197 0
175 198 0
175 198 0
176 198 0
174 198 0
175 198 0
174 197 0
174 197 0
174 198 0
175 198 0
176 199 0
175 198 0
173 197 0
173 197 0
175 198 0
175 198 0
174 198 0
175 198 0
174 198 0
175 198 0
174 197 0
172 196 0
175 198 0
174 198 0
174 198 0
173 197 0
173 197 0
176 198 0
175 198 0
175 197 0
174 198 0
174 198 0
175 198 0
173 197 0
175 198 0
175 198 0
175 198 0
174 197 0
173 197 0
174 198 0
175 198 0
175 198 0
174 197 0
174 197 0
174 197 0
174 197 0
174 198 0
175 198 0
175 198 0
174 197 0
176 199 0
174 198 0
174 197 0
174 198 0
175 198 0
174 198 0
174 197 0
173 197 0
175 198 0
175 198 0
176 199 0
174 198 0
175 198 0
177 199 0
175 198 0
173 197 0
174 197 0
173 197 0
175 198 0
176 198 0
173 197 0
174 197 0
174 197 0
174 197 0
175 198 0
175 198 0
173 197 0
174 197 0
173 196 0
175 198 0
174 198 0
172 195 0
174 197 0
174 197 0
172 196 0
173 197 0
174 198 0
174 197 0
172 196 0
174 197 0
174 197 0
175 198 0
173 197 0
175 198 0
172 196 0
172 196 0
175 198 0
173 197 0
174 197 0
174 196 0
172 196 0
171 195 0
172 195 0
174 197 0
172 195 0
173 197 0
176 199 0
172 196 0
174 197 0
174 197 0
170 193 0
171 195 0
175 197 0
173 196 0
170 193 0
171 195 0
177 200 51
217 232 240
218 234 255
195 214 167
173 197 0
171 195 0
173 196 0
173 196 0
172 195 0
171 194 0
169 193 0
170 193 0
172 196 0
165 188 0
167 191 0
165 189 0
165 188 0
155 178 0
161 184 0
157 180 0
155 178 0
151 173 0
155 177 0
94 120 90
59 92 122
59 94 133
59 94 137
60 95 147
60 96 145
61 97 155
61 97 149
60 95 143
62 97 144
66 99 124
64 97 133
59 94 133
59 93 142
61 95 139
60 95 139
60 95 136
60 95 136
60 95 140
61 96 139
61 96 134
60 95 139
60 95 137
62 97 147
60 95 129
59 92 124
57 91 113
58 91 113
58 89 118
119 133 44
127 143 0
131 144 0
129 141 0
121 134 0
129 142 0
131 145 0
140 152 0
132 143 0
138 149 0
134 146 0
142 154 0
145 158 0
154 166 0
153 163 0
157 169 0
155 166 0
155 167 0
160 174 0
164 179 0
162 175 0
161 178 0
165 182 0
162 177 0
165 181 0
165 182 0
168 187 0
166 186 0
164 183 0
169 189 0
171 191 0
170 192 0
170 190 0
171 191 0
170 189 0
171 191 0
172 194 0
169 190 0
168 190 0
174 197 0
173 195 0
170 191 0
173 195 0
172 195 0
172 194 0
173 196 0
173 194 0
172 195 0
171 193 0
172 195 0
170 193 0
174 196 0
174 197 0
175 197 0
173 196 0
172 196 0
173 195 0
171 194 0
173 197 0
173 197 0
172 197 0
171 194 0
173 197 0
173 197 0
173 195 0
174 197 0
173 196 0
173 196 0
175 198 0
174 197 0
174 197 0
174 197 0
174 196 0
173 195 0
174 197 0
173 197 0
174 197 0
172 195 0
173 197 0
174 197 0
173 197 0
174 197 0
173 196 0
174 197 0
174 197 0
175 198 0
172 196 0
175 197 0
174 198 0
174 197 0
174 198 0
174 197 0
174 198 0
174 197 0
173 197 0
175 198 0
173 196 0
175 198 0
175 198 0
175 198 0
175 198 0
174 197 0
178 200 0
174 198 0
173 197 0
173 197 0
174 198 0
174 198 0
175 198 0
174 197 0
173 197 0
176 198 0
173 197 0
174 198 0
174 197 0
175 198 0
173 197 0
174 197 0
175 198 0
173 197 0
174 197 0
173 197 0
174 198 0
173 197 0
175 198 0
174 198 0
175 198 0
175 198 0
174 198 0
174 197 0
175 198 0
174 198 0
175 198 0
174 197 0
175 198 0
176 199 0
175 198 0
172 197 0
174 198 0
174 197 0
174 198 0
174 198 0
175 198 0
174 197 0
172 197 0
175 198 0
173 197 0
174 198 0
176 198 0
174 198 0
175 198 0
173 197 0
175 198 0
174 198 0
175 198 0
173 197 0
174 197 0
175 198 0
175 198 0
175 198 0
175 198 0
175 198 0
173 197 0
175 198 0
175 198 0
174 198 0
174 197 0
175 198 0
174 198 0
175 198 0
175 198 0
174 197 0
175 198 0
174 197 0
175 198 0
174 198 0
173 197 0
175 198 0
174 197 0
174 197 0
175 198 0
176 198 0
172 196 0
174 198 0
173 197 0
173 197 0
173 197 0
173 197 0
175 198 0
172 197 0
177 199 0
176 199 0
175 198 0
175 198 0
174 198 0
174 198 0
175 198 0
176 199 0
177 199 0
174 197 0
175 198 0
175 198 0
176 199 0
171 196 0
174 198 0
175 198 0
176 199 0
175 198 0
174 198 0
174 197 0
174 198 0
174 197 0
175 198 0
174 198 0
175 198 0
175 198 0
174 198 0
174 198 0
174 197 0
175 198 0
175 198 0
174 197 0
174 198 0
174 198 0
175 198 0
175 198 0
175 198 0
175 198 0
174 197 0
175 198 0
174 198 0
173 197 0
173 197 0
175 198 0
174 198 0
174 197 0
174 198 0
173 197 0
176 198 0
173 197 0
175 198 0
175 198 0
173 197 0
174 198 0
175 198 0
174 198 0
175 198 0
175 198 0
175 198 0
173 197 0
174 197 0
174 198 0
174 198 0
173 197 0
174 197 0
175 198 0
174 198 0
174 198 0
174 197 0
173 197 0
173 197 0
175 198 0
175 198 0
174 198 0
175 198 0
175 198 0
173 197 0
174 197 0
174 197 0
174 198 0
174 198 0
173 197 0
174 197 0
175 198 0
174 198 0
175 198 0
175 198 0
177 199 0
173 197 0
176 199 0
174 198 0
174 197 0
174 197 0
173 197 0
173 197 0
173 197 0
173 197 0
173 197 0
175 198 0
172 196 0
173 197 0
175 198 0
174 198 0
173 197 0
173 196 0
174 197 0
174 198 0
174 197 0
175 197 0
174 198 0
173 197 0
174 197 0
174 198 0
174 198 0
175 198 0
174 197 0
174 198 0
175 198 0
171 196 0
173 196 0
173 197 0
173 197 0
174 198 0
173 196 0
172 196 0
172 196 0
174 197 0
174 197 0
171 195 0
175 198 0
173 197 0
174 197 0
173 197 0
173 196 0
174 197 0
172 196 0
174 198 0
171 194 0
173 197 0
174 196 0
173 197 0
173 197 0
175 198 0
173 196 0
172 196 0
172 196 0
173 196 0
173 197 0
170 193 0
171 195 0
173 196 0
172 195 0
169 194 0
172 194 0
174 197 0
171 194 0
174 198 0
174 198 0
199 217 177
221 235 255
203 221 199
173 196 25
172 196 0
174 197 0
173 197 0
173 196 0
169 193 0
170 194 0
166 189 0
168 192 0
172 195 0
166 189 0
165 189 0
161 184 0
168 192 0
164 187 0
162 185 0
161 184 0
160 184 0
157 179 0
156 178 0
136 159 54
67 97 100
58 92 114
58 91 124
60 94 141
61 95 141
60 95 147
62 98 158
60 95 143
59 94 128
60 95 135
70 100 118
59 93 118
60 95 141
60 95 134
59 94 131
60 94 126
60 94 129
60 94 134
57 91 107
59 93 125
60 95 136
60 94 129
60 94 133
59 93 126
60 94 126
58 91 120
61 92 100
105 120 54
127 140 0
118 133 0
141 156 0
124 138 0
132 145 0
137 150 0
137 152 0
144 161 0
138 151 0
139 151 0
145 155 0
144 157 0
149 160 0
149 161 0
152 167 0
149 162 0
160 177 0
158 172 0
160 175 0
162 176 0
158 174 0
165 182 0
162 179 0
167 184 0
165 184 0
165 182 0
166 183 0
169 190 0
168 185 0
167 187 0
169 189 0
169 189 0
169 189 0
173 193 0
171 191 0
170 192 0
171 192 0
173 196 0
173 195 0
173 196 0
172 194 0
171 194 0
172 193 0
170 194 0
172 194 0
172 194 0
174 195 0
174 196 0
172 194 0
173 195 0
172 195 0
174 197 0
173 196 0
171 194 0
172 195 0
173 197 0
175 197 0
173 195 0
175 198 0
172 195 0
173 196 0
173 197 0
173 197 0
173 195 0
174 197 0
173 196 0
174 197 0
175 198 0
174 197 0
173 197 0
173 196 0
175 198 0
174 197 0
173 196 0
173 197 0
175 198 0
174 197 0
175 197 0
175 197 0
175 198 0
174 197 0
175 198 0
173 196 0
174 197 0
176 198 0
174 198 0
174 197 0
174 197 0
173 197 0
176 198 0
174 197 0
174 198 0
174 197 0
175 198 0
175 198 0
174 198 0
174 197 0
174 198 0
176 198 0
174 197 0
173 197 0
175 198 0
175 198 0
174 197 0
175 198 0
173 197 0
175 198 0
174 198 0
175 198 0
173 197 0
174 197 0
174 197 0
176 199 0
174 198 0
175 198 0
173 197 0
175 198 0
174 198 0
172 196 0
174 197 0
173 197 0
174 197 0
174 198 0
174 198 0
174 198 0
175 198 0
174 197 0
175 198 0
175 198 0
174 198 0
173 197 0
172 197 0
174 197 0
175 198 0
174 197 0
174 197 0
174 198 0
174 198 0
175 198 0
174 198 0
174 196 0
175 198 0
173 197 0
175 198 0
174 197 0
175 198 0
173 197 0
174 198 0
174 197 0
174 198 0
174 197 0
174 197 0
173 197 0
173 197 0
174 198 0
175 198 0
175 198 0
174 197 0
175 198 0
175 198 0
175 198 0
175 198 0
174 198 0
175 198 0
176 199 0
176 199 0
175 198 0
173 197 0
173 197 0
175 198 0
175 198 0
175 198 0
176 199 0
174 198 0
175 198 0
175 198 0
175 198 0
175 198 0
172 197 0
173 197 0
174 197 0
175 198 0
175 198 0
174 198 0
175 198 0
174 197 0
172 197 0
176 199 0
173 197 0
173 197 0
174 198 0
176 199 0
174 198 0
173 197 0
174 198 0
175 198 0
175 198 0
174 198 0
175 198 0
175 198 0
174 197 0
173 197 0
173 197 0
175 198 0
175 198 0
174 198 0
175 198 0
173 197 0
176 198 0
174 197 0
175 198 0
175 198 0
174 198 0
174 198 0
174 198 0
174 198 0
175 198 0
174 197 0
176 199 0
175 198 0
175 198 0
173 197 0
173 197 0
175 198 0
174 198 0
175 198 0
174 197 0
175 198 0
174 197 0
175 198 0
174 198 0
173 197 0
176 199 0
175 198 0
175 198 0
173 197 0
175 198 0
175 198 0
174 198 0
172 197 0
174 197 0
175 198 0
176 199 0
175 198 0
175 198 0
175 198 0
173 197 0
174 198 0
175 198 0
175 198 0
175 198 0
174 198 0
174 198 0
175 198 0
175 198 0
174 198 0
173 197 0
175 198 0
174 198 0
174 197 0
174 198 0
175 198 0
176 199 0
175 198 0
176 199 0
174 198 0
172 196 0
175 198 0
173 197 0
176 199 0
174 198 0
174 198 0
172 197 0
175 198 0
174 197 0
175 198 0
174 198 0
176 198 0
174 198 0
174 198 0
174 198 0
174 198 0
175 198 0
173 197 0
173 197 0
174 197 0
173 197 0
174 198 0
174 198 0
175 198 0
174 198 0
174 197 0
173 197 0
173 197 0
175 198 0
174 198 0
175 198 0
175 198 0
174 198 0
176 198 0
174 198 0
174 198 0
175 198 0
174 198 0
173 197 0
174 197 0
175 198 0
174 197 0
172 195 0
174 197 0
174 198 0
175 198 0
174 197 0
171 194 0
174 198 0
174 197 0
175 198 0
173 196 0
173 197 0
172 196 0
174 197 0
173 196 0
173 196 0
172 196 0
172 196 0
173 195 0
175 198 0
171 195 0
172 196 0
174 198 0
174 197 0
172 196 0
173 196 0
174 197 0
175 198 0
173 197 0
171 195 0
172 195 0
173 196 0
174 197 0
174 197 0
168 192 0
170 193 0
170 194 0
170 193 0
167 191 0
173 197 0
173 197 0
214 229 226
217 232 246
176 199 57
175 198 0
173 196 0
172 195 0
168 192 0
169 192 0
171 194 0
171 194 0
174 197 0
171 195 0
167 191 0
163 187 0
163 187 0
160 183 0
169 192 0
157 179 0
163 186 0
158 182 0
155 178 0
147 170 0
141 162 0
143 165 0
116 138 44
55 87 105
57 90 108
58 92 121
59 93 124
59 93 130
61 97 154
60 95 141
60 95 135
59 93 125
76 105 110
59 93 128
58 92 121
59 94 134
60 95 131
59 93 126
59 93 114
60 95 129
58 93 122
60 95 129
58 92 118
58 92 121
59 93 129
59 93 126
57 90 111
57 91 118
94 112 57
110 125 0
124 139 0
131 146 0
135 150 0
142 158 0
129 143 0
133 147 0
144 160 0
137 152 0
142 158 0
143 156 0
152 168 0
137 147 0
146 160 0
150 165 0
153 168 0
159 174 0
158 174 0
156 169 0
164 181 0
162 177 0
161 179 0
158 175 0
165 182 0
164 184 0
169 188 0
165 182 0
166 185 0
165 183 0
168 188 0
167 185 0
168 189 0
170 189 0
170 191 0
168 187 0
170 191 0
171 191 0
169 190 0
166 187 0
173 195 0
170 192 0
174 195 0
171 194 0
170 194 0
171 193 0
172 194 0
170 194 0
172 195 0
172 195 0
172 194 0
173 196 0
171 195 0
172 195 0
172 194 0
173 196 0
173 195 0
172 195 0
174 197 0
172 194 0
173 195 0
173 196 0
173 196 0
174 197 0
174 196 0
175 198 0
174 197 0
172 195 0
173 197 0
174 198 0
174 197 0
172 195 0
175 198 0
174 197 0
173 196 0
174 197 0
173 196 0
174 197 0
174 198 0
174 197 0
175 198 0
174 198 0
173 197 0
173 197 0
176 198 0
175 198 0
174 198 0
175 198 0
174 197 0
173 196 0
174 197 0
174 197 0
174 198 0
173 197 0
175 198 0
174 198 0
173 197 0
176 199 0
173 197 0
174 197 0
176 198 0
175 197 0
174 198 0
174 197 0
174 197 0
173 197 0
173 197 0
177 199 0
173 197 0
176 198 0
174 197 0
173 197 0
175 198 0
175 198 0
172 196 0
175 198 0
176 198 0
174 198 0
175 198 0
173 197 0
174 198 0
175 198 0
175 198 0
175 198 0
175 198 0
174 197 0
174 197 0
175 198 0
174 198 0
175 198 0
174 198 0
175 198 0
174 197 0
174 197 0
174 198 0
173 197 0
176 199 0
174 198 0
173 197 0
173 197 0
175 198 0
177 199 0
174 198 0
174 198 0
173 197 0
174 198 0
174 197 0
174 198 0
174 198 0
176 199 0
174 198 0
174 198 0
174 197 0
173 197 0
174 198 0
175 198 0
175 198 0
177 199 0
175 198 0
175 198 0
175 198 0
175 198 0
174 198 0
175 198 0
175 198 0
175 198 0
174 198 0
174 198 0
175 198 0
173 197 0
174 198 0
174 198 0
175 198 0
173 197 0
174 198 0
175 198 0
176 199 0
175 198 0
176 199 0
175 198 0
175 198 0
174 198 0
174 198 0
174 198 0
173 197 0
176 199 0
174 197 0
175 198 0
174 198 0
173 197 0
174 197 0
175 198 0
174 197 0
174 198 0
173 197 0
174 198 0
175 198 0
174 198 0
174 197 0
176 199 0
177 199 0
173 197 0
176 199 0
174 198 0
175 198 0
175 198 0
175 198 0
174 197 0
176 199 0
174 197 0
174 198 0
175 198 0
174 198 0
175 198 0
176 198 0
175 198 0
175 198 0
174 198 0
174 198 0
175 198 0
175 198 0
174 198 0
172 197 0
174 197 0
172 197 0
175 198 0
175 198 0
175 198 0
174 198 0
176 199 0
176 198 0
174 198 0
174 197 0
174 198 0
173 197 0
175 198 0
174 197 0
175 198 0
176 198 0
174 198 0
175 198 0
176 199 0
175 198 0
174 198 0
176 198 0
175 198 0
174 198 0
173 197 0
174 197 0
175 198 0
173 197 0
173 197 0
175 198 0
175 198 0
174 198 0
174 197 0
175 198 0
175 198 0
175 198 0
176 199 0
176 199 0
175 198 0
174 198 0
173 197 0
175 198 0
175 198 0
175 198 0
173 197 0
175 198 0
173 197 0
173 197 0
175 198 0
172 197 0
175 198 0
175 198 0
174 198 0
174 197 0
174 198 0
174 198 0
174 198 0
175 198 0
174 198 0
173 196 0
174 197 0
174 198 0
173 197 0
174 198 0
175 198 0
174 197 0
172 196 0
176 199 0
173 197 0
175 198 0
174 197 0
173 196 0
175 198 0
174 198 0
176 198 0
175 198 0
174 198 0
174 198 0
174 198 0
175 198 0
176 198 0
173 197 0
173 197 0
174 197 0
174 198 0
174 197 0
173 197 0
173 197 0
173 196 0
174 197 0
173 197 0
174 198 0
175 198 0
173 197 0
173 197 0
173 196 0
173 197 0
174 197 0
173 196 0
173 196 0
175 198 0
174 197 0
173 197 0
173 197 0
172 196 0
175 197 0
174 197 0
175 197 0
173 197 0
173 196 0
172 195 0
173 196 0
174 198 0
172 196 0
172 195 0
175 198 0
172 196 0
173 196 0
171 195 0
174 196 0
172 196 0
171 195 0
172 196 0
169 193 0
170 194 0
173 197 0
178 201 72
223 237 255
194 214 161
174 197 0
172 195 0
170 194 0
171 195 0
170 193 0
170 194 0
172 196 0
168 192 0
171 194 0
166 189 0
165 188 0
168 192 0
166 189 0
166 190 0
164 187 0
162 186 0
162 185 0
163 185 0
153 176 0
158 180 0
153 175 0
147 169 0
144 166 0
105 128 65
58 91 105
57 90 111
58 91 110
59 93 124
59 93 133
60 94 136
58 92 125
60 95 129
71 101 103
70 99 110
58 91 121
56 89 110
59 93 115
58 92 115
58 92 118
58 93 117
57 89 102
57 91 115
59 92 124
57 90 111
57 90 102
56 88 107
64 92 92
95 113 44
109 123 0
129 144 0
127 144 0
122 137 0
137 154 0
128 144 0
137 154 0
135 151 0
143 158 0
134 151 0
139 157 0
149 166 0
151 168 0
150 167 0
154 168 0
151 166 0
153 166 0
162 179 0
164 181 0
157 175 0
159 174 0
160 177 0
164 181 0
167 186 0
163 178 0
165 183 0
163 182 0
165 182 0
168 188 0
167 185 0
166 187 0
167 187 0
171 190 0
169 191 0
171 193 0
167 188 0
169 189 0
168 189 0
170 191 0
172 194 0
171 193 0
169 192 0
169 192 0
172 193 0
173 194 0
169 189 0
172 194 0
172 194 0
173 194 0
171 194 0
173 194 0
173 195 0
173 196 0
174 197 0
171 194 0
173 196 0
170 194 0
174 197 0
170 193 0
171 195 0
172 195 0
172 196 0
173 197 0
172 194 0
173 196 0
175 198 0
171 193 0
173 196 0
174 197 0
175 198 0
175 198 0
173 197 0
175 197 0
173 197 0
173 196 0
174 197 0
174 197 0
174 198 0
175 198 0
174 197 0
173 197 0
173 196 0
174 197 0
172 197 0
174 198 0
174 197 0
172 197 0
175 198 0
174 198 0
174 198 0
173 196 0
176 198 0
174 198 0
174 197 0
173 197 0
173 197 0
174 198 0
174 198 0
175 198 0
176 198 0
174 197 0
174 197 0
174 197 0
174 198 0
175 198 0
174 197 0
174 198 0
174 198 0
175 198 0
173 197 0
175 198 0
175 198 0
174 197 0
176 199 0
174 197 0
173 197 0
176 199 0
175 198 0
174 198 0
174 198 0
174 197 0
175 198 0
174 198 0
176 199 0
174 197 0
175 198 0
175 198 0
175 198 0
175 198 0
175 198 0
175 198 0
173 197 0
175 198 0
175 198 0
175 198 0
175 198 0
174 197 0
174 197 0
175 198 0
175 198 0
175 198 0
175 198 0
174 198 0
173 196 0
174 197 0
174 198 0
175 198 0
175 198 0
173 197 0
175 198 0
174 198 0
173 197 0
174 198 0
174 197 0
173 197 0
175 198 0
173 197 0
174 198 0
173 197 0
174 198 0
175 198 0
174 197 0
174 198 0
175 198 0
174 198 0
174 197 0
177 199 0
176 198 0
174 198 0
176 199 0
177 199 0
176 198 0
175 198 0
175 198 0
175 198 0
174 198 0
174 197 0
174 197 0
173 197 0
174 198 0
176 198 0
175 198 0
175 198 0
176 199 0
172 197 0
173 197 0
174 198 0
175 198 0
175 198 0
173 197 0
176 198 0
175 198 0
175 198 0
175 198 0
175 198 0
174 197 0
174 197 0
175 198 0
175 198 0
174 198 0
173 197 0
175 198 0
172 197 0
175 198 0
175 198 0
175 198 0
175 198 0
175 198 0
174 197 0
174 197 0
175 198 0
174 198 0
173 197 0
173 197 0
174 198 0
174 198 0
175 198 0
175 198 0
176 198 0
175 198 0
174 197 0
175 198 0
175 198 0
174 198 0
173 197 0
173 197 0
174 198 0
175 198 0
175 198 0
174 198 0
176 199 0
173 197 0
174 197 0
174 198 0
175 198 0
174 198 0
175 198 0
175 198 0
173 197 0
176 199 0
174 198 0
174 198 0
174 197 0
173 197 0
175 198 0
175 198 0
174 198 0
175 198 0
175 198 0
173 197 0
175 198 0
173 197 0
177 199 0
173 197 0
173 197 0
175 198 0
173 197 0
173 197 0
174 198 0
173 197 0
175 198 0
173 197 0
175 198 0
174 198 0
175 198 0
174 198 0
175 198 0
175 198 0
176 199 0
175 198 0
174 198 0
174 198 0
173 197 0
174 197 0
176 198 0
172 197 0
175 198 0
176 199 0
175 198 0
175 198 0
175 198 0
173 197 0
174 197 0
175 198 0
175 198 0
174 198 0
175 198 0
176 198 0
175 198 0
175 198 0
175 198 0
175 198 0
173 196 0
176 199 0
172 196 0
176 198 0
173 197 0
174 197 0
174 197 0
174 198 0
173 196 0
176 199 0
173 196 0
173 197 0
176 199 0
174 198 0
174 198 0
175 198 0
176 198 0
172 196 0
174 198 0
174 198 0
174 197 0
172 196 0
173 197 0
172 196 0
175 198 0
173 197 0
172 196 0
175 198 0
171 195 0
173 197 0
174 197 0
174 197 0
173 196 0
176 198 0
174 197 0
173 197 0
173 197 0
172 196 0
172 196 0
174 198 0
175 198 0
173 197 0
174 197 0
173 196 0
172 196 0
170 194 0
172 196 0
173 197 0
173 196 0
173 197 0
171 195 0
173 196 0
170 194 0
169 193 0
170 194 0
170 194 0
174 198 0
187 208 125
218 232 242
173 197 0
174 197 0
173 197 0
171 194 0
168 191 0
170 194 0
169 192 0
169 193 0
172 196 0
171 194 0
165 189 0
171 195 0
160 183 0
161 186 0
161 183 0
161 184 0
163 186 0
153 174 0
157 179 0
150 173 0
157 180 0
150 172 0
147 168 0
147 168 0
137 158 0
95 118 70
55 87 97
56 90 103
58 91 105
58 91 121
95 111 114
58 93 118
58 92 118
56 89 103
85 110 92
56 90 103
56 88 97
58 91 121
58 92 121
58 92 118
57 90 102
56 89 95
57 90 110
56 88 102
57 90 111
57 89 97
80 101 82
99 113 0
113 127 0
126 142 0
118 135 0
128 144 0
131 146 0
138 154 0
139 156 0
144 161 0
144 163 0
142 159 0
141 161 0
148 167 0
153 169 0
147 165 0
153 169 0
153 170 0
151 169 0
155 173 0
155 173 0
157 177 0
155 173 0
160 180 0
160 180 0
164 182 0
164 183 0
165 183 0
164 181 0
166 186 0
164 183 0
165 184 0
165 186 0
170 190 0
167 187 0
168 189 0
170 192 0
170 191 0
170 191 0
171 193 0
169 191 0
171 193 0
170 191 0
165 187 0
170 192 0
172 193 0
172 193 0
172 194 0
172 194 0
173 196 0
173 195 0
173 196 0
174 196 0
171 193 0
171 194 0
174 196 0
170 194 0
175 197 0
174 197 0
172 196 0
175 198 0
172 196 0
173 197 0
175 197 0
174 197 0
174 197 0
174 197 0
173 196 0
174 197 0
174 197 0
172 196 0
171 196 0
173 195 0
175 198 0
175 198 0
173 197 0
172 196 0
173 197 0
174 197 0
174 197 0
174 197 0
174 197 0
173 197 0
175 198 0
174 197 0
174 197 0
174 198 0
174 198 0
173 197 0
174 197 0
173 196 0
174 198 0
173 197 0
176 198 0
174 197 0
173 197 0
174 198 0
174 197 0
176 199 0
175 198 0
173 197 0
175 198 0
174 198 0
176 198 0
173 197 0
175 198 0
174 197 0
173 197 0
174 197 0
175 198 0
175 198 0
174 197 0
175 198 0
176 199 0
177 199 0
176 198 0
173 197 0
175 198 0
175 198 0
174 197 0
174 198 0
174 197 0
175 198 0
174 197 0
175 198 0
174 197 0
175 198 0
175 198 0
175 198 0
175 198 0
175 198 0
174 197 0
175 198 0
174 198 0
175 198 0
175 198 0
174 197 0
172 197 0
174 197 0
173 197 0
176 199 0
175 198 0
175 198 0
174 198 0
173 197 0
174 197 0
174 198 0
175 198 0
174 198 0
174 198 0
174 197 0
176 199 0
175 198 0
174 198 0
176 199 0
175 198 0
173 197 0
175 198 0
175 198 0
173 197 0
175 198 0
173 197 0
174 198 0
173 197 0
174 197 0
175 198 0
175 198 0
174 198 0
175 198 0
175 198 0
174 198 0
174 197 0
175 198 0
174 198 0
174 197 0
173 197 0
174 198 0
174 197 0
176 198 0
176 199 0
174 198 0
173 197 0
174 198 0
175 198 0
175 198 0
175 198 0
173 197 0
174 197 0
175 198 0
174 197 0
175 198 0
174 197 0
174 198 0
174 198 0
174 197 0
174 198 0
173 197 0
175 198 0
174 198 0
174 197 0
173 197 0
173 197 0
177 199 0
175 198 0
175 198 0
175 198 0
175 198 0
174 198 0
172 197 0
175 198 0
172 197 0
175 198 0
175 198 0
174 197 0
175 198 0
175 198 0
174 197 0
174 197 0
174 198 0
175 198 0
174 198 0
174 197 0
175 198 0
176 199 0
176 198 0
174 198 0
173 196 0
173 197 0
174 197 0
175 198 0
174 198 0
173 197 0
174 198 0
174 198 0
174 198 0
174 198 0
174 197 0
175 198 0
175 198 0
176 199 0
174 198 0
173 197 0
172 196 0
173 197 0
174 198 0
174 198 0
174 197 0
174 198 0
175 198 0
175 198 0
176 198 0
175 198 0
175 198 0
173 197 0
173 197 0
174 197 0
173 197 0
174 198 0
174 198 0
175 198 0
174 198 0
174 198 0
175 198 0
175 198 0
174 197 0
174 198 0
174 198 0
173 197 0
175 198 0
175 198 0
173 196 0
175 198 0
173 197 0
174 197 0
174 197 0
173 197 0
174 198 0
174 197 0
176 199 0
174 198 0
175 198 0
174 197 0
174 198 0
175 198 0
175 198 0
174 197 0
174 197 0
174 198 0
174 198 0
174 197 0
174 197 0
176 199 0
177 199 0
173 197 0
173 197 0
175 198 0
174 198 0
174 198 0
172 196 0
174 197 0
173 197 0
175 198 0
173 197 0
173 197 0
175 198 0
175 198 0
174 197 0
175 198 0
175 198 0
172 196 0
175 198 0
174 198 0
174 197 0
174 198 0
172 196 0
174 198 0
174 197 0
174 197 0
174 198 0
174 198 0
173 197 0
171 195 0
174 197 0
175 198 0
173 196 0
173 197 0
174 197 0
174 197 0
172 196 0
174 197 0
175 198 0
172 196 0
175 197 0
174 197 0
174 197 0
170 194 0
172 196 0
173 196 0
173 196 0
174 197 0
170 194 0
172 195 0
172 195 0
170 194 0
173 197 0
172 197 0
173 197 0
171 195 0
171 195 0
168 192 0
174 198 0
173 196 0
193 212 147
205 222 196
172 196 0
172 196 0
170 194 0
169 193 0
169 193 0
170 193 0
172 196 0
170 194 0
170 193 0
166 189 0
168 191 0
166 190 0
160 183 0
159 182 0
161 185 0
162 185 0
155 179 0
154 177 0
155 178 0
159 182 0
150 171 0
143 165 0
138 159 0
135 155 0
129 151 0
119 138 0
90 111 60
54 85 94
56 89 102
58 91 105
106 126 94
118 131 92
59 93 115
55 87 99
89 113 82
57 91 103
56 89 108
56 89 95
55 88 103
55 88 99
54 86 86
55 87 103
55 87 95
55 85 78
74 95 60
93 108 47
100 116 0
108 124 0
120 136 0
113 130 0
126 143 0
129 147 0
138 158 0
139 158 0
133 150 0
135 155 0
152 171 0
145 161 0
149 165 0
147 165 0
147 164 0
153 170 0
155 175 0
154 173 0
155 174 0
157 175 0
160 177 0
159 178 0
163 182 0
161 181 0
160 180 0
163 183 0
160 178 0
162 182 0
163 183 0
167 188 0
169 190 0
167 188 0
168 189 0
170 191 0
169 191 0
167 189 0
168 190 0
169 191 0
173 195 0
170 191 0
171 194 0
173 194 0
169 191 0
170 192 0
170 193 0
171 193 0
172 194 0
172 194 0
173 195 0
173 195 0
172 195 0
171 193 0
173 196 0
174 198 0
173 195 0
172 195 0
173 197 0
173 196 0
169 193 0
173 196 0
174 196 0
172 196 0
173 197 0
172 195 0
173 197 0
171 195 0
173 197 0
174 197 0
174 197 0
174 197 0
175 198 0
173 196 0
174 197 0
174 198 0
173 197 0
173 196 0
173 197 0
175 198 0
173 197 0
174 197 0
173 197 0
175 197 0
172 196 0
173 197 0
172 197 0
174 197 0
173 196 0
175 198 0
173 197 0
175 198 0
174 197 0
174 198 0
174 198 0
174 197 0
174 197 0
172 196 0
173 197 0
173 197 0
174 198 0
172 197 0
174 198 0
174 198 0
173 197 0
173 197 0
174 198 0
174 197 0
175 198 0
175 198 0
175 198 0
173 197 0
174 198 0
174 197 0
175 198 0
176 199 0
174 198 0
174 198 0
175 198 0
176 198 0
175 198 0
174 198 0
174 197 0
173 197 0
174 198 0
175 198 0
175 198 0
175 198 0
174 197 0
172 197 0
172 196 0
175 198 0
174 198 0
173 197 0
175 198 0
174 197 0
174 198 0
175 198 0
175 198 0
173 197 0
174 197 0
174 198 0
174 197 0
176 199 0
174 198 0
174 198 0
175 198 0
174 198 0
174 198 0
175 198 0
173 197 0
175 198 0
175 198 0
175 198 0
175 198 0
173 197 0
174 197 0
176 199 0
174 198 0
174 198 0
176 199 0
175 198 0
174 198 0
174 198 0
174 198 0
174 197 0
174 197 0
175 198 0
176 198 0
174 198 0
175 198 0
174 198 0
176 199 0
174 197 0
175 198 0
175 198 0
174 197 0
175 198 0
174 198 0
174 198 0
175 198 0
174 198 0
173 197 0
174 198 0
174 197 0
173 197 0
174 197 0
174 198 0
175 198 0
174 198 0
175 198 0
172 196 0
174 198 0
174 198 0
173 197 0
176 198 0
173 197 0
173 197 0
173 197 0
175 198 0
173 197 0
174 198 0
173 197 0
174 197 0
174 198 0
175 198 0
174 198 0
176 198 0
176 198 0
174 198 0
175 198 0
174 197 0
174 198 0
174 198 0
174 198 0
175 198 0
172 197 0
175 198 0
174 198 0
173 197 0
174 197 0
174 198 0
174 198 0
173 196 0
175 198 0
176 199 0
174 198 0
174 198 0
175 198 0
176 199 0
174 197 0
175 198 0
173 197 0
175 198 0
175 198 0
174 198 0
174 198 0
175 198 0
173 197 0
175 198 0
175 198 0
173 197 0
174 198 0
175 198 0
173 197 0
174 198 0
174 198 0
175 198 0
173 197 0
174 198 0
175 198 0
176 199 0
174 198 0
172 196 0
174 198 0
175 198 0
175 198 0
175 198 0
173 197 0
176 198 0
173 197 0
175 198 0
175 198 0
174 198 0
176 198 0
175 198 0
175 198 0
175 198 0
176 198 0
173 197 0
174 198 0
174 198 0
174 198 0
176 199 0
174 198 0
174 198 0
175 198 0
173 197 0
174 197 0
174 197 0
175 198 0
175 198 0
175 198 0
173 196 0
175 198 0
173 197 0
174 197 0
174 198 0
174 198 0
174 197 0
174 198 0
174 198 0
175 198 0
175 198 0
176 198 0
174 198 0
173 197 0
174 198 0
174 197 0
173 196 0
174 198 0
174 197 0
173 197 0
175 198 0
175 198 0
172 196 0
176 199 0
173 197 0
175 198 0
174 197 0
175 198 0
174 198 0
169 193 0
174 197 0
173 197 0
173 196 0
176 198 0
174 197 0
173 197 0
173 196 0
175 198 0
173 197 0
174 198 0
175 198 0
173 196 0
174 197 0
172 196 0
173 197 0
175 198 0
170 195 0
174 198 0
170 195 0
175 198 0
174 198 0
174 197 0
173 197 0
172 196 0
174 198 0
172 196 0
173 196 0
173 197 0
173 196 0
173 196 0
170 194 0
173 196 0
172 196 0
172 195 0
171 195 0
174 196 0
170 193 0
169 193 0
170 193 0
175 198 0
173 197 0
196 214 161
182 204 95
172 195 0
171 195 0
172 196 0
169 193 0
170 193 0
170 194 0
167 191 0
169 192 0
168 191 0
170 194 0
167 190 0
167 190 0
166 190 0
161 184 0
161 184 0
158 182 0
158 181 0
156 179 0
159 182 0
148 170 0
148 170 0
145 167 0
140 161 0
138 160 0
137 157 0
121 140 0
117 136 0
88 108 44
54 86 74
57 90 114
82 105 94
150 163 0
82 108 74
54 86 92
91 111 44
85 105 51
72 92 57
50 78 65
61 87 80
63 87 65
67 91 57
67 87 54
70 88 36
94 109 0
94 109 0
111 127 0
108 124 0
116 134 0
117 135 0
134 153 0
128 146 0
127 146 0
134 152 0
133 152 0
148 167 0
143 162 0
147 167 0
150 168 0
139 157 0
154 175 0
149 169 0
149 167 0
155 175 0
156 175 0
157 178 0
153 174 0
156 175 0
159 181 0
160 178 0
165 186 0
160 179 0
166 184 0
162 182 0
164 185 0
165 183 0
161 182 0
167 188 0
166 186 0
169 192 0
168 191 0
168 189 0
170 193 0
168 189 0
172 194 0
167 189 0
173 196 0
167 189 0
170 192 0
171 193 0
172 195 0
173 195 0
172 194 0
172 194 0
172 195 0
170 192 0
172 194 0
171 192 0
174 197 0
172 196 0
173 194 0
173 196 0
174 197 0
172 195 0
172 194 0
171 194 0
173 196 0
173 196 0
173 196 0
172 196 0
173 197 0
175 198 0
173 196 0
173 196 0
174 197 0
172 196 0
174 198 0
173 196 0
172 196 0
175 198 0
174 196 0
172 196 0
175 198 0
173 196 0
174 197 0
174 197 0
174 197 0
173 197 0
174 197 0
172 196 0
174 197 0
173 197 0
174 197 0
175 198 0
173 197 0
173 196 0
174 198 0
174 197 0
175 198 0
174 197 0
175 198 0
175 198 0
173 197 0
174 197 0
174 197 0
174 198 0
175 198 0
175 198 0
175 198 0
174 198 0
174 198 0
175 198 0
175 197 0
174 198 0
174 197 0
174 198 0
176 198 0
173 197 0
173 197 0
174 197 0
174 198 0
174 198 0
174 198 0
174 198 0
174 197 0
173 197 0
173 197 0
173 197 0
175 198 0
173 197 0
174 198 0
173 197 0
175 198 0
175 198 0
174 198 0
172 197 0
174 198 0
173 197 0
173 197 0
173 197 0
175 198 0
175 198 0
174 198 0
174 198 0
175 198 0
174 197 0
174 198 0
173 197 0
174 198 0
176 198 0
175 198 0
174 198 0
172 197 0
174 197 0
175 198 0
173 197 0
175 198 0
175 198 0
174 198 0
174 198 0
174 198 0
174 197 0
175 198 0
174 197 0
175 198 0
174 198 0
174 198 0
175 198 0
174 197 0
174 197 0
176 198 0
173 197 0
175 198 0
175 198 0
175 198 0
175 198 0
173 197 0
173 197 0
175 198 0
174 197 0
174 198 0
175 198 0
174 197 0
173 197 0
176 199 0
174 198 0
175 198 0
175 198 0
174 198 0
174 197 0
174 197 0
176 199 0
174 198 0
173 197 0
176 199 0
175 198 0
174 197 0
174 197 0
175 198 0
175 197 0
174 198 0
175 198 0
175 198 0
175 198 0
174 198 0
175 198 0
174 198 0
173 197 0
174 198 0
175 198 0
174 197 0
173 197 0
175 198 0
174 198 0
175 198 0
174 198 0
172 197 0
176 198 0
174 197 0
174 197 0
174 198 0
174 197 0
174 198 0
176 199 0
173 197 0
176 199 0
174 198 0
175 198 0
174 198 0
173 197 0
174 198 0
173 197 0
173 197 0
175 198 0
175 198 0
174 197 0
176 199 0
174 197 0
173 197 0
174 198 0
176 198 0
175 198 0
173 197 0
173 197 0
175 198 0
174 198 0
174 198 0
173 197 0
176 199 0
175 198 0
173 197 0
173 197 0
173 197 0
174 198 0
172 197 0
175 198 0
175 198 0
174 198 0
174 197 0
173 197 0
174 198 0
175 198 0
173 197 0
174 197 0
173 197 0
175 198 0
174 198 0
174 197 0
175 198 0
175 198 0
174 197 0
174 198 0
174 198 0
173 197 0
173 197 0
174 197 0
175 198 0
175 198 0
173 197 0
174 198 0
175 198 0
174 198 0
174 198 0
176 199 0
174 197 0
175 198 0
174 197 0
173 196 0
174 198 0
174 198 0
173 197 0
175 198 0
175 198 0
173 197 0
175 198 0
174 197 0
174 197 0
176 199 0
174 198 0
175 198 0
175 198 0
175 198 0
173 197 0
174 197 0
173 197 0
176 199 0
175 198 0
175 198 0
174 197 0
173 197 0
175 198 0
174 197 0
175 198 0
175 198 0
174 198 0
174 197 0
172 195 0
174 197 0
174 197 0
175 198 0
173 197 0
172 196 0
174 198 0
174 197 0
174 197 0
173 196 0
174 198 0
173 196 0
175 198 0
173 197 0
173 197 0
174 197 0
175 198 0
174 197 0
171 195 0
173 197 0
174 198 0
173 197 0
175 198 0
174 198 0
174 197 0
171 194 0
173 197 0
171 194 0
174 197 0
170 194 0
173 196 0
172 195 0
171 195 0
173 196 0
174 198 0
175 198 0
170 194 0
170 194 0
171 194 0
171 194 0
173 196 0
175 198 0
173 197 0
187 208 122
172 196 0
170 193 0
174 197 0
172 195 0
174 196 0
169 194 0
169 193 0
172 195 0
167 191 0
166 189 0
168 192 0
159 182 0
162 185 0
163 186 0
162 185 0
156 178 0
154 177 0
164 186 0
159 181 0
160 182 0
160 182 0
158 180 0
154 176 0
143 164 0
140 161 0
137 157 0
130 150 0
109 128 0
111 128 0
95 110 18
75 96 65
95 114 57
153 171 0
129 147 18
75 94 54
116 134 0
104 119 0
101 117 0
96 109 0
85 100 0
90 104 0
105 120 0
88 105 0
101 116 0
98 115 0
96 111 0
122 140 0
112 129 0
120 137 0
125 143 0
127 146 0
143 163 0
139 159 0
134 153 0
139 158 0
149 168 0
145 164 0
155 174 0
151 171 0
142 163 0
151 170 0
149 169 0
159 179 0
162 183 0
160 177 0
157 178 0
157 177 0
161 182 0
163 183 0
161 180 0
160 180 0
163 184 0
158 178 0
160 181 0
164 184 0
167 187 0
163 185 0
168 188 0
166 187 0
165 187 0
169 190 0
168 189 0
167 189 0
166 187 0
167 188 0
170 192 0
167 189 0
171 193 0
173 196 0
173 195 0
172 194 0
171 194 0
171 191 0
170 193 0
172 193 0
171 193 0
173 195 0
170 193 0
171 193 0
173 196 0
172 195 0
172 195 0
172 194 0
173 196 0
172 194 0
170 194 0
172 194 0
172 196 0
173 197 0
175 197 0
173 196 0
172 195 0
174 197 0
173 196 0
173 196 0
174 197 0
172 196 0
174 197 0
176 199 0
173 195 0
173 197 0
173 197 0
172 194 0
174 197 0
174 198 0
172 196 0
174 198 0
174 197 0
173 196 0
173 197 0
173 197 0
173 196 0
175 198 0
174 197 0
174 197 0
174 197 0
173 197 0
175 198 0
172 196 0
174 197 0
173 196 0
174 197 0
175 198 0
174 197 0
174 197 0
174 197 0
176 198 0
173 197 0
175 198 0
174 197 0
174 198 0
174 197 0
174 198 0
174 197 0
173 196 0
173 197 0
175 198 0
174 197 0
175 198 0
173 197 0
173 197 0
173 197 0
174 197 0
176 198 0
174 197 0
176 198 0
174 197 0
175 198 0
175 198 0
173 197 0
174 198 0
176 199 0
174 198 0
176 199 0
176 199 0
175 198 0
174 197 0
172 196 0
174 197 0
174 198 0
174 197 0
173 197 0
175 198 0
174 197 0
174 197 0
175 198 0
174 198 0
175 198 0
176 199 0
175 198 0
175 198 0
174 197 0
174 198 0
175 198 0
174 197 0
174 198 0
173 197 0
174 198 0
175 198 0
174 197 0
175 198 0
175 198 0
175 198 0
174 197 0
174 198 0
173 197 0
173 197 0
174 198 0
175 198 0
174 198 0
175 198 0
173 197 0
174 198 0
174 198 0
174 198 0
176 198 0
175 198 0
175 198 0
176 199 0
175 198 0
175 198 0
174 197 0
173 197 0
172 197 0
173 197 0
174 197 0
175 198 0
175 198 0
175 198 0
173 197 0
175 198 0
174 198 0
174 198 0
174 197 0
174 198 0
172 197 0
175 198 0
173 197 0
174 198 0
174 198 0
173 197 0
174 197 0
176 199 0
176 199 0
174 197 0
175 198 0
172 197 0
175 198 0
172 197 0
173 197 0
177 199 0
173 197 0
175 198 0
174 198 0
174 198 0
175 198 0
173 197 0
175 198 0
174 198 0
175 198 0
172 196 0
175 198 0
176 199 0
175 198 0
174 198 0
175 198 0
175 198 0
173 197 0
176 199 0
173 197 0
176 199 0
174 198 0
176 199 0
173 197 0
175 198 0
173 197 0
174 198 0
175 198 0
173 197 0
175 198 0
174 198 0
174 197 0
174 198 0
175 198 0
175 198 0
174 197 0
173 197 0
176 199 0
175 198 0
174 197 0
174 198 0
174 197 0
176 199 0
174 198 0
176 199 0
176 199 0
173 197 0
176 198 0
177 199 0
173 197 0
174 198 0
174 198 0
175 198 0
177 199 0
176 199 0
174 198 0
174 197 0
174 197 0
174 198 0
175 198 0
176 199 0
175 198 0
175 198 0
176 199 0
173 197 0
174 198 0
173 197 0
174 197 0
173 196 0
177 199 0
175 198 0
174 198 0
175 198 0
174 197 0
174 197 0
175 198 0
175 198 0
176 198 0
174 198 0
176 198 0
173 197 0
174 198 0
175 198 0
174 197 0
174 197 0
173 197 0
175 198 0
175 198 0
175 198 0
174 198 0
171 196 0
174 198 0
174 197 0
176 199 0
175 198 0
172 196 0
174 198 0
172 196 0
174 198 0
172 196 0
172 195 0
176 198 0
173 197 0
172 196 0
174 198 0
173 197 0
176 198 0
174 197 0
173 197 0
173 197 0
172 196 0
174 197 0
174 197 0
172 195 0
175 198 0
174 197 0
172 196 0
175 198 0
173 197 0
169 194 0
173 197 0
173 197 0
174 197 0
171 195 0
173 196 0
173 196 0
175 198 0
173 197 0
175 198 0
173 196 0
173 197 0
174 197 0
171 195 0
173 196 0
170 193 0
172 196 0
171 194 0
173 196 0
172 195 0
173 197 0
168 192 0
172 195 0
171 195 0
174 197 0
171 194 0
168 192 0
172 196 0
172 196 0
175 198 0
178 200 57
172 195 0
173 196 0
174 197 0
169 193 0
170 193 0
172 195 0
171 194 0
166 191 0
168 192 0
166 189 0
161 185 0
164 187 0
162 185 0
158 181 0
162 185 0
163 186 0
161 185 0
163 187 0
159 182 0
159 182 0
154 177 0
150 172 0
143 164 0
148 170 0
147 170 0
135 156 0
126 146 0
126 145 0
103 119 0
109 127 0
109 125 0
123 140 0
149 167 0
136 157 0
108 126 0
118 137 0
110 128 0
111 129 0
110 127 0
109 126 0
99 115 0
102 117 0
112 129 0
107 123 0
124 141 0
114 133 0
128 147 0
120 139 0
136 155 0
132 150 0
128 148 0
133 153 0
139 159 0
143 162 0
146 167 0
148 167 0
149 167 0
134 154 0
151 169 0
155 176 0
147 166 0
154 175 0
157 177 0
155 174 0
158 178 0
157 179 0
162 182 0
161 181 0
157 175 0
161 179 0
161 182 0
162 182 0
160 181 0
165 187 0
167 189 0
162 182 0
168 187 0
164 185 0
166 186 0
166 187 0
168 190 0
170 193 0
172 194 0
165 186 0
172 194 0
169 191 0
169 192 0
173 195 0
169 192 0
169 189 0
171 194 0
170 191 0
172 195 0
171 194 0
171 192 0
172 194 0
170 193 0
173 196 0
170 193 0
172 194 0
172 195 0
172 195 0
172 195 0
172 195 0
173 197 0
172 195 0
172 195 0
173 197 0
172 196 0
173 196 0
172 196 0
172 196 0
173 196 0
174 197 0
176 198 0
172 195 0
172 196 0
175 198 0
172 196 0
174 197 0
173 197 0
173 197 0
175 198 0
172 195 0
171 195 0
174 197 0
172 196 0
175 198 0
173 196 0
174 197 0
172 195 0
175 198 0
173 196 0
174 197 0
173 197 0
173 197 0
173 197 0
175 198 0
175 198 0
173 197 0
174 197 0
173 197 0
175 198 0
174 198 0
172 196 0
172 196 0
175 198 0
175 198 0
174 197 0
174 198 0
175 198 0
175 198 0
175 198 0
174 197 0
174 197 0
174 197 0
175 198 0
174 197 0
172 197 0
174 198 0
174 197 0
174 198 0
174 198 0
175 198 0
174 197 0
175 198 0
173 197 0
174 197 0
173 197 0
174 197 0
174 198 0
174 198 0
175 198 0
175 198 0
175 198 0
175 198 0
174 197 0
173 197 0
175 198 0
173 197 0
173 197 0
173 197 0
173 197 0
173 196 0
175 198 0
175 198 0
174 198 0
175 198 0
175 198 0
175 198 0
175 198 0
175 198 0
175 198 0
176 198 0
175 198 0
174 197 0
174 198 0
175 198 0
174 198 0
175 198 0
174 197 0
173 197 0
173 197 0
175 198 0
175 198 0
175 198 0
174 198 0
175 198 0
174 197 0
173 197 0
174 197 0
175 198 0
174 198 0
175 198 0
175 198 0
174 198 0
173 197 0
175 198 0
173 197 0
173 197 0
174 197 0
174 198 0
174 198 0
176 199 0
174 198 0
175 198 0
174 198 0
173 197 0
175 198 0
174 198 0
174 198 0
175 198 0
174 198 0
174 198 0
175 198 0
175 198 0
175 198 0
174 198 0
174 198 0
176 199 0
172 197 0
174 197 0
174 197 0
175 198 0
173 197 0
175 198 0
175 198 0
174 198 0
175 198 0
174 198 0
175 198 0
175 198 0
174 197 0
173 197 0
175 198 0
177 199 0
174 198 0
173 197 0
174 197 0
173 197 0
175 198 0
174 197 0
174 197 0
175 198 0
176 199 0
176 199 0
174 198 0
173 197 0
174 198 0
176 199 0
173 197 0
175 198 0
175 198 0
174 198 0
174 198 0
175 198 0
175 198 0
175 198 0
175 198 0
173 197 0
175 198 0
176 199 0
173 197 0
176 198 0
174 198 0
175 198 0
175 198 0
173 197 0
175 198 0
174 198 0
174 198 0
176 199 0
174 198 0
175 198 0
174 198 0
174 198 0
174 198 0
177 199 0
173 197 0
174 197 0
175 198 0
174 198 0
176 199 0
175 198 0
174 197 0
174 198 0
174 198 0
175 198 0
174 198 0
174 198 0
174 198 0
175 198 0
175 198 0
174 198 0
175 198 0
175 198 0
173 197 0
172 196 0
174 198 0
174 198 0
172 195 0
176 198 0
174 197 0
172 197 0
174 198 0
174 197 0
175 198 0
174 197 0
175 198 0
174 197 0
174 197 0
174 197 0
173 197 0
175 198 0
174 198 0
174 197 0
174 198 0
175 198 0
173 197 0
174 198 0
175 198 0
174 197 0
173 197 0
174 197 0
174 197 0
173 197 0
173 197 0
172 196 0
174 197 0
176 198 0
174 198 0
173 197 0
173 197 0
175 198 0
175 198 0
175 198 0
173 197 0
176 198 0
173 196 0
175 198 0
176 199 0
174 198 0
175 198 0
174 197 0
175 198 0
174 197 0
176 198 0
173 196 0
171 195 0
175 198 0
175 198 0
172 196 0
174 197 0
173 196 0
173 196 0
172 195 0
173 197 0
174 197 0
173 196 0
175 198 0
171 195 0
172 195 0
172 195 0
174 197 0
171 195 0
173 196 0
172 195 0
173 197 0
169 193 0
170 193 0
174 198 0
171 195 0
171 195 0
172 196 0
173 196 0
168 192 0
172 195 0
173 196 0
174 198 0
174 197 0
173 197 0
174 197 0
172 196 0
173 196 0
169 193 0
170 194 0
170 193 0
169 192 0
170 192 0
166 190 0
166 190 0
165 188 0
164 187 0
167 190 0
163 186 0
166 189 0
160 182 0
163 186 0
161 183 0
164 187 0
155 177 0
149 172 0
153 175 0
150 172 0
142 165 0
149 169 0
141 162 0
127 147 0
134 156 0
133 153 0
122 141 0
119 139 0
156 177 0
137 158 0
132 150 0
126 146 0
109 127 0
116 135 0
125 144 0
117 136 0
110 127 0
114 133 0
110 128 0
118 137 0
128 146 0
127 147 0
120 138 0
125 143 0
138 160 0
140 161 0
145 165 0
144 164 0
138 158 0
146 167 0
150 169 0
150 170 0
142 161 0
149 169 0
149 170 0
144 165 0
150 170 0
162 183 0
158 179 0
160 182 0
163 185 0
157 177 0
163 185 0
160 180 0
158 176 0
165 187 0
166 186 0
166 186 0
165 188 0
165 187 0
161 181 0
164 187 0
166 186 0
171 191 0
166 186 0
167 189 0
170 190 0
168 190 0
171 193 0
170 191 0
168 191 0
169 191 0
168 190 0
170 193 0
169 193 0
171 194 0
168 191 0
171 193 0
171 194 0
172 194 0
169 192 0
173 195 0
172 194 0
171 194 0
170 193 0
170 193 0
172 195 0
172 195 0
175 196 0
172 195 0
172 195 0
172 195 0
173 195 0
172 196 0
173 196 0
172 196 0
174 197 0
172 195 0
173 197 0
174 197 0
173 197 0
170 193 0
173 197 0
173 197 0
173 197 0
173 195 0
175 197 0
173 197 0
175 198 0
173 197 0
174 196 0
174 197 0
173 197 0
173 197 0
174 198 0
175 198 0
174 197 0
175 197 0
173 197 0
174 197 0
174 197 0
172 196 0
174 197 0
174 197 0
174 198 0
176 198 0
173 197 0
174 197 0
174 198 0
174 197 0
173 197 0
176 198 0
176 198 0
175 197 0
174 198 0
174 197 0
175 198 0
175 198 0
176 199 0
172 197 0
174 197 0
174 198 0
173 197 0
173 197 0
173 196 0
172 197 0
176 199 0
174 198 0
173 197 0
174 197 0
176 198 0
173 197 0
176 198 0
175 198 0
175 198 0
174 197 0
174 197 0
175 198 0
174 197 0
175 198 0
176 198 0
174 198 0
175 198 0
175 198 0
174 198 0
174 197 0
175 198 0
175 198 0
175 198 0
176 199 0
175 198 0
174 198 0
174 197 0
173 197 0
174 197 0
173 197 0
174 198 0
174 198 0
175 198 0
175 198 0
174 198 0
175 198 0
176 199 0
174 198 0
175 198 0
174 198 0
173 197 0
174 198 0
174 197 0
174 198 0
175 198 0
175 198 0
175 198 0
175 198 0
174 197 0
175 198 0
174 198 0
175 198 0
174 198 0
176 199 0
176 198 0
176 198 0
174 198 0
173 197 0
174 198 0
175 198 0
174 197 0
174 198 0
174 198 0
174 198 0
173 197 0
173 197 0
176 198 0
175 198 0
176 199 0
176 198 0
174 198 0
175 198 0
175 198 0
174 198 0
175 198 0
173 197 0
175 198 0
175 198 0
173 197 0
175 198 0
173 197 0
174 198 0
174 197 0
172 196 0
174 198 0
174 198 0
174 198 0
173 197 0
172 197 0
175 198 0
175 198 0
175 198 0
174 198 0
175 198 0
174 198 0
175 198 0
174 197 0
175 198 0
174 198 0
175 198 0
175 198 0
175 198 0
174 198 0
174 198 0
172 197 0
173 197 0
176 199 0
175 198 0
176 199 0
174 198 0
174 197 0
174 198 0
176 199 0
174 198 0
175 198 0
174 198 0
176 198 0
175 198 0
174 198 0
173 197 0
174 198 0
174 198 0
174 198 0
172 197 0
174 197 0
174 198 0
173 197 0
173 197 0
174 197 0
174 197 0
177 199 0
174 197 0
172 197 0
173 197 0
175 198 0
175 198 0
175 198 0
174 197 0
174 198 0
173 197 0
174 198 0
175 198 0
175 198 0
174 197 0
174 198 0
175 198 0
174 197 0
174 198 0
174 198 0
174 198 0
174 197 0
175 198 0
174 197 0
175 198 0
176 198 0
174 198 0
174 198 0
174 198 0
176 199 0
174 198 0
174 198 0
174 197 0
175 198 0
173 197 0
175 198 0
174 198 0
175 198 0
175 198 0
175 198 0
174 197 0
175 198 0
173 197 0
175 198 0
175 198 0
174 198 0
175 198 0
175 198 0
174 197 0
173 197 0
174 197 0
173 197 0
174 197 0
172 196 0
173 196 0
174 198 0
174 197 0
173 197 0
174 198 0
173 197 0
172 196 0
174 197 0
173 197 0
174 198 0
174 198 0
172 196 0
175 198 0
173 197 0
173 197 0
174 197 0
174 198 0
175 198 0
175 198 0
173 197 0
173 196 0
172 196 0
174 197 0
174 198 0
173 197 0
174 198 0
175 198 0
175 198 0
176 198 0
171 195 0
170 194 0
169 193 0
174 197 0
175 198 0
172 196 0
171 194 0
174 198 0
173 197 0
172 195 0
174 197 0
170 194 0
174 197 0
172 196 0
170 194 0
170 194 0
171 195 0
170 193 0
172 195 0
169 193 0
171 194 0
169 193 0
170 193 0
173 196 0
169 193 0
174 198 0
174 198 0
175 198 0
172 195 0
171 195 0
173 196 0
171 195 0
170 193 0
169 192 0
166 190 0
170 194 0
170 193 0
168 192 0
168 192 0
160 183 0
162 185 0
161 185 0
162 184 0
158 181 0
164 187 0
163 186 0
167 189 0
149 172 0
157 180 0
156 177 0
151 173 0
148 170 0
142 163 0
137 159 0
149 169 0
141 162 0
130 151 0
134 153 0
118 138 0
131 153 0
156 178 0
144 164 0
126 146 0
130 151 0
129 148 0
126 146 0
127 147 0
128 148 0
132 153 0
127 146 0
128 147 0
135 153 0
126 145 0
127 146 0
135 156 0
139 160 0
133 153 0
141 161 0
135 154 0
146 167 0
149 168 0
154 175 0
151 170 0
153 173 0
151 172 0
155 176 0
151 173 0
157 179 0
154 173 0
154 176 0
153 174 0
159 182 0
164 186 0
165 185 0
156 176 0
159 181 0
166 188 0
158 179 0
164 184 0
166 187 0
166 187 0
168 190 0
165 186 0
167 188 0
167 188 0
167 188 0
165 187 0
168 188 0
163 185 0
168 189 0
166 189 0
171 194 0
169 192 0
171 193 0
170 192 0
168 190 0
171 194 0
172 194 0
172 193 0
170 193 0
171 194 0
173 196 0
170 192 0
171 195 0
172 195 0
172 195 0
170 193 0
173 195 0
174 197 0
167 190 0
171 195 0
170 193 0
172 195 0
174 196 0
172 195 0
171 194 0
173 195 0
171 194 0
173 196 0
176 199 0
173 197 0
173 196 0
174 196 0
171 194 0
173 197 0
171 195 0
173 196 0
174 196 0
173 197 0
174 197 0
176 199 0
172 196 0
175 198 0
175 197 0
172 196 0
174 197 0
173 196 0
173 197 0
174 197 0
175 198 0
175 198 0
173 197 0
173 196 0
174 197 0
175 198 0
173 197 0
174 197 0
173 196 0
174 197 0
175 198 0
175 198 0
173 196 0
175 198 0
174 197 0
175 198 0
175 198 0
174 198 0
174 197 0
172 196 0
174 198 0
174 198 0
175 198 0
175 198 0
175 198 0
175 197 0
173 197 0
174 197 0
173 197 0
173 197 0
173 197 0
175 198 0
174 197 0
176 199 0
173 197 0
174 198 0
174 198 0
175 198 0
173 197 0
177 199 0
174 198 0
174 198 0
174 198 0
176 199 0
174 197 0
175 198 0
175 198 0
174 198 0
173 197 0
176 198 0
175 198 0
174 198 0
174 197 0
175 198 0
176 198 0
173 197 0
174 198 0
176 199 0
174 197 0
174 198 0
174 198 0
175 198 0
175 198 0
175 198 0
174 197 0
174 198 0
175 198 0
174 198 0
174 198 0
174 197 0
174 197 0
173 197 0
173 197 0
175 198 0
175 198 0
173 197 0
175 198 0
175 198 0
175 198 0
175 198 0
174 198 0
173 197 0
173 197 0
173 197 0
175 198 0
176 199 0
175 198 0
172 197 0
175 198 0
175 198 0
174 198 0
176 199 0
175 198 0
174 198 0
176 198 0
174 197 0
174 198 0
174 198 0
175 198 0
173 197 0
173 197 0
175 198 0
176 199 0
174 198 0
176 199 0
173 197 0
174 198 0
176 198 0
174 198 0
176 199 0
174 198 0
174 198 0
175 198 0
175 198 0
175 198 0
173 197 0
173 197 0
175 198 0
173 197 0
178 200 0
175 198 0
174 198 0
175 198 0
176 199 0
174 197 0
173 197 0
175 198 0
173 197 0
175 198 0
174 198 0
173 197 0
174 197 0
176 199 0
174 198 0
174 198 0
173 197 0
176 199 0
173 197 0
175 198 0
174 198 0
174 198 0
175 198 0
173 197 0
176 199 0
175 198 0
175 198 0
176 198 0
174 198 0
174 198 0
174 198 0
174 198 0
175 198 0
173 197 0
174 197 0
174 198 0
175 198 0
173 197 0
173 197 0
174 198 0
174 198 0
175 198 0
174 198 0
176 199 0
174 198 0
173 197 0
174 197 0
175 198 0
175 198 0
174 198 0
175 198 0
174 197 0
174 198 0
174 198 0
175 198 0
175 198 0
175 198 0
174 197 0
172 197 0
174 198 0
175 198 0
175 198 0
174 198 0
175 198 0
175 198 0
175 198 0
175 198 0
174 198 0
174 198 0
174 198 0
173 197 0
175 198 0
173 197 0
174 197 0
175 198 0
174 198 0
173 197 0
175 198 0
176 199 0
174 198 0
174 197 0
174 198 0
174 198 0
173 197 0
174 198 0
174 198 0
174 197 0
175 198 0
175 198 0
176 199 0
173 197 0
172 196 0
175 198 0
176 198 0
174 198 0
174 197 0
174 197 0
173 197 0
174 197 0
174 197 0
174 197 0
174 198 0
174 197 0
172 197 0
174 197 0
174 198 0
174 198 0
172 196 0
174 197 0
174 197 0
172 196 0
176 199 0
174 198 0
173 196 0
172 196 0
171 195 0
174 197 0
172 195 0
172 196 0
172 196 0
176 198 0
171 195 0
172 195 0
173 197 0
173 197 0
172 195 0
174 197 0
174 197 0
173 196 0
173 197 0
173 196 0
171 195 0
173 196 0
169 193 0
174 197 0
173 197 0
175 198 0
173 197 0
173 197 0
172 195 0
170 193 0
170 194 0
173 196 0
169 193 0
171 195 0
171 195 0
169 193 0
171 195 0
175 197 0
174 198 0
172 196 0
171 195 0
170 194 0
172 196 0
169 193 0
167 191 0
167 191 0
169 192 0
168 191 0
169 192 0
165 188 0
165 188 0
167 191 0
166 189 0
162 185 0
159 182 0
158 180 0
160 183 0
168 191 0
162 184 0
153 176 0
155 177 0
155 178 0
156 177 0
147 169 0
144 165 0
151 172 0
147 168 0
142 162 0
136 158 0
142 162 0
149 170 0
156 180 0
146 168 0
134 155 0
133 153 0
130 151 0
133 154 0
138 158 0
119 138 0
129 149 0
127 146 0
126 145 0
128 149 0
130 152 0
142 161 0
134 154 0
140 160 0
152 172 0
148 169 0
142 162 0
144 164 0
149 171 0
154 176 0
154 176 0
156 176 0
155 175 0
155 176 0
154 175 0
160 182 0
153 173 0
157 179 0
155 177 0
160 180 0
159 181 0
166 189 0
159 179 0
162 185 0
165 185 0
163 185 0
160 182 0
168 189 0
168 189 0
167 190 0
165 186 0
165 187 0
166 188 0
165 188 0
167 187 0
169 190 0
172 193 0
166 189 0
167 190 0
173 196 0
172 194 0
166 188 0
172 194 0
171 194 0
170 193 0
170 192 0
171 193 0
171 194 0
169 192 0
172 195 0
170 192 0
172 195 0
173 196 0
174 196 0
172 195 0
172 195 0
170 193 0
174 196 0
170 192 0
172 195 0
173 195 0
174 198 0
172 195 0
173 197 0
171 193 0
172 196 0
171 195 0
172 196 0
174 197 0
173 196 0
174 196 0
175 198 0
175 197 0
172 196 0
172 196 0
174 197 0
173 197 0
176 198 0
176 198 0
174 198 0
175 198 0
175 198 0
173 196 0
173 196 0
173 196 0
174 197 0
174 197 0
174 197 0
173 196 0
173 196 0
175 198 0
174 198 0
175 197 0
175 198 0
172 196 0
175 198 0
173 197 0
175 198 0
174 198 0
175 198 0
172 196 0
174 197 0
174 198 0
175 198 0
175 198 0
173 197 0
174 198 0
174 198 0
177 199 0
173 197 0
175 198 0
175 198 0
175 198 0
173 197 0
174 197 0
173 196 0
174 197 0
173 197 0
175 198 0
173 196 0
174 198 0
172 196 0
175 198 0
175 198 0
175 198 0
175 198 0
173 197 0
174 197 0
174 198 0
173 197 0
174 198 0
175 198 0
174 198 0
173 197 0
175 198 0
175 198 0
174 197 0
173 197 0
175 198 0
173 197 0
172 196 0
176 198 0
175 198 0
175 198 0
174 197 0
174 197 0
175 198 0
175 198 0
174 197 0
175 198 0
174 197 0
174 197 0
173 197 0
173 197 0
173 197 0
173 197 0
175 198 0
175 198 0
175 198 0
174 198 0
173 197 0
175 198 0
175 198 0
174 198 0
174 198 0
173 197 0
174 198 0
174 198 0
175 198 0
174 198 0
174 197 0
174 197 0
174 198 0
175 198 0
175 198 0
174 197 0
175 198 0
174 197 0
175 198 0
176 198 0
175 198 0
175 198 0
174 198 0
173 197 0
175 198 0
175 198 0
175 198 0
175 198 0
175 198 0
174 198 0
174 197 0
174 198 0
175 198 0
173 197 0
174 197 0
174 197 0
173 197 0
173 197 0
175 198 0
174 198 0
176 198 0
175 198 0
175 198 0
173 197 0
177 199 0
173 197 0
175 198 0
173 197 0
174 197 0
174 198 0
174 198 0
175 198 0
175 198 0
174 198 0
174 198 0
174 198 0
173 197 0
174 198 0
173 197 0
175 198 0
173 197 0
175 198 0
176 199 0
176 199 0
174 198 0
173 197 0
174 198 0
173 197 0
174 198 0
175 198 0
175 198 0
173 197 0
174 197 0
175 198 0
175 198 0
174 197 0
176 199 0
175 198 0
175 198 0
173 197 0
175 198 0
175 198 0
174 198 0
174 198 0
174 198 0
174 197 0
175 198 0
175 198 0
174 197 0
174 197 0
175 198 0
175 198 0
174 198 0
174 197 0
173 197 0
173 197 0
176 198 0
175 198 0
174 198 0
175 198 0
172 196 0
173 197 0
174 197 0
174 197 0
175 198 0
174 198 0
173 197 0
174 197 0
172 196 0
175 198 0
174 197 0
174 198 0
174 198 0
176 199 0
174 198 0
174 198 0
175 198 0
173 197 0
174 198 0
176 199 0
174 197 0
173 197 0
174 198 0
174 197 0
176 198 0
174 197 0
174 198 0
176 199 0
174 198 0
173 197 0
173 197 0
173 197 0
174 197 0
175 198 0
175 198 0
175 198 0
175 198 0
172 196 0
173 197 0
174 197 0
175 198 0
174 197 0
172 196 0
175 198 0
175 197 0
173 196 0
175 198 0
172 196 0
173 197 0
174 197 0
172 196 0
172 196 0
173 197 0
175 198 0
174 198 0
173 197 0
174 197 0
174 197 0
173 197 0
174 198 0
174 197 0
173 197 0
174 197 0
176 198 0
174 197 0
174 197 0
174 197 0
175 198 0
172 196 0
175 198 0
170 194 0
172 196 0
172 196 0
172 195 0
175 198 0
173 196 0
173 196 0
170 194 0
174 198 0
172 195 0
171 194 0
172 195 0
173 196 0
172 196 0
170 194 0
172 196 0
173 195 0
169 192 0
169 193 0
172 195 0
173 196 0
169 193 0
171 194 0
175 198 0
175 198 0
173 197 0
173 196 0
172 195 0
170 193 0
171 194 0
168 192 0
164 187 0
170 194 0
168 190 0
167 190 0
169 192 0
165 189 0
167 189 0
163 186 0
164 187 0
168 191 0
165 187 0
170 192 0
158 180 0
162 184 0
155 176 0
156 178 0
157 179 0
156 177 0
149 169 0
151 173 0
149 170 0
152 173 0
153 174 0
140 162 0
146 167 0
151 174 0
156 178 0
158 181 0
140 161 0
141 163 0
142 163 0
137 158 0
134 154 0
131 151 0
140 161 0
130 151 0
136 157 0
143 164 0
144 163 0
139 159 0
135 155 0
137 158 0
149 169 0
146 166 0
137 159 0
144 166 0
149 169 0
150 171 0
153 175 0
151 174 0
158 181 0
160 182 0
156 177 0
154 176 0
167 188 0
157 180 0
154 176 0
162 185 0
159 181 0
165 186 0
169 191 0
163 186 0
165 189 0
161 183 0
166 188 0
162 183 0
167 188 0
169 192 0
163 184 0
167 188 0
166 188 0
167 188 0
170 191 0
167 188 0
165 187 0
170 192 0
166 188 0
171 194 0
169 192 0
169 189 0
172 194 0
168 190 0
170 193 0
170 192 0
171 195 0
172 195 0
171 194 0
170 193 0
170 192 0
172 196 0
171 194 0
170 193 0
172 195 0
171 194 0
174 196 0
173 195 0
172 194 0
171 195 0
170 194 0
173 196 0
171 194 0
173 196 0
172 195 0
173 197 0
175 198 0
173 197 0
173 195 0
171 194 0
173 196 0
172 196 0
174 196 0
174 197 0
173 197 0
174 197 0
172 196 0
175 198 0
175 197 0
172 195 0
173 196 0
172 196 0
174 197 0
176 198 0
172 195 0
174 197 0
173 197 0
171 194 0
174 197 0
175 198 0
174 197 0
175 198 0
172 196 0
172 196 0
174 197 0
174 197 0
174 197 0
175 198 0
174 197 0
172 196 0
174 198 0
174 198 0
174 197 0
174 198 0
175 198 0
175 198 0
174 198 0
175 198 0
176 198 0
174 198 0
174 197 0
174 198 0
174 197 0
174 197 0
174 198 0
175 198 0
175 198 0
173 197 0
174 197 0
175 198 0
174 197 0
172 196 0
176 199 0
174 197 0
174 197 0
174 198 0
175 198 0
173 197 0
173 197 0
174 197 0
175 198 0
174 198 0
174 197 0
173 197 0
174 198 0
175 198 0
174 197 0
176 199 0
173 197 0
174 197 0
174 197 0
173 197 0
175 198 0
173 197 0
176 198 0
175 198 0
175 198 0
176 198 0
173 197 0
173 197 0
175 198 0
174 198 0
175 198 0
175 197 0
175 198 0
174 197 0
175 198 0
175 198 0
175 198 0
175 198 0
175 198 0
175 198 0
173 197 0
172 196 0
174 198 0
174 198 0
173 197 0
174 198 0
173 197 0
174 198 0
175 198 0
175 198 0
174 198 0
172 196 0
174 198 0
175 198 0
176 199 0
175 198 0
174 197 0
173 197 0
174 198 0
174 198 0
173 197 0
174 197 0
176 199 0
175 198 0
175 198 0
176 198 0
175 198 0
175 198 0
173 197 0
175 198 0
172 196 0
175 198 0
173 197 0
173 197 0
175 198 0
175 198 0
174 198 0
176 199 0
174 197 0
176 199 0
175 198 0
174 197 0
174 198 0
175 198 0
174 198 0
174 198 0
174 197 0
174 198 0
174 198 0
174 198 0
175 198 0
173 197 0
174 198 0
175 198 0
175 198 0
176 199 0
175 198 0
173 197 0
174 198 0
175 198 0
175 198 0
175 198 0
175 198 0
174 197 0
174 197 0
175 198 0
175 198 0
175 198 0
173 197 0
174 197 0
175 198 0
175 198 0
173 197 0
175 198 0
174 198 0
175 198 0
175 198 0
174 198 0
174 197 0
175 198 0
175 198 0
175 198 0
174 197 0
175 198 0
175 198 0
173 197 0
175 198 0
174 198 0
175 198 0
173 197 0
174 198 0
175 198 0
174 198 0
174 198 0
175 198 0
174 198 0
175 198 0
173 197 0
174 197 0
173 197 0
175 198 0
173 197 0
174 198 0
173 197 0
174 198 0
174 197 0
174 197 0
174 198 0
175 198 0
174 198 0
176 198 0
175 198 0
174 198 0
173 197 0
176 199 0
175 198 0
173 196 0
175 198 0
174 198 0
174 198 0
174 197 0
174 197 0
175 198 0
176 199 0
174 197 0
174 197 0
173 197 0
172 196 0
173 197 0
175 198 0
175 198 0
174 197 0
175 198 0
174 197 0
174 197 0
173 197 0
173 197 0
171 196 0
173 197 0
175 198 0
175 198 0
174 198 0
174 198 0
174 197 0
175 198 0
174 197 0
174 198 0
174 197 0
174 198 0
173 197 0
175 198 0
173 197 0
173 197 0
173 197 0
174 198 0
173 197 0
173 197 0
175 198 0
173 197 0
173 196 0
174 197 0
173 197 0
174 198 0
175 198 0
173 197 0
174 197 0
172 196 0
175 198 0
173 197 0
173 197 0
172 196 0
175 198 0
173 197 0
174 197 0
174 197 0
173 197 0
171 195 0
173 196 0
173 197 0
170 195 0
171 195 0
173 196 0
173 197 0
173 197 0
169 194 0
171 195 0
171 195 0
172 196 0
173 196 0
169 193 0
171 195 0
168 192 0
174 197 0
173 197 0
175 198 0
172 196 0
172 196 0
171 194 0
170 194 0
170 194 0
169 193 0
172 195 0
170 193 0
169 192 0
166 189 0
169 192 0
168 191 0
171 194 0
160 182 0
164 187 0
160 181 0
162 184 0
165 187 0
156 177 0
156 178 0
160 182 0
152 174 0
157 178 0
155 175 0
152 172 0
159 180 0
162 184 0
143 163 0
150 171 0
155 176 0
160 182 0
152 175 0
154 176 0
147 169 0
139 161 0
150 171 0
149 169 0
145 167 0
143 165 0
140 161 0
145 167 0
139 159 0
143 165 0
147 169 0
146 168 0
148 170 0
146 168 0
137 158 0
148 169 0
145 167 0
150 172 0
155 177 0
153 176 0
152 172 0
152 175 0
150 171 0
158 178 0
158 179 0
155 177 0
158 180 0
161 183 0
159 181 0
157 179 0
162 185 0
165 186 0
165 188 0
164 186 0
163 185 0
165 187 0
164 186 0
166 189 0
160 182 0
168 191 0
168 191 0
163 186 0
168 192 0
171 192 0
167 190 0
165 186 0
170 192 0
167 189 0
169 191 0
171 194 0
170 193 0
169 192 0
167 190 0
173 196 0
168 189 0
168 190 0
171 194 0
173 195 0
170 192 0
172 194 0
170 192 0
172 195 0
171 194 0
172 194 0
172 194 0
171 194 0
170 192 0
173 194 0
173 195 0
174 196 0
173 195 0
174 197 0
170 193 0
170 194 0
174 196 0
172 196 0
174 197 0
173 196 0
172 195 0
175 198 0
172 195 0
172 195 0
172 196 0
173 196 0
173 196 0
173 196 0
173 196 0
174 197 0
172 195 0
173 196 0
172 196 0
173 197 0
172 195 0
174 196 0
174 197 0
173 196 0
174 197 0
173 197 0
174 197 0
173 197 0
173 197 0
174 197 0
174 197 0
174 197 0
175 198 0
174 198 0
174 197 0
173 197 0
174 197 0
173 197 0
173 196 0
173 197 0
173 197 0
175 198 0
176 199 0
175 198 0
173 197 0
175 198 0
174 197 0
174 198 0
176 199 0
174 197 0
173 197 0
173 197 0
173 197 0
174 198 0
173 197 0
173 197 0
175 197 0
174 197 0
173 197 0
175 198 0
173 196 0
174 197 0
174 198 0
174 198 0
172 196 0
175 198 0
174 198 0
172 196 0
175 198 0
173 197 0
175 198 0
174 198 0
175 198 0
173 197 0
174 197 0
174 198 0
173 197 0
175 198 0
171 196 0
175 198 0
175 198 0
175 198 0
176 199 0
175 198 0
173 197 0
174 198 0
177 199 0
172 197 0
175 198 0
173 197 0
175 198 0
175 198 0
172 195 0
175 198 0
176 199 0
175 198 0
174 198 0
175 198 0
174 198 0
174 197 0
176 198 0
175 198 0
174 198 0
174 198 0
174 198 0
174 198 0
175 198 0
175 198 0
175 198 0
173 197 0
175 198 0
174 198 0
174 198 0
173 197 0
174 198 0
173 197 0
174 198 0
174 198 0
177 199 0
175 198 0
174 197 0
174 198 0
172 197 0
176 199 0
175 198 0
176 199 0
174 198 0
173 197 0
174 198 0
174 197 0
175 198 0
174 197 0
174 198 0
174 198 0
176 199 0
173 197 0
175 198 0
174 198 0
176 199 0
173 197 0
176 199 0
176 198 0
175 198 0
175 198 0
173 197 0
176 198 0
172 197 0
172 197 0
175 198 0
174 198 0
174 198 0
174 198 0
174 198 0
173 197 0
175 198 0
173 197 0
175 198 0
174 198 0
174 198 0
174 198 0
174 198 0
174 198 0
174 198 0
175 198 0
174 198 0
175 198 0
175 198 0
173 197 0
174 198 0
174 198 0
174 197 0
174 198 0
175 198 0
172 197 0
174 198 0
174 197 0
173 197 0
175 198 0
176 199 0
174 197 0
174 197 0
174 198 0
175 198 0
175 198 0
174 197 0
175 198 0
175 198 0
175 198 0
173 197 0
173 197 0
174 197 0
174 197 0
174 198 0
175 198 0
174 198 0
173 197 0
173 197 0
173 197 0
174 198 0
176 198 0
173 197 0
173 197 0
175 198 0
176 199 0
175 198 0
175 198 0
174 198 0
175 198 0
174 196 0
176 198 0
173 197 0
174 198 0
175 198 0
174 197 0
172 195 0
176 198 0
174 197 0
174 198 0
174 198 0
175 198 0
173 197 0
175 198 0
174 197 0
174 198 0
175 198 0
175 198 0
175 198 0
173 197 0
172 197 0
175 198 0
173 197 0
174 198 0
174 198 0
175 198 0
173 197 0
174 198 0
172 196 0
175 198 0
174 198 0
174 197 0
174 198 0
173 197 0
175 198 0
172 196 0
174 198 0
174 197 0
172 196 0
174 198 0
172 196 0
172 195 0
174 198 0
174 197 0
174 198 0
174 198 0
176 199 0
174 197 0
173 197 0
175 198 0
174 197 0
173 196 0
174 197 0
171 195 0
173 196 0
174 198 0
174 197 0
174 198 0
173 197 0
174 198 0
174 197 0
173 196 0
175 198 0
173 197 0
171 195 0
174 197 0
172 196 0
172 196 0
174 198 0
170 194 0
171 195 0
173 197 0
175 198 0
174 197 0
169 193 0
172 195 0
173 196 0
171 195 0
171 194 0
173 196 0
169 192 0
171 194 0
168 191 0
169 193 0
170 194 0
173 197 0
173 197 0
172 196 0
172 195 0
173 197 0
169 192 0
170 194 0
167 191 0
171 194 0
167 190 0
169 191 0
172 194 0
168 191 0
163 187 0
166 189 0
163 186 0
169 191 0
164 186 0
160 181 0
160 182 0
167 188 0
158 179 0
150 171 0
165 187 0
156 178 0
156 178 0
147 168 0
158 181 0
156 178 0
159 181 0
146 167 0
151 173 0
154 177 0
161 184 0
155 177 0
150 172 0
146 168 0
145 166 0
150 172 0
152 175 0
144 166 0
145 166 0
143 165 0
146 168 0
143 165 0
150 171 0
151 172 0
136 157 0
146 169 0
146 167 0
154 176 0
150 172 0
158 180 0
156 178 0
155 176 0
155 176 0
160 181 0
155 175 0
159 181 0
155 177 0
161 185 0
160 181 0
160 183 0
163 186 0
168 190 0
164 185 0
157 178 0
162 184 0
159 181 0
162 183 0
161 184 0
163 185 0
166 188 0
164 185 0
168 190 0
169 190 0
167 191 0
164 186 0
166 188 0
166 188 0
165 188 0
163 185 0
171 194 0
173 196 0
169 191 0
168 190 0
170 193 0
168 190 0
171 195 0
170 192 0
172 193 0
172 195 0
171 194 0
171 195 0
171 194 0
171 195 0
170 193 0
173 196 0
171 195 0
172 196 0
174 196 0
174 197 0
172 196 0
172 196 0
171 195 0
172 195 0
171 194 0
174 197 0
171 194 0
175 197 0
175 198 0
175 198 0
174 198 0
173 196 0
173 196 0
173 196 0
172 195 0
175 198 0
173 196 0
173 197 0
173 196 0
173 196 0
174 197 0
173 197 0
171 195 0
173 197 0
173 197 0
172 194 0
173 197 0
173 196 0
175 198 0
173 197 0
173 196 0
174 198 0
173 197 0
175 198 0
174 197 0
173 196 0
174 198 0
173 196 0
175 198 0
173 196 0
176 198 0
175 198 0
173 197 0
174 197 0
174 197 0
175 198 0
174 197 0
175 198 0
176 198 0
173 197 0
175 197 0
174 197 0
174 198 0
174 197 0
175 198 0
176 199 0
173 197 0
175 198 0
175 198 0
173 197 0
175 198 0
174 198 0
174 198 0
173 197 0
175 198 0
176 199 0
173 197 0
174 198 0
173 196 0
175 198 0
174 198 0
171 195 0
173 197 0
174 197 0
174 198 0
174 198 0
174 198 0
175 198 0
174 197 0
175 198 0
175 198 0
174 197 0
173 197 0
175 198 0
173 197 0
174 198 0
174 198 0
172 197 0
175 198 0
175 198 0
175 198 0
173 197 0
175 198 0
175 198 0
175 198 0
174 197 0
174 198 0
173 197 0
175 198 0
175 198 0
173 197 0
174 198 0
175 198 0
173 197 0
174 198 0
174 198 0
175 198 0
173 197 0
174 198 0
173 197 0
174 197 0
174 198 0
174 198 0
174 197 0
173 197 0
173 197 0
174 197 0
175 198 0
173 197 0
174 198 0
174 198 0
173 197 0
174 198 0
174 198 0
177 199 0
174 198 0
176 198 0
174 198 0
174 198 0
175 198 0
174 198 0
174 198 0
174 198 0
175 198 0
174 197 0
174 198 0
175 198 0
174 198 0
175 198 0
173 197 0
175 198 0
174 198 0
175 198 0
173 197 0
173 197 0
175 198 0
174 198 0
174 198 0
174 198 0
174 198 0
172 197 0
176 199 0
175 198 0
176 199 0
175 198 0
175 198 0
174 198 0
175 198 0
174 198 0
175 198 0
176 199 0
174 198 0
175 198 0
175 198 0
174 198 0
174 198 0
175 198 0
174 198 0
173 197 0
174 197 0
175 198 0
175 198 0
173 197 0
174 197 0
175 198 0
174 198 0
175 198 0
174 198 0
176 198 0
172 197 0
174 198 0
175 198 0
174 198 0
175 198 0
175 198 0
172 197 0
174 198 0
172 197 0
174 197 0
173 197 0
175 198 0
176 198 0
175 198 0
177 199 0
175 198 0
174 198 0
173 197 0
174 198 0
173 197 0
174 197 0
175 198 0
173 197 0
175 198 0
173 197 0
175 198 0
174 197 0
175 198 0
175 198 0
175 198 0
174 197 0
173 197 0
174 197 0
174 198 0
175 198 0
173 197 0
172 196 0
175 198 0
174 198 0
174 198 0
175 198 0
175 198 0
175 198 0
174 198 0
174 197 0
173 196 0
174 198 0
175 198 0
174 198 0
173 196 0
174 198 0
175 198 0
174 198 0
174 197 0
173 197 0
173 197 0
175 198 0
174 197 0
174 198 0
176 199 0
176 199 0
173 197 0
173 196 0
175 198 0
176 199 0
174 197 0
173 197 0
173 197 0
176 198 0
175 198 0
174 197 0
173 196 0
175 198 0
175 198 0
173 197 0
170 195 0
175 198 0
174 198 0
175 198 0
175 198 0
173 197 0
172 196 0
173 197 0
173 197 0
175 198 0
175 198 0
174 197 0
173 197 0
173 197 0
174 197 0
172 196 0
174 198 0
173 196 0
174 197 0
171 195 0
173 196 0
175 198 0
168 193 0
173 197 0
169 193 0
174 198 0
172 196 0
171 194 0
171 195 0
174 198 0
174 198 0
170 194 0
172 195 0
173 196 0
170 194 0
173 197 0
171 194 0
170 194 0
174 197 0
172 195 0
171 195 0
169 193 0
171 195 0
172 196 0
171 194 0
172 196 0
172 196 0
171 194 0
172 196 0
168 192 0
169 193 0
168 192 0
171 195 0
167 190 0
167 190 0
171 193 0
167 189 0
167 191 0
165 187 0
164 186 0
162 184 0
165 187 0
162 184 0
155 177 0
166 187 0
164 184 0
168 189 0
163 183 0
167 189 0
163 184 0
155 176 0
159 180 0
152 174 0
158 179 0
152 174 0
158 180 0
159 181 0
159 182 0
162 184 0
152 175 0
142 164 0
151 173 0
149 170 0
142 162 0
151 174 0
151 173 0
148 171 0
150 173 0
148 170 0
153 175 0
148 170 0
147 169 0
152 173 0
149 171 0
152 175 0
154 176 0
152 174 0
158 181 0
154 174 0
156 178 0
166 189 0
157 178 0
165 188 0
151 172 0
159 182 0
157 178 0
159 180 0
156 179 0
157 178 0
164 186 0
168 191 0
162 184 0
164 185 0
168 191 0
166 188 0
166 190 0
163 185 0
164 186 0
165 188 0
166 189 0
168 188 0
166 188 0
168 190 0
168 191 0
166 188 0
167 189 0
169 191 0
169 191 0
172 196 0
170 193 0
170 193 0
172 194 0
166 188 0
169 193 0
169 192 0
171 193 0
172 196 0
170 192 0
172 195 0
172 193 0
168 192 0
171 193 0
173 194 0
173 197 0
174 196 0
171 194 0
172 195 0
172 196 0
172 196 0
173 197 0
173 197 0
171 193 0
173 197 0
174 197 0
174 198 0
174 197 0
171 196 0
173 197 0
176 198 0
174 197 0
172 196 0
172 196 0
172 196 0
171 194 0
174 197 0
172 196 0
174 196 0
173 197 0
173 196 0
173 197 0
173 196 0
175 198 0
173 197 0
173 196 0
172 196 0
174 197 0
173 195 0
175 198 0
174 197 0
175 198 0
173 196 0
173 196 0
174 198 0
174 197 0
174 197 0
174 197 0
173 196 0
171 195 0
172 196 0
173 196 0
173 196 0
175 198 0
173 197 0
173 197 0
175 198 0
175 197 0
175 198 0
174 197 0
174 197 0
173 197 0
175 198 0
173 197 0
174 198 0
172 196 0
175 198 0
174 197 0
175 198 0
173 196 0
173 197 0
173 197 0
173 197 0
175 198 0
173 197 0
175 198 0
174 197 0
175 198 0
176 199 0
174 197 0
175 198 0
174 198 0
174 198 0
175 198 0
174 198 0
174 198 0
175 198 0
175 198 0
175 198 0
175 198 0
176 198 0
174 198 0
174 197 0
175 197 0
175 198 0
176 199 0
174 198 0
175 198 0
174 198 0
174 198 0
174 198 0
175 198 0
174 197 0
175 198 0
173 197 0
174 198 0
173 197 0
175 198 0
172 196 0
174 197 0
175 198 0
176 199 0
173 197 0
174 198 0
174 198 0
175 198 0
173 197 0
175 198 0
173 197 0
172 196 0
174 198 0
175 198 0
176 199 0
176 199 0
174 198 0
175 198 0
175 198 0
175 198 0
175 198 0
177 199 0
173 197 0
174 197 0
173 197 0
176 199 0
175 198 0
174 198 0
174 197 0
174 198 0
176 198 0
174 197 0
175 198 0
175 198 0
173 197 0
172 197 0
174 197 0
174 198 0
175 198 0
175 198 0
172 197 0
174 197 0
175 198 0
176 199 0
173 197 0
173 197 0
175 198 0
174 197 0
174 198 0
174 198 0
174 198 0
175 198 0
173 197 0
174 198 0
173 197 0
176 199 0
175 198 0
171 196 0
175 198 0
174 198 0
175 198 0
174 197 0
175 198 0
174 197 0
174 198 0
175 198 0
174 198 0
173 197 0
176 198 0
173 197 0
175 198 0
174 198 0
173 197 0
174 198 0
176 199 0
173 197 0
175 198 0
175 198 0
175 198 0
172 196 0
173 197 0
174 198 0
174 197 0
175 198 0
175 198 0
174 198 0
174 198 0
176 199 0
174 198 0
175 198 0
174 197 0
175 198 0
174 198 0
174 198 0
175 198 0
174 197 0
174 198 0
175 198 0
175 198 0
174 197 0
174 198 0
173 197 0
174 198 0
175 198 0
174 197 0
173 197 0
172 196 0
174 198 0
172 197 0
175 198 0
176 199 0
174 198 0
173 196 0
173 197 0
172 196 0
175 198 0
174 197 0
175 198 0
174 198 0
173 197 0
176 198 0
173 197 0
176 199 0
173 197 0
174 198 0
173 197 0
173 197 0
174 198 0
174 198 0
172 196 0
174 197 0
175 198 0
175 198 0
174 197 0
174 198 0
175 198 0
174 197 0
173 197 0
173 197 0
175 198 0
176 199 0
175 198 0
174 197 0
172 197 0
175 198 0
175 197 0
174 198 0
174 197 0
174 198 0
173 197 0
174 198 0
172 196 0
172 196 0
175 198 0
173 197 0
173 197 0
172 195 0
174 197 0
173 196 0
174 198 0
174 197 0
173 197 0
173 196 0
174 197 0
174 197 0
174 197 0
172 196 0
172 196 0
171 195 0
175 198 0
171 195 0
175 198 0
174 197 0
170 194 0
173 197 0
171 195 0
174 198 0
173 196 0
172 197 0
173 196 0
171 195 0
173 197 0
173 197 0
171 194 0
172 196 0
171 194 0
171 194 0
175 197 0
172 196 0
172 195 0
170 194 0
174 197 0
168 192 0
171 194 0
172 195 0
172 195 0
170 194 0
172 195 0
173 196 0
172 196 0
175 198 0
173 197 0
171 194 0
170 193 0
169 193 0
171 195 0
173 196 0
171 195 0
169 192 0
169 192 0
167 189 0
171 193 0
166 188 0
167 189 0
171 192 0
159 179 0
167 189 0
167 188 0
163 185 0
162 184 0
162 183 0
161 182 0
168 188 0
162 183 0
161 183 0
156 178 0
158 180 0
161 183 0
156 179 0
164 186 0
161 184 0
160 183 0
159 182 0
150 172 0
159 181 0
156 179 0
150 171 0
144 167 0
148 170 0
145 167 0
153 175 0
154 176 0
159 183 0
149 172 0
159 183 0
148 170 0
156 178 0
162 185 0
153 173 0
163 186 0
159 181 0
157 180 0
157 179 0
156 179 0
155 177 0
153 176 0
162 184 0
164 186 0
162 186 0
164 188 0
163 185 0
160 182 0
161 184 0
159 182 0
165 187 0
166 189 0
164 186 0
160 184 0
164 187 0
162 185 0
167 190 0
161 183 0
168 190 0
167 189 0
167 191 0
165 188 0
168 191 0
168 191 0
173 194 0
169 192 0
172 196 0
170 192 0
169 192 0
170 192 0
172 194 0
170 193 0
171 193 0
171 194 0
169 193 0
172 194 0
173 195 0
174 197 0
170 194 0
170 194 0
173 196 0
171 195 0
169 190 0
171 193 0
170 192 0
171 193 0
172 196 0
172 196 0
173 196 0
173 196 0
172 196 0
172 195 0
172 196 0
171 194 0
173 195 0
174 196 0
174 197 0
171 193 0
171 196 0
173 195 0
173 196 0
175 198 0
173 196 0
174 196 0
174 197 0
174 198 0
173 197 0
173 197 0
174 197 0
174 197 0
174 197 0
173 196 0
174 197 0
174 197 0
175 197 0
175 198 0
174 197 0
171 195 0
174 196 0
175 197 0
173 196 0
175 198 0
174 198 0
173 196 0
174 197 0
173 197 0
173 197 0
175 198 0
174 197 0
173 196 0
174 198 0
174 197 0
174 198 0
176 199 0
175 198 0
174 197 0
174 198 0
174 197 0
175 198 0
175 198 0
173 197 0
173 197 0
175 198 0
174 198 0
172 196 0
174 197 0
174 197 0
173 197 0
174 198 0
174 198 0
175 198 0
175 198 0
173 197 0
175 198 0
173 197 0
175 198 0
175 198 0
174 196 0
174 198 0
174 198 0
174 198 0
175 198 0
173 197 0
174 198 0
173 197 0
173 197 0
175 198 0
174 197 0
174 197 0
174 198 0
175 198 0
176 199 0
173 197 0
174 197 0
173 197 0
175 198 0
174 198 0
174 198 0
175 198 0
174 198 0
174 197 0
175 198 0
175 198 0
174 197 0
174 198 0
176 198 0
175 198 0
174 197 0
175 198 0
174 197 0
174 198 0
176 199 0
174 198 0
175 198 0
175 198 0
175 198 0
174 197 0
175 198 0
175 198 0
173 197 0
175 198 0
174 198 0
175 198 0
173 197 0
175 198 0
174 198 0
174 197 0
174 197 0
175 198 0
175 198 0
173 197 0
174 198 0
174 198 0
173 197 0
175 198 0
175 198 0
176 198 0
175 198 0
175 198 0
174 198 0
175 198 0
175 198 0
174 198 0
174 198 0
175 198 0
173 197 0
173 197 0
174 197 0
174 198 0
174 197 0
174 198 0
174 197 0
175 198 0
175 198 0
176 199 0
175 198 0
174 198 0
173 197 0
173 197 0
174 198 0
173 197 0
175 198 0
176 199 0
173 197 0
174 198 0
174 198 0
176 198 0
175 198 0
175 198 0
174 198 0
176 199 0
174 197 0
174 198 0
174 197 0
174 198 0
175 198 0
175 198 0
174 197 0
174 198 0
174 197 0
174 197 0
173 197 0
175 198 0
173 197 0
175 198 0
174 198 0
174 197 0
174 198 0
175 198 0
173 197 0
173 197 0
174 197 0
175 198 0
174 197 0
174 198 0
173 197 0
173 197 0
174 197 0
176 199 0
174 198 0
175 198 0
174 197 0
174 197 0
175 198 0
174 198 0
173 197 0
175 198 0
174 198 0
175 198 0
175 198 0
174 198 0
172 197 0
174 198 0
175 198 0
174 197 0
174 197 0
174 198 0
175 198 0
175 198 0
176 199 0
175 198 0
174 198 0
175 198 0
173 197 0
176 199 0
175 198 0
173 197 0
174 198 0
172 196 0
175 198 0
175 198 0
175 198 0
174 198 0
173 196 0
176 198 0
173 197 0
174 198 0
175 198 0
174 197 0
174 197 0
173 197 0
174 198 0
175 198 0
173 197 0
175 198 0
174 197 0
174 197 0
175 198 0
174 198 0
175 198 0
175 198 0
173 197 0
176 199 0
173 197 0
174 198 0
174 198 0
175 198 0
174 198 0
173 197 0
174 197 0
174 197 0
173 197 0
176 199 0
172 196 0
173 197 0
173 197 0
174 198 0
171 195 0
173 197 0
174 197 0
173 197 0
172 196 0
172 196 0
175 198 0
174 198 0
173 196 0
175 198 0
175 198 0
171 195 0
169 194 0
173 197 0
173 197 0
174 197 0
172 196 0
170 194 0
173 196 0
173 196 0
171 195 0
173 197 0
171 194 0
173 197 0
173 197 0
171 195 0
169 193 0
172 196 0
167 190 0
171 195 0
171 194 0
170 193 0
172 196 0
171 195 0
172 195 0
169 193 0
173 196 0
173 197 0
171 195 0
174 197 0
172 196 0
171 195 0
173 196 0
169 193 0
170 193 0
170 193 0
171 193 0
176 198 0
174 196 0
171 194 0
171 193 0
169 191 0
164 185 0
170 192 0
168 190 0
167 188 0
170 191 0
168 188 0
166 187 0
167 188 0
163 184 0
158 180 0
165 186 0
159 181 0
155 177 0
169 190 0
157 180 0
154 177 0
162 185 0
165 187 0
164 187 0
164 187 0
161 182 0
154 176 0
154 177 0
155 176 0
146 169 0
156 179 0
154 175 0
155 178 0
158 180 0
152 175 0
156 179 0
159 180 0
156 179 0
151 173 0
154 177 0
156 177 0
159 182 0
157 179 0
159 182 0
158 181 0
154 176 0
161 184 0
158 181 0
154 177 0
159 179 0
161 184 0
161 183 0
161 183 0
161 183 0
159 182 0
165 188 0
165 187 0
164 187 0
167 190 0
166 190 0
163 185 0
165 188 0
167 189 0
169 192 0
165 188 0
166 189 0
167 190 0
168 190 0
168 190 0
167 189 0
171 194 0
171 193 0
169 191 0
169 192 0
170 194 0
169 191 0
165 188 0
173 195 0
169 192 0
172 195 0
172 195 0
169 192 0
170 194 0
170 193 0
171 192 0
171 194 0
172 195 0
170 193 0
169 192 0
172 195 0
171 193 0
172 195 0
174 197 0
174 196 0
172 196 0
173 196 0
171 194 0
172 196 0
173 197 0
175 198 0
174 196 0
173 197 0
172 195 0
175 197 0
172 196 0
172 196 0
173 196 0
174 197 0
173 197 0
173 196 0
173 197 0
173 196 0
172 195 0
173 197 0
173 196 0
173 196 0
175 197 0
173 196 0
173 197 0
173 196 0
173 196 0
175 198 0
173 197 0
173 196 0
175 197 0
175 198 0
173 197 0
174 198 0
175 198 0
173 197 0
172 195 0
174 197 0
172 196 0
172 195 0
173 196 0
171 196 0
175 197 0
173 197 0
175 198 0
173 196 0
174 198 0
175 197 0
172 195 0
174 197 0
175 198 0
174 198 0
174 198 0
174 198 0
174 198 0
174 197 0
173 197 0
173 197 0
175 198 0
172 196 0
174 197 0
176 198 0
175 198 0
174 198 0
175 198 0
174 198 0
174 198 0
174 198 0
172 196 0
173 197 0
174 198 0
173 197 0
174 198 0
174 197 0
175 198 0
173 197 0
175 198 0
174 198 0
176 199 0
173 197 0
174 198 0
175 198 0
175 198 0
174 198 0
174 197 0
173 197 0
174 197 0
174 198 0
175 198 0
174 197 0
175 198 0
175 198 0
174 197 0
174 197 0
175 198 0
175 198 0
175 198 0
175 198 0
172 196 0
175 198 0
173 196 0
174 197 0
175 198 0
175 198 0
175 198 0
173 197 0
176 198 0
176 199 0
173 197 0
173 197 0
175 198 0
175 198 0
173 197 0
176 199 0
174 197 0
172 196 0
174 198 0
173 197 0
174 197 0
174 197 0
175 198 0
176 198 0
175 198 0
174 197 0
174 198 0
175 198 0
174 198 0
174 197 0
175 198 0
175 198 0
174 198 0
174 198 0
173 197 0
176 198 0
175 198 0
175 198 0
173 197 0
176 198 0
174 197 0
175 198 0
175 198 0
174 197 0
174 198 0
174 198 0
174 197 0
174 198 0
176 199 0
173 197 0
176 198 0
175 198 0
175 198 0
175 198 0
173 197 0
175 198 0
174 197 0
174 197 0
174 197 0
176 199 0
175 198 0
173 197 0
174 198 0
174 198 0
175 198 0
175 198 0
174 198 0
175 198 0
174 198 0
175 198 0
175 198 0
175 198 0
174 198 0
175 198 0
174 198 0
174 198 0
173 197 0
174 197 0
171 196 0
177 199 0
174 197 0
176 198 0
174 197 0
173 197 0
176 199 0
175 198 0
176 199 0
174 198 0
174 197 0
174 197 0
175 198 0
174 198 0
172 196 0
175 198 0
174 198 0
175 198 0
175 198 0
174 198 0
174 198 0
175 198 0
175 198 0
174 198 0
173 197 0
174 197 0
174 198 0
174 198 0
174 198 0
174 198 0
174 197 0
174 198 0
175 198 0
174 198 0
175 198 0
173 197 0
174 198 0
172 196 0
174 198 0
174 198 0
172 196 0
175 198 0
175 198 0
175 198 0
175 198 0
175 198 0
175 198 0
174 197 0
173 197 0
174 197 0
174 198 0
173 197 0
174 197 0
174 198 0
174 197 0
173 197 0
173 197 0
174 198 0
173 197 0
175 198 0
173 197 0
173 197 0
172 197 0
175 198 0
175 198 0
173 197 0
174 197 0
174 197 0
175 198 0
175 198 0
173 197 0
175 198 0
173 197 0
172 196 0
173 196 0
172 196 0
174 197 0
174 197 0
175 198 0
173 197 0
173 196 0
172 196 0
173 197 0
173 197 0
174 197 0
173 197 0
176 198 0
170 195 0
173 197 0
174 198 0
175 198 0
174 198 0
174 198 0
172 196 0
170 194 0
170 194 0
173 196 0
173 197 0
174 197 0
172 196 0
170 194 0
172 196 0
175 198 0
173 197 0
172 196 0
171 195 0
174 198 0
173 196 0
173 196 0
172 196 0
171 195 0
171 195 0
174 197 0
169 192 0
174 197 0
169 193 0
172 195 0
174 198 0
169 193 0
172 196 0
175 198 0
173 196 0
173 196 0
171 195 0
175 198 0
171 194 0
172 196 0
169 192 0
170 193 0
171 194 0
175 197 0
172 194 0
173 194 0
172 193 0
174 195 0
170 191 0
173 194 0
172 194 0
169 191 0
166 188 0
168 190 0
163 184 0
166 186 0
160 181 0
168 189 0
165 187 0
163 185 0
167 188 0
159 180 0
156 179 0
160 181 0
163 186 0
163 185 0
165 188 0
163 185 0
155 177 0
148 171 0
151 173 0
159 181 0
160 182 0
159 181 0
153 176 0
158 181 0
157 180 0
157 179 0
152 175 0
159 182 0
159 182 0
158 179 0
154 177 0
155 178 0
156 178 0
151 173 0
158 181 0
166 188 0
161 184 0
162 183 0
167 190 0
161 184 0
165 188 0
160 184 0
165 189 0
166 190 0
170 191 0
154 176 0
163 186 0
165 187 0
167 191 0
166 188 0
163 185 0
169 192 0
162 185 0
167 188 0
167 190 0
166 189 0
171 194 0
163 185 0
169 191 0
170 193 0
169 191 0
171 195 0
170 192 0
171 193 0
169 192 0
168 190 0
167 190 0
169 191 0
168 192 0
170 193 0
165 188 0
172 194 0
173 195 0
169 192 0
167 190 0
171 195 0
170 194 0
169 192 0
171 194 0
173 196 0
171 194 0
173 196 0
173 195 0
173 196 0
172 194 0
171 194 0
173 195 0
173 196 0
172 196 0
174 197 0
174 197 0
174 197 0
171 193 0
172 195 0
175 197 0
171 195 0
175 198 0
175 197 0
174 197 0
174 197 0
175 198 0
174 197 0
174 196 0
171 195 0
173 197 0
175 198 0
173 197 0
173 196 0
174 196 0
173 197 0
174 197 0
176 198 0
173 197 0
174 197 0
172 196 0
174 197 0
173 197 0
174 197 0
174 197 0
173 197 0
173 196 0
174 197 0
174 198 0
174 197 0
173 197 0
172 196 0
173 197 0
175 198 0
174 197 0
175 198 0
173 197 0
173 197 0
175 198 0
173 197 0
171 195 0
176 198 0
174 197 0
174 197 0
175 198 0
173 197 0
174 198 0
174 198 0
175 198 0
175 198 0
175 198 0
172 196 0
174 198 0
173 197 0
174 197 0
175 198 0
174 198 0
175 198 0
174 197 0
173 197 0
175 198 0
175 198 0
175 198 0
175 198 0
172 196 0
175 198 0
173 197 0
174 197 0
172 197 0
175 198 0
175 198 0
174 198 0
175 198 0
175 198 0
175 198 0
175 198 0
175 198 0
175 198 0
174 198 0
172 197 0
173 196 0
175 198 0
174 197 0
173 197 0
174 198 0
175 198 0
172 196 0
173 197 0
175 198 0
175 198 0
174 198 0
174 197 0
174 198 0
174 198 0
176 198 0
176 199 0
174 197 0
174 198 0
173 197 0
174 198 0
175 198 0
177 199 0
176 199 0
175 198 0
174 197 0
174 198 0
175 198 0
175 198 0
173 197 0
174 197 0
175 198 0
173 197 0
173 197 0
173 197 0
175 198 0
175 198 0
175 198 0
176 199 0
175 198 0
174 198 0
174 198 0
175 198 0
172 196 0
174 198 0
175 197 0
173 197 0
175 198 0
174 198 0
175 198 0
175 198 0
173 197 0
175 198 0
174 198 0
173 197 0
176 198 0
174 197 0
174 198 0
173 197 0
176 198 0
174 198 0
174 198 0
174 198 0
174 197 0
174 198 0
176 199 0
175 198 0
174 197 0
174 198 0
176 198 0
174 198 0
175 198 0
175 198 0
173 197 0
176 199 0
174 198 0
175 198 0
174 198 0
174 197 0
176 199 0
175 198 0
175 198 0
174 197 0
175 198 0
174 198 0
174 197 0
175 198 0
174 198 0
174 197 0
174 198 0
174 198 0
174 197 0
173 197 0
174 197 0
174 198 0
174 198 0
174 198 0
175 198 0
175 198 0
176 198 0
173 197 0
173 197 0
174 198 0
175 198 0
175 198 0
175 198 0
175 198 0
175 198 0
175 198 0
174 197 0
174 198 0
175 198 0
176 199 0
173 197 0
175 198 0
174 197 0
174 197 0
175 198 0
174 198 0
174 198 0
175 198 0
174 198 0
174 198 0
173 197 0
174 197 0
174 197 0
175 198 0
174 197 0
173 197 0
173 197 0
173 196 0
174 198 0
173 197 0
174 197 0
173 197 0
176 199 0
174 197 0
174 198 0
175 198 0
173 197 0
176 199 0
174 198 0
176 199 0
173 197 0
174 197 0
174 197 0
174 197 0
177 199 0
173 197 0
173 197 0
172 196 0
174 197 0
175 198 0
174 198 0
175 198 0
174 197 0
175 198 0
175 198 0
174 197 0
173 197 0
175 198 0
173 197 0
175 198 0
172 196 0
173 197 0
176 199 0
174 198 0
173 197 0
172 196 0
172 196 0
173 197 0
173 197 0
174 197 0
174 198 0
175 198 0
174 197 0
173 197 0
174 198 0
174 197 0
169 194 0
172 196 0
170 194 0
173 196 0
172 196 0
172 196 0
171 195 0
172 196 0
173 197 0
174 197 0
173 196 0
171 195 0
171 195 0
173 197 0
175 198 0
168 192 0
171 195 0
173 196 0
170 194 0
173 197 0
172 195 0
172 195 0
170 195 0
171 194 0
170 194 0
169 191 0
171 195 0
169 193 0
173 196 0
170 193 0
173 197 0
171 194 0
175 198 0
173 196 0
173 196 0
176 198 0
171 194 0
174 197 0
173 195 0
167 190 0
169 191 0
169 192 0
168 191 0
169 190 0
172 193 0
169 189 0
166 187 0
171 192 0
171 193 0
165 186 0
165 186 0
170 190 0
162 183 0
165 186 0
168 189 0
162 182 0
162 184 0
161 183 0
164 186 0
168 191 0
171 193 0
164 187 0
160 182 0
157 180 0
160 183 0
161 184 0
160 182 0
162 185 0
154 178 0
160 183 0
158 179 0
157 179 0
158 180 0
157 180 0
161 184 0
158 180 0
161 184 0
156 179 0
160 183 0
160 183 0
163 185 0
163 186 0
162 185 0
159 183 0
162 183 0
160 183 0
167 190 0
159 182 0
164 186 0
163 185 0
168 192 0
162 185 0
162 184 0
164 187 0
163 184 0
165 187 0
166 188 0
162 184 0
167 189 0
165 188 0
166 190 0
168 190 0
165 188 0
168 191 0
171 194 0
164 187 0
171 195 0
171 193 0
168 192 0
170 192 0
167 188 0
165 189 0
169 192 0
172 195 0
171 194 0
168 191 0
170 193 0
168 190 0
172 194 0
173 195 0
171 194 0
173 196 0
171 194 0
171 194 0
168 191 0
171 195 0
172 195 0
173 196 0
173 196 0
171 196 0
173 196 0
175 197 0
175 197 0
171 194 0
174 197 0
172 195 0
173 197 0
171 195 0
173 196 0
173 196 0
171 195 0
172 196 0
172 196 0
173 197 0
175 197 0
174 197 0
172 197 0
172 196 0
172 195 0
174 198 0
172 195 0
174 197 0
172 196 0
173 197 0
175 198 0
173 196 0
175 197 0
175 198 0
174 197 0
174 197 0
173 196 0
176 198 0
174 197 0
174 198 0
174 197 0
174 197 0
173 196 0
173 197 0
174 197 0
173 197 0
171 194 0
173 197 0
173 196 0
173 196 0
175 198 0
174 197 0
174 198 0
172 195 0
173 197 0
174 197 0
174 198 0
173 196 0
174 197 0
174 198 0
172 197 0
176 199 0
176 198 0
174 197 0
174 197 0
175 198 0
174 197 0
174 197 0
175 198 0
173 196 0
173 197 0
173 197 0
173 197 0
175 198 0
173 197 0
172 197 0
174 198 0
175 198 0
174 198 0
174 198 0
174 197 0
173 197 0
173 197 0
174 197 0
176 199 0
176 199 0
176 198 0
175 198 0
174 198 0
174 198 0
176 198 0
176 198 0
174 198 0
176 198 0
176 198 0
174 198 0
174 198 0
174 197 0
175 198 0
176 199 0
175 198 0
174 197 0
174 198 0
174 197 0
176 199 0
176 199 0
176 199 0
174 198 0
174 197 0
174 198 0
175 198 0
175 198 0
175 198 0
172 197 0
175 198 0
175 198 0
174 198 0
173 197 0
176 198 0
175 198 0
175 198 0
174 198 0
175 198 0
175 198 0
173 197 0
174 197 0
174 198 0
175 198 0
174 198 0
175 198 0
176 198 0
175 198 0
175 198 0
175 198 0
175 198 0
174 198 0
175 198 0
175 198 0
176 198 0
174 197 0
176 198 0
175 198 0
174 198 0
174 198 0
172 197 0
174 198 0
173 197 0
173 197 0
174 198 0
174 197 0
174 198 0
174 198 0
174 197 0
175 198 0
174 198 0
175 198 0
174 197 0
173 197 0
173 197 0
175 198 0
175 198 0
173 197 0
174 197 0
175 198 0
172 196 0
175 198 0
176 199 0
174 198 0
175 198 0
174 198 0
174 197 0
173 197 0
173 197 0
175 198 0
175 198 0
172 197 0
175 198 0
174 197 0
174 198 0
175 198 0
175 198 0
174 197 0
174 198 0
175 198 0
177 199 0
175 198 0
173 197 0
174 198 0
174 198 0
175 198 0
175 198 0
174 197 0
176 198 0
176 198 0
176 199 0
175 198 0
174 197 0
174 198 0
175 198 0
176 199 0
174 198 0
174 198 0
174 197 0
173 197 0
176 198 0
174 197 0
175 198 0
175 198 0
173 196 0
176 199 0
174 198 0
173 197 0
173 196 0
174 198 0
174 198 0
175 198 0
175 198 0
174 198 0
175 198 0
174 198 0
174 198 0
173 197 0
173 197 0
175 198 0
174 197 0
174 197 0
176 198 0
173 197 0
173 197 0
176 198 0
173 197 0
175 198 0
174 197 0
174 197 0
173 197 0
173 197 0
174 197 0
175 198 0
174 198 0
174 198 0
175 198 0
174 197 0
174 197 0
173 197 0
173 197 0
174 198 0
174 198 0
176 198 0
172 196 0
174 198 0
174 197 0
171 196 0
173 197 0
171 195 0
172 196 0
174 198 0
174 198 0
172 196 0
174 198 0
174 197 0
173 196 0
176 198 0
173 197 0
173 196 0
174 198 0
175 198 0
173 197 0
174 197 0
174 197 0
173 197 0
173 196 0
173 197 0
174 197 0
175 198 0
174 197 0
174 198 0
173 196 0
175 198 0
174 198 0
173 197 0
173 196 0
172 195 0
173 197 0
174 197 0
173 197 0
172 196 0
170 194 0
173 196 0
173 197 0
171 195 0
172 196 0
172 196 0
171 195 0
172 195 0
169 193 0
172 195 0
172 196 0
173 196 0
172 195 0
172 195 0
173 196 0
173 196 0
168 193 0
171 194 0
170 193 0
174 196 0
172 196 0
172 195 0
171 195 0
173 196 0
173 196 0
172 195 0
170 192 0
174 197 0
171 194 0
173 195 0
173 195 0
169 190 0
175 196 0
176 197 0
172 193 0
175 196 0
170 192 0
175 196 0
170 192 0
169 191 0
170 190 0
164 186 0
168 189 0
172 192 0
165 186 0
168 189 0
159 181 0
160 182 0
165 188 0
165 188 0
167 190 0
165 189 0
165 188 0
163 185 0
161 184 0
157 180 0
163 185 0
169 192 0
152 175 0
161 183 0
160 183 0
159 180 0
153 175 0
153 176 0
160 183 0
165 188 0
157 179 0
165 189 0
156 179 0
159 182 0
167 189 0
159 183 0
162 184 0
164 187 0
162 186 0
156 179 0
158 180 0
161 185 0
163 185 0
159 180 0
165 187 0
164 186 0
168 192 0
171 194 0
165 188 0
167 190 0
167 190 0
164 187 0
167 190 0
164 186 0
172 195 0
168 190 0
168 191 0
167 190 0
168 191 0
167 190 0
169 192 0
167 189 0
169 193 0
169 193 0
167 190 0
169 192 0
166 189 0
171 193 0
172 195 0
168 191 0
171 194 0
170 192 0
167 189 0
171 194 0
169 192 0
172 194 0
172 196 0
172 193 0
169 193 0
171 193 0
171 194 0
170 192 0
173 197 0
172 194 0
172 196 0
174 197 0
171 195 0
171 194 0
174 196 0
171 194 0
171 195 0
173 194 0
173 196 0
173 196 0
171 194 0
172 197 0
174 197 0
174 197 0
173 195 0
173 196 0
174 197 0
173 197 0
174 196 0
175 198 0
171 194 0
173 197 0
175 198 0
173 195 0
175 198 0
174 197 0
175 198 0
174 196 0
174 197 0
173 196 0
172 196 0
172 195 0
173 197 0
172 195 0
174 197 0
172 196 0
173 197 0
174 197 0
174 197 0
174 197 0
174 197 0
175 198 0
173 197 0
174 197 0
174 197 0
172 196 0
171 195 0
174 197 0
172 196 0
175 198 0
172 196 0
174 198 0
173 196 0
174 197 0
173 197 0
174 198 0
175 198 0
175 198 0
174 198 0
173 197 0
174 198 0
175 198 0
174 197 0
174 197 0
174 198 0
173 197 0
174 198 0
174 197 0
175 198 0
174 197 0
174 197 0
175 198 0
173 197 0
174 197 0
175 198 0
174 198 0
173 197 0
173 197 0
175 198 0
174 198 0
175 198 0
175 198 0
174 197 0
174 197 0
174 198 0
176 198 0
175 197 0
174 198 0
175 198 0
174 198 0
175 198 0
175 198 0
175 198 0
175 198 0
175 198 0
175 198 0
174 197 0
174 198 0
174 197 0
174 197 0
175 198 0
174 197 0
174 197 0
174 197 0
174 197 0
175 198 0
172 196 0
176 199 0
174 197 0
174 197 0
174 198 0
174 197 0
174 197 0
175 198 0
173 197 0
175 198 0
174 198 0
174 197 0
177 199 0
174 197 0
176 199 0
174 198 0
174 197 0
175 198 0
174 198 0
175 198 0
175 198 0
173 197 0
174 198 0
175 198 0
175 198 0
173 197 0
174 198 0
175 198 0
175 198 0
175 198 0
174 197 0
173 197 0
175 198 0
175 198 0
174 197 0
174 198 0
173 197 0
175 198 0
173 197 0
176 199 0
176 199 0
174 198 0
175 198 0
175 198 0
174 197 0
175 198 0
174 198 0
175 198 0
174 198 0
173 197 0
175 198 0
175 198 0
175 198 0
175 198 0
173 197 0
174 198 0
175 198 0
173 196 0
176 199 0
174 198 0
174 198 0
174 198 0
173 197 0
173 197 0
173 197 0
173 197 0
175 198 0
175 198 0
174 197 0
176 199 0
175 198 0
174 198 0
175 198 0
175 198 0
173 197 0
174 198 0
174 198 0
175 198 0
175 198 0
173 197 0
175 198 0
174 197 0
175 198 0
174 197 0
174 198 0
175 198 0
176 199 0
176 198 0
175 198 0
174 198 0
175 198 0
176 199 0
174 198 0
175 198 0
176 198 0
173 197 0
174 197 0
174 197 0
174 198 0
173 197 0
174 198 0
175 198 0
175 198 0
174 198 0
174 198 0
174 198 0
173 197 0
174 198 0
174 197 0
173 197 0
175 198 0
174 198 0
173 197 0
174 198 0
174 198 0
174 198 0
173 197 0
174 198 0
177 199 0
175 198 0
174 198 0
175 198 0
173 197 0
174 197 0
174 197 0
174 198 0
174 198 0
175 198 0
175 198 0
174 197 0
175 198 0
172 196 0
174 198 0
174 198 0
174 198 0
174 198 0
174 197 0
174 197 0
175 198 0
173 197 0
174 198 0
175 198 0
172 196 0
174 197 0
175 198 0
172 196 0
176 199 0
174 197 0
174 198 0
174 198 0
173 196 0
174 198 0
175 198 0
173 197 0
173 197 0
173 197 0
173 197 0
174 198 0
172 195 0
170 194 0
173 196 0
174 197 0
174 198 0
175 198 0
173 196 0
172 196 0
170 195 0
173 196 0
175 198 0
175 198 0
170 194 0
173 197 0
174 198 0
172 195 0
171 196 0
171 195 0
171 195 0
174 197 0
174 197 0
171 195 0
171 194 0
172 196 0
171 195 0
171 195 0
173 197 0
174 197 0
171 195 0
169 193 0
175 198 0
170 194 0
168 191 0
173 196 0
173 196 0
168 191 0
169 193 0
172 196 0
173 197 0
171 195 0
174 197 0
172 196 0
174 197 0
169 193 0
171 196 0
172 196 0
174 196 0
175 197 0
172 194 0
174 195 0
172 194 0
172 193 0
171 192 0
173 193 0
171 191 0
170 191 0
174 194 0
170 190 0
173 194 0
167 188 0
163 184 0
166 188 0
165 187 0
172 195 0
166 188 0
164 187 0
163 186 0
164 186 0
165 186 0
165 187 0
155 178 0
157 180 0
157 179 0
164 186 0
160 183 0
159 181 0
157 180 0
158 180 0
162 185 0
158 181 0
160 183 0
159 182 0
162 186 0
159 182 0
160 184 0
163 186 0
166 189 0
161 184 0
162 184 0
166 189 0
162 186 0
157 181 0
162 185 0
160 183 0
166 189 0
164 188 0
164 186 0
166 190 0
167 191 0
167 190 0
167 190 0
169 193 0
164 187 0
166 189 0
168 190 0
169 192 0
167 188 0
171 194 0
167 190 0
168 191 0
170 193 0
171 193 0
173 194 0
171 195 0
169 192 0
168 190 0
171 192 0
171 194 0
169 191 0
168 192 0
173 195 0
168 192 0
173 194 0
169 191 0
168 190 0
171 194 0
173 195 0
173 196 0
172 195 0
172 196 0
173 196 0
171 194 0
172 195 0
170 193 0
172 195 0
171 193 0
170 193 0
173 195 0
173 197 0
171 193 0
172 196 0
175 197 0
173 195 0
173 196 0
173 197 0
169 193 0
172 195 0
174 196 0
173 195 0
173 196 0
175 198 0
171 195 0
173 196 0
173 197 0
173 197 0
173 197 0
175 198 0
172 196 0
174 197 0
174 197 0
173 196 0
172 196 0
174 197 0
174 197 0
172 196 0
173 196 0
170 193 0
174 196 0
173 195 0
175 198 0
172 197 0
174 198 0
174 197 0
171 195 0
175 198 0
172 195 0
174 198 0
173 197 0
173 196 0
175 197 0
171 194 0
170 194 0
173 197 0
173 196 0
174 197 0
173 197 0
173 197 0
174 197 0
174 196 0
174 198 0
173 197 0
175 198 0
175 198 0
174 197 0
175 197 0
173 197 0
174 198 0
173 197 0
175 198 0
174 198 0
174 198 0
175 198 0
175 197 0
174 198 0
173 196 0
175 198 0
173 197 0
176 199 0
175 198 0
176 198 0
173 197 0
175 198 0
175 198 0
175 198 0
172 196 0
174 198 0
172 196 0
173 197 0
174 197 0
176 199 0
176 198 0
174 198 0
176 198 0
173 197 0
173 197 0
172 196 0
174 198 0
173 197 0
174 198 0
173 197 0
174 198 0
174 198 0
174 198 0
174 197 0
173 197 0
176 198 0
175 198 0
173 197 0
176 199 0
174 198 0
176 199 0
176 199 0
174 198 0
174 198 0
174 197 0
175 198 0
172 197 0
177 199 0
173 197 0
175 198 0
175 198 0
173 197 0
174 198 0
175 198 0
175 198 0
174 198 0
174 198 0
174 197 0
174 198 0
174 197 0
175 198 0
174 198 0
175 198 0
174 197 0
174 198 0
176 198 0
175 198 0
174 198 0
173 197 0
173 197 0
174 198 0
173 197 0
173 197 0
174 198 0
174 198 0
175 198 0
174 197 0
175 198 0
173 197 0
175 198 0
174 197 0
174 198 0
174 197 0
176 198 0
174 197 0
173 197 0
175 198 0
174 198 0
175 198 0
175 198 0
177 199 0
175 198 0
176 199 0
175 198 0
173 197 0
173 197 0
175 198 0
175 198 0
172 197 0
173 197 0
173 197 0
174 198 0
172 197 0
175 198 0
174 197 0
174 198 0
174 198 0
175 198 0
174 197 0
175 198 0
173 197 0
174 198 0
175 198 0
174 197 0
174 198 0
173 197 0
174 197 0
174 198 0
173 197 0
174 198 0
174 197 0
174 197 0
175 198 0
173 197 0
173 197 0
177 199 0
173 197 0
173 197 0
173 196 0
175 198 0
174 198 0
176 198 0
175 198 0
174 198 0
173 197 0
176 198 0
177 199 0
174 197 0
175 198 0
174 198 0
174 198 0
174 197 0
174 197 0
174 198 0
177 199 0
175 198 0
174 198 0
174 198 0
174 197 0
175 198 0
174 197 0
174 197 0
176 199 0
174 197 0
176 199 0
174 198 0
174 198 0
174 197 0
174 197 0
174 197 0
174 198 0
174 197 0
174 197 0
176 198 0
175 198 0
174 197 0
174 198 0
174 198 0
173 197 0
173 197 0
173 197 0
173 197 0
175 198 0
173 197 0
174 197 0
173 197 0
174 197 0
173 197 0
174 197 0
173 197 0
174 198 0
173 196 0
174 197 0
175 198 0
175 198 0
173 196 0
175 198 0
175 198 0
175 198 0
173 197 0
173 197 0
174 198 0
172 196 0
175 198 0
173 197 0
174 197 0
173 197 0
172 196 0
171 195 0
175 198 0
173 197 0
174 198 0
174 196 0
173 197 0
173 197 0
173 196 0
172 195 0
173 197 0
175 197 0
174 197 0
173 196 0
172 195 0
175 198 0
173 197 0
174 197 0
172 196 0
172 195 0
173 196 0
170 194 0
172 196 0
173 196 0
171 195 0
172 196 0
172 196 0
173 197 0
173 196 0
173 196 0
171 195 0
173 196 0
175 197 0
173 196 0
170 193 0
173 196 0
169 193 0
171 195 0
170 194 0
172 195 0
173 196 0
172 196 0
175 198 0
176 199 0
172 195 0
173 197 0
173 196 0
172 195 0
171 193 0
176 198 0
170 193 0
174 195 0
170 192 0
173 195 0
171 192 0
175 195 0
175 197 0
174 195 0
170 191 0
170 190 0
170 192 0
172 193 0
169 191 0
173 195 0
168 190 0
168 191 0
170 193 0
162 185 0
166 190 0
160 183 0
165 186 0
162 184 0
158 181 0
165 189 0
157 180 0
161 184 0
162 185 0
158 180 0
158 181 0
164 187 0
166 189 0
159 181 0
162 184 0
154 176 0
164 188 0
160 184 0
165 186 0
162 184 0
159 181 0
160 183 0
165 187 0
165 188 0
164 188 0
168 192 0
164 187 0
163 186 0
169 191 0
160 182 0
163 186 0
164 188 0
168 190 0
166 189 0
163 188 0
169 191 0
170 193 0
168 191 0
169 192 0
168 190 0
166 190 0
167 191 0
168 190 0
167 189 0
168 191 0
166 188 0
170 194 0
166 189 0
170 193 0
169 191 0
174 196 0
173 195 0
169 192 0
168 191 0
170 193 0
170 193 0
170 193 0
169 192 0
170 193 0
172 195 0
174 197 0
170 194 0
173 196 0
173 196 0
174 197 0
173 195 0
172 196 0
171 193 0
173 196 0
173 196 0
172 195 0
170 192 0
172 195 0
171 195 0
171 195 0
171 194 0
173 196 0
174 196 0
172 195 0
174 196 0
172 195 0
175 198 0
173 196 0
174 197 0
174 197 0
173 197 0
172 196 0
171 194 0
173 197 0
174 196 0
174 196 0
172 196 0
172 196 0
174 197 0
174 197 0
174 198 0
173 197 0
173 195 0
175 198 0
172 195 0
174 198 0
174 198 0
173 196 0
174 197 0
174 197 0
174 198 0
174 197 0
172 195 0
172 196 0
173 197 0
173 196 0
172 196 0
174 197 0
173 196 0
174 197 0
173 196 0
175 198 0
172 196 0
174 197 0
175 198 0
174 198 0
174 197 0
176 198 0
174 197 0
174 197 0
175 198 0
173 196 0
175 198 0
174 197 0
173 197 0
174 197 0
173 197 0
173 197 0
174 197 0
173 197 0
174 197 0
175 198 0
175 198 0
174 198 0
173 197 0
173 196 0
173 196 0
175 198 0
174 198 0
172 196 0
173 197 0
175 198 0
173 197 0
174 197 0
173 197 0
174 198 0
173 197 0
174 198 0
174 197 0
174 197 0
174 197 0
173 197 0
174 198 0
174 197 0
174 197 0
176 198 0
173 197 0
173 197 0
175 198 0
175 198 0
174 198 0
175 198 0
175 198 0
174 197 0
173 197 0
175 198 0
175 198 0
174 197 0
173 197 0
175 198 0
175 198 0
174 197 0
174 198 0
175 198 0
175 198 0
173 197 0
173 197 0
174 198 0
174 198 0
175 198 0
175 198 0
176 199 0
174 198 0
175 198 0
174 197 0
175 198 0
174 198 0
175 198 0
176 198 0
173 197 0
174 197 0
176 199 0
175 198 0
175 198 0
174 198 0
174 198 0
175 198 0
172 197 0
175 198 0
173 197 0
174 198 0
172 197 0
173 197 0
174 198 0
174 198 0
174 198 0
174 198 0
173 197 0
175 198 0
174 198 0
174 198 0
174 197 0
175 198 0
174 198 0
175 198 0
174 198 0
174 198 0
173 197 0
174 198 0
174 198 0
176 198 0
176 198 0
173 197 0
176 198 0
175 198 0
175 198 0
174 198 0
174 198 0
173 197 0
174 197 0
174 198 0
174 198 0
175 198 0
172 196 0
174 198 0
174 197 0
174 197 0
174 198 0
173 197 0
175 198 0
176 198 0
175 198 0
174 198 0
174 198 0
176 199 0
174 197 0
174 197 0
174 198 0
174 198 0
174 197 0
176 199 0
176 199 0
175 198 0
173 197 0
175 198 0
173 197 0
174 197 0
175 198 0
174 197 0
176 199 0
174 197 0
173 197 0
174 198 0
174 198 0
175 198 0
174 197 0
174 197 0
174 198 0
175 198 0
175 198 0
173 197 0
175 198 0
173 197 0
174 198 0
173 197 0
174 197 0
176 198 0
176 199 0
174 197 0
174 198 0
175 198 0
172 196 0
173 196 0
173 197 0
174 198 0
173 197 0
174 198 0
176 199 0
173 197 0
175 198 0
174 198 0
175 198 0
175 198 0
173 197 0
173 197 0
173 197 0
174 198 0
174 198 0
175 198 0
173 197 0
175 197 0
175 198 0
174 198 0
173 197 0
173 197 0
175 198 0
175 198 0
174 198 0
173 197 0
173 197 0
173 197 0
175 198 0
173 197 0
174 198 0
176 199 0
175 198 0
174 197 0
172 196 0
174 196 0
174 197 0
175 198 0
174 197 0
171 195 0
173 197 0
174 197 0
172 196 0
174 197 0
173 197 0
174 198 0
175 198 0
173 196 0
173 196 0
173 197 0
175 198 0
173 196 0
172 196 0
173 197 0
174 198 0
172 195 0
172 196 0
173 196 0
174 197 0
173 197 0
171 195 0
173 197 0
172 196 0
172 196 0
172 197 0
173 196 0
174 196 0
171 194 0
172 196 0
172 195 0
167 192 0
173 197 0
173 196 0
168 192 0
171 195 0
169 192 0
171 194 0
172 195 0
172 195 0
170 193 0
172 195 0
171 194 0
171 194 0
170 194 0
175 197 0
172 196 0
172 195 0
170 194 0
171 195 0
174 197 0
170 194 0
172 195 0
172 195 0
174 197 0
173 195 0
171 192 0
172 194 0
178 199 0
174 194 0
174 195 0
174 195 0
169 190 0
174 195 0
170 191 0
170 191 0
171 193 0
172 195 0
170 194 0
167 190 0
168 190 0
173 196 0
168 191 0
169 192 0
164 186 0
159 181 0
162 185 0
166 188 0
161 183 0
161 184 0
162 184 0
161 184 0
160 182 0
165 187 0
163 186 0
163 186 0
160 183 0
164 186 0
151 175 0
166 189 0
160 183 0
163 187 0
168 191 0
164 187 0
164 187 0
166 189 0
164 187 0
164 187 0
165 188 0
162 186 0
163 185 0
167 190 0
167 191 0
166 189 0
166 189 0
167 190 0
168 192 0
166 190 0
168 191 0
166 189 0
166 189 0
165 188 0
168 192 0
171 193 0
166 189 0
166 189 0
172 194 0
170 193 0
167 190 0
169 192 0
170 193 0
168 192 0
170 193 0
166 189 0
171 195 0
167 190 0
171 193 0
170 193 0
164 187 0
172 195 0
172 195 0
171 193 0
171 194 0
167 190 0
171 194 0
172 195 0
172 195 0
171 195 0
171 194 0
171 194 0
172 195 0
174 197 0
171 194 0
173 196 0
173 197 0
173 196 0
172 196 0
172 196 0
173 196 0
172 196 0
171 195 0
174 196 0
172 196 0
174 197 0
172 195 0
171 194 0
171 195 0
173 197 0
174 197 0
173 196 0
174 197 0
173 196 0
172 196 0
172 196 0
174 196 0
174 196 0
172 196 0
174 198 0
173 196 0
173 197 0
174 197 0
174 197 0
174 197 0
173 196 0
173 197 0
174 197 0
173 196 0
174 197 0
174 197 0
176 198 0
173 196 0
173 197 0
174 198 0
174 198 0
172 195 0
174 197 0
175 198 0
174 197 0
173 196 0
173 196 0
174 198 0
172 196 0
175 198 0
174 198 0
174 197 0
173 196 0
174 198 0
174 197 0
174 198 0
174 198 0
172 196 0
172 196 0
174 198 0
176 198 0
174 198 0
173 197 0
174 198 0
174 197 0
175 198 0
173 197 0
174 197 0
174 197 0
173 196 0
175 198 0
174 197 0
174 198 0
174 197 0
174 198 0
173 197 0
174 197 0
175 198 0
173 197 0
173 197 0
174 198 0
174 198 0
174 197 0
174 198 0
173 197 0
175 198 0
174 198 0
174 197 0
173 196 0
174 197 0
174 198 0
175 198 0
175 198 0
174 197 0
174 198 0
174 197 0
174 198 0
175 198 0
172 197 0
176 199 0
175 198 0
173 197 0
175 198 0
174 198 0
175 198 0
176 199 0
175 198 0
176 198 0
175 198 0
174 197 0
174 198 0
175 198 0
175 198 0
176 198 0
175 198 0
174 197 0
173 197 0
175 198 0
176 199 0
174 197 0
175 198 0
175 198 0
176 199 0
173 197 0
173 197 0
173 197 0
176 198 0
174 197 0
173 197 0
175 198 0
174 198 0
173 197 0
174 197 0
174 198 0
175 198 0
176 198 0
175 198 0
173 197 0
172 196 0
174 197 0
174 198 0
175 198 0
174 198 0
174 197 0
175 198 0
175 198 0
175 198 0
175 198 0
174 197 0
174 198 0
174 198 0
174 198 0
174 197 0
176 198 0
174 198 0
174 198 0
175 198 0
175 198 0
175 198 0
175 198 0
176 199 0
173 197 0
175 198 0
174 198 0
174 197 0
175 198 0
175 198 0
174 198 0
174 197 0
174 198 0
174 198 0
174 198 0
173 197 0
174 198 0
176 199 0
176 199 0
175 198 0
175 198 0
173 197 0
175 198 0
177 199 0
174 198 0
174 198 0
173 197 0
173 197 0
176 198 0
175 198 0
175 198 0
175 198 0
173 197 0
173 197 0
174 198 0
175 198 0
175 198 0
174 198 0
175 198 0
174 198 0
174 198 0
173 197 0
175 198 0
174 198 0
174 198 0
174 198 0
175 198 0
175 198 0
174 197 0
172 197 0
175 198 0
174 198 0
175 198 0
175 198 0
173 197 0
174 198 0
174 197 0
173 197 0
173 197 0
174 197 0
174 197 0
173 197 0
173 196 0
175 198 0
174 198 0
172 196 0
174 198 0
173 197 0
174 197 0
173 197 0
175 198 0
174 198 0
174 198 0
175 198 0
174 197 0
173 197 0
174 197 0
173 197 0
175 198 0
173 197 0
175 198 0
174 197 0
174 197 0
172 196 0
172 196 0
174 198 0
175 198 0
175 198 0
174 197 0
173 197 0
175 198 0
173 196 0
175 198 0
175 198 0
175 197 0
173 197 0
173 197 0
175 198 0
173 197 0
173 197 0
173 197 0
172 196 0
174 197 0
174 198 0
174 198 0
175 198 0
172 196 0
174 197 0
174 197 0
174 197 0
174 197 0
172 196 0
175 198 0
173 197 0
173 196 0
171 195 0
172 196 0
174 198 0
173 196 0
173 196 0
173 197 0
173 197 0
173 196 0
171 195 0
173 197 0
174 198 0
172 196 0
173 196 0
173 197 0
172 195 0
174 196 0
172 196 0
173 197 0
170 194 0
173 197 0
173 196 0
176 198 0
170 194 0
169 193 0
173 197 0
171 195 0
173 196 0
172 195 0
171 195 0
169 193 0
172 196 0
173 196 0
173 196 0
174 197 0
171 195 0
173 196 0
174 197 0
175 198 0
174 198 0
171 195 0
168 190 0
176 198 0
173 196 0
171 193 0
174 196 0
168 190 0
176 198 0
172 194 0
168 190 0
174 196 0
174 196 0
174 197 0
167 189 0
170 192 0
168 191 0
165 188 0
172 194 0
164 186 0
161 183 0
165 185 0
165 186 0
161 184 0
164 187 0
165 187 0
165 187 0
164 187 0
170 193 0
162 186 0
161 183 0
162 186 0
163 186 0
161 183 0
165 187 0
164 188 0
166 188 0
163 186 0
163 186 0
165 188 0
160 183 0
163 186 0
166 190 0
163 187 0
163 186 0
165 188 0
172 195 0
166 189 0
168 191 0
163 186 0
163 185 0
165 187 0
164 187 0
168 191 0
163 186 0
165 188 0
164 188 0
165 189 0
166 189 0
168 191 0
168 191 0
167 189 0
166 189 0
166 189 0
168 191 0
170 193 0
164 187 0
171 193 0
172 194 0
169 192 0
168 191 0
169 192 0
169 193 0
170 193 0
170 192 0
169 192 0
170 194 0
171 194 0
174 197 0
170 192 0
171 192 0
169 192 0
171 195 0
173 197 0
173 196 0
172 196 0
171 194 0
173 196 0
168 192 0
174 197 0
174 196 0
172 195 0
173 196 0
172 193 0
173 195 0
171 194 0
172 196 0
173 196 0
173 196 0
172 194 0
174 197 0
174 196 0
172 196 0
175 198 0
172 195 0
174 196 0
172 195 0
172 196 0
171 195 0
176 198 0
174 197 0
173 196 0
173 197 0
174 196 0
172 195 0
174 197 0
172 197 0
173 197 0
172 196 0
175 197 0
174 197 0
174 196 0
174 198 0
175 197 0
174 196 0
174 197 0
174 197 0
176 199 0
173 197 0
176 199 0
172 196 0
174 197 0
173 196 0
176 199 0
173 196 0
173 196 0
174 198 0
175 198 0
173 197 0
175 198 0
175 198 0
174 197 0
174 197 0
175 198 0
174 197 0
174 198 0
175 197 0
176 199 0
174 198 0
175 198 0
173 197 0
175 198 0
174 197 0
175 198 0
175 198 0
174 198 0
175 198 0
174 197 0
173 197 0
175 198 0
173 197 0
176 198 0
173 197 0
175 198 0
175 198 0
174 198 0
174 197 0
172 196 0
173 197 0
174 198 0
174 198 0
176 198 0
173 197 0
174 198 0
175 198 0
172 197 0
174 198 0
173 197 0
174 198 0
175 198 0
175 198 0
174 198 0
175 198 0
174 198 0
174 198 0
175 198 0
174 198 0
174 197 0
173 197 0
174 198 0
175 198 0
174 198 0
173 197 0
174 198 0
174 197 0
176 198 0
174 198 0
175 198 0
174 198 0
175 198 0
174 198 0
174 198 0
173 197 0
174 197 0
177 199 0
175 198 0
175 198 0
173 197 0
174 198 0
174 197 0
175 198 0
174 198 0
174 198 0
175 198 0
175 198 0
175 198 0
175 198 0
173 197 0
177 199 0
174 198 0
174 198 0
175 198 0
174 197 0
176 198 0
174 198 0
173 197 0
174 198 0
175 198 0
176 199 0
175 198 0
174 198 0
173 197 0
175 198 0
175 198 0
174 197 0
172 196 0
174 198 0
172 197 0
173 197 0
174 197 0
174 198 0
175 198 0
175 198 0
175 198 0
173 197 0
177 199 0
173 197 0
174 198 0
174 198 0
175 198 0
174 198 0
175 198 0
174 198 0
174 197 0
175 198 0
173 197 0
174 198 0
175 198 0
174 198 0
173 197 0
175 198 0
173 197 0
174 197 0
172 197 0
175 198 0
174 197 0
174 198 0
173 197 0
175 198 0
175 198 0
175 198 0
173 197 0
176 199 0
174 197 0
174 198 0
173 197 0
175 198 0
174 197 0
174 197 0
173 197 0
174 198 0
174 198 0
175 198 0
173 197 0
175 198 0
174 198 0
174 198 0
174 197 0
172 196 0
174 198 0
174 198 0
173 197 0
174 198 0
175 198 0
174 197 0
174 197 0
175 198 0
172 196 0
175 198 0
174 197 0
175 198 0
176 199 0
174 198 0
175 198 0
176 199 0
173 197 0
172 196 0
174 197 0
175 198 0
174 198 0
173 197 0
175 198 0
176 199 0
173 197 0
173 196 0
173 197 0
176 198 0
175 198 0
173 197 0
173 197 0
174 197 0
173 197 0
174 198 0
176 198 0
173 197 0
175 198 0
173 197 0
173 197 0
173 197 0
172 196 0
173 196 0
174 198 0
174 198 0
173 197 0
175 198 0
173 196 0
175 198 0
175 198 0
175 198 0
174 198 0
176 199 0
174 197 0
176 198 0
175 198 0
174 197 0
175 198 0
174 198 0
174 197 0
174 197 0
173 196 0
174 197 0
174 197 0
174 197 0
172 196 0
174 197 0
176 199 0
173 197 0
173 196 0
174 198 0
173 197 0
175 198 0
174 197 0
174 197 0
171 195 0
175 198 0
172 196 0
173 196 0
174 198 0
173 197 0
175 198 0
176 198 0
173 196 0
173 197 0
173 197 0
172 196 0
172 196 0
173 196 0
175 198 0
174 197 0
174 197 0
173 197 0
170 194 0
171 195 0
171 194 0
172 196 0
175 198 0
176 198 0
171 194 0
172 195 0
173 196 0
173 196 0
168 192 0
171 195 0
174 197 0
173 196 0
172 195 0
171 195 0
171 195 0
172 195 0
173 196 0
173 196 0
174 197 0
174 197 0
174 197 0
171 195 0
172 196 0
171 194 0
170 193 0
171 195 0
170 193 0
172 194 0
173 196 0
172 195 0
171 194 0
168 191 0
169 193 0
169 191 0
172 195 0
165 187 0
161 183 0
167 189 0
167 190 0
166 188 0
162 184 0
167 190 0
163 185 0
162 185 0
164 187 0
160 184 0
168 191 0
168 191 0
166 189 0
168 190 0
161 185 0
166 189 0
167 189 0
159 182 0
166 190 0
162 186 0
165 187 0
163 186 0
169 192 0
159 183 0
163 186 0
171 194 0
166 190 0
167 190 0
167 191 0
164 188 0
165 189 0
167 191 0
171 194 0
168 192 0
170 193 0
168 190 0
165 187 0
168 191 0
170 192 0
170 193 0
171 194 0
169 193 0
169 192 0
166 189 0
169 193 0
164 188 0
171 194 0
167 190 0
166 189 0
170 192 0
171 193 0
168 191 0
171 195 0
172 196 0
168 192 0
171 194 0
167 191 0
172 195 0
170 193 0
170 193 0
169 193 0
172 195 0
169 193 0
172 196 0
172 195 0
172 195 0
171 193 0
173 196 0
172 194 0
169 192 0
173 195 0
172 195 0
173 196 0
169 192 0
173 195 0
174 197 0
173 195 0
173 196 0
174 197 0
171 194 0
171 195 0
173 197 0
171 195 0
174 197 0
172 195 0
173 196 0
174 198 0
172 196 0
172 195 0
175 197 0
175 198 0
173 196 0
174 197 0
173 197 0
174 197 0
173 196 0
173 196 0
175 198 0
176 199 0
172 196 0
174 198 0
174 197 0
175 198 0
173 197 0
174 197 0
173 197 0
172 196 0
173 196 0
173 197 0
174 197 0
174 197 0
171 195 0
172 196 0
174 197 0
175 198 0
175 198 0
174 198 0
174 197 0
174 197 0
173 196 0
172 195 0
174 197 0
173 197 0
175 197 0
174 198 0
174 198 0
175 198 0
173 196 0
175 198 0
174 197 0
173 197 0
173 197 0
172 196 0
175 198 0
175 198 0
173 196 0
174 197 0
174 197 0
174 198 0
174 197 0
174 197 0
173 197 0
173 196 0
173 197 0
175 198 0
174 197 0
174 198 0
174 198 0
175 198 0
174 197 0
175 198 0
176 199 0
174 197 0
176 199 0
174 198 0
173 197 0
174 197 0
175 198 0
173 197 0
172 197 0
174 197 0
175 198 0
173 197 0
174 198 0
174 197 0
173 197 0
175 198 0
173 197 0
174 198 0
175 198 0
175 198 0
175 198 0
175 198 0
174 197 0
173 197 0
174 198 0
175 198 0
174 198 0
176 198 0
174 198 0
174 198 0
172 197 0
174 198 0
175 198 0
175 198 0
173 197 0
175 198 0
174 198 0
173 197 0
173 197 0
173 197 0
176 199 0
177 199 0
175 198 0
173 197 0
174 198 0
175 198 0
174 197 0
174 198 0
174 198 0
176 199 0
173 197 0
176 198 0
175 198 0
174 198 0
175 198 0
176 199 0
175 198 0
174 198 0
176 199 0
175 198 0
171 196 0
175 198 0
172 197 0
175 198 0
176 199 0
174 198 0
174 198 0
174 198 0
173 197 0
173 197 0
175 198 0
174 198 0
175 198 0
175 198 0
174 197 0
174 198 0
175 198 0
174 198 0
174 198 0
174 198 0
174 197 0
175 198 0
175 198 0
176 199 0
174 197 0
175 198 0
174 198 0
174 198 0
175 198 0
175 198 0
174 198 0
177 199 0
176 199 0
173 197 0
174 197 0
174 198 0
174 198 0
173 197 0
174 197 0
175 198 0
175 198 0
174 197 0
175 198 0
175 198 0
174 197 0
174 197 0
173 197 0
175 198 0
175 198 0
175 198 0
173 197 0
174 198 0
172 196 0
174 198 0
173 197 0
175 198 0
175 198 0
173 197 0
173 196 0
174 198 0
172 197 0
177 199 0
173 197 0
173 197 0
174 198 0
177 199 0
175 198 0
174 198 0
173 197 0
174 197 0
174 197 0
173 197 0
174 197 0
172 196 0
175 198 0
172 196 0
175 198 0
175 198 0
174 197 0
174 198 0
173 197 0
175 198 0
174 198 0
176 198 0
174 197 0
174 197 0
173 196 0
174 198 0
175 198 0
173 197 0
173 197 0
174 198 0
175 198 0
172 196 0
173 197 0
174 198 0
174 198 0
173 197 0
175 198 0
173 197 0
174 197 0
175 198 0
174 197 0
174 198 0
173 197 0
175 198 0
171 195 0
173 197 0
174 197 0
174 197 0
173 197 0
173 197 0
175 198 0
173 197 0
174 198 0
174 197 0
174 198 0
174 198 0
174 197 0
173 197 0
174 197 0
174 197 0
174 197 0
173 197 0
173 196 0
173 197 0
173 196 0
173 196 0
175 198 0
173 196 0
176 199 0
175 198 0
173 196 0
173 197 0
173 197 0
174 197 0
173 196 0
175 198 0
174 198 0
174 197 0
174 197 0
173 196 0
174 197 0
173 196 0
171 195 0
174 198 0
172 195 0
174 197 0
171 194 0
172 196 0
173 197 0
171 196 0
174 197 0
171 195 0
172 196 0
167 191 0
170 193 0
172 195 0
172 196 0
173 196 0
173 196 0
172 194 0
173 196 0
173 196 0
171 194 0
173 196 0
171 193 0
173 195 0
172 196 0
173 195 0
174 197 0
171 194 0
175 198 0
173 196 0
172 195 0
171 194 0
173 196 0
171 194 0
172 196 0
171 195 0
172 195 0
174 197 0
172 195 0
174 196 0
174 196 0
168 190 0
173 195 0
171 192 0
166 188 0
169 190 0
172 193 0
164 186 0
165 189 0
166 188 0
165 188 0
163 185 0
162 185 0
167 190 0
158 181 0
157 180 0
162 185 0
167 189 0
165 188 0
167 190 0
163 186 0
165 189 0
161 184 0
170 193 0
169 192 0
168 191 0
168 191 0
165 189 0
167 191 0
167 190 0
165 189 0
162 184 0
171 194 0
165 188 0
164 187 0
168 191 0
169 192 0
168 191 0
163 188 0
167 190 0
168 192 0
165 188 0
171 194 0
169 193 0
169 191 0
170 192 0
169 192 0
168 191 0
169 192 0
171 195 0
171 194 0
166 190 0
169 190 0
172 196 0
170 192 0
167 190 0
169 191 0
173 196 0
171 195 0
172 195 0
170 193 0
171 195 0
170 193 0
172 196 0
170 194 0
168 191 0
170 194 0
169 193 0
173 196 0
172 195 0
173 196 0
172 195 0
171 194 0
170 194 0
171 194 0
171 194 0
170 193 0
175 198 0
173 196 0
170 194 0
170 193 0
173 196 0
173 196 0
173 195 0
171 195 0
172 196 0
172 196 0
173 197 0
172 196 0
174 197 0
174 198 0
174 198 0
174 196 0
174 197 0
176 198 0
173 196 0
175 198 0
173 195 0
172 196 0
172 196 0
174 197 0
173 197 0
174 198 0
173 197 0
172 196 0
173 196 0
173 197 0
175 198 0
174 198 0
173 196 0
172 196 0
171 196 0
175 198 0
174 197 0
174 197 0
175 198 0
175 198 0
173 196 0
175 198 0
175 198 0
174 197 0
177 199 0
175 198 0
174 197 0
174 198 0
175 198 0
174 197 0
175 198 0
174 198 0
174 197 0
174 197 0
175 198 0
175 198 0
174 197 0
173 197 0
175 198 0
174 197 0
176 199 0
175 198 0
174 198 0
175 198 0
176 198 0
175 198 0
173 197 0
174 197 0
173 197 0
175 198 0
176 199 0
174 198 0
174 197 0
174 198 0
174 197 0
173 197 0
173 197 0
173 196 0
175 198 0
174 198 0
174 197 0
174 197 0
175 198 0
174 197 0
173 197 0
174 197 0
174 197 0
174 198 0
175 198 0
174 198 0
174 197 0
174 198 0
173 197 0
172 197 0
176 198 0
173 197 0
174 198 0
173 197 0
175 198 0
176 199 0
176 198 0
174 197 0
174 198 0
175 198 0
174 197 0
174 198 0
173 197 0
174 197 0
174 197 0
174 197 0
174 198 0
172 197 0
173 197 0
174 198 0
174 198 0
175 198 0
174 198 0
175 198 0
175 198 0
173 197 0
175 198 0
175 198 0
174 197 0
174 198 0
175 198 0
175 198 0
174 198 0
174 198 0
175 198 0
175 198 0
174 198 0
175 198 0
175 198 0
175 198 0
175 198 0
175 198 0
174 198 0
175 198 0
175 198 0
174 198 0
173 197 0
175 198 0
174 198 0
174 198 0
174 198 0
175 198 0
175 198 0
174 197 0
174 198 0
173 197 0
175 198 0
173 197 0
173 197 0
175 198 0
175 198 0
175 198 0
175 198 0
175 198 0
175 198 0
174 198 0
174 198 0
173 197 0
175 198 0
174 198 0
175 198 0
174 197 0
172 197 0
174 197 0
175 198 0
176 199 0
175 198 0
174 198 0
173 197 0
174 198 0
175 198 0
174 198 0
174 197 0
175 198 0
174 197 0
173 197 0
173 197 0
174 197 0
174 197 0
174 197 0
174 197 0
175 197 0
175 197 0
175 198 0
174 198 0
174 197 0
175 198 0
174 197 0
175 198 0
172 196 0
174 198 0
175 198 0
175 198 0
176 198 0
173 197 0
175 198 0
174 198 0
174 198 0
173 197 0
173 197 0
173 197 0
175 198 0
175 198 0
174 198 0
175 198 0
175 198 0
175 198 0
175 198 0
175 198 0
174 197 0
174 197 0
173 197 0
175 198 0
174 198 0
174 198 0
175 198 0
175 198 0
174 198 0
175 198 0
174 198 0
172 196 0
175 198 0
175 198 0
176 199 0
175 198 0
173 197 0
174 197 0
176 198 0
175 198 0
176 198 0
172 197 0
176 198 0
175 198 0
173 196 0
174 198 0
174 198 0
174 198 0
172 196 0
173 197 0
174 197 0
175 198 0
172 196 0
175 198 0
175 198 0
173 197 0
173 197 0
173 196 0
176 199 0
174 197 0
176 199 0
174 198 0
175 198 0
174 198 0
174 198 0
174 198 0
174 197 0
174 198 0
174 198 0
172 196 0
175 198 0
173 197 0
175 198 0
175 198 0
173 197 0
174 198 0
172 196 0
173 196 0
174 197 0
173 197 0
174 198 0
173 196 0
171 195 0
171 196 0
174 197 0
173 197 0
172 196 0
172 196 0
172 196 0
174 197 0
170 194 0
174 197 0
172 196 0
174 198 0
174 197 0
169 192 0
173 196 0
171 195 0
173 197 0
173 197 0
172 195 0
171 195 0
172 196 0
173 196 0
170 193 0
171 194 0
170 194 0
173 197 0
170 193 0
171 194 0
171 194 0
173 196 0
171 194 0
172 194 0
173 195 0
173 196 0
175 198 0
173 195 0
172 194 0
175 197 0
174 196 0
171 193 0
173 196 0
172 195 0
172 194 0
176 198 0
174 196 0
173 196 0
175 198 0
175 197 0
173 195 0
173 194 0
171 192 0
170 193 0
168 189 0
169 191 0
169 191 0
171 193 0
170 192 0
170 193 0
169 191 0
167 190 0
170 193 0
165 187 0
164 187 0
164 188 0
166 190 0
160 184 0
164 187 0
166 190 0
167 191 0
168 191 0
166 188 0
170 194 0
162 185 0
165 189 0
166 189 0
163 185 0
170 193 0
166 189 0
165 188 0
170 194 0
169 192 0
165 189 0
163 186 0
168 192 0
169 192 0
167 190 0
166 188 0
167 190 0
166 190 0
169 192 0
166 190 0
170 192 0
172 194 0
168 192 0
169 193 0
169 193 0
169 191 0
169 192 0
166 188 0
172 195 0
174 197 0
168 191 0
170 193 0
171 195 0
172 195 0
170 192 0
172 195 0
170 194 0
172 194 0
169 192 0
171 194 0
169 192 0
171 194 0
168 191 0
171 195 0
171 194 0
173 195 0
172 195 0
169 193 0
171 195 0
170 194 0
173 195 0
173 196 0
171 194 0
171 194 0
174 198 0
172 195 0
173 197 0
175 198 0
173 197 0
174 197 0
173 196 0
172 196 0
173 195 0
173 196 0
173 197 0
172 196 0
173 196 0
170 194 0
172 196 0
172 196 0
173 197 0
174 197 0
172 195 0
173 196 0
172 195 0
171 195 0
173 197 0
173 196 0
175 197 0
174 197 0
174 197 0
174 197 0
174 197 0
175 198 0
172 196 0
174 197 0
173 197 0
174 197 0
172 195 0
175 198 0
174 197 0
174 196 0
175 198 0
174 197 0
173 197 0
174 197 0
170 194 0
172 196 0
174 197 0
175 198 0
173 197 0
174 198 0
173 197 0
175 198 0
173 197 0
173 197 0
175 198 0
172 196 0
174 198 0
174 198 0
174 197 0
173 197 0
175 198 0
174 197 0
174 198 0
174 197 0
174 198 0
175 198 0
173 197 0
176 199 0
174 197 0
174 198 0
172 196 0
174 198 0
174 197 0
173 197 0
174 197 0
175 198 0
175 198 0
174 198 0
174 198 0
173 197 0
173 197 0
173 197 0
176 198 0
174 198 0
173 197 0
172 197 0
175 198 0
173 197 0
175 198 0
173 197 0
176 198 0
176 198 0
174 197 0
174 198 0
174 197 0
175 198 0
174 198 0
175 198 0
175 198 0
175 198 0
176 199 0
175 198 0
175 198 0
174 197 0
174 197 0
175 198 0
175 198 0
174 197 0
175 198 0
174 198 0
174 197 0
174 197 0
174 198 0
175 198 0
175 197 0
174 198 0
175 198 0
175 198 0
173 197 0
176 198 0
174 198 0
175 198 0
175 198 0
174 198 0
175 198 0
174 198 0
174 198 0
174 198 0
175 198 0
175 198 0
175 198 0
173 197 0
174 198 0
174 198 0
176 199 0
174 198 0
175 198 0
174 198 0
173 197 0
176 199 0
174 198 0
176 198 0
174 197 0
173 197 0
175 198 0
174 197 0
176 199 0
175 198 0
173 197 0
174 197 0
177 199 0
174 198 0
175 198 0
175 198 0
175 198 0
174 198 0
175 198 0
176 199 0
174 198 0
174 197 0
175 197 0
174 198 0
174 198 0
174 198 0
174 198 0
173 197 0
175 198 0
175 198 0
175 198 0
173 197 0
174 198 0
176 199 0
174 197 0
177 199 0
174 198 0
174 198 0
175 198 0
174 198 0
174 198 0
172 197 0
174 198 0
174 198 0
176 198 0
174 197 0
174 198 0
174 198 0
173 197 0
173 197 0
174 198 0
174 197 0
174 198 0
174 198 0
174 198 0
173 197 0
173 197 0
176 198 0
176 198 0
174 197 0
175 198 0
173 197 0
174 198 0
175 198 0
174 198 0
173 197 0
175 198 0
174 198 0
174 197 0
175 198 0
176 199 0
175 198 0
175 198 0
173 197 0
175 198 0
173 196 0
174 197 0
174 198 0
174 197 0
174 197 0
175 198 0
174 198 0
173 197 0
175 198 0
175 198 0
174 198 0
173 197 0
173 197 0
176 198 0
175 198 0
174 198 0
175 198 0
175 198 0
172 196 0
175 198 0
174 198 0
175 198 0
174 197 0
175 198 0
172 196 0
173 197 0
173 197 0
176 199 0
175 198 0
172 196 0
174 198 0
174 198 0
173 197 0
175 198 0
173 197 0
176 199 0
175 198 0
175 198 0
173 196 0
174 197 0
175 198 0
174 197 0
174 198 0
173 197 0
174 198 0
174 197 0
176 199 0
174 197 0
175 198 0
173 197 0
172 196 0
173 197 0
173 197 0
174 198 0
176 198 0
174 198 0
177 199 0
175 198 0
173 197 0
173 197 0
173 197 0
173 196 0
174 197 0
172 195 0
172 196 0
172 196 0
172 196 0
174 198 0
173 196 0
173 196 0
174 197 0
175 198 0
172 196 0
175 198 0
174 197 0
172 196 0
171 195 0
169 193 0
174 197 0
172 195 0
172 196 0
175 198 0
173 195 0
172 195 0
175 198 0
172 196 0
172 196 0
173 196 0
174 197 0
170 194 0
170 194 0
172 196 0
171 194 0
174 197 0
175 197 0
171 195 0
176 197 0
172 194 0
176 197 0
174 196 0
173 194 0
174 195 0
169 192 0
176 198 0
174 196 0
171 192 0
174 196 0
169 192 0
174 195 0
173 195 0
171 192 0
175 196 0
164 186 0
169 191 0
172 194 0
166 188 0
169 191 0
172 195 0
171 193 0
167 190 0
165 188 0
166 189 0
163 186 0
164 186 0
172 195 0
165 188 0
169 191 0
167 190 0
167 190 0
163 185 0
165 189 0
161 184 0
169 192 0
163 187 0
169 192 0
170 193 0
163 186 0
170 193 0
161 184 0
165 188 0
165 188 0
166 190 0
166 189 0
169 193 0
170 193 0
165 188 0
165 188 0
167 191 0
164 187 0
169 192 0
169 190 0
169 192 0
173 194 0
168 191 0
168 191 0
169 192 0
168 191 0
173 195 0
172 196 0
171 195 0
170 193 0
169 191 0
169 193 0
171 193 0
173 197 0
170 194 0
170 192 0
171 194 0
171 194 0
171 194 0
173 196 0
168 191 0
173 195 0
173 196 0
169 192 0
169 193 0
173 196 0
172 195 0
170 194 0
172 196 0
172 195 0
170 192 0
172 195 0
173 196 0
172 195 0
172 195 0
170 193 0
172 195 0
171 193 0
172 194 0
171 195 0
173 196 0
173 196 0
173 196 0
172 195 0
172 195 0
173 196 0
173 196 0
173 196 0
172 195 0
173 196 0
172 196 0
172 196 0
170 194 0
175 198 0
172 196 0
172 196 0
174 197 0
175 197 0
175 198 0
174 197 0
173 196 0
175 198 0
172 196 0
174 197 0
173 196 0
173 197 0
172 195 0
173 197 0
172 196 0
174 197 0
174 198 0
172 195 0
172 196 0
174 198 0
173 195 0
174 197 0
174 197 0
175 198 0
174 196 0
175 197 0
175 197 0
173 196 0
174 197 0
172 197 0
174 198 0
174 197 0
176 199 0
173 196 0
175 198 0
175 198 0
172 196 0
174 197 0
174 197 0
175 198 0
174 197 0
175 198 0
176 199 0
174 197 0
174 197 0
173 197 0
174 197 0
174 197 0
174 197 0
174 197 0
174 197 0
175 198 0
175 198 0
174 198 0
174 197 0
173 197 0
174 197 0
175 198 0
174 197 0
174 198 0
175 198 0
174 198 0
173 197 0
174 197 0
173 196 0
173 197 0
174 198 0
176 198 0
176 199 0
173 197 0
175 198 0
175 198 0
175 198 0
174 198 0
174 198 0
175 198 0
175 198 0
174 197 0
174 198 0
173 197 0
173 197 0
174 198 0
173 197 0
175 198 0
176 199 0
175 198 0
176 198 0
174 197 0
176 198 0
174 198 0
173 197 0
174 198 0
175 198 0
177 199 0
173 197 0
174 198 0
174 198 0
173 196 0
175 197 0
174 198 0
174 198 0
174 198 0
174 198 0
174 198 0
174 197 0
175 198 0
173 197 0
174 197 0
174 198 0
174 197 0
176 199 0
174 197 0
175 198 0
175 198 0
174 198 0
175 198 0
174 198 0
175 198 0
175 198 0
174 198 0
175 198 0
174 198 0
174 197 0
174 198 0
175 198 0
173 197 0
174 197 0
175 198 0
174 198 0
173 197 0
174 198 0
174 197 0
174 198 0
174 197 0
174 198 0
174 197 0
175 198 0
173 197 0
175 198 0
173 197 0
173 197 0
175 198 0
173 197 0
175 198 0
173 197 0
175 198 0
174 198 0
174 198 0
176 199 0
173 197 0
173 197 0
174 198 0
174 198 0
174 198 0
174 198 0
175 198 0
173 197 0
172 196 0
174 198 0
175 198 0
176 198 0
175 198 0
173 197 0
174 198 0
175 198 0
172 196 0
174 197 0
173 197 0
175 198 0
174 197 0
175 198 0
174 198 0
175 198 0
175 198 0
174 197 0
175 198 0
172 197 0
174 198 0
176 199 0
175 198 0
175 198 0
174 198 0
172 196 0
176 199 0
174 198 0
175 198 0
176 198 0
176 199 0
174 197 0
175 198 0
175 198 0
175 198 0
173 197 0
174 198 0
175 198 0
175 198 0
175 198 0
175 198 0
175 198 0
175 198 0
175 198 0
173 197 0
174 198 0
174 198 0
174 198 0
173 197 0
174 198 0
173 197 0
174 198 0
174 198 0
175 198 0
174 197 0
174 198 0
173 197 0
174 198 0
175 198 0
174 197 0
174 197 0
173 197 0
174 198 0
172 196 0
174 198 0
172 197 0
172 196 0
175 198 0
174 197 0
172 195 0
174 198 0
174 197 0
171 195 0
174 198 0
173 196 0
173 196 0
174 197 0
173 197 0
175 198 0
172 196 0
175 198 0
174 197 0
174 198 0
175 198 0
174 198 0
172 195 0
175 198 0
174 197 0
174 198 0
175 198 0
175 198 0
174 197 0
176 199 0
175 198 0
174 198 0
172 196 0
173 196 0
173 196 0
175 198 0
173 197 0
172 196 0
173 197 0
173 196 0
173 197 0
174 197 0
176 198 0
173 197 0
173 196 0
173 197 0
169 193 0
174 197 0
171 195 0
173 197 0
172 196 0
173 197 0
174 197 0
174 197 0
172 196 0
172 196 0
174 197 0
175 198 0
175 197 0
171 195 0
171 194 0
172 196 0
172 196 0
173 195 0
171 194 0
173 196 0
171 194 0
171 195 0
174 197 0
171 194 0
172 195 0
175 197 0
174 195 0
173 196 0
173 196 0
175 196 0
171 193 0
176 197 0
172 194 0
173 195 0
175 195 0
172 194 0
169 190 0
174 195 0
175 197 0
176 198 0
173 195 0
175 196 0
169 192 0
170 192 0
171 193 0
170 191 0
167 190 0
169 191 0
172 195 0
169 192 0
165 188 0
166 188 0
166 189 0
167 191 0
168 192 0
168 191 0
166 189 0
167 190 0
169 192 0
166 190 0
164 187 0
168 191 0
167 190 0
163 186 0
163 185 0
166 190 0
162 186 0
170 194 0
167 190 0
169 192 0
166 190 0
169 192 0
167 191 0
167 190 0
167 191 0
168 190 0
169 194 0
168 192 0
168 190 0
167 191 0
169 192 0
169 192 0
169 193 0
172 194 0
165 188 0
168 192 0
170 193 0
165 188 0
169 192 0
171 194 0
162 184 0
170 193 0
173 195 0
169 191 0
168 191 0
169 192 0
170 193 0
173 197 0
171 194 0
171 194 0
169 193 0
171 194 0
172 195 0
172 195 0
174 196 0
171 195 0
171 194 0
170 193 0
175 198 0
171 195 0
171 195 0
173 196 0
173 195 0
172 193 0
172 195 0
173 197 0
173 196 0
171 195 0
172 195 0
170 193 0
174 198 0
169 192 0
172 195 0
172 196 0
172 195 0
170 193 0
175 197 0
171 194 0
173 196 0
172 194 0
168 192 0
171 194 0
173 196 0
172 196 0
172 195 0
173 196 0
172 196 0
171 194 0
174 197 0
173 196 0
174 197 0
173 196 0
171 194 0
174 197 0
175 198 0
174 197 0
173 197 0
173 196 0
173 197 0
172 196 0
174 198 0
173 196 0
172 196 0
173 197 0
175 198 0
172 197 0
175 198 0
172 195 0
174 197 0
173 196 0
175 198 0
172 196 0
175 198 0
175 198 0
174 198 0
175 198 0
174 198 0
173 197 0
174 197 0
175 198 0
174 198 0
175 198 0
174 198 0
174 197 0
176 199 0
176 198 0
174 197 0
175 197 0
174 198 0
174 197 0
173 197 0
174 197 0
174 198 0
173 197 0
172 196 0
174 198 0
174 197 0
175 198 0
173 197 0
173 197 0
174 198 0
174 197 0
174 198 0
174 197 0
172 196 0
173 197 0
176 198 0
176 198 0
174 197 0
176 199 0
175 198 0
175 198 0
173 197 0
175 198 0
175 198 0
174 197 0
175 198 0
173 197 0
175 198 0
174 198 0
173 197 0
174 197 0
174 198 0
175 198 0
172 197 0
176 198 0
174 198 0
175 198 0
174 198 0
175 198 0
174 198 0
173 197 0
174 198 0
174 198 0
175 198 0
175 198 0
174 197 0
174 197 0
175 198 0
174 198 0
175 198 0
174 198 0
174 197 0
174 197 0
174 198 0
175 198 0
173 197 0
175 198 0
176 199 0
176 198 0
175 198 0
176 199 0
174 197 0
174 198 0
174 197 0
175 198 0
173 197 0
175 198 0
174 197 0
173 197 0
173 197 0
175 198 0
176 198 0
175 198 0
173 197 0
175 198 0
174 197 0
174 198 0
173 197 0
174 198 0
173 197 0
175 198 0
175 198 0
174 198 0
175 198 0
174 197 0
176 199 0
173 197 0
175 198 0
174 197 0
174 198 0
173 197 0
175 198 0
176 199 0
176 199 0
173 197 0
173 196 0
174 198 0
174 198 0
172 197 0
175 198 0
175 198 0
176 198 0
175 198 0
174 198 0
175 198 0
174 198 0
176 199 0
175 198 0
174 198 0
175 198 0
175 198 0
174 197 0
174 198 0
174 198 0
175 198 0
174 197 0
177 199 0
175 198 0
173 197 0
174 198 0
176 198 0
176 199 0
176 198 0
176 198 0
175 198 0
173 197 0
174 197 0
173 197 0
175 198 0
174 197 0
174 197 0
174 198 0
174 197 0
174 198 0
175 198 0
175 198 0
174 197 0
175 198 0
174 198 0
174 197 0
174 198 0
173 197 0
175 198 0
172 197 0
174 197 0
174 198 0
173 197 0
174 198 0
174 198 0
175 198 0
175 198 0
173 197 0
175 198 0
174 198 0
175 198 0
174 198 0
174 197 0
176 198 0
173 197 0
173 197 0
172 196 0
174 197 0
173 197 0
174 197 0
176 199 0
175 198 0
175 198 0
175 198 0
174 197 0
173 197 0
176 199 0
176 199 0
174 197 0
175 198 0
175 198 0
174 197 0
175 198 0
175 198 0
174 198 0
174 198 0
172 196 0
173 197 0
174 198 0
172 196 0
175 198 0
173 197 0
173 197 0
172 196 0
174 198 0
173 197 0
175 198 0
173 197 0
175 198 0
173 196 0
174 197 0
174 198 0
173 196 0
173 197 0
174 197 0
173 197 0
174 198 0
173 197 0
173 197 0
173 197 0
173 197 0
173 197 0
174 198 0
172 196 0
173 197 0
172 195 0
172 196 0
173 197 0
171 195 0
174 197 0
174 197 0
170 195 0
175 198 0
173 197 0
172 196 0
174 197 0
171 195 0
172 196 0
173 197 0
171 194 0
175 198 0
169 193 0
174 197 0
174 197 0
171 194 0
173 197 0
172 196 0
173 196 0
175 198 0
173 196 0
173 197 0
174 197 0
170 194 0
172 195 0
175 197 0
172 196 0
170 193 0
173 195 0
173 196 0
176 198 0
173 196 0
173 196 0
169 192 0
171 194 0
172 195 0
174 196 0
174 196 0
172 193 0
172 193 0
171 194 0
174 196 0
174 196 0
172 194 0
174 196 0
172 195 0
176 198 0
171 193 0
176 198 0
170 193 0
170 193 0
169 192 0
174 196 0
165 188 0
166 189 0
166 189 0
166 190 0
170 192 0
169 191 0
167 190 0
169 192 0
166 190 0
169 191 0
167 189 0
166 190 0
164 186 0
165 189 0
169 192 0
166 189 0
167 191 0
170 193 0
165 189 0
170 192 0
165 188 0
169 193 0
170 193 0
172 195 0
169 192 0
165 188 0
165 190 0
170 193 0
167 190 0
167 190 0
169 192 0
171 194 0
171 194 0
175 197 0
164 188 0
169 193 0
169 192 0
166 189 0
169 193 0
171 194 0
169 192 0
172 195 0
168 191 0
173 196 0
170 193 0
172 195 0
173 196 0
173 196 0
170 193 0
167 190 0
169 192 0
172 196 0
174 197 0
173 197 0
168 192 0
169 192 0
171 193 0
172 195 0
169 193 0
171 193 0
174 197 0
169 192 0
170 193 0
171 195 0
172 194 0
171 195 0
175 198 0
171 194 0
172 195 0
171 195 0
171 194 0
173 196 0
172 195 0
171 194 0
171 194 0
173 195 0
173 196 0
173 197 0
171 195 0
175 198 0
173 197 0
171 195 0
172 196 0
173 196 0
174 197 0
173 197 0
172 196 0
174 197 0
171 194 0
175 197 0
172 196 0
174 197 0
175 198 0
173 196 0
172 196 0
173 196 0
174 197 0
174 197 0
174 197 0
173 197 0
173 197 0
175 198 0
174 197 0
174 197 0
175 198 0
174 197 0
172 196 0
173 197 0
173 196 0
173 197 0
173 196 0
170 194 0
173 197 0
173 196 0
172 195 0
174 197 0
175 198 0
174 197 0
175 198 0
174 198 0
173 196 0
174 197 0
172 196 0
175 198 0
175 198 0
175 198 0
174 197 0
173 197 0
173 197 0
175 197 0
174 198 0
174 197 0
175 198 0
172 196 0
174 198 0
173 197 0
175 198 0
175 198 0
176 198 0
173 197 0
175 198 0
173 197 0
175 198 0
175 198 0
174 198 0
175 198 0
172 196 0
174 197 0
175 198 0
174 198 0
176 198 0
176 199 0
174 197 0
174 197 0
173 196 0
174 198 0
175 198 0
173 197 0
175 198 0
172 197 0
173 197 0
175 198 0
174 197 0
174 198 0
174 198 0
174 197 0
175 198 0
175 198 0
175 198 0
175 198 0
174 198 0
174 197 0
174 197 0
175 198 0
174 198 0
175 198 0
174 197 0
174 197 0
175 198 0
174 198 0
174 197 0
174 198 0
175 198 0
173 197 0
174 197 0
174 197 0
174 197 0
173 197 0
173 197 0
175 198 0
174 197 0
173 197 0
172 197 0
174 198 0
174 197 0
174 197 0
174 198 0
174 197 0
174 197 0
174 198 0
174 197 0
175 198 0
173 197 0
172 197 0
175 198 0
175 198 0
173 197 0
176 198 0
175 198 0
174 197 0
172 197 0
174 197 0
174 198 0
174 198 0
174 197 0
176 199 0
174 197 0
174 198 0
173 197 0
175 198 0
174 198 0
173 197 0
175 198 0
175 198 0
174 198 0
175 198 0
174 198 0
174 197 0
174 198 0
173 197 0
173 197 0
175 198 0
175 198 0
174 197 0
174 197 0
175 198 0
173 197 0
174 198 0
174 198 0
173 197 0
173 196 0
173 197 0
175 198 0
174 198 0
174 198 0
174 197 0
172 196 0
174 198 0
174 198 0
174 198 0
175 198 0
174 197 0
175 198 0
174 197 0
175 198 0
173 197 0
174 198 0
175 198 0
174 198 0
176 198 0
176 199 0
175 198 0
173 197 0
174 198 0
174 197 0
174 198 0
174 198 0
175 198 0
176 199 0
174 197 0
174 198 0
175 198 0
175 198 0
175 198 0
174 198 0
174 198 0
174 198 0
175 198 0
174 198 0
175 198 0
175 198 0
175 198 0
174 198 0
174 197 0
174 197 0
175 198 0
171 195 0
173 197 0
175 198 0
174 197 0
174 198 0
173 197 0
174 198 0
175 198 0
175 198 0
174 198 0
174 198 0
175 198 0
175 198 0
175 198 0
173 197 0
175 198 0
174 197 0
173 196 0
175 198 0
173 197 0
173 197 0
175 198 0
172 196 0
175 198 0
174 198 0
174 197 0
174 198 0
176 199 0
174 197 0
175 198 0
173 197 0
173 197 0
173 197 0
175 198 0
173 197 0
173 197 0
173 197 0
175 197 0
173 197 0
175 198 0
172 196 0
174 197 0
172 195 0
175 198 0
174 197 0
172 195 0
173 196 0
171 195 0
173 197 0
173 197 0
172 197 0
173 197 0
172 196 0
172 195 0
173 196 0
174 197 0
174 198 0
173 197 0
174 198 0
174 197 0
174 197 0
173 197 0
170 194 0
174 197 0
173 197 0
173 196 0
170 193 0
173 196 0
173 196 0
174 198 0
173 197 0
172 196 0
174 198 0
172 195 0
174 198 0
173 197 0
174 198 0
173 196 0
174 197 0
172 196 0
172 196 0
173 196 0
173 197 0
171 195 0
171 194 0
173 195 0
174 196 0
173 196 0
172 195 0
173 196 0
172 194 0
177 199 0
170 193 0
173 195 0
173 196 0
174 197 0
170 193 0
173 196 0
173 196 0
174 195 0
172 194 0
173 195 0
173 195 0
176 198 0
172 194 0
170 193 0
172 193 0
175 197 0
171 193 0
169 192 0
167 189 0
172 194 0
165 188 0
171 195 0
163 186 0
165 189 0
171 193 0
167 188 0
167 191 0
167 190 0
166 189 0
167 191 0
171 194 0
163 188 0
166 189 0
164 188 0
168 191 0
166 189 0
166 190 0
171 194 0
168 190 0
165 188 0
168 192 0
166 189 0
165 189 0
166 189 0
166 189 0
169 191 0
170 193 0
167 191 0
165 189 0
167 190 0
168 191 0
168 192 0
169 192 0
171 195 0
170 193 0
172 195 0
171 195 0
168 192 0
167 190 0
171 194 0
169 192 0
172 194 0
171 194 0
171 194 0
168 191 0
171 193 0
171 194 0
169 192 0
169 192 0
170 193 0
173 196 0
171 194 0
170 194 0
170 195 0
170 192 0
173 196 0
168 192 0
174 196 0
171 195 0
170 194 0
172 193 0
171 195 0
171 194 0
173 196 0
171 195 0
172 195 0
170 194 0
172 196 0
173 196 0
171 195 0
173 196 0
173 196 0
175 197 0
173 195 0
172 195 0
172 196 0
172 196 0
173 196 0
174 197 0
173 196 0
174 197 0
173 196 0
171 194 0
174 197 0
173 196 0
173 196 0
171 194 0
173 196 0
175 198 0
174 197 0
173 196 0
173 197 0
172 195 0
173 197 0
174 198 0
172 196 0
174 197 0
174 197 0
173 197 0
175 198 0
174 197 0
176 198 0
175 198 0
174 197 0
173 197 0
174 197 0
173 196 0
172 196 0
175 198 0
174 197 0
173 196 0
175 198 0
173 197 0
173 196 0
172 195 0
174 198 0
174 197 0
174 197 0
172 195 0
173 196 0
175 198 0
175 198 0
175 198 0
175 198 0
172 196 0
174 197 0
175 198 0
173 197 0
173 197 0
174 197 0
174 198 0
173 197 0
174 198 0
175 198 0
174 197 0
175 198 0
172 197 0
176 198 0
175 198 0
174 197 0
173 196 0
174 197 0
174 197 0
174 198 0
174 197 0
173 197 0
176 199 0
173 196 0
174 197 0
175 198 0
173 197 0
174 197 0
176 199 0
172 196 0
175 198 0
173 197 0
173 197 0
173 197 0
173 197 0
174 197 0
175 198 0
174 198 0
175 198 0
173 197 0
174 197 0
174 197 0
173 196 0
175 198 0
175 198 0
173 197 0
175 198 0
174 197 0
175 198 0
174 198 0
175 198 0
173 197 0
173 197 0
173 197 0
174 198 0
173 197 0
174 198 0
174 198 0
176 199 0
174 198 0
174 198 0
175 198 0
174 198 0
174 197 0
174 198 0
175 198 0
174 197 0
173 197 0
175 198 0
175 198 0
174 197 0
176 198 0
175 198 0
173 197 0
177 199 0
174 197 0
173 197 0
175 198 0
174 198 0
174 198 0
173 197 0
174 198 0
173 197 0
174 197 0
173 197 0
174 197 0
174 198 0
174 198 0
175 198 0
174 198 0
174 197 0
175 198 0
174 198 0
175 198 0
174 198 0
175 198 0
175 198 0
175 198 0
175 198 0
173 197 0
175 198 0
175 198 0
176 199 0
175 198 0
175 198 0
174 198 0
173 197 0
175 198 0
175 198 0
175 198 0
175 198 0
175 198 0
174 198 0
173 197 0
175 198 0
174 198 0
175 198 0
174 198 0
173 197 0
173 197 0
173 197 0
175 198 0
173 197 0
173 197 0
174 197 0
174 198 0
176 199 0
175 198 0
174 198 0
174 198 0
176 199 0
175 198 0
173 197 0
173 197 0
175 198 0
174 198 0
175 198 0
173 197 0
174 198 0
173 197 0
174 198 0
173 197 0
175 198 0
174 198 0
175 198 0
174 198 0
175 198 0
175 198 0
174 197 0
173 196 0
175 198 0
173 197 0
174 197 0
173 197 0
174 198 0
173 197 0
174 198 0
174 198 0
172 197 0
174 197 0
174 198 0
175 198 0
175 198 0
174 198 0
174 198 0
175 198 0
174 198 0
174 197 0
174 197 0
173 197 0
174 198 0
175 198 0
175 198 0
172 196 0
173 197 0
175 198 0
173 197 0
176 199 0
174 197 0
171 195 0
173 197 0
175 198 0
173 197 0
173 197 0
175 198 0
172 196 0
175 198 0
173 197 0
174 197 0
172 196 0
173 197 0
175 198 0
174 197 0
174 197 0
173 196 0
174 198 0
172 196 0
173 197 0
174 198 0
175 198 0
175 198 0
170 194 0
174 197 0
176 199 0
174 198 0
174 197 0
176 199 0
173 197 0
175 198 0
173 196 0
173 197 0
173 197 0
174 198 0
173 197 0
174 198 0
176 198 0
174 197 0
175 197 0
172 196 0
174 197 0
173 196 0
173 197 0
172 195 0
172 196 0
174 197 0
173 197 0
174 197 0
172 196 0
173 197 0
171 195 0
173 196 0
174 197 0
171 195 0
173 197 0
174 197 0
173 196 0
172 196 0
172 195 0
171 195 0
174 197 0
173 197 0
172 195 0
175 198 0
170 194 0
170 194 0
173 197 0
173 196 0
173 197 0
173 196 0
174 197 0
175 198 0
171 195 0
174 197 0
174 197 0
171 194 0
174 196 0
173 195 0
174 197 0
175 197 0
173 196 0
172 195 0
175 197 0
172 194 0
170 192 0
173 195 0
174 196 0
175 196 0
172 193 0
168 190 0
171 193 0
171 194 0
174 196 0
173 195 0
173 195 0
170 193 0
169 192 0
172 194 0
173 196 0
171 194 0
166 188 0
169 192 0
173 195 0
168 192 0
167 190 0
171 194 0
172 196 0
166 189 0
167 190 0
171 193 0
171 194 0
167 190 0
170 193 0
172 195 0
168 190 0
168 192 0
170 194 0
169 192 0
164 188 0
167 190 0
170 192 0
167 191 0
167 191 0
169 192 0
167 191 0
168 191 0
171 194 0
169 192 0
170 194 0
172 194 0
173 196 0
166 190 0
171 194 0
169 191 0
169 192 0
168 192 0
172 194 0
173 195 0
170 193 0
173 196 0
170 193 0
168 192 0
171 194 0
170 193 0
170 195 0
170 193 0
171 195 0
170 193 0
171 195 0
172 195 0
170 193 0
172 196 0
171 195 0
171 194 0
170 193 0
172 195 0
169 193 0
169 192 0
172 195 0
172 195 0
173 196 0
170 193 0
170 193 0
170 193 0
170 193 0
174 196 0
171 195 0
171 195 0
172 195 0
172 196 0
174 197 0
173 196 0
171 196 0
172 195 0
173 197 0
171 195 0
173 196 0
173 196 0
173 196 0
173 195 0
172 194 0
172 196 0
174 197 0
176 198 0
172 196 0
175 197 0
171 195 0
173 197 0
174 198 0
173 197 0
173 195 0
175 197 0
172 196 0
176 199 0
174 197 0
174 198 0
173 196 0
174 198 0
175 198 0
174 197 0
174 198 0
174 197 0
171 195 0
173 197 0
172 196 0
174 197 0
173 196 0
174 197 0
174 197 0
173 196 0
173 197 0
174 197 0
173 197 0
173 197 0
173 196 0
175 198 0
175 197 0
175 198 0
174 197 0
173 197 0
173 197 0
174 197 0
174 198 0
172 196 0
172 196 0
175 198 0
174 197 0
174 197 0
173 197 0
173 196 0
174 197 0
174 197 0
172 197 0
173 197 0
175 198 0
173 196 0
174 197 0
175 198 0
172 197 0
173 197 0
170 195 0
174 198 0
175 198 0
175 198 0
173 197 0
177 199 0
175 198 0
174 197 0
173 196 0
175 198 0
175 198 0
173 196 0
173 197 0
173 197 0
174 197 0
174 197 0
173 197 0
174 198 0
174 197 0
174 198 0
174 197 0
174 197 0
174 197 0
175 198 0
174 198 0
176 198 0
176 198 0
173 197 0
173 197 0
176 198 0
173 197 0
175 198 0
175 198 0
175 198 0
175 198 0
174 197 0
174 198 0
176 199 0
174 198 0
174 197 0
175 198 0
174 197 0
173 197 0
177 199 0
172 197 0
176 198 0
173 197 0
175 198 0
173 197 0
174 198 0
173 197 0
176 199 0
173 196 0
175 198 0
174 198 0
174 198 0
175 198 0
175 198 0
173 197 0
173 197 0
174 197 0
175 198 0
174 198 0
175 198 0
174 197 0
174 198 0
174 197 0
174 197 0
173 197 0
176 198 0
174 197 0
174 198 0
174 198 0
173 197 0
173 197 0
173 197 0
174 198 0
174 198 0
175 198 0
174 197 0
173 197 0
175 198 0
174 198 0
174 197 0
175 198 0
173 197 0
175 198 0
175 198 0
174 198 0
175 198 0
174 198 0
174 198 0
176 199 0
173 197 0
175 198 0
174 198 0
173 197 0
174 198 0
175 198 0
176 199 0
175 198 0
174 198 0
175 198 0
174 198 0
174 198 0
174 197 0
174 198 0
175 198 0
174 198 0
174 198 0
175 198 0
176 198 0
175 198 0
177 199 0
174 197 0
173 197 0
174 198 0
173 197 0
174 198 0
173 197 0
174 197 0
175 198 0
174 198 0
174 198 0
173 197 0
176 199 0
175 198 0
175 198 0
174 198 0
175 198 0
173 197 0
175 198 0
173 197 0
175 198 0
176 199 0
175 198 0
174 198 0
174 198 0
174 197 0
175 198 0
175 198 0
174 198 0
174 197 0
175 198 0
175 198 0
173 196 0
173 197 0
176 198 0
174 197 0
176 199 0
174 197 0
175 198 0
175 198 0
174 198 0
174 198 0
172 196 0
175 198 0
174 198 0
174 198 0
174 197 0
174 197 0
175 198 0
175 198 0
174 197 0
173 197 0
173 196 0
175 198 0
172 196 0
174 198 0
174 198 0
174 197 0
174 198 0
176 199 0
174 198 0
174 197 0
175 198 0
173 197 0
173 197 0
174 197 0
172 196 0
174 197 0
175 198 0
174 197 0
171 195 0
173 197 0
174 197 0
171 195 0
173 197 0
173 197 0
174 198 0
174 198 0
175 198 0
175 198 0
174 197 0
174 198 0
173 197 0
173 196 0
173 196 0
172 196 0
172 196 0
173 197 0
174 198 0
174 198 0
175 198 0
174 198 0
174 197 0
172 196 0
173 196 0
175 198 0
175 198 0
176 199 0
174 197 0
172 197 0
172 195 0
173 197 0
174 197 0
173 196 0
175 198 0
172 195 0
175 198 0
172 195 0
173 197 0
172 196 0
170 194 0
171 194 0
173 197 0
173 196 0
171 195 0
173 196 0
170 194 0
173 196 0
172 196 0
171 196 0
175 198 0
172 195 0
172 195 0
173 195 0
173 196 0
170 192 0
175 197 0
170 194 0
174 197 0
172 195 0
172 195 0
176 198 0
174 197 0
176 199 0
170 193 0
174 196 0
174 197 0
175 197 0
172 195 0
166 189 0
171 194 0
171 194 0
171 193 0
172 194 0
172 196 0
168 191 0
172 195 0
171 194 0
169 192 0
171 194 0
169 193 0
168 191 0
170 194 0
166 189 0
168 191 0
173 196 0
166 188 0
168 192 0
172 195 0
166 190 0
169 191 0
168 191 0
164 188 0
166 190 0
168 192 0
167 190 0
171 194 0
164 187 0
168 192 0
168 191 0
168 190 0
168 191 0
170 193 0
170 192 0
168 190 0
169 193 0
166 190 0
172 195 0
170 193 0
168 191 0
171 194 0
172 195 0
166 189 0
171 194 0
168 192 0
172 195 0
171 194 0
169 193 0
172 194 0
170 194 0
169 192 0
172 196 0
170 193 0
168 190 0
175 198 0
171 194 0
170 193 0
170 193 0
170 194 0
172 195 0
168 192 0
172 194 0
173 196 0
171 194 0
173 197 0
171 194 0
171 193 0
171 195 0
173 196 0
174 196 0
172 195 0
173 196 0
175 198 0
173 196 0
171 194 0
172 195 0
175 198 0
172 196 0
174 196 0
172 195 0
173 196 0
173 197 0
173 196 0
173 196 0
174 198 0
175 198 0
169 193 0
173 196 0
172 195 0
175 198 0
173 196 0
173 196 0
174 197 0
174 197 0
171 195 0
175 197 0
173 197 0
174 197 0
174 197 0
173 196 0
174 198 0
171 195 0
174 197 0
174 197 0
174 196 0
173 197 0
174 197 0
173 196 0
172 196 0
174 197 0
175 198 0
173 197 0
174 197 0
176 199 0
175 198 0
171 195 0
174 197 0
175 198 0
172 196 0
171 195 0
174 197 0
174 198 0
172 195 0
175 198 0
173 197 0
174 197 0
175 198 0
173 197 0
173 197 0
173 197 0
173 196 0
175 198 0
173 197 0
174 197 0
175 198 0
174 198 0
176 198 0
174 197 0
175 198 0
174 197 0
174 197 0
172 196 0
176 199 0
173 197 0
173 196 0
176 199 0
174 196 0
173 197 0
175 198 0
174 198 0
175 198 0
177 199 0
175 198 0
173 197 0
173 197 0
174 198 0
174 197 0
176 199 0
174 197 0
174 197 0
175 198 0
174 197 0
174 198 0
174 198 0
172 197 0
174 198 0
175 198 0
175 198 0
174 197 0
174 198 0
175 198 0
175 198 0
173 197 0
175 198 0
176 198 0
175 198 0
175 198 0
175 198 0
173 197 0
175 198 0
174 197 0
174 197 0
174 198 0
174 198 0
173 197 0
174 197 0
174 198 0
174 197 0
175 198 0
176 199 0
174 197 0
175 198 0
173 197 0
173 197 0
175 198 0
173 197 0
175 198 0
173 197 0
174 198 0
175 198 0
174 198 0
172 196 0
174 198 0
175 198 0
176 199 0
176 199 0
175 198 0
174 198 0
174 197 0
173 197 0
175 198 0
174 198 0
175 198 0
176 199 0
175 198 0
173 197 0
176 199 0
173 197 0
175 198 0
175 198 0
174 198 0
173 197 0
174 198 0
173 197 0
176 199 0
174 198 0
175 198 0
174 198 0
175 198 0
175 198 0
175 198 0
175 198 0
174 198 0
174 198 0
174 197 0
174 197 0
175 198 0
174 197 0
175 198 0
175 198 0
174 197 0
174 197 0
174 197 0
176 199 0
173 197 0
172 196 0
173 197 0
176 199 0
173 197 0
175 198 0
174 198 0
173 197 0
175 198 0
175 198 0
175 198 0
175 198 0
173 197 0
173 197 0
175 198 0
174 198 0
174 198 0
174 197 0
174 197 0
176 198 0
175 198 0
174 198 0
174 198 0
173 197 0
173 197 0
173 197 0
175 198 0
175 198 0
173 197 0
173 197 0
175 198 0
175 198 0
174 198 0
174 197 0
175 198 0
173 196 0
173 197 0
175 198 0
175 198 0
175 198 0
174 197 0
173 197 0
173 197 0
172 197 0
175 198 0
173 197 0
174 198 0
175 198 0
174 198 0
173 197 0
174 198 0
175 198 0
174 197 0
176 199 0
174 198 0
172 196 0
174 198 0
175 198 0
175 198 0
174 197 0
172 196 0
176 198 0
174 197 0
174 197 0
173 196 0
173 197 0
175 198 0
175 198 0
174 198 0
175 198 0
173 196 0
174 198 0
173 197 0
174 197 0
175 198 0
175 198 0
175 198 0
173 197 0
172 196 0
173 197 0
174 197 0
174 198 0
173 196 0
173 196 0
174 198 0
174 197 0
174 197 0
172 196 0
174 197 0
173 197 0
175 197 0
174 198 0
176 199 0
172 196 0
172 196 0
174 198 0
174 197 0
174 198 0
171 195 0
173 196 0
174 197 0
174 198 0
173 197 0
172 196 0
172 196 0
173 196 0
175 198 0
172 196 0
174 197 0
172 196 0
173 197 0
174 197 0
174 198 0
173 196 0
173 196 0
174 198 0
171 196 0
172 196 0
172 196 0
171 194 0
174 198 0
172 195 0
172 196 0
172 195 0
173 196 0
174 197 0
173 196 0
174 197 0
173 196 0
175 197 0
174 197 0
174 196 0
172 195 0
173 197 0
171 193 0
174 197 0
173 196 0
174 197 0
173 196 0
174 197 0
173 196 0
172 195 0
174 197 0
173 195 0
170 192 0
172 193 0
175 197 0
174 197 0
172 194 0
175 197 0
175 198 0
168 191 0
172 194 0
175 198 0
174 196 0
170 193 0
172 195 0
170 192 0
169 192 0
171 194 0
171 194 0
173 197 0
167 190 0
171 194 0
166 189 0
170 194 0
169 193 0
167 191 0
163 187 0
165 190 0
171 194 0
168 192 0
170 193 0
167 191 0
172 195 0
173 195 0
167 190 0
168 192 0
163 187 0
164 187 0
168 192 0
164 188 0
167 191 0
168 191 0
171 194 0
169 193 0
172 196 0
174 197 0
171 193 0
167 191 0
169 190 0
168 191 0
164 188 0
172 196 0
171 194 0
168 192 0
168 191 0
169 193 0
171 193 0
170 194 0
171 195 0
170 193 0
171 195 0
167 191 0
168 192 0
171 194 0
170 193 0
172 195 0
172 196 0
173 196 0
172 196 0
172 196 0
171 194 0
170 194 0
172 196 0
172 196 0
168 191 0
171 194 0
170 194 0
172 196 0
172 195 0
173 197 0
167 191 0
171 196 0
170 193 0
173 196 0
172 196 0
169 193 0
173 195 0
172 196 0
172 194 0
174 197 0
173 195 0
170 194 0
173 197 0
173 197 0
172 196 0
173 195 0
171 195 0
171 194 0
173 196 0
175 197 0
173 197 0
173 196 0
176 198 0
172 195 0
173 196 0
173 196 0
171 194 0
174 197 0
172 196 0
175 198 0
174 197 0
173 196 0
173 197 0
174 197 0
171 194 0
173 196 0
174 197 0
173 196 0
174 197 0
174 197 0
175 198 0
175 198 0
174 197 0
174 198 0
173 197 0
174 198 0
174 197 0
171 196 0
174 198 0
174 198 0
176 199 0
172 195 0
173 196 0
173 197 0
174 196 0
174 197 0
173 197 0
173 197 0
174 197 0
173 197 0
174 197 0
172 196 0
173 197 0
174 197 0
173 197 0
173 197 0
173 197 0
172 196 0
174 198 0
174 198 0
176 198 0
173 197 0
173 196 0
173 197 0
174 198 0
175 198 0
174 198 0
175 198 0
172 196 0
173 197 0
174 197 0
173 197 0
175 198 0
174 197 0
173 197 0
173 197 0
174 197 0
173 197 0
172 197 0
174 197 0
175 197 0
174 198 0
175 198 0
175 198 0
173 197 0
173 197 0
174 198 0
176 198 0
174 197 0
173 197 0
173 197 0
172 196 0
174 197 0
171 196 0
174 198 0
173 197 0
175 198 0
173 197 0
174 198 0
173 197 0
174 198 0
175 198 0
174 198 0
174 197 0
176 198 0
173 197 0
174 197 0
175 198 0
174 198 0
176 199 0
175 198 0
173 196 0
173 197 0
173 197 0
174 198 0
176 199 0
174 198 0
173 196 0
173 196 0
175 198 0
173 197 0
175 198 0
172 196 0
175 198 0
174 198 0
174 198 0
173 197 0
175 198 0
175 198 0
174 197 0
172 196 0
174 198 0
175 198 0
174 197 0
174 197 0
174 198 0
175 198 0
175 198 0
176 198 0
176 199 0
175 198 0
176 199 0
175 198 0
173 197 0
177 199 0
175 198 0
175 198 0
174 198 0
174 198 0
176 198 0
175 198 0
175 198 0
175 198 0
173 196 0
174 197 0
173 197 0
174 197 0
173 197 0
174 197 0
174 198 0
174 198 0
173 197 0
177 199 0
175 198 0
174 197 0
174 198 0
174 198 0
174 197 0
174 198 0
174 198 0
176 198 0
174 198 0
175 198 0
175 198 0
176 199 0
174 197 0
175 198 0
175 198 0
173 197 0
176 199 0
173 197 0
175 198 0
176 198 0
176 199 0
174 198 0
174 197 0
175 198 0
174 197 0
174 197 0
175 198 0
173 197 0
174 198 0
173 197 0
175 198 0
175 198 0
175 198 0
174 198 0
175 198 0
175 198 0
173 197 0
175 198 0
174 198 0
174 198 0
175 198 0
174 198 0
174 197 0
175 198 0
174 198 0
173 197 0
174 198 0
174 197 0
175 198 0
176 198 0
173 197 0
175 198 0
174 197 0
173 197 0
173 197 0
174 198 0
175 198 0
173 197 0
175 198 0
174 198 0
176 198 0
173 197 0
174 198 0
174 197 0
174 198 0
176 199 0
174 198 0
174 198 0
175 198 0
173 196 0
175 198 0
173 197 0
175 198 0
174 198 0
172 196 0
171 195 0
175 198 0
175 198 0
174 198 0
173 197 0
174 198 0
174 198 0
175 198 0
172 196 0
173 197 0
173 197 0
172 196 0
173 197 0
175 198 0
174 197 0
174 197 0
174 198 0
171 195 0
173 197 0
172 196 0
173 197 0
173 197 0
175 197 0
172 196 0
175 198 0
175 198 0
175 198 0
174 197 0
174 197 0
175 198 0
175 198 0
172 196 0
174 198 0
174 197 0
174 197 0
174 198 0
172 196 0
170 195 0
173 197 0
174 197 0
175 198 0
175 198 0
173 196 0
174 198 0
173 197 0
173 196 0
171 194 0
174 197 0
173 197 0
174 197 0
174 197 0
173 196 0
175 198 0
171 195 0
172 196 0
172 196 0
169 194 0
173 196 0
172 195 0
171 194 0
173 196 0
172 195 0
174 197 0
173 196 0
174 197 0
172 196 0
171 195 0
172 196 0
170 193 0
173 196 0
173 196 0
172 195 0
174 197 0
173 196 0
174 196 0
175 198 0
172 195 0
174 197 0
171 195 0
170 193 0
171 193 0
175 198 0
174 196 0
170 194 0
170 193 0
174 196 0
173 195 0
169 191 0
171 193 0
170 193 0
167 190 0
170 194 0
170 193 0
166 189 0
171 194 0
170 194 0
167 191 0
167 191 0
170 194 0
167 190 0
170 193 0
166 190 0
163 187 0
171 194 0
169 193 0
167 191 0
170 194 0
168 192 0
169 193 0
172 195 0
169 192 0
169 191 0
168 190 0
172 195 0
169 193 0
170 193 0
170 193 0
168 190 0
169 192 0
167 191 0
168 192 0
173 196 0
172 195 0
171 194 0
169 193 0
173 196 0
171 194 0
170 193 0
167 190 0
172 195 0
172 194 0
169 192 0
168 193 0
171 195 0
173 196 0
167 191 0
172 196 0
170 194 0
172 194 0
173 195 0
171 194 0
170 194 0
170 193 0
172 195 0
174 197 0
172 195 0
171 194 0
172 195 0
171 194 0
172 195 0
173 197 0
171 194 0
173 197 0
172 196 0
173 196 0
171 195 0
173 197 0
171 195 0
171 194 0
174 197 0
173 197 0
175 198 0
172 196 0
172 195 0
174 197 0
172 194 0
171 194 0
173 196 0
172 195 0
172 195 0
174 197 0
169 193 0
170 192 0
172 195 0
171 195 0
173 196 0
173 195 0
172 196 0
172 195 0
174 197 0
173 196 0
173 196 0
170 195 0
175 198 0
172 196 0
174 197 0
172 195 0
173 195 0
173 197 0
174 197 0
174 197 0
173 197 0
170 194 0
172 196 0
175 198 0
175 198 0
173 196 0
175 198 0
174 198 0
173 197 0
172 196 0
173 196 0
171 195 0
174 198 0
173 197 0
174 197 0
174 198 0
174 197 0
173 196 0
173 197 0
173 197 0
175 198 0
173 196 0
174 197 0
174 197 0
174 197 0
174 197 0
174 196 0
175 197 0
174 197 0
174 197 0
173 197 0
174 198 0
173 197 0
173 196 0
174 198 0
174 197 0
175 198 0
176 199 0
174 198 0
174 197 0
175 198 0
173 197 0
175 198 0
174 197 0
173 197 0
172 196 0
174 198 0
175 198 0
172 196 0
175 198 0
175 198 0
173 197 0
176 198 0
174 197 0
172 196 0
175 198 0
175 198 0
174 197 0
172 197 0
174 198 0
175 198 0
174 198 0
174 197 0
176 198 0
174 198 0
175 198 0
175 198 0
175 198 0
174 197 0
173 197 0
176 198 0
174 198 0
175 198 0
174 197 0
174 198 0
173 197 0
175 198 0
174 197 0
174 198 0
174 197 0
174 198 0
173 197 0
175 198 0
175 198 0
173 197 0
174 198 0
175 198 0
173 197 0
174 197 0
174 197 0
175 198 0
175 198 0
174 197 0
175 198 0
174 198 0
175 198 0
175 198 0
175 198 0
175 198 0
174 198 0
175 198 0
174 198 0
174 197 0
174 198 0
175 198 0
175 198 0
175 198 0
174 198 0
176 199 0
175 198 0
175 198 0
173 197 0
175 198 0
175 198 0
173 197 0
175 198 0
173 197 0
174 198 0
173 197 0
175 198 0
174 198 0
174 198 0
174 197 0
175 198 0
174 198 0
174 198 0
173 197 0
174 198 0
176 198 0
176 199 0
175 198 0
174 198 0
174 198 0
175 198 0
175 198 0
175 198 0
175 198 0
175 198 0
174 198 0
175 198 0
175 198 0
173 197 0
175 198 0
173 197 0
175 198 0
173 197 0
172 196 0
174 198 0
173 197 0
175 198 0
176 198 0
175 198 0
175 198 0
173 197 0
175 198 0
173 197 0
174 197 0
174 197 0
173 197 0
175 198 0
174 197 0
175 198 0
176 199 0
175 198 0
175 198 0
174 198 0
173 197 0
175 198 0
174 198 0
173 197 0
175 198 0
174 198 0
174 198 0
174 197 0
173 197 0
174 198 0
175 198 0
176 198 0
177 199 0
175 198 0
173 197 0
172 197 0
172 196 0
173 197 0
172 196 0
174 198 0
175 198 0
174 197 0
174 198 0
173 197 0
173 197 0
172 196 0
174 198 0
173 197 0
174 198 0
174 198 0
176 199 0
175 198 0
174 198 0
174 197 0
173 197 0
175 198 0
173 197 0
173 197 0
175 198 0
174 197 0
174 198 0
173 197 0
174 197 0
172 196 0
175 198 0
174 198 0
173 196 0
175 198 0
175 198 0
175 198 0
171 196 0
174 197 0
174 198 0
174 197 0
174 197 0
174 198 0
175 198 0
174 197 0
174 197 0
174 197 0
176 198 0
176 198 0
174 197 0
174 198 0
174 197 0
173 197 0
176 199 0
174 197 0
173 197 0
174 198 0
174 197 0
174 198 0
173 196 0
174 197 0
172 196 0
173 197 0
175 198 0
175 198 0
172 195 0
173 197 0
171 194 0
172 196 0
173 197 0
173 197 0
174 197 0
172 196 0
174 197 0
172 195 0
171 195 0
173 196 0
177 199 0
175 198 0
173 197 0
174 197 0
172 195 0
172 196 0
172 195 0
174 197 0
173 196 0
173 197 0
174 198 0
173 197 0
173 196 0
175 198 0
173 197 0
173 196 0
175 198 0
175 197 0
172 195 0
170 195 0
171 194 0
172 194 0
173 196 0
173 196 0
172 196 0
172 196 0
171 194 0
171 194 0
173 196 0
174 197 0
170 194 0
171 193 0
175 198 0
172 195 0
172 195 0
172 194 0
173 195 0
171 194 0
173 195 0
171 194 0
171 194 0
172 194 0
168 190 0
174 196 0
170 194 0
168 191 0
168 192 0
169 191 0
168 192 0
169 192 0
170 193 0
171 195 0
172 196 0
172 196 0
167 190 0
171 195 0
170 194 0
171 193 0
166 189 0
168 191 0
167 191 0
167 191 0
171 194 0
169 193 0
167 190 0
169 192 0
167 190 0
170 193 0
170 193 0
168 192 0
168 192 0
171 195 0
170 193 0
175 197 0
171 195 0
170 193 0
173 196 0
171 194 0
170 193 0
168 191 0
170 193 0
172 194 0
171 195 0
169 192 0
172 195 0
169 192 0
172 195 0
172 196 0
169 192 0
170 193 0
171 194 0
173 196 0
169 192 0
171 194 0
170 193 0
170 193 0
172 195 0
172 195 0
170 192 0
170 194 0
169 193 0
170 193 0
171 194 0
171 195 0
170 193 0
173 196 0
176 198 0
170 194 0
174 197 0
173 196 0
172 196 0
172 195 0
171 195 0
172 195 0
173 196 0
172 196 0
174 197 0
171 195 0
172 195 0
175 198 0
172 196 0
173 196 0
174 197 0
172 196 0
172 195 0
173 197 0
173 196 0
177 199 0
174 197 0
172 196 0
173 197 0
175 198 0
173 196 0
174 197 0
170 193 0
173 197 0
173 197 0
174 198 0
171 195 0
173 196 0
173 197 0
172 195 0
174 198 0
172 196 0
173 196 0
171 195 0
174 197 0
175 198 0
172 196 0
174 198 0
174 197 0
173 197 0
177 199 0
174 197 0
174 197 0
173 197 0
173 197 0
174 198 0
175 197 0
174 197 0
173 196 0
172 195 0
174 197 0
173 196 0
172 195 0
173 197 0
175 198 0
175 198 0
174 196 0
173 197 0
175 198 0
174 198 0
173 197 0
174 198 0
174 197 0
174 198 0
175 198 0
173 196 0
172 196 0
174 197 0
175 197 0
172 195 0
175 198 0
173 197 0
172 196 0
174 198 0
174 197 0
172 196 0
174 198 0
175 198 0
173 197 0
175 198 0
173 197 0
174 197 0
174 198 0
175 198 0
173 197 0
175 198 0
175 198 0
173 197 0
174 197 0
175 198 0
174 197 0
174 198 0
174 197 0
174 198 0
175 198 0
175 198 0
176 199 0
174 198 0
174 197 0
174 198 0
175 198 0
174 198 0
174 197 0
174 198 0
174 198 0
174 197 0
173 197 0
174 197 0
174 197 0
174 198 0
175 198 0
174 198 0
174 197 0
173 197 0
173 197 0
174 197 0
175 198 0
174 197 0
174 197 0
173 197 0
175 198 0
173 197 0
174 198 0
176 198 0
174 197 0
174 197 0
175 198 0
175 198 0
175 198 0
175 198 0
175 198 0
174 197 0
174 197 0
173 197 0
174 197 0
173 197 0
171 195 0
174 197 0
172 197 0
173 197 0
174 198 0
176 199 0
174 197 0
175 198 0
174 197 0
175 198 0
174 198 0
174 198 0
175 198 0
176 198 0
175 198 0
176 199 0
175 198 0
174 198 0
175 198 0
173 197 0
175 198 0
175 198 0
174 198 0
174 198 0
173 197 0
174 198 0
173 197 0
174 198 0
174 198 0
173 197 0
173 197 0
174 197 0
175 198 0
173 197 0
174 197 0
176 199 0
175 198 0
173 197 0
176 199 0
174 197 0
173 197 0
176 199 0
174 198 0
174 197 0
175 198 0
175 198 0
175 198 0
174 198 0
173 197 0
174 198 0
173 197 0
174 197 0
175 198 0
175 198 0
175 198 0
174 197 0
174 198 0
174 197 0
174 197 0
173 197 0
174 197 0
174 197 0
173 197 0
175 198 0
176 199 0
173 197 0
174 198 0
174 197 0
173 197 0
173 197 0
174 198 0
173 197 0
173 197 0
175 198 0
174 198 0
173 197 0
172 196 0
174 198 0
173 197 0
174 197 0
175 198 0
174 197 0
171 196 0
174 198 0
173 197 0
176 199 0
174 197 0
175 197 0
175 198 0
174 197 0
175 198 0
175 198 0
175 198 0
172 196 0
174 198 0
173 197 0
172 196 0
174 198 0
175 198 0
174 197 0
174 198 0
175 198 0
174 197 0
175 198 0
174 198 0
174 198 0
174 198 0
173 197 0
174 197 0
175 198 0
173 196 0
174 197 0
175 198 0
172 195 0
175 198 0
175 198 0
175 198 0
174 198 0
172 196 0
174 197 0
175 198 0
174 197 0
174 197 0
174 197 0
172 195 0
175 198 0
174 198 0
173 197 0
173 197 0
173 197 0
174 198 0
174 198 0
175 198 0
171 195 0
172 196 0
173 197 0
172 196 0
174 197 0
173 196 0
170 195 0
174 197 0
174 197 0
171 194 0
172 195 0
173 197 0
172 196 0
172 196 0
172 196 0
172 196 0
174 197 0
170 194 0
172 196 0
174 197 0
173 197 0
173 196 0
176 198 0
174 197 0
174 197 0
174 197 0
174 197 0
173 197 0
173 197 0
172 196 0
172 196 0
173 197 0
172 196 0
175 198 0
171 195 0
172 195 0
172 195 0
173 195 0
175 198 0
173 196 0
172 195 0
174 197 0
170 194 0
170 193 0
173 197 0
172 195 0
173 196 0
171 195 0
173 196 0
173 196 0
173 196 0
173 197 0
172 195 0
174 196 0
174 197 0
172 195 0
172 195 0
174 197 0
171 194 0
172 195 0
168 190 0
171 195 0
171 194 0
170 193 0
174 197 0
169 192 0
170 194 0
172 196 0
167 190 0
170 194 0
171 194 0
171 194 0
170 193 0
174 197 0
168 192 0
170 193 0
169 192 0
165 190 0
164 187 0
173 196 0
168 192 0
168 191 0
168 192 0
166 189 0
168 192 0
170 193 0
168 191 0
169 192 0
172 195 0
172 195 0
170 194 0
170 193 0
171 194 0
172 196 0
169 193 0
168 192 0
168 192 0
171 194 0
169 193 0
168 192 0
173 196 0
170 195 0
171 194 0
172 196 0
169 192 0
172 196 0
171 194 0
169 192 0
170 194 0
174 197 0
171 194 0
171 194 0
172 197 0
169 193 0
172 196 0
171 195 0
172 195 0
173 196 0
172 196 0
169 193 0
172 195 0
170 194 0
171 194 0
171 195 0
174 197 0
168 191 0
172 195 0
173 196 0
172 195 0
172 195 0
172 196 0
174 197 0
174 196 0
171 195 0
172 195 0
174 196 0
172 196 0
174 198 0
171 195 0
169 193 0
172 195 0
172 196 0
174 198 0
174 196 0
173 197 0
173 196 0
174 197 0
173 197 0
174 197 0
171 195 0
173 196 0
174 197 0
171 195 0
172 195 0
174 197 0
174 197 0
174 197 0
171 194 0
172 195 0
173 196 0
174 197 0
175 198 0
174 196 0
174 197 0
172 196 0
173 196 0
173 197 0
174 196 0
172 196 0
171 195 0
175 198 0
173 197 0
173 197 0
172 196 0
173 197 0
174 197 0
175 198 0
173 196 0
173 197 0
173 196 0
174 196 0
175 198 0
175 198 0
172 196 0
174 197 0
172 196 0
173 197 0
175 198 0
172 196 0
173 197 0
174 197 0
173 196 0
174 198 0
172 196 0
175 198 0
172 196 0
174 197 0
175 198 0
174 198 0
175 198 0
173 196 0
175 198 0
173 197 0
175 198 0
173 197 0
174 197 0
174 197 0
172 196 0
174 197 0
175 198 0
176 199 0
176 198 0
175 198 0
172 196 0
174 197 0
175 198 0
176 198 0
174 198 0
173 197 0
172 196 0
173 197 0
175 198 0
174 198 0
175 198 0
175 198 0
175 198 0
175 198 0
175 198 0
174 198 0
174 198 0
175 198 0
174 197 0
175 198 0
174 198 0
173 197 0
175 198 0
173 197 0
175 198 0
175 198 0
174 198 0
177 199 0
172 196 0
173 197 0
174 198 0
174 197 0
173 197 0
177 199 0
173 197 0
174 198 0
174 198 0
175 198 0
175 198 0
175 198 0
175 198 0
174 198 0
175 198 0
175 198 0
175 198 0
173 197 0
174 198 0
174 197 0
173 197 0
175 198 0
175 198 0
174 198 0
172 197 0
175 198 0
175 198 0
175 198 0
175 198 0
174 197 0
175 198 0
173 197 0
173 197 0
175 198 0
174 197 0
175 198 0
174 198 0
174 198 0
174 198 0
173 197 0
174 198 0
175 198 0
173 197 0
175 198 0
174 197 0
173 197 0
175 198 0
173 197 0
175 198 0
174 197 0
173 197 0
174 197 0
175 198 0
176 198 0
174 198 0
173 197 0
174 197 0
174 197 0
175 198 0
174 197 0
174 197 0
174 198 0
174 198 0
176 198 0
175 198 0
175 198 0
172 197 0
173 197 0
171 196 0
174 197 0
175 198 0
174 198 0
174 198 0
176 199 0
173 197 0
174 198 0
174 198 0
176 198 0
175 198 0
174 197 0
175 198 0
175 198 0
174 197 0
175 198 0
175 198 0
173 197 0
175 198 0
176 198 0
175 198 0
173 197 0
173 197 0
173 197 0
174 198 0
174 198 0
175 198 0
175 198 0
176 199 0
173 197 0
175 198 0
175 198 0
173 197 0
174 198 0
175 198 0
173 197 0
172 195 0
175 198 0
174 198 0
175 198 0
175 198 0
174 198 0
173 197 0
173 197 0
174 198 0
175 198 0
175 198 0
175 198 0
174 198 0
172 197 0
174 198 0
174 198 0
174 197 0
174 198 0
173 197 0
173 197 0
175 198 0
175 198 0
174 198 0
175 198 0
173 197 0
173 197 0
176 199 0
173 197 0
174 197 0
174 197 0
175 198 0
173 196 0
172 196 0
173 197 0
175 198 0
174 198 0
175 198 0
173 197 0
173 197 0
175 198 0
171 195 0
174 198 0
175 198 0
175 198 0
174 197 0
174 198 0
174 197 0
173 197 0
174 198 0
173 197 0
174 197 0
173 197 0
174 197 0
175 198 0
173 196 0
174 198 0
174 197 0
173 197 0
172 196 0
174 198 0
173 196 0
174 198 0
173 197 0
176 198 0
172 195 0
173 197 0
172 196 0
174 197 0
173 197 0
173 196 0
175 198 0
174 198 0
174 197 0
175 198 0
174 198 0
173 197 0
172 196 0
172 196 0
173 197 0
173 197 0
175 198 0
174 198 0
173 197 0
171 195 0
175 198 0
170 194 0
173 196 0
175 198 0
171 195 0
173 196 0
174 198 0
175 198 0
173 197 0
173 196 0
172 195 0
175 198 0
172 196 0
174 197 0
173 196 0
172 196 0
174 197 0
169 193 0
173 196 0
171 196 0
172 195 0
173 196 0
172 194 0
172 196 0
169 192 0
173 197 0
170 193 0
173 196 0
173 196 0
171 194 0
169 193 0
170 194 0
169 193 0
172 195 0
169 192 0
171 194 0
168 191 0
169 192 0
170 193 0
170 192 0
172 196 0
171 195 0
170 193 0
170 193 0
171 194 0
170 194 0
172 194 0
170 193 0
171 195 0
163 187 0
168 192 0
170 194 0
167 190 0
169 192 0
169 194 0
170 193 0
169 193 0
170 194 0
170 194 0
171 194 0
171 194 0
170 193 0
169 192 0
172 196 0
172 195 0
169 193 0
173 196 0
167 190 0
170 194 0
168 191 0
171 194 0
172 195 0
169 192 0
172 196 0
170 193 0
171 195 0
171 194 0
170 194 0
171 194 0
172 196 0
172 196 0
168 191 0
171 194 0
173 196 0
171 194 0
172 195 0
172 195 0
172 195 0
173 196 0
171 194 0
170 193 0
171 194 0
170 194 0
173 196 0
172 196 0
170 193 0
171 194 0
173 196 0
169 194 0
173 197 0
173 195 0
173 195 0
172 196 0
175 197 0
172 195 0
173 196 0
171 195 0
173 196 0
173 196 0
173 197 0
173 196 0
174 197 0
171 194 0
174 196 0
173 196 0
175 198 0
173 197 0
174 197 0
172 196 0
174 197 0
174 198 0
172 196 0
174 198 0
174 197 0
174 197 0
173 196 0
173 196 0
174 197 0
171 195 0
174 197 0
173 197 0
174 198 0
173 197 0
174 197 0
173 196 0
172 195 0
174 197 0
173 197 0
174 197 0
174 197 0
171 195 0
174 197 0
173 196 0
175 198 0
173 197 0
172 196 0
174 197 0
171 195 0
176 199 0
173 197 0
175 197 0
173 196 0
172 195 0
174 197 0
173 196 0
172 196 0
175 198 0
173 197 0
174 197 0
174 198 0
173 197 0
176 199 0
174 198 0
173 197 0
176 199 0
175 198 0
175 198 0
174 197 0
175 198 0
174 197 0
173 197 0
175 198 0
174 198 0
175 198 0
174 197 0
175 198 0
175 198 0
174 197 0
175 198 0
175 198 0
173 197 0
176 198 0
175 197 0
174 197 0
174 197 0
174 197 0
175 198 0
174 197 0
173 197 0
173 197 0
174 198 0
173 197 0
174 197 0
173 197 0
175 198 0
174 197 0
174 197 0
173 196 0
173 197 0
174 197 0
174 197 0
174 198 0
174 198 0
173 197 0
175 198 0
173 197 0
175 198 0
174 197 0
174 197 0
176 198 0
172 196 0
175 198 0
175 198 0
174 198 0
174 198 0
175 198 0
175 198 0
174 198 0
174 197 0
177 199 0
174 198 0
175 198 0
174 198 0
175 198 0
174 198 0
175 198 0
175 198 0
173 197 0
176 199 0
175 198 0
174 197 0
175 198 0
175 198 0
175 198 0
173 197 0
175 198 0
174 198 0
175 198 0
173 197 0
175 198 0
174 197 0
174 198 0
174 198 0
173 197 0
175 198 0
173 197 0
175 198 0
175 198 0
175 198 0
173 197 0
174 197 0
174 198 0
175 198 0
174 197 0
175 198 0
173 197 0
175 198 0
174 198 0
174 198 0
174 198 0
175 198 0
174 198 0
175 198 0
174 198 0
176 198 0
173 197 0
175 198 0
174 197 0
175 198 0
175 198 0
174 198 0
172 196 0
175 198 0
175 198 0
176 198 0
174 198 0
175 198 0
175 198 0
175 198 0
174 198 0
173 197 0
174 198 0
175 198 0
174 198 0
174 198 0
175 198 0
174 197 0
174 197 0
175 198 0
173 197 0
175 198 0
175 198 0
175 198 0
174 198 0
174 198 0
174 198 0
173 197 0
175 198 0
175 198 0
173 197 0
174 198 0
174 198 0
174 198 0
175 198 0
174 197 0
176 198 0
176 198 0
173 197 0
174 197 0
175 198 0
175 198 0
173 197 0
173 197 0
174 198 0
174 198 0
176 198 0
174 197 0
174 197 0
175 198 0
175 198 0
175 198 0
174 198 0
174 198 0
175 198 0
174 198 0
175 198 0
175 198 0
174 198 0
174 198 0
175 198 0
174 198 0
174 197 0
174 198 0
174 198 0
173 197 0
173 197 0
174 198 0
174 197 0
173 197 0
172 197 0
174 198 0
173 197 0
174 197 0
174 197 0
171 194 0
174 198 0
174 198 0
174 198 0
175 197 0
175 198 0
173 197 0
172 196 0
173 197 0
175 198 0
174 198 0
173 197 0
173 197 0
173 197 0
173 197 0
173 197 0
174 197 0
172 196 0
175 198 0
176 199 0
173 197 0
173 197 0
174 197 0
173 196 0
174 197 0
173 197 0
174 197 0
174 198 0
172 196 0
172 196 0
173 197 0
172 196 0
175 197 0
172 196 0
173 196 0
174 197 0
173 197 0
171 195 0
173 197 0
172 195 0
174 198 0
174 197 0
175 198 0
174 197 0
173 196 0
172 196 0
175 198 0
174 198 0
173 197 0
173 197 0
172 195 0
172 196 0
174 197 0
174 196 0
173 196 0
171 195 0
175 198 0
172 195 0
172 196 0
175 198 0
172 195 0
173 197 0
172 195 0
173 197 0
173 196 0
174 196 0
174 196 0
171 194 0
172 195 0
173 196 0
172 195 0
173 196 0
173 196 0
170 193 0
174 196 0
169 192 0
171 195 0
174 197 0
174 197 0
171 195 0
174 197 0
173 196 0
172 195 0
172 195 0
170 193 0
173 196 0
171 194 0
171 195 0
174 196 0
170 193 0
172 195 0
171 194 0
170 193 0
173 195 0
169 192 0
168 192 0
164 188 0
169 193 0
169 193 0
169 192 0
170 194 0
172 195 0
168 191 0
170 194 0
169 193 0
167 191 0
169 193 0
166 190 0
170 193 0
167 190 0
169 193 0
168 192 0
166 189 0
170 193 0
173 196 0
173 196 0
169 193 0
170 193 0
169 193 0
171 194 0
167 191 0
169 193 0
172 195 0
173 197 0
167 191 0
170 193 0
173 196 0
169 193 0
171 195 0
169 192 0
171 194 0
172 196 0
169 193 0
173 196 0
170 193 0
169 193 0
172 194 0
169 193 0
169 192 0
167 190 0
170 194 0
172 194 0
170 193 0
172 196 0
170 193 0
172 194 0
172 196 0
172 194 0
173 197 0
171 195 0
172 196 0
172 196 0
170 194 0
172 195 0
171 195 0
170 194 0
171 195 0
173 197 0
172 195 0
172 195 0
172 197 0
172 195 0
171 194 0
172 195 0
171 195 0
169 193 0
174 197 0
174 197 0
171 195 0
171 195 0
174 197 0
169 193 0
172 196 0
174 197 0
171 195 0
171 195 0
175 197 0
175 198 0
171 195 0
175 197 0
174 197 0
171 195 0
172 196 0
174 198 0
173 196 0
170 194 0
174 197 0
174 197 0
172 196 0
173 196 0
173 197 0
172 196 0
176 198 0
175 197 0
174 198 0
173 197 0
174 198 0
175 197 0
173 197 0
175 198 0
175 197 0
175 198 0
175 197 0
174 198 0
174 197 0
173 196 0
172 196 0
172 196 0
175 198 0
172 196 0
174 197 0
174 197 0
173 197 0
174 198 0
175 197 0
173 197 0
174 198 0
172 196 0
174 198 0
173 196 0
173 197 0
174 196 0
174 197 0
174 198 0
175 198 0
172 197 0
172 196 0
174 198 0
174 197 0
174 197 0
174 198 0
173 197 0
174 198 0
172 196 0
174 197 0
175 198 0
173 197 0
173 197 0
176 199 0
175 198 0
175 198 0
173 197 0
174 197 0
174 197 0
174 197 0
175 198 0
175 198 0
175 198 0
172 197 0
176 198 0
175 198 0
173 197 0
173 197 0
174 198 0
175 198 0
173 197 0
174 197 0
174 198 0
174 198 0
175 198 0
174 197 0
175 198 0
175 198 0
174 198 0
175 198 0
173 197 0
174 198 0
175 198 0
173 197 0
174 197 0
175 198 0
175 198 0
175 198 0
175 198 0
174 198 0
173 197 0
175 198 0
175 198 0
174 198 0
174 197 0
174 197 0
176 198 0
174 198 0
174 198 0
174 197 0
173 197 0
175 198 0
174 197 0
175 198 0
173 197 0
173 197 0
173 197 0
176 199 0
175 198 0
174 198 0
175 198 0
173 197 0
174 197 0
174 198 0
175 198 0
175 198 0
176 198 0
174 198 0
173 197 0
175 198 0
173 197 0
175 198 0
176 199 0
174 198 0
175 198 0
176 199 0
174 198 0
173 197 0
174 198 0
173 197 0
175 198 0
175 198 0
174 198 0
174 198 0
174 198 0
174 197 0
175 198 0
173 197 0
172 196 0
175 198 0
173 197 0
173 197 0
175 198 0
173 197 0
175 198 0
174 198 0
173 197 0
177 199 0
176 198 0
175 198 0
174 198 0
173 197 0
175 198 0
175 198 0
174 198 0
175 198 0
176 199 0
174 198 0
175 198 0
175 198 0
174 197 0
175 198 0
173 197 0
174 198 0
174 198 0
174 198 0
175 198 0
173 197 0
171 196 0
173 197 0
174 197 0
173 196 0
173 197 0
174 198 0
172 196 0
175 198 0
174 198 0
172 197 0
175 198 0
175 198 0
174 197 0
173 197 0
175 198 0
175 198 0
174 197 0
174 197 0
173 197 0
173 197 0
175 198 0
175 198 0
173 197 0
173 197 0
173 197 0
175 198 0
174 198 0
175 198 0
174 198 0
174 197 0
174 197 0
172 197 0
174 197 0
173 197 0
175 198 0
173 197 0
174 197 0
174 198 0
173 197 0
174 197 0
174 197 0
176 199 0
175 198 0
174 198 0
175 198 0
174 197 0
175 198 0
175 198 0
174 197 0
175 198 0
173 197 0
174 197 0
174 197 0
172 196 0
173 197 0
174 197 0
173 197 0
174 197 0
172 196 0
174 198 0
174 198 0
175 198 0
174 197 0
175 198 0
174 197 0
173 197 0
175 198 0
174 198 0
173 197 0
175 198 0
175 198 0
175 198 0
173 197 0
173 197 0
173 197 0
174 197 0
173 196 0
172 196 0
175 198 0
175 198 0
172 196 0
174 198 0
175 198 0
173 197 0
172 196 0
174 198 0
174 197 0
172 196 0
176 199 0
173 197 0
171 195 0
172 195 0
172 196 0
170 194 0
173 196 0
173 197 0
172 196 0
171 196 0
174 197 0
172 196 0
175 198 0
171 194 0
172 196 0
173 197 0
174 197 0
174 196 0
174 197 0
174 196 0
173 197 0
171 194 0
173 197 0
171 195 0
172 196 0
174 196 0
171 195 0
175 198 0
173 196 0
171 195 0
173 197 0
170 195 0
174 197 0
172 196 0
171 194 0
171 195 0
170 193 0
172 196 0
171 194 0
173 195 0
172 196 0
172 194 0
171 195 0
173 196 0
172 195 0
169 193 0
172 196 0
173 196 0
170 194 0
169 193 0
170 193 0
169 192 0
169 192 0
170 194 0
172 196 0
169 192 0
170 193 0
170 193 0
170 194 0
171 194 0
169 193 0
169 193 0
168 192 0
169 193 0
170 192 0
169 193 0
170 194 0
166 190 0
168 191 0
172 195 0
169 193 0
171 195 0
174 197 0
165 188 0
172 195 0
172 196 0
169 193 0
169 193 0
169 192 0
172 194 0
167 191 0
172 195 0
169 192 0
167 191 0
168 191 0
172 195 0
171 194 0
167 190 0
169 191 0
172 196 0
172 196 0
173 196 0
170 193 0
173 196 0
169 193 0
172 196 0
172 196 0
171 196 0
173 196 0
171 195 0
171 195 0
172 195 0
171 194 0
169 192 0
172 195 0
174 197 0
172 195 0
170 194 0
173 197 0
172 195 0
170 192 0
172 194 0
168 191 0
172 196 0
173 195 0
172 195 0
173 197 0
174 197 0
173 197 0
171 195 0
170 194 0
172 196 0
174 197 0
174 197 0
171 195 0
174 197 0
173 197 0
174 197 0
173 196 0
170 194 0
174 198 0
173 196 0
172 195 0
173 196 0
171 195 0
174 197 0
174 197 0
173 196 0
174 197 0
173 197 0
174 197 0
173 197 0
174 197 0
172 195 0
175 198 0
173 197 0
173 196 0
171 195 0
174 197 0
174 197 0
170 194 0
174 198 0
173 197 0
174 197 0
173 196 0
173 197 0
173 196 0
173 197 0
176 199 0
174 198 0
172 196 0
173 197 0
174 197 0
174 197 0
173 197 0
174 197 0
174 197 0
171 195 0
175 198 0
173 197 0
176 199 0
174 197 0
175 198 0
175 198 0
174 198 0
173 197 0
174 198 0
175 197 0
173 197 0
173 197 0
174 197 0
173 197 0
171 196 0
174 197 0
172 196 0
173 197 0
175 198 0
174 197 0
175 197 0
175 198 0
173 197 0
175 198 0
173 197 0
174 197 0
174 197 0
173 197 0
173 197 0
174 197 0
176 199 0
175 198 0
175 198 0
175 198 0
175 198 0
173 197 0
173 197 0
173 197 0
175 198 0
176 198 0
174 198 0
173 197 0
175 198 0
173 197 0
174 197 0
175 198 0
174 198 0
174 198 0
176 198 0
174 198 0
173 197 0
174 197 0
175 198 0
175 198 0
175 198 0
172 196 0
174 198 0
175 198 0
173 197 0
173 197 0
173 197 0
174 197 0
175 198 0
175 198 0
174 198 0
173 197 0
173 197 0
173 197 0
174 198 0
173 197 0
174 198 0
175 198 0
175 198 0
174 198 0
172 197 0
176 199 0
176 199 0
174 197 0
175 198 0
175 198 0
176 199 0
176 199 0
172 196 0
175 198 0
174 197 0
175 198 0
175 198 0
173 197 0
174 197 0
173 197 0
174 198 0
174 197 0
173 197 0
173 197 0
174 198 0
174 197 0
176 199 0
174 198 0
177 199 0
175 198 0
172 196 0
175 198 0
174 197 0
173 197 0
174 198 0
175 198 0
176 199 0
175 198 0
174 197 0
174 198 0
174 198 0
176 199 0
174 198 0
175 198 0
174 198 0
175 198 0
174 198 0
174 198 0
173 197 0
175 198 0
175 198 0
175 198 0
173 197 0
175 198 0
173 197 0
174 198 0
174 197 0
175 198 0
174 198 0
174 198 0
173 196 0
174 198 0
175 198 0
174 197 0
175 198 0
175 198 0
175 198 0
176 199 0
175 198 0
175 198 0
173 197 0
175 198 0
173 197 0
175 198 0
173 197 0
173 197 0
175 198 0
174 197 0
175 198 0
175 198 0
174 197 0
173 197 0
174 198 0
174 198 0
173 197 0
174 198 0
173 197 0
176 198 0
174 198 0
173 197 0
175 198 0
174 198 0
173 197 0
175 198 0
175 198 0
174 197 0
174 197 0
174 198 0
175 198 0
173 197 0
173 196 0
174 198 0
173 197 0
175 198 0
177 199 0
172 196 0
174 198 0
176 198 0
172 197 0
173 197 0
174 197 0
174 198 0
174 197 0
176 198 0
174 197 0
173 197 0
174 197 0
173 197 0
171 196 0
173 197 0
174 197 0
174 197 0
174 198 0
177 199 0
175 198 0
173 196 0
172 195 0
176 199 0
172 196 0
173 197 0
172 196 0
174 197 0
173 197 0
176 199 0
176 198 0
175 197 0
172 197 0
174 198 0
173 197 0
173 197 0
176 199 0
174 197 0
172 197 0
174 197 0
175 198 0
173 197 0
173 197 0
176 199 0
175 198 0
173 197 0
175 198 0
175 198 0
173 197 0
172 196 0
174 197 0
174 197 0
173 196 0
173 197 0
174 198 0
174 198 0
174 197 0
174 197 0
175 198 0
175 198 0
173 196 0
175 198 0
175 198 0
173 197 0
173 197 0
174 197 0
174 197 0
173 196 0
174 197 0
174 197 0
171 195 0
174 197 0
174 197 0
174 197 0
173 197 0
174 197 0
175 198 0
173 197 0
173 197 0
173 197 0
173 196 0
175 198 0
171 195 0
171 195 0
173 196 0
174 197 0
174 197 0
173 196 0
173 195 0
173 197 0
173 196 0
173 196 0
172 195 0
174 197 0
172 195 0
173 196 0
173 196 0
173 196 0
172 195 0
174 196 0
173 196 0
172 196 0
173 196 0
172 195 0
170 194 0
171 193 0
174 196 0
171 194 0
170 193 0
170 193 0
171 194 0
167 190 0
173 196 0
168 192 0
169 193 0
169 193 0
167 190 0
173 196 0
171 194 0
172 195 0
171 195 0
169 192 0
172 195 0
168 193 0
173 196 0
171 194 0
173 197 0
170 193 0
168 192 0
172 195 0
174 196 0
167 191 0
168 192 0
171 195 0
170 194 0
167 191 0
171 194 0
171 193 0
168 192 0
170 193 0
170 193 0
170 193 0
168 192 0
173 196 0
169 193 0
169 193 0
172 195 0
171 195 0
170 194 0
170 194 0
169 193 0
171 194 0
170 194 0
172 195 0
171 194 0
169 192 0
171 194 0
170 194 0
174 197 0
174 197 0
172 195 0
171 195 0
172 196 0
168 191 0
175 197 0
173 197 0
174 197 0
171 196 0
170 193 0
174 197 0
174 198 0
173 196 0
171 194 0
173 197 0
172 196 0
172 196 0
173 197 0
173 196 0
172 194 0
172 196 0
171 195 0
171 195 0
171 194 0
173 196 0
173 197 0
174 197 0
173 197 0
173 196 0
170 194 0
172 196 0
172 196 0
174 197 0
174 197 0
173 197 0
173 196 0
170 193 0
173 197 0
173 196 0
174 197 0
174 197 0
171 194 0
173 197 0
174 197 0
174 198 0
174 198 0
174 196 0
175 198 0
174 197 0
174 197 0
174 198 0
173 196 0
175 198 0
174 198 0
172 196 0
174 198 0
174 196 0
171 194 0
173 197 0
173 197 0
172 196 0
173 197 0
173 197 0
175 198 0
173 197 0
175 198 0
174 197 0
172 197 0
175 198 0
174 198 0
173 196 0
172 196 0
175 198 0
174 197 0
173 195 0
175 198 0
175 197 0
174 197 0
175 198 0
174 198 0
173 197 0
176 199 0
176 199 0
174 197 0
176 198 0
174 197 0
175 198 0
175 198 0
174 197 0
174 197 0
173 197 0
174 197 0
174 197 0
175 198 0
176 199 0
174 198 0
173 196 0
174 197 0
174 198 0
175 198 0
175 198 0
174 198 0
175 198 0
176 198 0
173 197 0
173 197 0
174 198 0
175 198 0
174 198 0
174 198 0
173 196 0
173 197 0
173 197 0
174 198 0
176 198 0
175 198 0
176 199 0
172 196 0
174 198 0
175 198 0
176 199 0
174 197 0
176 198 0
173 197 0
175 198 0
174 197 0
174 197 0
172 196 0
175 198 0
173 196 0
176 199 0
175 198 0
176 198 0
175 198 0
175 198 0
175 198 0
174 198 0
174 197 0
175 198 0
173 197 0
177 199 0
175 198 0
172 197 0
173 197 0
174 198 0
174 198 0
174 197 0
173 197 0
172 196 0
174 197 0
174 198 0
173 197 0
174 197 0
174 198 0
174 198 0
175 198 0
174 198 0
175 198 0
175 198 0
175 198 0
174 198 0
174 197 0
175 198 0
174 198 0
174 197 0
174 197 0
176 198 0
176 199 0
174 198 0
175 198 0
175 198 0
174 198 0
174 198 0
174 198 0
174 198 0
173 197 0
174 198 0
175 198 0
173 197 0
173 197 0
174 198 0
175 198 0
173 196 0
175 198 0
175 198 0
175 198 0
173 197 0
174 198 0
172 196 0
174 198 0
175 198 0
174 198 0
174 197 0
173 197 0
174 198 0
175 198 0
176 199 0
172 196 0
175 198 0
174 197 0
174 198 0
174 198 0
173 196 0
172 196 0
174 198 0
173 197 0
174 198 0
174 197 0
174 198 0
174 198 0
173 197 0
173 197 0
174 197 0
175 198 0
175 198 0
173 197 0
175 198 0
173 197 0
174 198 0
174 197 0
174 198 0
174 198 0
174 198 0
174 198 0
175 198 0
174 198 0
175 198 0
174 198 0
173 197 0
175 198 0
173 197 0
174 198 0
175 198 0
174 197 0
174 197 0
173 197 0
174 198 0
176 199 0
173 197 0
175 198 0
174 198 0
174 197 0
174 197 0
174 197 0
175 198 0
174 197 0
174 198 0
174 198 0
176 199 0
175 198 0
174 198 0
175 198 0
173 197 0
173 197 0
172 196 0
175 198 0
173 197 0
175 198 0
175 198 0
175 198 0
173 197 0
173 197 0
175 198 0
172 197 0
174 197 0
172 196 0
175 198 0
173 196 0
173 196 0
174 197 0
173 197 0
174 198 0
172 196 0
175 198 0
173 197 0
173 197 0
171 194 0
175 198 0
173 197 0
174 198 0
175 198 0
174 198 0
173 197 0
174 198 0
172 196 0
173 197 0
173 196 0
173 197 0
174 198 0
174 197 0
175 198 0
170 194 0
174 197 0
175 198 0
173 196 0
173 197 0
174 198 0
173 197 0
173 197 0
175 198 0
174 197 0
173 197 0
171 195 0
175 198 0
172 196 0
174 198 0
171 194 0
172 196 0
171 195 0
173 197 0
171 195 0
172 196 0
172 196 0
174 197 0
172 196 0
174 197 0
174 197 0
172 196 0
171 194 0
174 197 0
172 195 0
175 198 0
172 195 0
174 198 0
174 197 0
174 196 0
176 199 0
173 197 0
173 196 0
173 197 0
175 198 0
174 197 0
171 195 0
173 196 0
173 196 0
173 197 0
172 195 0
170 193 0
170 193 0
174 197 0
171 196 0
171 194 0
170 193 0
172 195 0
174 197 0
170 193 0
173 196 0
171 194 0
170 193 0
170 193 0
172 195 0
171 195 0
174 196 0
167 191 0
171 194 0
172 196 0
166 191 0
171 195 0
173 196 0
172 195 0
172 195 0
171 195 0
168 193 0
172 196 0
170 193 0
172 195 0
171 193 0
170 193 0
168 192 0
170 193 0
171 195 0
174 197 0
170 193 0
168 192 0
173 197 0
171 195 0
172 195 0
171 195 0
168 192 0
171 194 0
168 192 0
171 194 0
170 193 0
168 191 0
172 195 0
172 196 0
170 193 0
174 197 0
171 195 0
172 195 0
173 196 0
173 196 0
170 194 0
171 194 0
172 196 0
171 194 0
173 196 0
170 194 0
174 198 0
174 196 0
173 197 0
172 195 0
171 194 0
173 197 0
173 196 0
171 195 0
173 197 0
174 198 0
171 194 0
173 197 0
171 195 0
173 196 0
174 198 0
174 198 0
172 195 0
174 196 0
173 196 0
173 196 0
172 196 0
173 196 0
172 196 0
174 197 0
171 195 0
172 195 0
175 198 0
175 198 0
175 198 0
173 197 0
175 198 0
171 195 0
170 193 0
172 196 0
174 197 0
172 196 0
174 197 0
174 197 0
172 196 0
174 198 0
173 197 0
171 195 0
174 197 0
172 196 0
175 198 0
174 198 0
173 196 0
174 198 0
173 197 0
172 196 0
174 197 0
173 197 0
173 197 0
174 198 0
174 197 0
172 195 0
173 197 0
175 198 0
174 198 0
173 196 0
174 197 0
172 196 0
174 197 0
173 196 0
172 196 0
175 198 0
174 198 0
173 197 0
174 197 0
175 198 0
174 198 0
175 198 0
171 195 0
175 198 0
174 197 0
173 197 0
176 198 0
175 198 0
174 196 0
173 196 0
173 197 0
174 198 0
175 198 0
174 197 0
172 196 0
174 197 0
173 197 0
175 198 0
175 198 0
175 198 0
175 198 0
174 198 0
174 197 0
174 197 0
175 198 0
174 197 0
175 198 0
175 198 0
176 198 0
175 198 0
173 197 0
175 198 0
173 197 0
173 197 0
175 198 0
173 197 0
173 196 0
173 197 0
175 198 0
174 198 0
173 197 0
175 198 0
174 197 0
174 198 0
174 197 0
174 197 0
174 198 0
175 198 0
175 198 0
173 197 0
175 198 0
173 197 0
174 198 0
177 199 0
174 198 0
173 197 0
174 197 0
174 197 0
174 197 0
174 197 0
174 198 0
173 197 0
174 198 0
173 197 0
173 197 0
174 198 0
174 197 0
175 198 0
174 197 0
175 198 0
175 198 0
175 198 0
174 198 0
174 198 0
174 197 0
173 197 0
173 197 0
174 198 0
175 198 0
174 198 0
175 198 0
174 198 0
175 198 0
175 198 0
174 197 0
175 198 0
175 198 0
174 198 0
173 197 0
176 199 0
173 197 0
174 197 0
174 197 0
175 198 0
176 199 0
175 198 0
175 198 0
173 197 0
177 199 0
173 197 0
173 197 0
174 197 0
175 198 0
174 198 0
175 198 0
175 198 0
175 198 0
174 198 0
174 197 0
175 198 0
175 198 0
173 196 0
173 197 0
176 199 0
174 198 0
175 198 0
174 198 0
174 198 0
174 197 0
174 197 0
173 197 0
174 198 0
175 198 0
174 198 0
174 198 0
174 197 0
175 198 0
177 199 0
174 198 0
174 198 0
173 197 0
174 197 0
174 197 0
174 198 0
174 197 0
174 197 0
174 198 0
173 197 0
173 197 0
173 197 0
173 197 0
176 198 0
175 198 0
174 197 0
174 197 0
174 197 0
173 197 0
175 198 0
175 198 0
174 198 0
174 198 0
175 198 0
175 198 0
174 198 0
175 198 0
174 198 0
175 198 0
173 197 0
174 198 0
173 197 0
175 198 0
175 198 0
175 198 0
174 198 0
174 197 0
173 197 0
173 197 0
175 198 0
175 198 0
175 198 0
174 197 0
173 197 0
173 197 0
174 198 0
175 198 0
171 195 0
175 198 0
175 198 0
173 197 0
175 198 0
176 198 0
174 197 0
172 196 0
174 197 0
175 198 0
175 198 0
173 197 0
174 198 0
174 198 0
175 198 0
173 197 0
175 198 0
175 198 0
175 198 0
172 196 0
173 197 0
175 198 0
173 197 0
174 197 0
174 198 0
176 199 0
175 198 0
173 197 0
174 197 0
173 197 0
174 198 0
174 198 0
174 197 0
173 196 0
172 195 0
174 197 0
172 196 0
174 197 0
175 198 0
175 198 0
176 198 0
173 196 0
174 197 0
173 197 0
175 198 0
174 197 0
172 196 0
173 197 0
173 197 0
174 197 0
174 197 0
174 197 0
173 197 0
172 195 0
174 198 0
175 198 0
174 198 0
174 198 0
173 197 0
174 198 0
172 196 0
173 197 0
175 198 0
175 198 0
174 197 0
173 197 0
172 195 0
174 197 0
174 197 0
173 196 0
175 198 0
174 198 0
173 197 0
172 195 0
173 196 0
175 198 0
172 196 0
176 199 0
173 196 0
174 197 0
175 197 0
172 195 0
174 197 0
173 197 0
174 197 0
173 196 0
173 197 0
170 193 0
173 196 0
172 195 0
171 195 0
171 195 0
173 196 0
170 193 0
172 195 0
172 195 0
173 197 0
171 195 0
172 195 0
167 191 0
170 195 0
173 196 0
171 195 0
171 195 0
170 194 0
170 193 0
170 193 0
174 197 0
173 197 0
172 195 0
172 196 0
171 195 0
172 195 0
170 194 0
172 195 0
174 197 0
167 190 0
173 195 0
171 194 0
170 193 0
173 196 0
172 195 0
170 193 0
172 195 0
167 191 0
170 193 0
169 192 0
169 193 0
168 192 0
171 194 0
170 193 0
173 196 0
172 195 0
172 195 0
172 195 0
172 196 0
170 194 0
171 194 0
170 194 0
169 191 0
171 195 0
172 196 0
173 197 0
170 194 0
172 195 0
173 196 0
171 194 0
171 194 0
172 195 0
173 196 0
172 196 0
174 198 0
170 194 0
170 193 0
171 195 0
174 198 0
172 197 0
174 197 0
172 195 0
173 196 0
171 195 0
172 195 0
172 195 0
173 196 0
172 195 0
172 196 0
173 196 0
171 194 0
172 195 0
172 196 0
174 197 0
171 195 0
169 193 0
175 198 0
171 195 0
171 195 0
174 198 0
172 196 0
174 197 0
172 196 0
174 197 0
174 196 0
172 196 0
172 196 0
174 197 0
173 195 0
171 194 0
172 195 0
172 196 0
172 196 0
172 195 0
174 198 0
171 195 0
175 198 0
174 198 0
174 198 0
174 197 0
174 197 0
171 195 0
171 195 0
175 197 0
172 196 0
172 196 0
173 196 0
173 197 0
171 194 0
175 198 0
173 197 0
174 198 0
174 197 0
173 197 0
174 197 0
174 197 0
174 198 0
175 197 0
175 198 0
174 198 0
174 197 0
175 197 0
174 198 0
172 195 0
174 197 0
173 197 0
174 197 0
173 197 0
175 198 0
173 196 0
174 197 0
172 196 0
174 197 0
175 198 0
174 197 0
174 198 0
175 198 0
173 196 0
175 198 0
175 198 0
172 196 0
174 197 0
172 195 0
174 198 0
173 197 0
173 197 0
174 197 0
172 195 0
174 197 0
173 196 0
175 198 0
174 197 0
172 197 0
175 198 0
172 196 0
175 198 0
174 198 0
173 197 0
174 198 0
174 198 0
175 198 0
174 197 0
174 197 0
176 198 0
174 198 0
174 198 0
175 198 0
174 197 0
173 197 0
173 197 0
174 198 0
173 197 0
175 198 0
176 199 0
173 197 0
174 198 0
175 198 0
175 198 0
173 197 0
174 198 0
173 197 0
174 198 0
176 198 0
175 198 0
176 199 0
174 197 0
175 198 0
175 198 0
174 197 0
175 198 0
173 197 0
175 198 0
176 199 0
172 196 0
175 198 0
176 198 0
175 198 0
175 198 0
175 198 0
174 197 0
173 197 0
176 198 0
174 198 0
174 198 0
176 199 0
174 197 0
173 197 0
175 198 0
176 199 0
174 198 0
175 198 0
174 197 0
175 198 0
174 198 0
174 198 0
175 198 0
174 197 0
177 199 0
174 198 0
175 198 0
173 197 0
175 198 0
173 197 0
175 198 0
175 198 0
175 198 0
174 197 0
175 198 0
175 198 0
174 198 0
175 198 0
174 198 0
175 198 0
174 198 0
177 199 0
175 198 0
173 197 0
174 198 0
173 197 0
177 199 0
175 198 0
175 198 0
174 198 0
175 197 0
174 197 0
174 198 0
175 198 0
174 198 0
174 197 0
175 198 0
172 196 0
174 198 0
173 197 0
174 198 0
174 198 0
175 198 0
174 198 0
172 197 0
175 198 0
174 198 0
174 197 0
173 197 0
174 197 0
174 198 0
175 198 0
174 198 0
174 197 0
174 198 0
174 197 0
175 198 0
176 199 0
175 198 0
174 198 0
175 198 0
175 198 0
176 199 0
174 197 0
174 197 0
174 197 0
174 198 0
174 198 0
176 199 0
175 198 0
172 197 0
174 198 0
174 198 0
174 198 0
175 198 0
173 197 0
174 198 0
175 198 0
173 197 0
174 198 0
174 198 0
176 198 0
174 198 0
176 199 0
175 198 0
175 198 0
174 198 0
175 198 0
174 198 0
174 197 0
173 197 0
175 198 0
172 197 0
174 198 0
173 196 0
175 198 0
175 198 0
175 198 0
173 197 0
173 197 0
174 198 0
175 198 0
174 198 0
175 198 0
173 196 0
175 198 0
174 197 0
172 195 0
174 198 0
175 198 0
176 198 0
174 198 0
174 197 0
172 196 0
174 197 0
175 198 0
175 198 0
173 197 0
172 196 0
174 197 0
173 196 0
172 196 0
175 198 0
173 197 0
172 196 0
171 195 0
174 198 0
174 198 0
174 198 0
171 194 0
172 197 0
174 197 0
174 197 0
174 197 0
174 197 0
173 196 0
173 197 0
176 199 0
173 197 0
171 195 0
174 197 0
174 198 0
174 198 0
174 198 0
173 197 0
175 198 0
173 197 0
173 197 0
174 197 0
171 194 0
174 197 0
173 197 0
173 197 0
175 198 0
173 197 0
171 195 0
172 196 0
169 194 0
173 196 0
174 198 0
174 197 0
175 198 0
170 194 0
174 197 0
174 198 0
174 197 0
174 197 0
172 196 0
173 196 0
172 196 0
175 198 0
174 197 0
172 195 0
173 197 0
172 195 0
175 198 0
172 196 0
170 194 0
172 194 0
173 197 0
174 197 0
171 196 0
172 196 0
171 194 0
173 197 0
170 194 0
172 196 0
171 195 0
173 196 0
172 196 0
171 195 0
172 196 0
173 196 0
174 197 0
168 191 0
166 190 0
174 198 0
174 197 0
172 195 0
170 194 0
169 193 0
172 195 0
171 195 0
167 189 0
171 194 0
170 194 0
172 195 0
171 194 0
171 195 0
171 195 0
172 195 0
171 194 0
170 194 0
172 196 0
172 195 0
169 192 0
172 195 0
172 195 0
171 195 0
170 193 0
169 194 0
172 196 0
170 194 0
171 194 0
170 193 0
169 193 0
173 197 0
170 193 0
171 195 0
172 195 0
171 193 0
169 193 0
173 196 0
172 196 0
171 195 0
172 196 0
170 193 0
172 195 0
170 194 0
172 196 0
172 195 0
171 194 0
174 197 0
173 195 0
172 195 0
170 193 0
169 193 0
170 194 0
170 194 0
170 194 0
171 195 0
173 196 0
173 196 0
174 196 0
173 197 0
169 193 0
172 196 0
174 197 0
172 196 0
172 196 0
171 194 0
175 198 0
173 196 0
171 196 0
173 196 0
172 195 0
172 196 0
171 195 0
173 196 0
174 196 0
173 197 0
174 197 0
174 197 0
172 195 0
173 197 0
174 198 0
173 197 0
169 192 0
172 196 0
173 196 0
172 196 0
173 196 0
175 198 0
174 197 0
173 196 0
172 196 0
173 196 0
172 196 0
174 197 0
174 197 0
173 196 0
175 197 0
172 196 0
175 197 0
172 197 0
174 197 0
175 198 0
173 197 0
172 196 0
175 198 0
172 196 0
173 197 0
173 197 0
174 197 0
175 198 0
174 197 0
174 197 0
174 198 0
173 197 0
174 197 0
175 198 0
174 197 0
172 195 0
175 198 0
173 197 0
175 198 0
174 197 0
174 197 0
175 198 0
173 196 0
174 197 0
173 196 0
174 197 0
172 197 0
175 198 0
174 197 0
174 198 0
172 196 0
173 197 0
174 197 0
174 198 0
173 197 0
175 198 0
176 199 0
173 196 0
172 196 0
174 197 0
174 197 0
175 198 0
175 198 0
173 197 0
174 198 0
174 197 0
174 197 0
175 198 0
172 196 0
175 198 0
174 198 0
175 198 0
176 199 0
173 196 0
173 196 0
175 198 0
174 197 0
174 197 0
173 197 0
175 198 0
174 197 0
176 198 0
173 197 0
175 198 0
172 196 0
173 197 0
173 196 0
173 197 0
174 197 0
174 198 0
174 198 0
176 198 0
176 199 0
175 198 0
174 198 0
175 198 0
175 198 0
174 197 0
175 198 0
176 199 0
174 197 0
172 197 0
172 196 0
174 198 0
172 196 0
173 197 0
174 198 0
173 197 0
174 198 0
176 198 0
173 197 0
173 197 0
173 197 0
176 199 0
176 199 0
176 199 0
175 198 0
175 198 0
173 197 0
174 198 0
174 198 0
175 198 0
174 197 0
176 198 0
174 198 0
174 198 0
173 197 0
174 198 0
173 197 0
174 197 0
176 199 0
175 198 0
174 198 0
174 198 0
173 197 0
173 197 0
175 198 0
176 198 0
176 199 0
175 198 0
174 197 0
174 198 0
175 198 0
174 198 0
174 197 0
175 198 0
174 197 0
174 197 0
175 198 0
175 198 0
173 197 0
175 198 0
174 198 0
175 198 0
173 197 0
174 197 0
174 198 0
174 198 0
175 198 0
173 197 0
174 198 0
174 198 0
173 197 0
174 198 0
173 197 0
174 198 0
173 197 0
175 198 0
175 198 0
175 198 0
176 199 0
176 199 0
176 199 0
174 197 0
175 198 0
175 198 0
174 197 0
175 198 0
173 197 0
175 198 0
174 198 0
174 198 0
174 198 0
174 198 0
175 198 0
175 198 0
174 198 0
175 198 0
174 198 0
174 198 0
173 197 0
175 198 0
174 198 0
175 198 0
174 197 0
175 198 0
176 199 0
173 197 0
174 198 0
172 195 0
173 197 0
177 199 0
174 197 0
174 197 0
173 197 0
176 198 0
174 197 0
174 197 0
173 197 0
175 198 0
174 197 0
173 197 0
173 197 0
175 198 0
174 197 0
176 198 0
174 197 0
174 197 0
174 198 0
173 197 0
175 198 0
175 198 0
176 199 0
171 196 0
174 198 0
173 197 0
174 198 0
173 197 0
175 198 0
172 196 0
174 198 0
174 198 0
174 197 0
175 198 0
174 198 0
174 197 0
173 197 0
174 198 0
172 196 0
173 197 0
173 197 0
174 197 0
174 198 0
173 196 0
175 198 0
175 198 0
174 198 0
174 198 0
174 197 0
174 198 0
172 197 0
172 196 0
174 198 0
173 197 0
172 196 0
172 196 0
173 197 0
173 197 0
175 198 0
174 197 0
172 196 0
174 197 0
174 198 0
174 198 0
173 196 0
173 197 0
174 197 0
174 198 0
173 197 0
175 198 0
175 198 0
171 195 0
174 197 0
176 198 0
172 196 0
172 196 0
173 197 0
172 196 0
173 196 0
173 197 0
173 197 0
174 197 0
173 197 0
173 197 0
174 197 0
173 196 0
172 195 0
173 197 0
172 195 0
171 195 0
171 195 0
171 195 0
173 197 0
175 198 0
173 196 0
173 197 0
173 197 0
171 194 0
173 197 0
172 195 0
174 197 0
173 197 0
169 192 0
175 197 0
172 196 0
172 196 0
172 195 0
173 196 0
174 197 0
172 196 0
171 196 0
170 194 0
172 196 0
171 194 0
175 198 0
171 195 0
174 198 0
172 195 0
173 196 0
168 192 0
172 195 0
172 195 0
172 195 0
172 195 0
172 195 0
168 191 0
169 193 0
171 194 0
172 195 0
173 196 0
169 193 0
168 192 0
166 189 0
171 195 0
174 197 0
170 194 0
171 194 0
170 194 0
174 197 0
170 194 0
167 191 0
169 192 0
170 193 0
168 191 0
169 193 0
172 196 0
174 197 0
172 195 0
171 194 0
168 191 0
170 194 0
172 195 0
171 194 0
174 197 0
175 197 0
171 194 0
169 193 0
172 195 0
168 192 0
174 197 0
168 192 0
169 192 0
173 196 0
172 195 0
171 195 0
171 195 0
170 194 0
172 195 0
173 196 0
173 196 0
173 196 0
174 198 0
171 196 0
173 196 0
172 196 0
173 196 0
171 194 0
172 196 0
174 197 0
172 196 0
171 194 0
173 197 0
172 196 0
173 197 0
173 197 0
172 196 0
173 196 0
172 195 0
174 198 0
174 197 0
172 196 0
172 196 0
177 199 0
172 196 0
171 195 0
173 196 0
173 196 0
172 195 0
174 197 0
173 197 0
170 193 0
175 197 0
171 195 0
172 196 0
173 197 0
171 195 0
175 198 0
171 195 0
174 198 0
174 197 0
175 198 0
174 197 0
174 197 0
171 194 0
172 195 0
173 197 0
173 196 0
175 198 0
175 198 0
174 198 0
171 194 0
174 197 0
173 196 0
174 198 0
174 198 0
174 197 0
174 197 0
174 197 0
174 197 0
175 198 0
175 198 0
173 197 0
171 196 0
173 196 0
175 198 0
175 198 0
174 197 0
174 197 0
175 198 0
175 198 0
171 195 0
173 197 0
173 197 0
174 197 0
173 196 0
173 196 0
175 198 0
175 198 0
173 197 0
175 198 0
173 196 0
174 197 0
175 198 0
174 197 0
174 197 0
174 198 0
174 197 0
174 198 0
175 198 0
175 198 0
175 198 0
175 198 0
175 198 0
175 198 0
175 198 0
174 198 0
174 198 0
176 199 0
173 197 0
174 198 0
174 197 0
174 197 0
174 198 0
176 198 0
174 198 0
172 197 0
174 197 0
175 198 0
173 197 0
173 197 0
173 196 0
174 198 0
174 197 0
174 197 0
176 198 0
175 198 0
175 198 0
173 197 0
173 197 0
174 198 0
173 197 0
174 198 0
175 198 0
174 198 0
174 197 0
174 198 0
173 197 0
173 197 0
176 198 0
173 197 0
173 197 0
175 198 0
175 198 0
173 197 0
175 198 0
174 198 0
174 197 0
175 198 0
175 198 0
174 198 0
175 198 0
174 198 0
176 198 0
173 196 0
176 199 0
174 197 0
173 197 0
174 197 0
176 198 0
174 198 0
175 198 0
175 198 0
175 198 0
173 197 0
174 197 0
173 197 0
174 197 0
173 197 0
176 199 0
176 199 0
172 196 0
176 199 0
173 197 0
174 198 0
173 197 0
173 197 0
175 198 0
173 197 0
175 198 0
176 199 0
176 198 0
174 197 0
173 197 0
172 197 0
175 198 0
173 197 0
176 199 0
175 198 0
175 198 0
176 199 0
172 197 0
174 198 0
174 198 0
176 199 0
174 198 0
174 197 0
175 198 0
174 198 0
176 199 0
174 197 0
174 198 0
176 199 0
176 198 0
175 198 0
174 198 0
174 197 0
174 197 0
174 198 0
175 198 0
175 198 0
174 198 0
175 198 0
174 198 0
174 198 0
173 197 0
175 198 0
175 198 0
175 198 0
175 198 0
174 198 0
176 199 0
176 199 0
175 198 0
174 198 0
174 198 0
174 198 0
175 198 0
174 197 0
172 197 0
174 198 0
175 198 0
174 198 0
173 197 0
176 198 0
177 199 0
174 198 0
174 198 0
173 197 0
174 198 0
175 198 0
173 196 0
176 199 0
174 198 0
174 197 0
174 198 0
173 197 0
175 198 0
173 197 0
175 198 0
175 198 0
173 197 0
175 198 0
173 197 0
175 198 0
173 197 0
172 196 0
173 197 0
174 198 0
175 198 0
174 197 0
175 198 0
175 198 0
173 197 0
174 197 0
173 197 0
174 198 0
175 198 0
174 198 0
174 197 0
174 198 0
175 198 0
174 197 0
174 197 0
175 198 0
173 196 0
173 197 0
175 198 0
171 195 0
173 197 0
174 198 0
174 197 0
173 197 0
174 198 0
173 197 0
175 198 0
172 196 0
174 198 0
173 196 0
174 198 0
173 196 0
174 197 0
174 198 0
173 197 0
173 196 0
174 197 0
172 196 0
173 196 0
174 197 0
173 197 0
174 198 0
173 197 0
174 198 0
174 198 0
175 198 0
173 197 0
173 197 0
173 196 0
174 198 0
172 195 0
173 197 0
172 197 0
172 196 0
175 198 0
173 196 0
173 197 0
172 196 0
174 197 0
173 197 0
174 197 0
172 195 0
173 197 0
173 196 0
174 197 0
172 195 0
173 196 0
172 196 0
174 197 0
175 198 0
172 195 0
173 196 0
173 196 0
173 196 0
172 195 0
171 195 0
172 196 0
175 198 0
170 194 0
173 195 0
172 196 0
172 196 0
172 195 0
173 196 0
171 195 0
174 198 0
172 196 0
170 193 0
174 198 0
171 195 0
171 195 0
172 196 0
170 194 0
174 197 0
172 196 0
173 196 0
173 197 0
172 195 0
173 197 0
171 194 0
171 194 0
174 197 0
170 193 0
172 196 0
175 198 0
170 194 0
167 191 0
170 194 0
171 195 0
173 197 0
169 193 0
172 196 0
172 196 0
170 194 0
171 195 0
169 193 0
165 189 0
168 192 0
174 197 0
167 191 0
171 195 0
171 195 0
170 194 0
172 196 0
169 194 0
171 194 0
169 192 0
171 195 0
171 194 0
170 194 0
172 196 0
169 193 0
167 190 0
172 196 0
172 195 0
171 195 0
173 196 0
170 193 0
172 196 0
172 196 0
172 195 0
169 192 0
173 196 0
171 195 0
172 195 0
171 194 0
170 194 0
171 194 0
172 195 0
170 194 0
174 197 0
170 193 0
171 195 0
170 193 0
172 196 0
174 197 0
172 195 0
173 196 0
170 194 0
172 196 0
172 195 0
173 196 0
172 195 0
171 194 0
174 198 0
174 196 0
174 197 0
173 197 0
174 197 0
174 198 0
173 197 0
174 197 0
174 197 0
172 194 0
174 196 0
174 197 0
170 194 0
171 194 0
170 193 0
172 195 0
173 197 0
170 194 0
173 197 0
174 197 0
172 195 0
172 196 0
173 197 0
173 197 0
174 197 0
171 194 0
174 197 0
173 197 0
172 196 0
172 196 0
173 197 0
173 196 0
174 197 0
172 196 0
173 197 0
174 197 0
174 197 0
173 196 0
172 196 0
174 198 0
174 198 0
173 196 0
174 197 0
176 198 0
173 197 0
174 197 0
175 198 0
173 196 0
175 198 0
174 197 0
173 197 0
173 197 0
173 197 0
173 197 0
173 197 0
173 197 0
176 198 0
176 199 0
175 198 0
173 197 0
175 198 0
173 196 0
173 197 0
175 198 0
175 198 0
174 198 0
173 197 0
174 197 0
173 197 0
174 197 0
175 198 0
175 198 0
173 197 0
175 197 0
173 197 0
173 197 0
174 198 0
173 197 0
173 197 0
173 197 0
175 198 0
174 198 0
176 198 0
175 198 0
173 197 0
173 196 0
173 197 0
176 198 0
174 198 0
174 197 0
173 196 0
175 198 0
176 198 0
175 198 0
172 196 0
173 197 0
175 198 0
174 197 0
173 197 0
174 197 0
173 197 0
176 199 0
173 197 0
174 197 0
175 198 0
175 198 0
171 196 0
173 197 0
174 197 0
174 198 0
173 197 0
174 198 0
174 198 0
174 197 0
174 198 0
174 197 0
174 198 0
174 197 0
175 198 0
174 197 0
174 198 0
174 198 0
174 198 0
173 196 0
175 198 0
176 199 0
172 197 0
174 197 0
173 197 0
173 197 0
174 198 0
173 197 0
175 198 0
174 198 0
173 196 0
174 197 0
175 198 0
173 197 0
174 197 0
172 197 0
175 198 0
173 197 0
175 198 0
174 198 0
173 197 0
174 198 0
176 199 0
174 198 0
174 197 0
175 198 0
173 196 0
175 198 0
173 197 0
174 197 0
174 198 0
175 198 0
174 197 0
176 198 0
173 197 0
175 198 0
175 198 0
175 198 0
174 197 0
174 198 0
176 199 0
174 197 0
176 199 0
176 199 0
174 198 0
177 199 0
174 198 0
173 197 0
175 198 0
174 197 0
175 198 0
173 197 0
174 198 0
173 197 0
173 197 0
173 197 0
174 197 0
171 195 0
173 197 0
176 199 0
175 198 0
174 197 0
175 198 0
173 197 0
174 197 0
174 197 0
175 198 0
176 199 0
175 198 0
174 198 0
173 197 0
173 197 0
174 197 0
175 198 0
173 197 0
175 198 0
172 197 0
177 199 0
174 197 0
174 198 0
174 198 0
172 197 0
172 197 0
175 198 0
173 197 0
175 198 0
175 198 0
175 198 0
173 197 0
174 198 0
174 197 0
174 198 0
173 197 0
174 197 0
175 198 0
174 198 0
174 198 0
174 197 0
175 198 0
174 197 0
175 198 0
174 198 0
174 198 0
174 197 0
174 197 0
173 197 0
174 197 0
174 197 0
173 197 0
174 198 0
174 197 0
174 197 0
170 195 0
175 198 0
176 199 0
173 196 0
173 196 0
173 197 0
175 198 0
174 198 0
175 198 0
173 197 0
171 195 0
172 197 0
171 196 0
173 197 0
176 198 0
173 197 0
174 197 0
174 197 0
174 197 0
173 196 0
173 196 0
175 198 0
175 198 0
174 197 0
172 196 0
173 196 0
174 198 0
174 197 0
175 198 0
173 197 0
174 197 0
173 197 0
174 198 0
173 197 0
175 198 0
174 198 0
173 197 0
174 197 0
176 199 0
171 195 0
173 196 0
175 198 0
174 197 0
175 198 0
174 198 0
173 197 0
175 198 0
173 197 0
172 196 0
174 197 0
174 198 0
173 197 0
175 198 0
173 197 0
175 198 0
172 196 0
173 196 0
172 196 0
173 196 0
173 196 0
173 197 0
173 196 0
175 197 0
172 196 0
172 196 0
174 197 0
172 196 0
172 196 0
173 196 0
173 197 0
175 197 0
174 197 0
174 197 0
174 197 0
172 196 0
175 198 0
169 193 0
173 197 0
173 196 0
172 196 0
173 196 0
172 195 0
171 194 0
169 193 0
171 195 0
171 195 0
173 196 0
173 197 0
175 198 0
172 195 0
169 192 0
173 196 0
172 196 0
173 196 0
173 197 0
174 197 0
173 196 0
173 196 0
171 194 0
173 196 0
170 194 0
172 195 0
172 196 0
172 195 0
174 197 0
169 193 0
172 196 0
173 196 0
170 195 0
174 197 0
174 197 0
173 196 0
170 193 0
173 196 0
173 197 0
168 192 0
171 195 0
170 194 0
172 195 0
171 194 0
173 195 0
173 196 0
170 193 0
172 196 0
168 191 0
167 191 0
170 193 0
169 193 0
171 194 0
171 195 0
172 196 0
170 194 0
171 194 0
173 196 0
171 195 0
174 197 0
171 195 0
169 192 0
168 192 0
173 196 0
169 193 0
172 195 0
174 197 0
174 197 0
170 194 0
172 196 0
171 195 0
174 197 0
171 194 0
171 194 0
174 197 0
172 195 0
171 193 0
174 197 0
172 196 0
171 194 0
171 195 0
173 196 0
172 195 0
172 195 0
173 196 0
172 195 0
172 196 0
171 195 0
175 197 0
172 195 0
172 195 0
173 196 0
172 195 0
171 194 0
173 196 0
172 195 0
171 194 0
173 197 0
174 196 0
173 197 0
172 196 0
173 196 0
172 195 0
175 198 0
171 194 0
173 197 0
172 196 0
173 196 0
174 197 0
172 195 0
174 197 0
174 197 0
173 197 0
172 195 0
175 198 0
175 198 0
173 197 0
173 197 0
173 196 0
174 197 0
175 198 0
172 196 0
174 197 0
174 196 0
173 196 0
174 198 0
174 197 0
174 198 0
173 196 0
175 197 0
173 197 0
174 197 0
174 197 0
175 198 0
174 197 0
174 197 0
174 197 0
174 197 0
172 196 0
173 197 0
175 198 0
172 196 0
174 198 0
174 197 0
174 198 0
175 198 0
175 198 0
175 198 0
173 197 0
175 198 0
175 198 0
174 197 0
175 198 0
173 196 0
173 197 0
173 196 0
173 196 0
172 196 0
174 198 0
174 198 0
173 197 0
173 197 0
171 196 0
174 198 0
173 197 0
174 197 0
174 197 0
175 198 0
174 198 0
174 198 0
174 197 0
174 197 0
172 196 0
174 197 0
174 198 0
175 198 0
173 197 0
175 198 0
174 197 0
174 198 0
174 198 0
172 196 0
174 197 0
175 198 0
174 197 0
174 198 0
176 198 0
175 198 0
175 198 0
174 198 0
173 197 0
176 198 0
174 198 0
174 198 0
174 197 0
175 198 0
174 197 0
176 199 0
172 196 0
174 197 0
174 198 0
175 198 0
174 197 0
174 197 0
174 197 0
174 197 0
174 198 0
175 198 0
174 197 0
173 197 0
173 196 0
174 198 0
175 198 0
174 198 0
175 198 0
175 198 0
174 197 0
174 198 0
174 198 0
175 198 0
174 197 0
174 198 0
175 198 0
173 197 0
172 196 0
175 198 0
173 197 0
173 197 0
174 197 0
175 198 0
173 197 0
175 198 0
176 199 0
175 198 0
174 198 0
174 198 0
174 197 0
173 197 0
174 198 0
174 198 0
174 197 0
173 197 0
174 198 0
175 198 0
175 198 0
175 198 0
176 199 0
174 198 0
174 198 0
175 198 0
176 199 0
174 198 0
173 197 0
175 198 0
175 198 0
174 197 0
176 199 0
174 198 0
174 198 0
175 198 0
173 197 0
175 198 0
174 197 0
175 198 0
174 197 0
173 197 0
175 198 0
173 197 0
173 197 0
176 199 0
175 198 0
174 197 0
174 197 0
175 198 0
175 198 0
175 198 0
175 198 0
175 198 0
175 198 0
175 198 0
174 198 0
174 197 0
174 198 0
177 199 0
175 198 0
175 198 0
174 198 0
175 198 0
175 198 0
173 197 0
175 198 0
175 198 0
174 197 0
174 198 0
175 198 0
176 199 0
176 199 0
175 198 0
175 198 0
173 197 0
174 198 0
175 198 0
176 198 0
173 197 0
176 199 0
174 197 0
174 197 0
173 197 0
175 198 0
173 197 0
175 198 0
174 197 0
174 198 0
175 198 0
174 198 0
175 198 0
175 198 0
173 197 0
175 198 0
173 197 0
175 198 0
170 195 0
172 196 0
173 197 0
171 196 0
174 198 0
174 198 0
175 198 0
175 198 0
175 198 0
175 198 0
176 199 0
174 197 0
175 198 0
175 198 0
173 196 0
175 198 0
173 197 0
173 197 0
173 197 0
175 198 0
175 198 0
174 197 0
174 197 0
175 198 0
176 199 0
176 199 0
176 198 0
174 197 0
174 198 0
172 196 0
175 198 0
173 196 0
173 196 0
174 197 0
173 197 0
173 196 0
175 198 0
174 197 0
173 197 0
174 198 0
173 197 0
171 195 0
175 198 0
172 196 0
171 195 0
175 198 0
173 197 0
176 199 0
173 197 0
173 197 0
174 196 0
173 197 0
175 198 0
173 196 0
174 198 0
174 198 0
176 198 0
174 197 0
172 196 0
173 196 0
172 195 0
173 195 0
172 195 0
173 197 0
174 197 0
173 197 0
174 197 0
171 195 0
172 196 0
174 197 0
174 196 0
172 194 0
174 197 0
170 194 0
175 198 0
174 197 0
172 196 0
175 198 0
171 196 0
171 195 0
173 196 0
174 197 0
173 197 0
172 196 0
174 197 0
174 197 0
169 193 0
172 196 0
174 197 0
173 197 0
175 198 0
173 197 0
173 197 0
173 196 0
172 195 0
175 198 0
170 194 0
172 195 0
174 198 0
170 194 0
172 196 0
169 192 0
171 194 0
170 194 0
171 194 0
172 195 0
171 195 0
174 197 0
174 197 0
171 195 0
170 193 0
168 192 0
172 196 0
172 195 0
172 195 0
173 197 0
169 192 0
171 195 0
172 196 0
173 196 0
171 194 0
171 194 0
173 197 0
174 196 0
168 191 0
171 196 0
173 196 0
169 191 0
172 196 0
173 196 0
171 195 0
172 194 0
169 193 0
171 194 0
175 197 0
173 197 0
173 197 0
172 196 0
171 194 0
171 194 0
169 192 0
172 196 0
169 193 0
174 196 0
174 196 0
172 195 0
173 196 0
173 196 0
172 195 0
173 197 0
171 195 0
173 197 0
174 197 0
171 193 0
170 194 0
172 196 0
169 193 0
171 194 0
171 196 0
174 197 0
172 195 0
173 197 0
174 198 0
172 196 0
173 196 0
173 196 0
172 196 0
172 195 0
174 197 0
174 197 0
175 198 0
173 196 0
173 196 0
170 194 0
173 197 0
173 197 0
175 198 0
173 196 0
172 194 0
173 197 0
173 197 0
172 196 0
174 197 0
169 194 0
173 197 0
173 196 0
174 197 0
171 195 0
173 197 0
174 197 0
174 197 0
173 197 0
172 195 0
172 195 0
172 196 0
175 198 0
174 197 0
173 197 0
175 197 0
173 196 0
174 197 0
170 194 0
174 197 0
174 198 0
174 198 0
174 197 0
173 197 0
173 196 0
174 198 0
175 198 0
174 197 0
174 198 0
173 196 0
173 196 0
174 197 0
173 196 0
172 196 0
174 197 0
172 196 0
174 198 0
174 198 0
174 197 0
173 197 0
174 198 0
174 198 0
174 198 0
172 196 0
173 197 0
175 198 0
172 196 0
174 197 0
174 197 0
174 197 0
174 197 0
173 197 0
175 198 0
175 197 0
174 197 0
174 198 0
174 198 0
176 198 0
174 197 0
174 197 0
174 198 0
173 197 0
173 196 0
172 196 0
172 196 0
173 197 0
174 197 0
174 198 0
175 198 0
174 197 0
175 198 0
174 198 0
175 198 0
172 196 0
174 197 0
174 197 0
173 196 0
174 198 0
175 198 0
174 197 0
174 197 0
174 197 0
175 198 0
176 198 0
174 198 0
174 198 0
174 197 0
173 197 0
175 198 0
175 198 0
175 197 0
175 198 0
174 198 0
175 198 0
174 197 0
175 198 0
174 198 0
174 197 0
175 198 0
175 198 0
175 198 0
174 198 0
174 198 0
173 197 0
174 197 0
174 198 0
175 198 0
174 198 0
174 198 0
174 198 0
174 198 0
175 198 0
176 199 0
175 198 0
174 197 0
173 197 0
174 197 0
175 198 0
173 197 0
173 197 0
174 198 0
174 197 0
175 198 0
175 198 0
176 199 0
174 198 0
175 198 0
173 197 0
175 198 0
174 198 0
173 197 0
173 197 0
174 197 0
174 198 0
174 197 0
175 198 0
173 197 0
174 198 0
173 197 0
174 198 0
173 197 0
175 198 0
175 198 0
176 199 0
175 198 0
174 198 0
174 197 0
172 196 0
173 197 0
173 197 0
175 198 0
174 197 0
176 199 0
174 198 0
174 198 0
174 198 0
174 197 0
174 198 0
174 197 0
174 198 0
176 199 0
174 198 0
175 198 0
174 198 0
174 197 0
173 197 0
173 197 0
174 197 0
176 199 0
175 198 0
173 196 0
175 198 0
174 197 0
174 198 0
173 197 0
175 198 0
175 198 0
173 197 0
173 197 0
174 198 0
175 198 0
175 198 0
174 197 0
176 198 0
175 198 0
175 198 0
175 198 0
172 196 0
174 198 0
173 197 0
174 198 0
173 197 0
174 198 0
174 198 0
174 198 0
175 198 0
174 198 0
174 198 0
173 197 0
172 196 0
173 197 0
175 198 0
176 198 0
175 198 0
173 197 0
172 196 0
174 197 0
174 198 0
176 199 0
173 197 0
173 197 0
175 198 0
174 197 0
175 198 0
175 198 0
172 196 0
174 197 0
172 196 0
173 197 0
174 198 0
176 198 0
175 198 0
175 198 0
174 197 0
172 196 0
173 197 0
173 196 0
174 198 0
172 197 0
175 198 0
173 197 0
175 198 0
174 197 0
174 197 0
174 198 0
174 198 0
175 198 0
174 198 0
174 197 0
173 197 0
174 198 0
173 197 0
172 197 0
174 197 0
174 197 0
173 197 0
172 196 0
174 198 0
174 197 0
174 198 0
174 197 0
174 197 0
173 197 0
174 198 0
174 198 0
174 197 0
174 197 0
174 197 0
174 197 0
175 198 0
172 196 0
174 198 0
174 197 0
174 197 0
174 197 0
173 197 0
173 197 0
174 197 0
173 197 0
173 197 0
173 195 0
173 197 0
175 198 0
174 197 0
173 197 0
175 198 0
174 197 0
173 195 0
173 196 0
175 198 0
173 196 0
173 196 0
172 196 0
172 196 0
173 197 0
175 198 0
173 196 0
172 196 0
173 197 0
174 197 0
172 196 0
172 197 0
175 198 0
173 196 0
173 196 0
173 196 0
175 198 0
174 198 0
174 197 0
171 195 0
173 195 0
171 194 0
173 195 0
174 197 0
173 195 0
170 194 0
173 196 0
173 197 0
172 195 0
174 197 0
175 198 0
173 197 0
174 198 0
169 193 0
171 195 0
168 192 0
167 191 0
173 197 0
174 197 0
170 194 0
171 195 0
172 196 0
172 195 0
173 196 0
171 195 0
173 197 0
170 194 0
171 194 0
170 194 0
171 195 0
169 194 0
169 193 0
172 195 0
171 194 0
173 196 0
174 197 0
173 197 0
170 194 0
171 194 0
168 192 0
172 195 0
172 196 0
170 194 0
173 196 0
172 196 0
171 195 0
171 195 0
172 195 0
170 193 0
172 195 0
169 193 0
174 197 0
169 191 0
172 196 0
169 192 0
169 192 0
173 196 0
173 195 0
173 196 0
171 195 0
171 195 0
175 198 0
172 195 0
172 195 0
174 197 0
169 193 0
169 192 0
173 195 0
173 197 0
171 196 0
174 197 0
169 193 0
174 197 0
172 195 0
173 195 0
172 196 0
171 195 0
171 194 0
173 196 0
174 197 0
174 197 0
176 198 0
171 195 0
174 197 0
174 198 0
170 193 0
174 197 0
172 195 0
174 197 0
175 198 0
172 196 0
173 196 0
172 195 0
173 196 0
172 196 0
174 198 0
172 195 0
173 197 0
174 197 0
173 197 0
175 198 0
173 196 0
173 196 0
173 197 0
171 195 0
175 197 0
174 197 0
173 197 0
173 197 0
173 197 0
174 197 0
175 198 0
171 194 0
175 198 0
174 197 0
174 198 0
173 197 0
172 197 0
173 197 0
175 198 0
173 196 0
175 198 0
174 197 0
172 197 0
173 197 0
174 197 0
173 197 0
172 196 0
174 197 0
172 196 0
174 197 0
172 196 0
176 198 0
174 197 0
174 198 0
174 197 0
173 197 0
174 197 0
173 196 0
174 198 0
174 198 0
173 196 0
174 197 0
175 197 0
172 196 0
175 197 0
174 197 0
177 199 0
174 197 0
174 197 0
174 197 0
173 197 0
175 198 0
175 198 0
172 196 0
175 198 0
173 197 0
175 198 0
174 197 0
174 197 0
173 197 0
173 197 0
175 198 0
173 197 0
172 196 0
176 198 0
174 197 0
175 198 0
175 198 0
174 197 0
176 198 0
173 197 0
173 197 0
172 196 0
173 196 0
173 197 0
175 198 0
173 197 0
172 196 0
175 198 0
174 198 0
174 198 0
174 198 0
173 197 0
174 198 0
173 197 0
175 198 0
173 197 0
175 198 0
175 198 0
174 198 0
175 198 0
173 197 0
175 198 0
174 197 0
176 198 0
174 198 0
173 197 0
175 198 0
175 198 0
174 197 0
174 198 0
174 197 0
172 197 0
174 198 0
175 198 0
177 199 0
175 197 0
175 198 0
174 197 0
175 198 0
175 198 0
176 198 0
175 198 0
176 198 0
175 198 0
176 198 0
175 198 0
175 198 0
174 198 0
175 198 0
174 197 0
175 198 0
174 198 0
175 198 0
173 197 0
175 198 0
175 198 0
173 197 0
173 197 0
176 199 0
175 198 0
174 198 0
176 199 0
175 198 0
176 199 0
174 197 0
175 198 0
173 196 0
175 198 0
174 198 0
173 197 0
176 199 0
175 198 0
174 198 0
173 197 0
173 197 0
173 197 0
174 198 0
175 198 0
174 198 0
173 197 0
175 198 0
176 198 0
173 197 0
174 198 0
175 198 0
174 197 0
174 197 0
175 198 0
175 198 0
176 199 0
175 198 0
174 198 0
174 198 0
173 197 0
175 198 0
175 198 0
174 198 0
175 198 0
174 197 0
174 197 0
173 197 0
174 197 0
175 198 0
173 197 0
173 197 0
175 198 0
175 198 0
174 198 0
174 197 0
174 197 0
173 197 0
174 197 0
174 198 0
174 198 0
172 196 0
175 198 0
174 197 0
175 198 0
175 198 0
175 198 0
174 198 0
174 198 0
173 197 0
176 199 0
173 197 0
176 198 0
174 197 0
175 198 0
174 197 0
174 197 0
175 198 0
175 198 0
175 198 0
174 198 0
175 198 0
175 198 0
174 198 0
175 198 0
174 198 0
174 198 0
174 197 0
174 197 0
175 198 0
173 197 0
174 197 0
175 198 0
174 198 0
174 198 0
173 197 0
175 197 0
174 198 0
175 198 0
174 197 0
173 197 0
175 198 0
173 197 0
173 196 0
174 198 0
175 198 0
173 197 0
174 197 0
173 197 0
173 197 0
172 196 0
173 196 0
172 196 0
174 198 0
172 196 0
174 197 0
174 197 0
173 197 0
175 198 0
173 197 0
175 198 0
174 198 0
173 197 0
175 198 0
174 197 0
174 198 0
174 198 0
173 196 0
174 197 0
173 196 0
173 196 0
174 197 0
172 195 0
174 197 0
175 198 0
173 197 0
175 198 0
174 197 0
173 197 0
174 196 0
172 197 0
174 197 0
173 196 0
173 197 0
172 195 0
173 197 0
174 198 0
173 197 0
175 198 0
172 196 0
173 197 0
172 196 0
173 197 0
173 197 0
173 196 0
171 195 0
172 196 0
173 197 0
174 197 0
173 196 0
175 198 0
173 197 0
171 195 0
173 197 0
175 198 0
176 198 0
173 197 0
172 196 0
173 196 0
173 197 0
174 197 0
174 197 0
174 197 0
175 198 0
172 196 0
172 196 0
173 196 0
173 197 0
170 193 0
173 196 0
171 195 0
170 193 0
173 196 0
175 197 0
174 197 0
171 194 0
173 197 0
172 196 0
171 195 0
172 195 0
174 197 0
174 196 0
171 194 0
171 194 0
172 195 0
172 196 0
171 195 0
172 195 0
174 197 0
172 196 0
168 192 0
172 196 0
170 194 0
170 193 0
172 195 0
170 195 0
172 195 0
171 194 0
172 196 0
171 194 0
171 195 0
172 195 0
169 193 0
174 197 0
170 193 0
172 196 0
171 194 0
173 197 0
171 194 0
172 195 0
172 196 0
173 196 0
174 197 0
172 196 0
170 194 0
173 196 0
172 195 0
173 197 0
173 196 0
174 197 0
173 197 0
172 196 0
173 197 0
171 195 0
170 194 0
170 194 0
172 195 0
172 195 0
171 195 0
171 195 0
174 197 0
176 199 0
172 196 0
172 195 0
173 197 0
174 198 0
172 196 0
170 194 0
173 196 0
172 196 0
169 193 0
171 195 0
173 197 0
172 195 0
172 196 0
170 194 0
175 197 0
173 197 0
174 197 0
171 194 0
174 197 0
173 196 0
174 197 0
172 197 0
174 197 0
173 196 0
173 197 0
171 195 0
172 195 0
173 197 0
173 196 0
173 197 0
173 197 0
172 196 0
173 196 0
174 197 0
174 197 0
173 197 0
174 198 0
171 195 0
172 196 0
173 197 0
171 195 0
174 198 0
173 197 0
173 196 0
173 197 0
173 197 0
174 197 0
175 198 0
175 198 0
174 197 0
174 198 0
175 198 0
173 196 0
172 195 0
173 197 0
175 198 0
174 197 0
173 196 0
173 195 0
174 197 0
175 198 0
173 197 0
171 194 0
173 197 0
173 196 0
175 198 0
175 197 0
176 198 0
176 199 0
174 197 0
173 196 0
175 198 0
172 196 0
175 198 0
173 197 0
173 197 0
174 198 0
175 198 0
175 198 0
175 198 0
174 197 0
174 198 0
176 198 0
174 198 0
173 197 0
174 197 0
175 198 0
174 198 0
174 197 0
173 197 0
174 197 0
174 198 0
170 194 0
173 197 0
173 196 0
174 197 0
174 197 0
174 198 0
175 198 0
174 197 0
173 196 0
174 198 0
174 198 0
173 197 0
176 198 0
173 197 0
175 197 0
171 196 0
175 198 0
174 198 0
174 198 0
173 197 0
173 197 0
174 197 0
175 198 0
174 197 0
175 198 0
174 197 0
174 197 0
175 198 0
175 197 0
174 197 0
175 198 0
175 198 0
172 196 0
176 198 0
174 198 0
173 196 0
175 198 0
174 197 0
176 198 0
173 197 0
172 197 0
174 197 0
175 198 0
174 198 0
175 198 0
176 199 0
175 198 0
173 197 0
175 198 0
173 197 0
174 197 0
175 198 0
172 196 0
175 198 0
172 196 0
175 198 0
175 198 0
174 198 0
175 198 0
174 197 0
174 198 0
174 197 0
176 198 0
176 199 0
175 198 0
173 197 0
176 199 0
175 198 0
174 197 0
174 197 0
175 198 0
174 197 0
173 197 0
175 198 0
174 197 0
173 197 0
174 198 0
174 198 0
174 197 0
174 197 0
176 198 0
175 198 0
176 199 0
173 197 0
173 197 0
176 198 0
173 197 0
173 197 0
174 197 0
175 198 0
175 198 0
175 198 0
173 197 0
174 198 0
173 197 0
174 198 0
173 197 0
175 198 0
175 198 0
174 198 0
174 198 0
174 198 0
175 198 0
176 199 0
173 197 0
173 197 0
175 197 0
174 198 0
174 197 0
175 198 0
174 197 0
174 198 0
174 198 0
173 197 0
174 198 0
174 197 0
175 198 0
175 198 0
172 196 0
175 198 0
173 197 0
173 197 0
175 198 0
176 198 0
175 198 0
173 197 0
174 198 0
173 197 0
174 198 0
175 198 0
175 198 0
174 198 0
174 197 0
176 198 0
174 198 0
173 197 0
174 198 0
175 198 0
175 198 0
174 198 0
174 198 0
175 198 0
172 196 0
173 196 0
173 197 0
173 197 0
174 198 0
174 197 0
175 198 0
175 198 0
174 198 0
174 197 0
173 196 0
174 197 0
175 198 0
175 198 0
174 197 0
174 197 0
173 197 0
174 197 0
171 196 0
174 198 0
174 198 0
174 197 0
174 198 0
174 197 0
172 196 0
173 197 0
175 198 0
173 197 0
174 198 0
174 197 0
173 197 0
173 197 0
173 197 0
175 198 0
174 197 0
174 197 0
173 197 0
176 198 0
174 198 0
173 197 0
174 198 0
176 199 0
176 198 0
173 197 0
173 197 0
174 198 0
172 195 0
174 197 0
174 197 0
174 197 0
173 197 0
174 198 0
172 197 0
171 195 0
174 198 0
174 197 0
175 198 0
172 196 0
174 198 0
176 198 0
175 198 0
174 198 0
173 197 0
173 197 0
173 197 0
173 197 0
174 197 0
173 197 0
173 197 0
175 198 0
174 198 0
173 197 0
173 197 0
172 196 0
173 197 0
171 195 0
175 198 0
175 198 0
175 198 0
174 197 0
174 197 0
174 198 0
174 198 0
173 197 0
172 197 0
174 198 0
172 196 0
172 195 0
172 195 0
175 198 0
173 197 0
175 198 0
172 195 0
173 196 0
173 197 0
172 195 0
174 197 0
172 196 0
173 196 0
173 197 0
173 197 0
174 197 0
174 197 0
174 197 0
173 196 0
173 197 0
172 195 0
173 196 0
175 197 0
172 195 0
170 194 0
171 194 0
171 195 0
173 196 0
170 194 0
172 195 0
173 196 0
170 194 0
173 197 0
170 194 0
171 194 0
174 197 0
169 194 0
173 197 0
174 197 0
169 192 0
173 197 0
175 198 0
172 196 0
171 194 0
171 194 0
175 198 0
171 194 0
169 192 0
172 194 0
172 196 0
172 196 0
171 194 0
172 196 0
171 195 0
171 194 0
170 194 0
171 195 0
171 195 0
171 195 0
171 194 0
172 195 0
173 196 0
172 196 0
174 197 0
174 197 0
171 194 0
173 196 0
171 195 0
172 196 0
170 194 0
172 195 0
174 197 0
174 197 0
173 196 0
172 195 0
174 196 0
175 197 0
171 194 0
173 197 0
171 194 0
173 196 0
172 195 0
172 195 0
173 195 0
172 195 0
174 197 0
171 194 0
172 196 0
172 196 0
173 196 0
172 195 0
174 197 0
174 197 0
173 196 0
172 196 0
173 196 0
173 197 0
173 196 0
171 195 0
172 195 0
172 195 0
174 197 0
172 196 0
174 197 0
170 194 0
175 198 0
172 196 0
173 197 0
173 196 0
174 197 0
173 196 0
171 195 0
172 196 0
173 197 0
173 197 0
173 196 0
172 196 0
174 197 0
173 197 0
173 196 0
175 198 0
174 197 0
172 195 0
173 196 0
174 197 0
174 197 0
173 196 0
175 198 0
173 196 0
174 197 0
173 197 0
172 194 0
173 196 0
173 196 0
175 197 0
174 197 0
173 197 0
173 197 0
175 198 0
174 197 0
174 197 0
171 194 0
174 197 0
172 195 0
173 197 0
175 198 0
175 197 0
175 198 0
173 197 0
174 197 0
175 198 0
174 198 0
174 197 0
174 197 0
175 198 0
176 198 0
173 197 0
173 197 0
175 198 0
176 199 0
173 196 0
175 198 0
174 197 0
175 198 0
175 198 0
174 197 0
175 198 0
176 199 0
173 196 0
173 197 0
175 198 0
175 198 0
174 197 0
172 196 0
175 198 0
173 196 0
174 198 0
176 198 0
173 197 0
174 197 0
175 198 0
175 198 0
174 197 0
175 198 0
175 198 0
175 198 0
174 198 0
174 198 0
173 197 0
173 197 0
175 198 0
174 197 0
174 198 0
174 198 0
173 197 0
175 198 0
174 197 0
175 198 0
173 197 0
174 198 0
173 197 0
172 196 0
174 198 0
175 198 0
176 198 0
174 198 0
174 197 0
175 198 0
174 198 0
175 198 0
173 197 0
175 198 0
175 198 0
174 198 0
174 197 0
174 198 0
175 198 0
175 198 0
175 198 0
174 197 0
174 198 0
175 198 0
174 197 0
174 198 0
175 198 0
175 198 0
175 198 0
173 197 0
174 198 0
175 198 0
174 198 0
175 198 0
174 197 0
176 199 0
174 198 0
173 197 0
174 198 0
175 198 0
175 198 0
174 198 0
175 198 0
173 197 0
175 198 0
173 197 0
174 198 0
174 197 0
174 198 0
173 196 0
172 196 0
176 198 0
173 197 0
174 198 0
174 197 0
175 198 0
177 199 0
174 198 0
174 197 0
174 197 0
174 198 0
174 198 0
174 198 0
172 197 0
174 197 0
174 197 0
174 197 0
173 197 0
175 198 0
176 199 0
174 198 0
173 197 0
174 198 0
174 197 0
174 198 0
174 198 0
173 197 0
175 198 0
174 198 0
174 197 0
173 197 0
177 199 0
174 197 0
174 198 0
176 199 0
173 197 0
174 197 0
174 198 0
173 197 0
175 198 0
175 198 0
175 198 0
174 198 0
175 198 0
176 198 0
176 198 0
174 197 0
175 198 0
174 198 0
175 198 0
177 199 0
175 198 0
174 198 0
174 197 0
174 198 0
174 197 0
174 198 0
173 197 0
175 198 0
175 198 0
175 198 0
175 198 0
175 198 0
175 198 0
174 197 0
176 199 0
174 198 0
173 196 0
174 197 0
173 197 0
174 198 0
176 198 0
175 198 0
176 198 0
174 197 0
174 197 0
173 197 0
174 197 0
174 197 0
172 196 0
174 197 0
175 198 0
175 198 0
175 198 0
173 197 0
172 196 0
174 197 0
174 197 0
173 197 0
175 198 0
172 196 0
174 197 0
173 197 0
176 199 0
174 197 0
173 197 0
174 197 0
175 198 0
172 196 0
175 198 0
176 199 0
172 196 0
172 196 0
174 197 0
174 198 0
174 197 0
174 197 0
174 197 0
173 197 0
176 199 0
173 197 0
174 198 0
174 198 0
174 197 0
175 198 0
173 197 0
175 198 0
174 198 0
175 198 0
173 196 0
174 198 0
172 196 0
174 197 0
174 198 0
175 198 0
174 198 0
173 197 0
173 197 0
173 196 0
169 193 0
173 197 0
172 196 0
174 197 0
174 198 0
173 196 0
174 197 0
172 196 0
170 195 0
174 197 0
173 196 0
174 198 0
175 198 0
172 195 0
174 197 0
174 198 0
171 195 0
173 197 0
173 196 0
174 198 0
174 197 0
174 197 0
173 197 0
172 196 0
173 197 0
174 198 0
173 197 0
173 197 0
173 196 0
172 196 0
175 197 0
172 196 0
174 197 0
173 196 0
174 197 0
172 195 0
174 197 0
171 195 0
172 196 0
171 195 0
174 197 0
173 196 0
172 195 0
173 197 0
175 198 0
173 196 0
173 196 0
173 196 0
172 195 0
171 195 0
173 196 0
172 196 0
172 195 0
175 197 0
172 196 0
171 195 0
172 195 0
170 194 0
173 197 0
174 197 0
171 195 0
172 195 0
174 196 0
173 196 0
171 195 0
171 194 0
172 196 0
170 194 0
170 194 0
170 194 0
170 194 0
172 196 0
174 197 0
170 194 0
172 195 0
169 194 0
174 197 0
172 196 0
167 191 0
169 192 0
172 196 0
172 196 0
174 197 0
171 194 0
172 196 0
171 194 0
173 196 0
174 197 0
173 197 0
170 193 0
173 196 0
173 195 0
174 196 0
172 194 0
172 195 0
173 196 0
172 196 0
171 194 0
170 194 0
172 196 0
170 192 0
174 197 0
171 195 0
174 197 0
175 198 0
172 195 0
173 196 0
170 194 0
173 196 0
171 195 0
174 198 0
172 195 0
172 196 0
173 197 0
175 198 0
171 195 0
174 197 0
172 196 0
175 198 0
174 197 0
173 196 0
174 198 0
171 194 0
172 196 0
173 196 0
172 196 0
172 195 0
173 196 0
173 197 0
173 196 0
174 197 0
173 196 0
172 195 0
174 197 0
174 197 0
174 197 0
174 197 0
173 196 0
173 197 0
174 198 0
172 196 0
172 197 0
174 198 0
173 197 0
173 197 0
174 197 0
174 197 0
174 197 0
174 197 0
174 197 0
174 197 0
173 196 0
173 197 0
174 196 0
174 198 0
175 198 0
174 197 0
175 198 0
174 197 0
172 196 0
174 197 0
174 197 0
174 197 0
174 198 0
174 198 0
174 197 0
172 196 0
173 197 0
174 197 0
173 197 0
175 198 0
174 197 0
174 198 0
174 197 0
174 198 0
173 196 0
174 197 0
172 196 0
175 198 0
175 197 0
174 198 0
175 198 0
176 198 0
175 198 0
176 199 0
173 196 0
174 198 0
175 198 0
173 196 0
175 198 0
174 198 0
174 197 0
176 199 0
175 198 0
176 199 0
174 197 0
175 198 0
174 198 0
173 197 0
175 198 0
174 197 0
173 197 0
175 198 0
175 198 0
174 197 0
173 197 0
173 197 0
173 196 0
174 198 0
174 198 0
174 198 0
173 197 0
174 197 0
174 198 0
174 198 0
173 197 0
175 198 0
172 196 0
175 198 0
174 198 0
175 198 0
173 197 0
174 197 0
176 198 0
173 197 0
175 198 0
175 198 0
175 198 0
175 198 0
173 197 0
173 197 0
175 198 0
174 197 0
175 198 0
174 197 0
175 198 0
173 197 0
174 197 0
174 198 0
174 198 0
175 198 0
174 197 0
174 197 0
175 198 0
174 197 0
173 197 0
175 198 0
174 198 0
174 198 0
174 198 0
172 197 0
174 197 0
174 198 0
175 198 0
174 198 0
173 197 0
175 198 0
173 197 0
173 197 0
173 196 0
174 198 0
175 198 0
177 199 0
173 197 0
172 197 0
174 197 0
174 197 0
174 198 0
173 197 0
175 198 0
175 198 0
174 198 0
175 198 0
173 197 0
176 198 0
175 198 0
174 198 0
173 197 0
175 198 0
174 198 0
174 198 0
173 197 0
175 198 0
176 199 0
175 198 0
176 199 0
175 198 0
172 196 0
174 198 0
175 198 0
173 197 0
175 198 0
175 198 0
172 197 0
175 198 0
175 198 0
173 197 0
173 197 0
173 197 0
176 198 0
173 197 0
174 198 0
175 198 0
174 198 0
173 197 0
175 198 0
176 198 0
174 198 0
175 198 0
174 198 0
174 198 0
175 198 0
174 198 0
174 197 0
174 198 0
175 198 0
175 198 0
174 198 0
174 197 0
174 198 0
174 198 0
174 198 0
174 198 0
172 196 0
174 197 0
176 199 0
173 197 0
175 198 0
175 198 0
173 197 0
175 198 0
173 197 0
175 198 0
173 197 0
175 198 0
173 197 0
175 198 0
174 197 0
175 198 0
173 197 0
173 197 0
175 198 0
173 197 0
174 198 0
173 197 0
173 197 0
174 198 0
173 196 0
173 197 0
174 198 0
174 198 0
174 198 0
175 198 0
175 198 0
176 198 0
174 198 0
175 198 0
176 199 0
174 197 0
175 198 0
174 197 0
174 198 0
173 197 0
174 198 0
174 198 0
175 198 0
174 197 0
175 198 0
172 196 0
175 198 0
173 197 0
173 197 0
175 198 0
174 197 0
175 198 0
173 197 0
173 197 0
175 198 0
174 198 0
172 196 0
175 198 0
171 195 0
174 197 0
174 198 0
172 196 0
172 196 0
174 198 0
175 198 0
174 197 0
175 197 0
174 197 0
174 197 0
172 196 0
174 197 0
173 197 0
174 197 0
173 196 0
172 196 0
173 197 0
174 197 0
174 197 0
174 198 0
173 196 0
176 199 0
173 197 0
172 196 0
171 195 0
174 197 0
172 196 0
174 198 0
173 197 0
172 196 0
174 198 0
173 196 0
174 198 0
173 197 0
170 194 0
175 198 0
174 198 0
171 195 0
175 198 0
173 197 0
172 195 0
176 198 0
173 196 0
174 197 0
172 196 0
172 195 0
173 196 0
171 195 0
174 197 0
170 194 0
172 195 0
174 197 0
171 195 0
173 197 0
173 196 0
174 197 0
173 196 0
174 197 0
174 198 0
173 197 0
172 196 0
172 196 0
173 196 0
174 197 0
173 196 0
170 194 0
170 193 0
172 195 0
173 196 0
173 196 0
171 195 0
171 195 0
172 196 0
170 193 0
170 193 0
169 193 0
171 194 0
169 192 0
172 196 0
171 195 0
172 196 0
171 195 0
173 197 0
174 198 0
170 194 0
172 196 0
173 197 0
172 196 0
174 197 0
173 196 0
174 197 0
173 197 0
172 196 0
174 197 0
173 197 0
171 194 0
173 196 0
171 194 0
174 197 0
173 197 0
172 195 0
171 195 0
175 198 0
171 194 0
170 194 0
173 196 0
171 195 0
172 195 0
173 195 0
170 193 0
173 196 0
172 195 0
171 194 0
168 192 0
174 197 0
175 198 0
173 197 0
172 196 0
172 196 0
173 197 0
172 196 0
173 196 0
172 195 0
173 197 0
173 196 0
172 195 0
173 196 0
172 196 0
172 195 0
172 195 0
174 197 0
172 196 0
171 195 0
173 197 0
171 194 0
175 198 0
175 197 0
172 196 0
174 197 0
175 197 0
173 195 0
173 197 0
172 196 0
169 193 0
172 195 0
172 196 0
172 195 0
173 197 0
172 195 0
174 197 0
173 196 0
174 198 0
172 195 0
173 196 0
175 198 0
171 194 0
175 197 0
173 195 0
173 197 0
174 198 0
174 196 0
174 197 0
174 198 0
173 197 0
173 196 0
174 197 0
175 197 0
173 196 0
174 197 0
171 195 0
174 197 0
174 197 0
175 198 0
175 198 0
175 198 0
173 196 0
175 198 0
174 197 0
175 198 0
176 198 0
172 196 0
173 196 0
173 197 0
174 198 0
172 195 0
173 197 0
174 198 0
173 196 0
173 197 0
174 197 0
173 197 0
174 198 0
175 198 0
174 197 0
173 197 0
173 197 0
175 198 0
173 197 0
176 199 0
173 197 0
173 196 0
173 197 0
175 197 0
175 198 0
173 197 0
175 198 0
173 196 0
174 197 0
176 198 0
174 197 0
173 197 0
175 198 0
175 198 0
175 198 0
174 197 0
174 198 0
175 198 0
175 198 0
172 197 0
174 197 0
173 197 0
175 198 0
173 196 0
176 198 0
174 197 0
175 198 0
173 196 0
176 198 0
173 196 0
173 197 0
175 198 0
174 198 0
172 196 0
173 197 0
175 198 0
175 198 0
173 197 0
174 197 0
175 198 0
174 197 0
172 197 0
173 196 0
175 198 0
174 198 0
173 197 0
175 198 0
174 198 0
175 198 0
173 197 0
175 198 0
174 198 0
173 197 0
174 197 0
174 197 0
175 198 0
174 198 0
173 197 0
174 198 0
172 196 0
175 198 0
176 199 0
176 198 0
173 197 0
171 196 0
173 197 0
174 197 0
175 198 0
174 198 0
174 198 0
174 198 0
175 198 0
174 197 0
175 198 0
173 197 0
175 198 0
173 197 0
174 198 0
174 198 0
177 199 0
174 198 0
172 196 0
175 198 0
175 198 0
174 197 0
175 198 0
173 197 0
174 197 0
173 197 0
174 198 0
175 198 0
174 197 0
173 197 0
174 198 0
174 198 0
175 198 0
175 198 0
174 198 0
174 197 0
172 196 0
175 198 0
175 198 0
174 198 0
174 198 0
174 198 0
175 198 0
174 197 0
175 198 0
174 198 0
175 198 0
175 198 0
175 198 0
174 198 0
173 197 0
172 196 0
175 198 0
174 197 0
175 198 0
176 199 0
174 198 0
173 197 0
174 198 0
174 198 0
174 198 0
172 196 0
174 198 0
174 197 0
175 198 0
173 197 0
174 198 0
174 197 0
175 198 0
174 198 0
173 197 0
175 198 0
175 198 0
174 198 0
175 198 0
173 197 0
174 198 0
176 199 0
174 197 0
174 198 0
173 197 0
175 198 0
176 199 0
175 198 0
174 197 0
172 197 0
173 197 0
174 198 0
175 198 0
176 199 0
173 197 0
174 197 0
175 198 0
174 198 0
174 197 0
175 198 0
174 197 0
175 197 0
173 197 0
172 195 0
174 197 0
172 196 0
176 198 0
173 197 0
175 198 0
175 198 0
173 197 0
174 197 0
174 198 0
175 198 0
173 197 0
172 196 0
175 198 0
174 197 0
173 197 0
175 198 0
173 196 0
173 197 0
172 196 0
172 195 0
174 198 0
174 198 0
174 198 0
174 197 0
175 198 0
174 198 0
174 198 0
175 198 0
173 197 0
174 197 0
175 198 0
174 197 0
174 197 0
174 198 0
173 197 0
173 197 0
174 197 0
175 198 0
174 197 0
175 198 0
173 197 0
174 198 0
172 196 0
175 198 0
175 198 0
174 198 0
173 196 0
176 199 0
174 197 0
174 198 0
175 198 0
173 197 0
173 197 0
172 197 0
175 198 0
175 198 0
173 197 0
175 197 0
174 198 0
170 195 0
175 198 0
173 197 0
173 197 0
175 198 0
173 197 0
175 198 0
174 197 0
175 198 0
172 196 0
175 198 0
173 196 0
172 197 0
173 196 0
173 197 0
174 197 0
174 197 0
175 198 0
174 198 0
174 196 0
172 195 0
173 197 0
174 197 0
172 197 0
171 195 0
174 198 0
175 198 0
174 197 0
173 197 0
172 196 0
169 193 0
171 195 0
174 197 0
171 195 0
172 195 0
173 197 0
175 198 0
172 196 0
173 197 0
172 196 0
173 197 0
174 197 0
173 196 0
172 196 0
173 196 0
174 198 0
173 196 0
172 195 0
172 195 0
172 196 0
173 197 0
171 195 0
172 195 0
173 197 0
174 197 0
173 196 0
174 198 0
174 198 0
174 197 0
174 197 0
172 195 0
173 197 0
171 194 0
171 194 0
172 195 0
171 194 0
173 196 0
171 194 0
172 196 0
171 195 0
171 194 0
171 195 0
170 194 0
171 195 0
170 193 0
172 196 0
170 193 0
171 195 0
171 195 0
173 196 0
171 194 0
170 194 0
173 196 0
172 195 0
171 194 0
169 193 0
173 196 0
173 196 0
172 195 0
171 195 0
173 197 0
174 197 0
170 195 0
171 195 0
172 196 0
172 195 0
172 196 0
172 195 0
171 194 0
174 197 0
171 195 0
171 195 0
172 196 0
170 194 0
174 197 0
173 197 0
172 196 0
174 197 0
171 195 0
172 196 0
172 195 0
172 195 0
174 197 0
173 196 0
174 197 0
175 198 0
171 196 0
175 198 0
175 198 0
173 196 0
170 194 0
172 195 0
174 198 0
173 196 0
172 195 0
172 196 0
174 197 0
173 197 0
174 197 0
172 195 0
173 196 0
174 197 0
175 198 0
172 196 0
173 196 0
175 197 0
173 197 0
174 197 0
172 195 0
173 195 0
175 198 0
174 198 0
174 197 0
175 198 0
174 197 0
174 198 0
172 196 0
175 198 0
172 194 0
173 197 0
172 196 0
174 197 0
175 198 0
175 198 0
171 195 0
174 198 0
174 197 0
172 195 0
173 196 0
171 196 0
172 196 0
173 197 0
172 195 0
173 197 0
176 199 0
175 198 0
174 198 0
174 198 0
172 196 0
173 197 0
173 197 0
172 196 0
172 196 0
174 197 0
175 198 0
174 197 0
175 198 0
176 199 0
174 198 0
173 197 0
174 197 0
175 198 0
175 198 0
173 197 0
172 196 0
174 197 0
176 198 0
175 198 0
175 198 0
175 198 0
173 197 0
174 198 0
173 197 0
173 197 0
173 197 0
173 197 0
173 197 0
173 197 0
174 197 0
174 197 0
175 198 0
175 198 0
173 197 0
174 198 0
173 197 0
174 197 0
173 197 0
174 198 0
173 197 0
174 197 0
177 199 0
174 197 0
175 198 0
175 198 0
174 197 0
175 198 0
175 198 0
175 198 0
173 197 0
173 197 0
173 197 0
176 198 0
174 197 0
175 198 0
175 198 0
175 198 0
174 197 0
174 198 0
172 196 0
174 197 0
176 199 0
175 198 0
174 198 0
175 197 0
174 197 0
174 197 0
174 197 0
174 197 0
173 197 0
174 198 0
175 198 0
176 199 0
174 198 0
174 198 0
175 198 0
173 197 0
176 199 0
173 197 0
174 197 0
173 197 0
175 198 0
174 198 0
171 196 0
174 197 0
173 197 0
174 198 0
175 198 0
176 199 0
175 198 0
175 198 0
173 197 0
175 198 0
174 197 0
173 197 0
174 197 0
175 198 0
175 198 0
174 197 0
174 197 0
175 198 0
175 198 0
174 198 0
174 198 0
173 197 0
174 197 0
176 198 0
177 199 0
174 198 0
174 198 0
173 197 0
175 198 0
176 198 0
174 198 0
176 199 0
174 198 0
173 197 0
174 197 0
174 197 0
174 197 0
173 197 0
174 198 0
174 197 0
176 199 0
174 198 0
173 197 0
176 199 0
175 198 0
176 198 0
174 198 0
175 198 0
174 198 0
173 197 0
175 198 0
173 197 0
174 198 0
174 198 0
172 196 0
175 198 0
174 197 0
175 198 0
175 198 0
174 197 0
173 197 0
174 197 0
175 198 0
174 198 0
175 198 0
173 197 0
174 198 0
173 197 0
174 198 0
174 198 0
174 198 0
176 199 0
174 197 0
173 197 0
175 198 0
176 199 0
173 197 0
176 198 0
173 197 0
176 198 0
173 197 0
174 197 0
174 198 0
173 196 0
174 198 0
174 197 0
175 198 0
174 198 0
174 198 0
175 198 0
174 197 0
175 198 0
175 198 0
175 198 0
174 197 0
174 197 0
174 198 0
173 197 0
173 197 0
174 198 0
174 198 0
173 196 0
175 198 0
173 197 0
172 196 0
173 197 0
173 197 0
174 198 0
174 197 0
174 198 0
174 198 0
173 197 0
175 198 0
173 197 0
174 198 0
173 197 0
174 197 0
176 199 0
174 198 0
174 197 0
174 197 0
175 198 0
175 198 0
173 197 0
174 197 0
172 196 0
174 197 0
173 197 0
173 196 0
173 197 0
175 198 0
175 198 0
173 197 0
175 198 0
172 196 0
175 198 0
172 196 0
175 198 0
171 195 0
173 197 0
173 197 0
174 198 0
174 197 0
174 196 0
174 198 0
173 197 0
174 198 0
175 198 0
173 196 0
171 195 0
171 196 0
174 197 0
173 197 0
173 197 0
171 196 0
174 197 0
172 196 0
174 197 0
172 196 0
172 196 0
174 198 0
171 196 0
173 197 0
175 198 0
172 196 0
175 198 0
172 196 0
172 196 0
172 196 0
173 197 0
174 197 0
175 198 0
173 197 0
173 197 0
174 198 0
173 196 0
171 195 0
175 198 0
170 195 0
174 197 0
173 197 0
173 196 0
173 197 0
174 197 0
170 194 0
170 194 0
172 195 0
176 199 0
173 197 0
173 197 0
171 195 0
174 198 0
175 198 0
173 196 0
172 196 0
175 198 0
168 192 0
175 198 0
173 196 0
171 195 0
171 195 0
172 196 0
172 196 0
175 197 0
172 195 0
171 195 0
172 195 0
174 198 0
173 196 0
168 193 0
169 193 0
173 196 0
172 196 0
172 196 0
170 194 0
171 195 0
171 194 0
171 195 0
173 196 0
172 195 0
170 194 0
172 195 0
171 194 0
172 195 0
172 195 0
175 197 0
172 194 0
170 194 0
172 196 0
173 196 0
172 196 0
170 194 0
173 196 0
172 196 0
171 195 0
174 197 0
173 196 0
172 195 0
174 197 0
173 195 0
172 195 0
172 195 0
173 196 0
174 197 0
171 195 0
172 195 0
174 197 0
172 195 0
171 194 0
172 196 0
172 195 0
173 196 0
174 197 0
175 198 0
174 197 0
172 196 0
170 194 0
174 197 0
172 196 0
172 195 0
173 197 0
175 198 0
173 196 0
174 197 0
173 197 0
173 195 0
172 195 0
173 196 0
173 197 0
172 196 0
172 195 0
174 197 0
172 196 0
173 197 0
173 197 0
174 197 0
173 195 0
171 195 0
172 196 0
174 198 0
173 196 0
174 197 0
174 197 0
173 197 0
175 197 0
172 196 0
172 195 0
172 196 0
172 195 0
171 196 0
172 196 0
173 197 0
171 195 0
173 196 0
172 196 0
174 198 0
174 197 0
172 196 0
173 196 0
172 197 0
173 196 0
175 198 0
172 196 0
174 198 0
174 197 0
174 197 0
174 197 0
174 197 0
175 198 0
173 196 0
173 197 0
174 198 0
175 197 0
175 198 0
173 196 0
174 198 0
174 197 0
174 197 0
174 198 0
175 198 0
175 198 0
174 198 0
174 197 0
173 197 0
174 198 0
175 198 0
172 196 0
172 195 0
171 195 0
174 197 0
174 198 0
175 198 0
174 198 0
175 198 0
173 197 0
174 197 0
173 196 0
173 197 0
174 197 0
172 197 0
174 197 0
173 197 0
173 197 0
174 197 0
175 197 0
175 198 0
172 196 0
172 196 0
173 197 0
174 198 0
176 198 0
173 197 0
175 198 0
175 198 0
175 198 0
174 198 0
173 196 0
175 198 0
173 197 0
174 198 0
175 198 0
173 196 0
175 198 0
175 198 0
175 198 0
173 197 0
174 197 0
174 197 0
175 198 0
174 198 0
175 198 0
174 197 0
173 197 0
175 198 0
174 197 0
175 198 0
175 198 0
174 198 0
176 198 0
176 199 0
175 198 0
175 198 0
174 198 0
175 198 0
176 199 0
173 197 0
175 198 0
175 198 0
173 196 0
175 198 0
175 198 0
175 198 0
174 197 0
175 198 0
174 197 0
173 197 0
174 197 0
175 198 0
176 199 0
174 198 0
175 198 0
175 198 0
175 198 0
174 197 0
174 197 0
174 197 0
173 197 0
174 198 0
175 198 0
175 198 0
174 198 0
173 197 0
175 198 0
175 198 0
173 197 0
174 197 0
173 197 0
175 198 0
174 198 0
173 197 0
174 198 0
175 198 0
175 198 0
172 196 0
174 197 0
174 198 0
175 198 0
174 197 0
173 197 0
174 198 0
175 198 0
175 198 0
173 197 0
174 197 0
175 198 0
174 197 0
174 198 0
173 197 0
174 197 0
174 197 0
174 198 0
174 198 0
174 198 0
173 197 0
173 197 0
175 198 0
174 198 0
175 198 0
173 197 0
173 197 0
174 198 0
173 197 0
173 197 0
175 198 0
175 198 0
174 198 0
174 197 0
174 198 0
174 198 0
174 197 0
174 198 0
174 197 0
174 198 0
174 198 0
173 197 0
174 198 0
175 198 0
173 197 0
174 197 0
174 198 0
175 198 0
173 197 0
173 197 0
173 197 0
173 196 0
173 197 0
174 197 0
175 198 0
174 198 0
173 197 0
174 198 0
173 197 0
175 198 0
175 198 0
172 197 0
173 197 0
173 197 0
174 198 0
176 199 0
173 197 0
174 197 0
174 198 0
175 198 0
173 197 0
172 196 0
173 197 0
174 198 0
174 198 0
175 198 0
174 198 0
174 198 0
174 198 0
173 197 0
172 197 0
174 197 0
174 198 0
174 198 0
173 197 0
176 199 0
174 197 0
174 197 0
174 197 0
175 198 0
173 196 0
173 197 0
175 198 0
174 197 0
173 197 0
174 198 0
174 197 0
173 197 0
176 199 0
174 197 0
175 198 0
175 197 0
175 198 0
174 197 0
174 198 0
175 198 0
173 197 0
175 198 0
172 196 0
174 197 0
173 197 0
173 197 0
173 197 0
174 198 0
176 199 0
172 196 0
171 195 0
175 198 0
173 197 0
176 199 0
174 197 0
172 196 0
174 198 0
174 197 0
171 195 0
175 198 0
173 197 0
172 196 0
173 197 0
175 198 0
173 197 0
175 198 0
174 198 0
173 196 0
175 198 0
172 196 0
173 197 0
173 197 0
175 198 0
171 195 0
172 196 0
172 196 0
173 197 0
173 196 0
172 195 0
175 198 0
171 195 0
172 196 0
173 196 0
171 195 0
175 198 0
172 196 0
172 196 0
171 195 0
174 197 0
172 195 0
173 197 0
171 196 0
174 198 0
174 198 0
173 197 0
172 195 0
172 196 0
174 197 0
174 197 0
172 196 0
173 197 0
172 196 0
174 198 0
170 194 0
173 196 0
174 197 0
172 196 0
172 196 0
168 193 0
173 196 0
173 196 0
172 196 0
172 197 0
172 196 0
172 196 0
169 193 0
172 196 0
173 196 0
173 196 0
167 191 0
173 197 0
173 196 0
171 195 0
167 191 0
173 196 0
172 196 0
173 195 0
171 195 0
171 195 0
172 196 0
170 194 0
168 193 0
171 196 0
173 197 0
175 198 0
170 194 0
173 196 0
173 196 0
174 198 0
173 197 0
171 194 0
167 190 0
170 194 0
172 195 0
172 195 0
174 197 0
173 197 0
174 197 0
174 198 0
172 196 0
171 195 0
170 193 0
173 196 0
172 196 0
172 196 0
172 195 0
172 196 0
175 198 0
175 198 0
170 194 0
170 192 0
175 197 0
172 195 0
171 195 0
174 197 0
174 197 0
172 197 0
173 195 0
172 195 0
173 196 0
171 194 0
172 195 0
174 197 0
172 196 0
172 195 0
173 196 0
172 196 0
172 196 0
172 196 0
172 195 0
174 197 0
172 195 0
174 198 0
173 196 0
172 196 0
169 193 0
172 195 0
174 197 0
173 196 0
173 196 0
173 197 0
171 195 0
174 197 0
171 195 0
174 197 0
175 198 0
175 198 0
174 198 0
175 198 0
175 198 0
173 197 0
175 198 0
174 197 0
173 197 0
172 196 0
174 197 0
174 197 0
174 197 0
172 195 0
174 197 0
175 198 0
173 197 0
173 197 0
175 198 0
172 196 0
174 197 0
173 197 0
175 198 0
173 197 0
170 195 0
175 198 0
174 198 0
174 197 0
174 196 0
174 197 0
174 197 0
173 197 0
173 197 0
175 198 0
173 197 0
174 198 0
174 196 0
174 197 0
173 197 0
173 197 0
175 198 0
173 197 0
175 197 0
174 197 0
175 198 0
175 198 0
174 197 0
175 198 0
172 195 0
175 197 0
174 198 0
173 197 0
174 197 0
174 197 0
174 197 0
174 198 0
174 197 0
175 198 0
174 198 0
174 197 0
173 197 0
174 197 0
173 197 0
174 198 0
175 198 0
174 198 0
174 197 0
173 196 0
174 197 0
175 198 0
174 197 0
173 197 0
173 197 0
174 197 0
174 198 0
174 197 0
175 198 0
173 197 0
171 195 0
172 197 0
175 198 0
173 196 0
175 198 0
175 198 0
175 198 0
174 197 0
175 198 0
176 198 0
173 197 0
174 198 0
175 198 0
176 199 0
173 197 0
174 197 0
175 198 0
175 198 0
174 197 0
173 197 0
175 198 0
174 198 0
172 196 0
174 197 0
173 197 0
175 198 0
173 197 0
175 198 0
174 198 0
174 197 0
175 198 0
174 198 0
173 197 0
173 197 0
175 198 0
174 198 0
173 197 0
174 198 0
173 196 0
175 198 0
175 198 0
175 198 0
174 198 0
174 197 0
173 197 0
174 197 0
175 198 0
175 198 0
174 198 0
174 197 0
174 198 0
174 198 0
174 198 0
173 197 0
174 198 0
173 197 0
174 197 0
174 198 0
174 198 0
173 197 0
172 197 0
173 197 0
175 198 0
174 198 0
173 197 0
174 198 0
174 198 0
173 196 0
175 198 0
175 198 0
174 197 0
172 196 0
174 197 0
175 198 0
174 198 0
175 198 0
174 198 0
175 198 0
175 198 0
175 198 0
174 197 0
175 198 0
175 198 0
173 197 0
176 198 0
173 197 0
174 198 0
174 198 0
174 198 0
175 198 0
173 197 0
174 198 0
174 197 0
174 198 0
174 197 0
173 197 0
175 198 0
174 198 0
174 197 0
174 198 0
173 197 0
175 198 0
175 198 0
174 198 0
175 198 0
173 197 0
175 198 0
172 196 0
173 197 0
175 198 0
175 198 0
173 197 0
173 197 0
175 198 0
173 197 0
174 197 0
172 196 0
176 198 0
173 197 0
173 197 0
174 197 0
174 198 0
173 197 0
174 198 0
175 198 0
174 198 0
176 198 0
173 197 0
173 197 0
173 197 0
173 197 0
174 197 0
174 198 0
174 197 0
176 199 0
175 198 0
173 197 0
175 198 0
173 197 0
173 197 0
174 198 0
175 198 0
174 197 0
175 198 0
176 199 0
175 198 0
173 197 0
174 197 0
171 195 0
174 197 0
173 197 0
174 198 0
172 197 0
175 198 0
176 199 0
173 197 0
175 198 0
173 197 0
174 198 0
173 197 0
175 198 0
175 198 0
173 197 0
174 198 0
174 197 0
173 197 0
173 197 0
174 197 0
174 198 0
173 196 0
176 199 0
172 196 0
174 198 0
175 198 0
174 198 0
172 196 0
173 197 0
173 197 0
173 197 0
174 197 0
173 196 0
174 198 0
176 199 0
176 199 0
171 196 0
171 195 0
172 197 0
175 198 0
174 197 0
174 197 0
174 197 0
173 197 0
174 197 0
174 197 0
171 196 0
173 197 0
174 198 0
171 195 0
174 197 0
175 198 0
170 194 0
175 198 0
172 196 0
175 198 0
172 196 0
174 197 0
174 197 0
172 196 0
174 198 0
174 198 0
174 198 0
174 197 0
172 196 0
173 197 0
174 197 0
172 196 0
172 196 0
174 197 0
172 196 0
172 196 0
173 196 0
172 197 0
171 195 0
174 197 0
171 195 0
172 196 0
171 195 0
173 197 0
173 197 0
172 196 0
174 197 0
173 196 0
171 195 0
173 196 0
171 194 0
172 196 0
172 196 0
173 196 0
173 196 0
170 194 0
171 195 0
173 197 0
169 193 0
170 194 0
174 198 0
173 197 0
172 196 0
173 196 0
171 195 0
173 197 0
172 195 0
173 197 0
170 195 0
173 197 0
173 197 0
174 197 0
172 195 0
175 198 0
173 196 0
172 196 0
172 195 0
173 197 0
171 194 0
174 197 0
174 198 0
173 196 0
173 196 0
173 197 0
172 195 0
172 196 0
172 195 0
169 192 0
173 197 0
173 196 0
172 196 0
174 197 0
172 196 0
174 198 0
168 192 0
171 195 0
174 197 0
172 195 0
171 195 0
172 195 0
174 197 0
173 195 0
173 196 0
175 197 0
172 196 0
171 196 0
175 197 0
175 198 0
171 195 0
173 196 0
173 196 0
174 197 0
173 197 0
173 197 0
174 197 0
173 196 0
171 195 0
173 196 0
172 195 0
172 195 0
172 196 0
174 197 0
173 196 0
173 197 0
171 195 0
177 199 0
173 196 0
172 195 0
174 197 0
174 197 0
174 197 0
172 195 0
174 198 0
175 198 0
173 196 0
173 196 0
173 197 0
174 198 0
175 198 0
176 199 0
173 197 0
172 196 0
173 197 0
174 197 0
174 197 0
174 198 0
175 198 0
172 195 0
174 197 0
173 196 0
173 196 0
174 197 0
174 198 0
174 197 0
174 197 0
174 197 0
174 198 0
175 198 0
174 197 0
175 198 0
173 197 0
174 197 0
174 197 0
174 198 0
175 198 0
173 196 0
174 198 0
174 197 0
175 198 0
174 198 0
174 197 0
174 198 0
174 197 0
174 197 0
174 197 0
175 197 0
174 198 0
174 198 0
173 197 0
173 196 0
176 199 0
173 197 0
175 197 0
174 197 0
175 198 0
176 199 0
174 198 0
175 198 0
173 197 0
175 198 0
175 198 0
173 197 0
174 198 0
173 197 0
172 196 0
173 197 0
174 197 0
173 197 0
174 198 0
174 197 0
175 198 0
173 197 0
173 197 0
174 197 0
174 198 0
176 199 0
172 196 0
175 198 0
174 197 0
174 197 0
174 197 0
175 198 0
173 197 0
172 196 0
173 197 0
174 198 0
175 198 0
174 198 0
175 198 0
175 198 0
174 197 0
172 197 0
174 198 0
175 198 0
174 197 0
174 197 0
174 198 0
175 198 0
173 197 0
174 197 0
176 199 0
173 197 0
173 197 0
173 197 0
174 198 0
175 198 0
175 198 0
173 197 0
173 197 0
173 197 0
173 196 0
174 197 0
175 198 0
174 198 0
175 198 0
173 197 0
175 198 0
173 197 0
174 198 0
175 198 0
174 198 0
175 198 0
174 198 0
174 198 0
174 198 0
173 196 0
174 197 0
173 197 0
175 198 0
176 198 0
174 198 0
174 198 0
175 198 0
175 198 0
174 198 0
173 197 0
175 198 0
175 198 0
175 198 0
175 198 0
173 197 0
175 198 0
175 198 0
174 197 0
176 198 0
174 197 0
175 198 0
176 199 0
174 197 0
175 198 0
174 198 0
175 198 0
176 199 0
174 198 0
176 199 0
174 198 0
174 198 0
174 198 0
174 198 0
172 197 0
173 197 0
174 197 0
176 198 0
177 199 0
175 198 0
175 198 0
175 198 0
175 198 0
174 198 0
174 198 0
174 198 0
175 198 0
173 197 0
175 198 0
174 198 0
174 198 0
175 198 0
174 198 0
173 197 0
172 197 0
174 197 0
174 198 0
174 197 0
172 197 0
175 198 0
175 198 0
175 198 0
173 197 0
175 198 0
175 198 0
172 196 0
175 198 0
174 198 0
175 198 0
175 198 0
175 198 0
174 198 0
174 198 0
176 198 0
174 197 0
175 198 0
173 197 0
175 198 0
173 196 0
174 197 0
175 198 0
173 197 0
174 198 0
174 198 0
173 197 0
172 196 0
173 197 0
173 197 0
175 198 0
175 198 0
174 198 0
174 197 0
175 198 0
173 197 0
174 198 0
174 197 0
173 197 0
174 198 0
173 197 0
175 198 0
175 198 0
172 196 0
174 197 0
175 198 0
174 197 0
174 197 0
174 197 0
173 197 0
173 197 0
174 198 0
172 196 0
174 198 0
174 198 0
172 196 0
175 198 0
175 198 0
176 199 0
172 197 0
174 198 0
175 198 0
174 198 0
174 198 0
174 198 0
176 199 0
175 198 0
176 198 0
176 199 0
174 197 0
175 198 0
173 197 0
174 197 0
173 197 0
173 197 0
173 197 0
173 197 0
173 197 0
173 197 0
173 197 0
174 198 0
174 198 0
173 197 0
173 196 0
173 197 0
173 197 0
174 197 0
172 196 0
174 197 0
174 197 0
174 197 0
173 196 0
172 196 0
173 197 0
174 197 0
174 197 0
173 197 0
173 197 0
173 196 0
175 198 0
176 198 0
174 198 0
174 198 0
172 196 0
174 197 0
174 197 0
172 196 0
174 197 0
173 197 0
173 197 0
172 196 0
172 196 0
172 196 0
174 197 0
174 197 0
172 197 0
172 196 0
173 197 0
172 195 0
173 197 0
173 196 0
173 197 0
171 194 0
172 196 0
172 195 0
173 196 0
172 195 0
170 194 0
171 195 0
173 197 0
173 197 0
173 196 0
171 194 0
173 196 0
174 198 0
171 195 0
171 195 0
173 196 0
173 197 0
172 194 0
171 194 0
175 198 0
171 194 0
172 196 0
172 195 0
169 192 0
175 197 0
174 197 0
173 196 0
172 197 0
171 194 0
172 196 0
173 196 0
171 195 0
172 196 0
171 195 0
170 194 0
174 197 0
171 196 0
174 197 0
171 194 0
174 197 0
171 195 0
175 197 0
170 194 0
170 194 0
173 196 0
173 197 0
172 196 0
173 195 0
171 195 0
171 195 0
174 197 0
174 197 0
173 197 0
175 197 0
173 196 0
171 195 0
171 194 0
172 196 0
171 195 0
171 195 0
174 198 0
173 196 0
172 195 0
173 196 0
173 196 0
168 192 0
172 195 0
174 197 0
174 197 0
171 195 0
173 196 0
173 197 0
172 195 0
174 197 0
173 196 0
174 196 0
170 194 0
172 196 0
174 196 0
173 196 0
171 195 0
173 196 0
172 196 0
173 196 0
173 196 0
173 196 0
173 196 0
173 197 0
175 198 0
172 196 0
172 195 0
173 197 0
174 197 0
172 196 0
175 198 0
174 198 0
172 195 0
172 196 0
174 196 0
172 196 0
173 197 0
175 198 0
172 196 0
173 197 0
173 197 0
174 197 0
173 196 0
173 197 0
172 196 0
174 197 0
175 198 0
173 196 0
173 197 0
175 198 0
174 198 0
174 197 0
175 198 0
173 196 0
173 197 0
174 198 0
174 197 0
174 197 0
174 198 0
176 198 0
173 197 0
173 197 0
173 197 0
175 198 0
174 197 0
172 197 0
172 195 0
173 197 0
174 196 0
173 197 0
175 198 0
175 198 0
174 197 0
175 198 0
174 198 0
172 196 0
174 197 0
174 197 0
172 196 0
173 196 0
174 197 0
175 198 0
173 197 0
175 197 0
173 197 0
173 196 0
174 197 0
171 195 0
173 197 0
173 197 0
174 198 0
174 197 0
175 198 0
173 196 0
175 198 0
174 197 0
173 196 0
173 197 0
174 198 0
175 198 0
173 197 0
175 198 0
175 198 0
173 197 0
176 199 0
173 196 0
174 197 0
174 197 0
175 198 0
175 198 0
173 197 0
174 198 0
175 198 0
174 198 0
174 197 0
173 197 0
173 197 0
173 196 0
172 196 0
174 198 0
174 198 0
173 197 0
174 198 0
173 197 0
173 197 0
173 197 0
176 199 0
175 198 0
174 197 0
173 197 0
175 198 0
174 197 0
173 197 0
174 198 0
174 197 0
176 199 0
173 197 0
174 197 0
175 198 0
175 198 0
174 198 0
173 196 0
174 198 0
176 199 0
174 197 0
174 198 0
175 198 0
174 197 0
175 198 0
175 198 0
173 197 0
175 198 0
174 197 0
174 197 0
175 198 0
174 197 0
174 198 0
175 198 0
174 197 0
173 197 0
175 198 0
174 197 0
176 198 0
173 197 0
173 197 0
174 198 0
176 199 0
175 198 0
173 196 0
174 198 0
174 198 0
174 197 0
174 198 0
175 198 0
174 198 0
174 197 0
175 198 0
173 197 0
174 197 0
175 198 0
174 197 0
175 198 0
174 198 0
175 198 0
173 197 0
174 198 0
173 197 0
175 198 0
175 198 0
175 198 0
175 198 0
175 198 0
174 198 0
174 198 0
174 197 0
173 197 0
175 198 0
175 198 0
174 198 0
174 198 0
174 198 0
174 197 0
174 198 0
173 196 0
175 198 0
174 197 0
173 197 0
175 198 0
173 197 0
174 198 0
175 198 0
173 197 0
175 198 0
175 198 0
175 198 0
175 198 0
175 198 0
176 199 0
174 198 0
173 197 0
173 197 0
174 198 0
175 198 0
173 197 0
174 198 0
176 199 0
175 198 0
175 198 0
175 198 0
175 198 0
175 198 0
172 196 0
173 197 0
173 197 0
173 197 0
173 197 0
173 197 0
175 198 0
175 198 0
174 197 0
173 197 0
175 198 0
175 198 0
175 198 0
175 198 0
175 198 0
172 196 0
176 199 0
174 198 0
175 198 0
173 196 0
175 198 0
174 198 0
173 197 0
174 197 0
174 198 0
174 198 0
174 198 0
174 198 0
174 198 0
173 197 0
174 198 0
175 198 0
175 198 0
173 197 0
174 198 0
173 197 0
173 197 0
173 197 0
173 196 0
175 198 0
175 198 0
175 198 0
172 196 0
173 196 0
174 197 0
172 196 0
174 197 0
173 197 0
174 198 0
175 198 0
175 198 0
174 198 0
175 198 0
175 198 0
174 197 0
175 198 0
175 198 0
173 197 0
175 198 0
174 197 0
174 198 0
172 196 0
174 197 0
173 196 0
174 197 0
174 197 0
176 199 0
174 198 0
174 197 0
172 196 0
173 196 0
175 198 0
173 197 0
175 198 0
175 198 0
174 197 0
174 198 0
174 197 0
174 198 0
173 197 0
173 196 0
173 196 0
173 197 0
174 197 0
174 197 0
173 197 0
173 197 0
169 193 0
173 196 0
176 199 0
174 198 0
171 196 0
173 196 0
174 197 0
175 198 0
173 197 0
171 194 0
174 198 0
174 198 0
175 197 0
172 196 0
173 196 0
175 198 0
174 197 0
171 196 0
171 195 0
171 195 0
172 196 0
176 198 0
173 197 0
174 198 0
173 196 0
172 196 0
172 195 0
175 198 0
177 199 0
174 197 0
174 197 0
173 197 0
173 196 0
173 197 0
173 196 0
172 195 0
172 195 0
171 194 0
174 198 0
173 196 0
174 198 0
172 195 0
174 197 0
169 194 0
173 197 0
170 193 0
171 195 0
171 195 0
175 198 0
174 197 0
174 197 0
169 192 0
174 196 0
174 196 0
172 196 0
172 196 0
169 193 0
173 196 0
174 196 0
172 196 0
171 195 0
171 195 0
171 196 0
173 196 0
172 196 0
172 196 0
173 196 0
173 196 0
173 196 0
173 197 0
173 197 0
171 195 0
172 196 0
174 197 0
174 198 0
172 196 0
174 197 0
173 196 0
174 197 0
170 195 0
173 196 0
172 196 0
172 196 0
173 197 0
174 197 0
173 196 0
173 196 0
170 194 0
175 198 0
173 196 0
173 197 0
174 197 0
171 194 0
173 197 0
174 198 0
170 194 0
174 197 0
174 197 0
174 197 0
174 197 0
173 196 0
172 195 0
171 195 0
172 194 0
173 197 0
173 197 0
173 196 0
172 196 0
173 196 0
175 198 0
174 198 0
174 196 0
173 196 0
174 198 0
173 197 0
175 198 0
172 195 0
172 196 0
174 197 0
174 197 0
175 198 0
174 197 0
174 197 0
173 197 0
173 197 0
176 198 0
172 196 0
174 197 0
174 197 0
173 196 0
175 198 0
173 197 0
175 198 0
171 196 0
172 195 0
173 197 0
173 196 0
173 196 0
175 197 0
173 196 0
173 197 0
173 196 0
173 196 0
173 197 0
172 196 0
173 197 0
174 197 0
174 198 0
174 198 0
173 197 0
173 197 0
174 198 0
173 197 0
176 198 0
174 197 0
174 198 0
173 197 0
173 196 0
172 196 0
174 198 0
174 197 0
172 196 0
176 198 0
172 196 0
175 198 0
172 196 0
174 198 0
174 198 0
174 197 0
173 197 0
174 198 0
174 198 0
172 197 0
175 198 0
174 198 0
175 198 0
176 198 0
175 198 0
173 197 0
173 197 0
174 198 0
174 197 0
171 195 0
176 198 0
174 198 0
173 197 0
175 198 0
172 196 0
173 197 0
175 198 0
173 197 0
175 198 0
175 198 0
174 197 0
173 197 0
173 197 0
173 197 0
175 198 0
174 197 0
171 196 0
173 197 0
175 198 0
174 197 0
174 198 0
172 196 0
176 198 0
172 196 0
174 198 0
173 196 0
175 198 0
175 198 0
173 197 0
174 198 0
174 198 0
174 198 0
176 198 0
176 199 0
174 198 0
174 197 0
174 197 0
172 196 0
175 198 0
174 198 0
174 197 0
174 197 0
176 199 0
174 198 0
174 198 0
175 198 0
173 197 0
173 197 0
173 196 0
175 198 0
172 196 0
176 198 0
175 198 0
176 198 0
174 198 0
174 197 0
175 198 0
173 197 0
175 198 0
175 198 0
175 198 0
175 198 0
174 197 0
175 198 0
174 197 0
174 197 0
174 198 0
175 198 0
175 198 0
174 198 0
174 198 0
173 197 0
175 198 0
173 197 0
174 198 0
175 198 0
175 198 0
173 197 0
175 198 0
175 198 0
174 198 0
175 198 0
175 198 0
174 198 0
175 198 0
174 198 0
174 198 0
174 197 0
174 198 0
173 197 0
175 198 0
175 198 0
176 198 0
174 197 0
172 196 0
175 198 0
173 197 0
174 198 0
174 198 0
175 198 0
175 198 0
174 197 0
175 198 0
175 198 0
174 198 0
173 197 0
174 198 0
175 198 0
176 198 0
176 198 0
173 197 0
175 198 0
174 198 0
174 197 0
175 198 0
174 198 0
173 197 0
173 197 0
174 198 0
173 197 0
174 197 0
175 198 0
173 197 0
175 198 0
174 197 0
174 198 0
175 198 0
175 198 0
172 197 0
175 198 0
173 197 0
173 197 0
173 197 0
175 198 0
175 198 0
175 198 0
174 197 0
174 198 0
174 197 0
175 198 0
174 197 0
174 197 0
176 199 0
174 197 0
172 196 0
175 198 0
176 198 0
175 198 0
174 198 0
173 197 0
174 198 0
172 196 0
173 197 0
173 197 0
174 198 0
173 197 0
175 198 0
173 197 0
174 197 0
174 197 0
174 197 0
171 195 0
173 197 0
176 198 0
174 198 0
175 197 0
173 197 0
176 199 0
175 198 0
172 196 0
175 197 0
174 197 0
174 198 0
176 198 0
174 197 0
173 197 0
174 198 0
174 198 0
175 198 0
172 196 0
174 197 0
173 197 0
174 198 0
175 198 0
173 197 0
174 197 0
172 196 0
173 197 0
174 197 0
173 196 0
175 198 0
175 198 0
174 197 0
174 197 0
174 198 0
175 198 0
174 197 0
176 198 0
174 197 0
174 198 0
175 198 0
174 198 0
175 198 0
172 197 0
174 197 0
173 197 0
174 197 0
173 197 0
174 197 0
174 197 0
174 197 0
173 197 0
173 196 0
173 197 0
174 197 0
173 197 0
177 199 0
172 196 0
174 197 0
173 197 0
172 196 0
172 197 0
175 197 0
173 197 0
172 196 0
172 196 0
174 197 0
173 197 0
173 197 0
172 195 0
173 197 0
174 197 0
173 196 0
172 195 0
173 197 0
173 197 0
173 197 0
171 195 0
172 196 0
174 197 0
172 195 0
174 197 0
172 196 0
174 197 0
172 196 0
173 196 0
173 197 0
174 197 0
172 195 0
173 197 0
171 195 0
176 199 0
173 196 0
174 197 0
171 194 0
171 195 0
171 194 0
171 195 0
172 196 0
169 194 0
174 197 0
173 196 0
172 196 0
170 194 0
174 197 0
173 197 0
169 193 0
174 197 0
172 196 0
170 195 0
173 196 0
173 196 0
174 197 0
171 195 0
171 194 0
173 197 0
174 198 0
174 198 0
169 193 0
174 198 0
171 195 0
170 194 0
171 196 0
173 196 0
173 196 0
171 195 0
173 197 0
173 196 0
170 193 0
173 196 0
173 196 0
174 197 0
171 195 0
175 198 0
173 196 0
172 195 0
173 196 0
172 196 0
176 198 0
172 195 0
171 196 0
172 196 0
173 196 0
174 197 0
172 196 0
172 196 0
173 197 0
171 195 0
171 194 0
172 195 0
174 197 0
170 193 0
173 197 0
174 197 0
171 196 0
174 197 0
171 195 0
172 196 0
174 197 0
171 195 0
173 196 0
173 196 0
173 197 0
173 196 0
173 197 0
173 197 0
171 194 0
175 197 0
176 198 0
173 197 0
173 197 0
171 194 0
173 196 0
173 195 0
174 197 0
175 198 0
173 197 0
174 197 0
173 197 0
172 195 0
173 197 0
171 194 0
174 198 0
174 198 0
172 196 0
172 196 0
173 197 0
176 198 0
174 198 0
173 197 0
174 197 0
175 198 0
175 198 0
175 197 0
173 197 0
170 194 0
174 197 0
175 197 0
171 195 0
174 197 0
174 196 0
174 197 0
172 195 0
173 197 0
172 196 0
174 198 0
175 198 0
173 196 0
173 196 0
173 197 0
174 197 0
175 197 0
174 198 0
174 197 0
174 197 0
175 198 0
174 197 0
172 197 0
172 197 0
174 197 0
174 197 0
175 198 0
173 196 0
176 199 0
173 197 0
176 199 0
175 198 0
173 196 0
174 198 0
173 197 0
174 197 0
175 198 0
174 197 0
175 198 0
172 197 0
174 197 0
175 197 0
176 199 0
173 197 0
174 197 0
173 196 0
175 198 0
175 198 0
174 197 0
171 195 0
174 198 0
172 197 0
173 197 0
173 197 0
174 197 0
173 197 0
174 198 0
174 197 0
174 197 0
175 198 0
175 198 0
174 197 0
173 196 0
175 198 0
174 198 0
173 197 0
174 198 0
175 198 0
174 197 0
176 198 0
174 197 0
174 198 0
174 198 0
176 198 0
173 197 0
174 197 0
173 197 0
176 198 0
172 196 0
174 197 0
174 197 0
172 197 0
172 197 0
174 198 0
176 198 0
176 198 0
174 198 0
176 198 0
175 198 0
174 197 0
174 198 0
175 198 0
175 198 0
174 197 0
174 198 0
174 198 0
175 198 0
174 197 0
173 197 0
174 198 0
174 198 0
175 198 0
175 198 0
175 198 0
175 198 0
174 197 0
174 197 0
174 197 0
174 197 0
174 198 0
174 198 0
175 198 0
175 198 0
176 198 0
175 198 0
174 198 0
174 198 0
175 198 0
175 198 0
173 197 0
174 198 0
173 197 0
174 197 0
174 197 0
174 197 0
174 197 0
174 198 0
174 198 0
174 197 0
176 198 0
174 197 0
175 198 0
175 198 0
174 198 0
175 198 0
176 199 0
175 198 0
175 198 0
174 197 0
174 197 0
172 197 0
174 198 0
173 197 0
174 198 0
173 196 0
173 197 0
176 199 0
176 199 0
174 198 0
175 197 0
173 197 0
176 199 0
173 197 0
175 198 0
174 197 0
174 198 0
174 198 0
174 197 0
175 198 0
175 198 0
174 198 0
175 198 0
174 197 0
174 198 0
174 197 0
175 198 0
174 198 0
170 194 0
173 197 0
173 197 0
175 198 0
174 197 0
175 198 0
174 198 0
174 197 0
174 198 0
175 198 0
175 198 0
175 198 0
175 198 0
174 197 0
175 198 0
175 198 0
174 198 0
173 197 0
175 198 0
174 197 0
174 197 0
173 197 0
175 198 0
174 198 0
174 198 0
176 198 0
175 198 0
175 198 0
175 198 0
174 198 0
175 198 0
176 199 0
175 198 0
174 197 0
175 198 0
174 197 0
174 197 0
174 198 0
173 197 0
172 196 0
173 197 0
175 198 0
172 196 0
175 198 0
173 197 0
173 197 0
175 198 0
175 198 0
174 198 0
175 198 0
174 197 0
172 196 0
174 197 0
172 197 0
173 197 0
175 198 0
173 197 0
172 196 0
174 197 0
174 197 0
174 197 0
174 197 0
175 198 0
173 196 0
173 197 0
174 198 0
175 198 0
174 197 0
174 197 0
173 197 0
173 197 0
173 197 0
174 198 0
173 197 0
174 198 0
172 196 0
175 198 0
175 198 0
174 197 0
175 198 0
173 197 0
172 196 0
174 198 0
173 197 0
175 198 0
174 197 0
173 197 0
174 197 0
173 197 0
174 197 0
173 196 0
171 195 0
173 196 0
174 198 0
173 197 0
172 197 0
174 197 0
174 197 0
171 195 0
172 195 0
173 196 0
174 198 0
174 196 0
173 197 0
175 198 0
173 197 0
172 196 0
175 198 0
173 197 0
172 196 0
172 196 0
172 195 0
175 198 0
173 197 0
172 196 0
172 196 0
173 196 0
174 197 0
172 196 0
171 194 0
175 198 0
174 197 0
172 196 0
172 196 0
170 193 0
174 197 0
176 198 0
171 194 0
171 194 0
173 196 0
175 198 0
170 194 0
173 196 0
174 197 0
175 198 0
172 195 0
172 196 0
174 197 0
173 196 0
172 196 0
173 197 0
174 197 0
170 194 0
172 196 0
173 196 0
173 197 0
174 197 0
173 196 0
172 195 0
173 196 0
173 197 0
171 195 0
173 197 0
173 197 0
173 196 0
171 194 0
171 195 0
170 194 0
174 198 0
172 196 0
174 197 0
173 196 0
174 197 0
173 196 0
172 195 0
171 194 0
172 196 0
174 197 0
173 196 0
173 196 0
172 196 0
172 196 0
173 197 0
172 196 0
172 195 0
173 195 0
174 197 0
174 196 0
172 196 0
173 197 0
174 197 0
173 197 0
173 196 0
174 197 0
173 196 0
172 195 0
174 196 0
175 198 0
172 196 0
172 195 0
174 197 0
173 197 0
174 198 0
173 197 0
173 196 0
173 196 0
172 195 0
173 197 0
173 196 0
171 194 0
173 197 0
174 198 0
173 197 0
172 195 0
173 196 0
170 194 0
174 198 0
173 197 0
173 196 0
172 196 0
173 197 0
172 195 0
173 197 0
173 197 0
174 197 0
172 196 0
173 196 0
175 198 0
174 197 0
172 196 0
173 196 0
173 196 0
171 195 0
172 196 0
173 196 0
173 197 0
171 195 0
172 196 0
173 197 0
176 198 0
174 197 0
173 197 0
174 197 0
174 197 0
175 197 0
173 197 0
173 197 0
174 197 0
173 196 0
174 198 0
176 199 0
174 198 0
175 198 0
175 198 0
173 197 0
172 196 0
175 198 0
174 197 0
174 197 0
173 197 0
173 197 0
174 197 0
173 196 0
174 197 0
174 197 0
174 198 0
174 197 0
175 198 0
174 197 0
174 197 0
173 196 0
175 198 0
172 196 0
173 196 0
173 197 0
173 197 0
174 198 0
175 198 0
174 198 0
174 198 0
175 198 0
174 197 0
175 198 0
174 197 0
173 196 0
173 197 0
174 198 0
174 197 0
173 197 0
175 198 0
173 196 0
173 196 0
175 198 0
173 197 0
173 197 0
173 197 0
174 198 0
173 197 0
175 198 0
173 197 0
176 199 0
173 197 0
174 198 0
175 198 0
176 199 0
174 197 0
174 197 0
175 198 0
174 198 0
176 199 0
175 198 0
173 197 0
175 198 0
174 197 0
175 198 0
174 197 0
174 197 0
174 198 0
173 197 0
172 196 0
174 198 0
176 198 0
173 197 0
173 197 0
175 198 0
174 198 0
175 198 0
174 198 0
175 198 0
176 199 0
174 197 0
174 197 0
175 198 0
173 197 0
174 198 0
173 197 0
175 198 0
173 197 0
175 198 0
174 198 0
176 198 0
174 197 0
174 198 0
172 196 0
175 198 0
173 197 0
172 196 0
174 198 0
172 196 0
174 197 0
174 197 0
174 198 0
175 198 0
174 198 0
174 198 0
174 198 0
175 198 0
174 198 0
174 197 0
176 198 0
176 198 0
175 198 0
175 198 0
174 197 0
174 198 0
175 198 0
173 197 0
176 199 0
175 198 0
174 198 0
173 197 0
175 198 0
173 197 0
171 195 0
176 198 0
175 198 0
174 198 0
173 197 0
175 198 0
176 198 0
174 197 0
175 198 0
174 197 0
175 198 0
174 198 0
173 197 0
174 198 0
175 198 0
174 197 0
173 197 0
175 198 0
176 199 0
177 199 0
174 197 0
174 197 0
174 197 0
175 198 0
174 197 0
174 198 0
174 197 0
173 197 0
173 196 0
174 198 0
174 197 0
174 198 0
173 197 0
175 198 0
174 197 0
174 198 0
175 198 0
173 197 0
176 198 0
174 197 0
174 198 0
174 198 0
176 198 0
174 197 0
174 198 0
174 198 0
175 198 0
174 197 0
174 198 0
174 198 0
174 197 0
173 197 0
175 198 0
174 198 0
174 198 0
172 196 0
174 197 0
174 197 0
175 198 0
174 197 0
174 198 0
175 198 0
173 196 0
174 197 0
173 197 0
174 197 0
175 198 0
173 197 0
173 197 0
173 197 0
175 198 0
175 198 0
174 197 0
175 198 0
173 197 0
174 198 0
174 198 0
174 197 0
174 198 0
175 198 0
174 198 0
174 198 0
176 199 0
173 196 0
175 198 0
172 196 0
173 197 0
173 196 0
175 198 0
174 198 0
173 197 0
173 197 0
175 198 0
173 197 0
174 197 0
174 198 0
173 197 0
175 198 0
176 198 0
176 199 0
174 198 0
173 197 0
174 198 0
175 198 0
174 198 0
173 197 0
173 197 0
175 198 0
173 197 0
174 197 0
173 197 0
172 196 0
173 197 0
170 194 0
173 197 0
172 197 0
172 196 0
174 197 0
171 195 0
174 198 0
175 198 0
174 198 0
174 197 0
175 198 0
171 195 0
176 199 0
173 197 0
173 197 0
174 197 0
172 196 0
174 197 0
173 196 0
174 197 0
173 196 0
172 195 0
173 197 0
172 196 0
173 197 0
173 196 0
174 197 0
174 197 0
174 198 0
173 197 0
174 197 0
173 196 0
173 197 0
173 196 0
175 198 0
174 198 0
172 195 0
172 196 0
174 197 0
175 198 0
175 198 0
173 196 0
174 197 0
172 196 0
173 197 0
169 193 0
173 196 0
174 196 0
172 196 0
172 195 0
173 197 0
170 194 0
172 195 0
173 197 0
174 197 0
173 196 0
174 197 0
172 196 0
174 197 0
173 196 0
172 196 0
174 198 0
172 196 0
173 195 0
171 195 0
172 195 0
170 194 0
172 196 0
171 195 0
172 196 0
171 195 0
172 196 0
172 195 0
171 195 0
171 195 0
172 196 0
173 196 0
172 195 0
172 196 0
171 194 0
169 193 0
172 196 0
173 197 0
171 195 0
172 196 0
171 194 0
172 197 0
170 194 0
174 197 0
173 196 0
172 196 0
173 196 0
173 196 0
172 196 0
172 196 0
174 197 0
173 196 0
175 198 0
175 197 0
173 196 0
172 196 0
174 197 0
172 195 0
174 198 0
174 196 0
172 196 0
174 197 0
173 197 0
171 195 0
172 196 0
173 197 0
171 194 0
175 198 0
174 197 0
174 196 0
172 195 0
173 196 0
174 198 0
173 197 0
172 196 0
171 194 0
173 197 0
174 197 0
172 196 0
172 195 0
172 195 0
173 197 0
172 195 0
174 197 0
173 197 0
173 196 0
174 197 0
174 198 0
173 197 0
174 197 0
172 195 0
174 198 0
174 197 0
173 197 0
174 197 0
175 198 0
171 195 0
172 196 0
173 197 0
173 197 0
175 198 0
173 197 0
174 197 0
174 197 0
174 198 0
173 197 0
174 198 0
174 197 0
173 196 0
172 195 0
174 197 0
174 197 0
176 198 0
176 198 0
175 198 0
175 198 0
175 197 0
173 197 0
173 196 0
172 196 0
175 198 0
173 197 0
174 197 0
174 197 0
177 199 0
173 197 0
175 198 0
173 196 0
175 198 0
173 197 0
173 197 0
174 197 0
173 197 0
174 197 0
173 197 0
173 197 0
174 197 0
172 196 0
175 197 0
174 198 0
174 198 0
175 198 0
175 198 0
175 198 0
173 197 0
173 197 0
173 197 0
175 197 0
175 197 0
173 197 0
175 198 0
174 197 0
173 197 0
173 197 0
174 198 0
174 197 0
174 198 0
175 198 0
175 198 0
175 198 0
173 197 0
173 197 0
173 197 0
175 198 0
174 197 0
173 197 0
175 198 0
174 198 0
174 197 0
172 197 0
173 197 0
173 196 0
174 198 0
173 197 0
175 198 0
174 197 0
175 198 0
174 198 0
173 197 0
176 198 0
172 196 0
174 197 0
174 198 0
175 198 0
172 197 0
174 198 0
174 197 0
173 197 0
173 197 0
175 198 0
175 198 0
175 198 0
172 196 0
174 197 0
174 197 0
175 198 0
174 198 0
173 197 0
175 198 0
174 197 0
173 197 0
174 197 0
173 197 0
173 197 0
174 198 0
175 198 0
176 199 0
174 197 0
174 198 0
174 198 0
173 197 0
174 197 0
175 198 0
175 198 0
173 197 0
174 197 0
174 198 0
174 198 0
174 198 0
176 198 0
173 196 0
174 198 0
176 199 0
173 197 0
173 197 0
174 198 0
174 198 0
174 197 0
174 198 0
175 198 0
175 198 0
175 198 0
175 198 0
175 198 0
174 198 0
174 198 0
173 197 0
174 197 0
174 197 0
174 198 0
175 198 0
173 197 0
174 198 0
174 197 0
174 198 0
173 197 0
173 197 0
174 197 0
175 198 0
175 198 0
175 198 0
174 198 0
175 198 0
176 199 0
174 197 0
172 196 0
172 197 0
174 198 0
175 198 0
174 197 0
174 197 0
175 198 0
175 198 0
172 197 0
174 198 0
175 198 0
174 198 0
173 197 0
173 197 0
174 197 0
173 197 0
175 198 0
176 199 0
174 198 0
174 197 0
174 198 0
175 198 0
174 198 0
174 198 0
174 198 0
175 198 0
175 198 0
175 198 0
173 197 0
175 198 0
174 198 0
172 196 0
175 198 0
174 197 0
175 198 0
174 198 0
175 198 0
174 198 0
174 198 0
174 198 0
174 198 0
174 198 0
174 197 0
176 199 0
175 198 0
173 197 0
175 198 0
176 199 0
174 198 0
173 197 0
172 196 0
174 198 0
173 197 0
175 198 0
175 198 0
174 197 0
173 197 0
175 198 0
173 197 0
172 196 0
173 197 0
175 198 0
173 197 0
173 197 0
175 198 0
174 198 0
174 198 0
175 198 0
174 198 0
173 197 0
174 197 0
173 197 0
173 197 0
174 198 0
173 197 0
173 197 0
174 198 0
175 198 0
174 197 0
174 197 0
172 196 0
173 197 0
175 198 0
175 198 0
173 197 0
176 199 0
174 197 0
174 197 0
173 197 0
172 197 0
173 196 0
175 198 0
174 198 0
173 197 0
171 195 0
175 198 0
174 197 0
172 196 0
176 199 0
175 198 0
173 197 0
173 197 0
175 198 0
173 197 0
175 198 0
173 197 0
174 198 0
174 197 0
174 197 0
173 196 0
174 198 0
174 197 0
174 198 0
172 195 0
174 198 0
174 197 0
173 197 0
173 197 0
171 195 0
173 197 0
174 197 0
173 197 0
172 196 0
174 197 0
174 197 0
172 196 0
173 196 0
173 196 0
173 197 0
174 197 0
174 198 0
173 197 0
172 195 0
173 197 0
175 197 0
173 196 0
173 197 0
174 197 0
173 196 0
173 197 0
176 198 0
172 196 0
174 197 0
171 195 0
172 196 0
171 194 0
173 196 0
173 197 0
174 197 0
171 195 0
174 198 0
171 195 0
173 197 0
173 196 0
175 198 0
174 197 0
173 196 0
173 197 0
173 196 0
174 197 0
173 196 0
174 196 0
173 196 0
172 196 0
172 195 0
172 196 0
171 196 0
172 196 0
173 197 0
173 197 0
172 195 0
171 195 0
171 196 0
175 198 0
172 195 0
173 197 0
172 196 0
172 195 0
173 196 0
173 196 0
172 197 0
172 195 0
174 197 0
173 196 0
174 197 0
171 195 0
171 195 0
172 195 0
172 195 0
174 197 0
173 196 0
173 196 0
172 196 0
173 196 0
174 197 0
173 197 0
173 197 0
170 193 0
174 197 0
174 197 0
173 197 0
174 197 0
170 195 0
174 197 0
172 195 0
171 194 0
173 196 0
174 196 0
172 195 0
174 197 0
173 196 0
173 197 0
172 195 0
172 195 0
175 198 0
173 197 0
174 198 0
172 195 0
172 196 0
174 197 0
172 196 0
174 197 0
172 196 0
175 197 0
174 197 0
172 196 0
175 198 0
173 197 0
174 197 0
175 198 0
173 196 0
174 197 0
173 197 0
172 196 0
174 196 0
172 195 0
173 197 0
173 197 0
174 198 0
174 197 0
172 195 0
174 197 0
174 198 0
172 196 0
173 196 0
172 196 0
173 197 0
172 196 0
174 198 0
174 198 0
174 196 0
173 196 0
173 196 0
172 196 0
174 197 0
171 195 0
174 197 0
174 197 0
172 196 0
172 196 0
176 198 0
173 197 0
172 195 0
174 197 0
173 197 0
175 198 0
172 196 0
174 197 0
174 197 0
176 198 0
173 197 0
172 195 0
173 196 0
174 197 0
173 196 0
174 198 0
173 197 0
173 197 0
174 197 0
174 198 0
173 196 0
175 198 0
174 197 0
176 198 0
175 198 0
173 197 0
172 196 0
173 196 0
174 197 0
174 197 0
174 197 0
176 199 0
175 198 0
174 197 0
176 198 0
176 199 0
174 197 0
174 197 0
173 197 0
174 197 0
174 198 0
173 197 0
174 198 0
174 198 0
174 198 0
173 197 0
174 198 0
174 197 0
171 195 0
174 198 0
175 197 0
172 196 0
174 197 0
173 197 0
174 197 0
175 198 0
175 198 0
174 198 0
175 198 0
173 197 0
174 198 0
175 198 0
174 198 0
174 198 0
175 198 0
173 197 0
174 197 0
174 198 0
174 198 0
174 197 0
175 198 0
174 197 0
175 198 0
176 199 0
173 197 0
173 197 0
174 197 0
173 197 0
175 198 0
174 198 0
172 196 0
175 198 0
173 197 0
176 198 0
174 198 0
175 198 0
176 199 0
174 198 0
175 198 0
175 198 0
175 198 0
173 197 0
175 198 0
176 198 0
175 198 0
176 199 0
175 198 0
173 197 0
174 197 0
174 198 0
174 198 0
175 198 0
177 199 0
174 198 0
174 198 0
173 197 0
175 198 0
175 198 0
175 198 0
174 198 0
175 198 0
174 198 0
173 197 0
175 197 0
173 197 0
172 197 0
174 198 0
174 197 0
174 198 0
174 198 0
174 198 0
174 197 0
174 197 0
175 198 0
173 197 0
174 198 0
176 199 0
175 198 0
175 198 0
175 198 0
174 197 0
174 198 0
173 197 0
174 197 0
173 197 0
174 198 0
174 198 0
173 197 0
174 197 0
175 198 0
175 198 0
174 198 0
175 198 0
175 198 0
173 197 0
173 197 0
175 198 0
173 197 0
176 198 0
175 198 0
172 197 0
174 198 0
174 197 0
173 197 0
173 197 0
173 197 0
175 198 0
173 196 0
174 198 0
175 198 0
175 198 0
173 196 0
174 197 0
174 198 0
174 198 0
173 197 0
177 199 0
175 198 0
173 197 0
172 196 0
171 195 0
175 198 0
175 198 0
174 198 0
175 198 0
174 198 0
174 198 0
173 197 0
172 196 0
173 197 0
173 197 0
174 198 0
173 197 0
176 199 0
175 198 0
175 198 0
174 197 0
174 197 0
173 197 0
175 198 0
174 197 0
174 197 0
174 198 0
176 199 0
174 198 0
173 196 0
175 198 0
175 198 0
176 199 0
175 198 0
175 198 0
174 197 0
175 198 0
174 198 0
173 197 0
174 198 0
175 198 0
174 198 0
174 198 0
174 198 0
174 197 0
173 196 0
173 196 0
174 198 0
175 198 0
174 198 0
175 198 0
173 197 0
174 198 0
173 197 0
174 198 0
175 198 0
173 197 0
175 198 0
174 197 0
173 197 0
173 196 0
173 197 0
174 198 0
174 198 0
176 198 0
173 197 0
174 198 0
173 196 0
172 196 0
174 197 0
175 198 0
174 198 0
173 196 0
172 196 0
174 197 0
174 198 0
175 198 0
173 197 0
174 197 0
172 196 0
173 197 0
173 197 0
172 196 0
173 196 0
171 195 0
172 197 0
174 197 0
173 197 0
175 198 0
176 199 0
173 197 0
174 197 0
174 197 0
175 198 0
172 196 0
176 198 0
173 197 0
175 198 0
175 198 0
173 197 0
174 197 0
176 199 0
174 198 0
173 196 0
172 196 0
174 198 0
172 195 0
173 197 0
174 196 0
174 198 0
172 196 0
172 196 0
172 195 0
175 198 0
173 196 0
175 198 0
175 198 0
173 196 0
170 194 0
174 197 0
173 197 0
173 196 0
175 198 0
174 197 0
173 196 0
172 196 0
171 194 0
172 195 0
172 196 0
173 196 0
173 197 0
173 196 0
173 196 0
171 194 0
173 196 0
173 197 0
173 196 0
174 197 0
174 197 0
173 196 0
172 194 0
173 196 0
169 194 0
174 198 0
174 198 0
172 195 0
174 197 0
174 197 0
172 196 0
173 196 0
174 197 0
174 197 0
172 196 0
172 195 0
175 198 0
172 196 0
172 195 0
173 195 0
173 196 0
174 198 0
175 198 0
171 195 0
173 197 0
170 194 0
172 196 0
174 197 0
173 195 0
172 196 0
171 195 0
168 192 0
171 195 0
171 195 0
170 193 0
173 197 0
170 193 0
171 194 0
171 193 0
173 196 0
173 196 0
173 197 0
172 196 0
172 196 0
173 197 0
175 198 0
173 196 0
173 197 0
172 196 0
173 197 0
172 195 0
171 195 0
172 196 0
173 197 0
173 196 0
170 194 0
172 196 0
173 196 0
172 195 0
175 198 0
174 197 0
171 195 0
174 197 0
173 196 0
174 197 0
175 198 0
173 196 0
174 197 0
174 197 0
173 197 0
172 196 0
175 198 0
174 198 0
174 196 0
175 197 0
175 198 0
174 197 0
174 197 0
173 196 0
173 196 0
175 198 0
174 198 0
173 196 0
172 196 0
175 198 0
172 195 0
172 195 0
174 197 0
174 197 0
173 197 0
174 196 0
174 197 0
174 197 0
175 198 0
173 197 0
174 197 0
173 196 0
175 198 0
173 196 0
171 196 0
174 197 0
175 197 0
173 196 0
174 197 0
174 197 0
172 196 0
175 198 0
174 198 0
173 196 0
175 198 0
172 196 0
173 196 0
174 198 0
174 197 0
174 198 0
174 197 0
174 198 0
171 196 0
174 197 0
175 198 0
175 198 0
175 198 0
175 198 0
175 198 0
174 197 0
174 198 0
173 196 0
174 198 0
174 197 0
172 196 0
176 199 0
175 198 0
175 198 0
176 199 0
173 197 0
175 198 0
175 198 0
173 197 0
173 197 0
174 197 0
175 198 0
174 197 0
174 197 0
174 197 0
174 197 0
173 197 0
176 198 0
173 196 0
173 197 0
173 197 0
174 197 0
174 198 0
173 197 0
173 197 0
174 198 0
175 198 0
174 197 0
174 198 0
174 197 0
175 198 0
173 197 0
175 198 0
175 198 0
174 198 0
174 198 0
174 198 0
174 197 0
175 198 0
176 198 0
174 198 0
173 197 0
173 197 0
174 198 0
174 197 0
173 197 0
174 197 0
175 198 0
175 198 0
174 197 0
176 198 0
175 198 0
174 198 0
174 197 0
175 198 0
175 198 0
175 198 0
174 197 0
172 196 0
175 198 0
174 198 0
176 198 0
173 197 0
175 198 0
174 197 0
174 198 0
175 198 0
173 197 0
174 198 0
176 198 0
174 198 0
173 197 0
175 198 0
175 198 0
174 197 0
175 198 0
174 197 0
175 198 0
174 198 0
174 198 0
173 197 0
175 198 0
175 198 0
175 198 0
175 198 0
174 198 0
174 197 0
175 198 0
174 197 0
175 198 0
174 198 0
175 198 0
173 197 0
173 197 0
174 198 0
175 198 0
174 198 0
174 198 0
174 198 0
174 197 0
175 198 0
175 198 0
173 197 0
175 198 0
175 198 0
173 197 0
174 198 0
175 198 0
174 198 0
174 197 0
174 198 0
171 195 0
174 198 0
174 198 0
176 199 0
175 198 0
175 198 0
174 197 0
174 198 0
175 198 0
173 197 0
173 197 0
175 198 0
174 197 0
175 198 0
174 197 0
174 198 0
174 198 0
175 198 0
175 198 0
174 198 0
174 198 0
174 198 0
176 198 0
172 196 0
175 198 0
176 199 0
173 197 0
174 198 0
174 198 0
174 197 0
175 198 0
174 198 0
175 198 0
176 199 0
177 199 0
174 197 0
176 199 0
175 198 0
174 197 0
174 197 0
175 198 0
174 198 0
176 199 0
174 198 0
173 197 0
175 198 0
172 196 0
175 198 0
174 197 0
174 198 0
173 196 0
175 198 0
174 197 0
174 198 0
173 197 0
174 198 0
176 198 0
173 197 0
175 198 0
173 197 0
175 198 0
174 198 0
175 198 0
174 198 0
173 197 0
175 198 0
175 198 0
173 197 0
173 197 0
176 199 0
176 198 0
174 197 0
175 198 0
175 198 0
176 199 0
173 196 0
174 197 0
172 196 0
175 198 0
175 198 0
173 197 0
175 198 0
174 197 0
174 197 0
174 198 0
174 198 0
172 196 0
173 197 0
175 198 0
174 197 0
174 198 0
174 197 0
173 197 0
174 197 0
174 198 0
174 198 0
173 197 0
175 198 0
174 197 0
174 197 0
174 197 0
174 197 0
173 196 0
174 198 0
173 196 0
173 197 0
174 197 0
174 197 0
174 198 0
175 198 0
174 198 0
174 197 0
176 198 0
174 197 0
171 195 0
175 198 0
175 198 0
173 197 0
173 197 0
175 198 0
173 196 0
171 196 0
174 198 0
172 196 0
173 196 0
173 197 0
172 196 0
175 198 0
173 197 0
175 198 0
173 196 0
173 196 0
174 198 0
174 198 0
174 198 0
173 197 0
174 197 0
174 197 0
173 197 0
174 197 0
174 197 0
175 198 0
172 196 0
173 197 0
173 196 0
172 195 0
175 198 0
174 198 0
174 197 0
171 195 0
174 198 0
173 197 0
172 195 0
174 197 0
172 195 0
174 197 0
170 194 0
172 195 0
173 196 0
173 196 0
174 197 0
171 195 0
173 197 0
171 194 0
174 197 0
172 195 0
174 197 0
170 194 0
173 197 0
171 195 0
173 197 0
173 197 0
173 196 0
174 197 0
173 197 0
173 196 0
175 198 0
172 196 0
171 194 0
173 196 0
172 196 0
173 197 0
172 196 0
171 195 0
173 197 0
172 196 0
173 197 0
175 197 0
173 196 0
176 199 0
172 196 0
173 196 0
174 198 0
174 197 0
173 197 0
173 196 0
171 195 0
172 196 0
173 196 0
173 197 0
172 196 0
173 196 0
172 197 0
173 197 0
172 196 0
172 195 0
170 194 0
175 198 0
174 197 0
171 195 0
174 197 0
172 196 0
174 197 0
173 196 0
174 197 0
173 197 0
173 197 0
171 195 0
173 197 0
173 196 0
174 197 0
174 197 0
174 198 0
175 198 0
172 196 0
175 197 0
173 196 0
174 197 0
172 195 0
173 197 0
172 196 0
174 197 0
175 198 0
174 197 0
174 198 0
172 195 0
173 196 0
174 197 0
173 197 0
174 198 0
173 197 0
174 197 0
172 196 0
173 197 0
175 198 0
174 197 0
173 197 0
175 198 0
172 195 0
172 195 0
174 197 0
173 196 0
172 196 0
173 197 0
174 197 0
175 198 0
172 195 0
172 195 0
176 198 0
175 198 0
174 198 0
171 195 0
173 196 0
173 196 0
175 198 0
174 197 0
175 198 0
174 197 0
174 197 0
174 197 0
174 197 0
172 196 0
175 198 0
175 198 0
173 197 0
174 197 0
173 196 0
171 196 0
174 197 0
176 199 0
174 197 0
173 197 0
175 198 0
174 197 0
175 198 0
174 197 0
174 197 0
174 197 0
174 198 0
172 196 0
174 197 0
174 198 0
173 196 0
174 197 0
174 197 0
173 197 0
174 197 0
174 198 0
174 198 0
173 196 0
174 197 0
174 197 0
174 198 0
174 197 0
173 197 0
175 198 0
175 198 0
174 198 0
175 198 0
173 197 0
173 197 0
174 197 0
174 197 0
175 198 0
173 197 0
174 197 0
172 196 0
174 198 0
174 197 0
175 198 0
175 198 0
175 198 0
174 197 0
175 198 0
174 198 0
175 198 0
175 198 0
174 198 0
173 196 0
174 198 0
176 198 0
176 199 0
174 197 0
174 197 0
176 199 0
174 198 0
175 198 0
176 198 0
174 198 0
174 197 0
176 198 0
173 197 0
175 198 0
175 198 0
176 198 0
175 198 0
176 198 0
174 198 0
175 198 0
175 198 0
173 197 0
175 198 0
175 198 0
175 198 0
174 198 0
174 198 0
175 198 0
174 198 0
173 197 0
175 198 0
173 196 0
174 198 0
174 198 0
175 198 0
174 198 0
173 197 0
174 198 0
174 198 0
174 198 0
173 197 0
174 198 0
174 198 0
174 198 0
175 198 0
174 198 0
172 197 0
175 198 0
174 198 0
176 198 0
172 196 0
174 198 0
174 198 0
176 198 0
174 198 0
175 198 0
174 197 0
173 197 0
175 198 0
174 197 0
174 197 0
173 197 0
174 198 0
175 198 0
174 198 0
175 198 0
172 196 0
175 198 0
177 199 0
174 198 0
174 198 0
174 198 0
175 198 0
175 198 0
175 198 0
175 198 0
174 197 0
174 197 0
175 198 0
175 198 0
173 197 0
173 197 0
176 199 0
174 197 0
175 198 0
173 197 0
174 198 0
175 198 0
174 197 0
173 197 0
175 198 0
175 198 0
176 198 0
174 197 0
176 198 0
175 198 0
173 197 0
173 197 0
174 197 0
175 198 0
173 197 0
175 198 0
173 197 0
175 198 0
174 197 0
173 197 0
174 198 0
174 198 0
175 198 0
173 197 0
172 197 0
174 197 0
175 198 0
174 198 0
173 197 0
174 197 0
174 198 0
175 198 0
171 195 0
173 197 0
174 198 0
175 198 0
174 197 0
173 197 0
175 198 0
175 198 0
173 197 0
174 197 0
175 198 0
174 197 0
173 197 0
175 198 0
173 197 0
175 198 0
174 198 0
176 199 0
175 198 0
173 197 0
174 197 0
175 198 0
174 197 0
174 197 0
171 195 0
174 198 0
173 197 0
175 198 0
173 197 0
172 196 0
174 198 0
175 198 0
175 198 0
174 197 0
172 196 0
173 197 0
175 198 0
173 197 0
174 198 0
172 196 0
173 197 0
174 197 0
172 196 0
173 197 0
173 197 0
175 198 0
174 197 0
175 198 0
175 198 0
175 197 0
172 196 0
174 197 0
173 197 0
173 196 0
172 196 0
175 198 0
173 197 0
174 197 0
175 198 0
175 198 0
175 198 0
172 196 0
175 198 0
174 198 0
173 196 0
175 198 0
175 198 0
174 198 0
173 197 0
174 198 0
175 198 0
174 198 0
174 197 0
174 197 0
174 197 0
175 198 0
174 197 0
175 197 0
174 197 0
172 195 0
171 195 0
174 197 0
175 198 0
174 197 0
174 197 0
174 198 0
171 196 0
175 198 0
174 197 0
175 198 0
174 197 0
174 197 0
172 195 0
174 197 0
174 198 0
173 196 0
174 197 0
174 197 0
171 194 0
172 196 0
172 195 0
173 197 0
172 195 0
171 195 0
174 198 0
172 196 0
172 196 0
174 197 0
173 197 0
173 197 0
174 198 0
174 198 0
173 197 0
172 195 0
172 196 0
170 193 0
174 197 0
172 196 0
172 195 0
170 195 0
174 196 0
173 196 0
172 195 0
173 196 0
173 196 0
173 197 0
174 197 0
170 194 0
172 195 0
173 197 0
174 197 0
170 194 0
173 196 0
171 195 0
172 195 0
173 196 0
174 197 0
171 194 0
172 196 0
174 197 0
173 196 0
173 197 0
174 197 0
169 193 0
174 198 0
170 194 0
173 196 0
173 197 0
172 196 0
174 197 0
171 195 0
173 196 0
174 198 0
173 196 0
171 194 0
171 195 0
173 197 0
172 196 0
170 194 0
171 195 0
172 195 0
171 194 0
174 197 0
174 197 0
174 197 0
173 196 0
175 198 0
173 196 0
174 197 0
173 196 0
174 197 0
173 196 0
174 197 0
171 194 0
173 196 0
174 197 0
173 197 0
174 197 0
173 197 0
173 196 0
174 197 0
172 195 0
173 197 0
173 196 0
172 196 0
174 197 0
173 197 0
172 195 0
172 195 0
173 197 0
174 197 0
173 196 0
174 197 0
173 196 0
173 197 0
173 197 0
173 196 0
171 195 0
174 198 0
175 197 0
173 197 0
173 197 0
176 199 0
174 196 0
175 198 0
172 196 0
175 198 0
173 197 0
172 195 0
175 198 0
173 197 0
173 197 0
173 197 0
174 197 0
175 198 0
172 196 0
172 196 0
173 197 0
174 197 0
174 197 0
173 197 0
174 198 0
174 198 0
176 199 0
175 198 0
175 198 0
175 198 0
175 198 0
175 197 0
174 197 0
174 197 0
174 198 0
173 197 0
174 197 0
174 197 0
175 198 0
174 198 0
173 197 0
173 197 0
173 197 0
176 198 0
174 197 0
174 197 0
175 198 0
175 198 0
175 198 0
175 198 0
174 197 0
173 197 0
174 198 0
173 197 0
173 197 0
174 197 0
175 198 0
174 197 0
174 197 0
174 198 0
173 197 0
174 197 0
175 198 0
173 197 0
174 196 0
172 197 0
174 197 0
174 197 0
173 197 0
176 198 0
175 198 0
174 197 0
174 197 0
172 196 0
174 198 0
174 198 0
174 198 0
176 198 0
172 196 0
175 198 0
174 198 0
175 198 0
174 198 0
175 198 0
175 198 0
174 198 0
172 196 0
173 197 0
174 197 0
175 198 0
175 198 0
174 197 0
174 198 0
175 198 0
174 197 0
174 198 0
175 198 0
174 197 0
174 197 0
174 198 0
172 197 0
174 198 0
175 198 0
173 196 0
174 198 0
173 197 0
175 198 0
174 198 0
174 197 0
175 198 0
175 198 0
173 197 0
176 199 0
174 198 0
175 198 0
173 197 0
174 198 0
173 197 0
175 198 0
174 197 0
175 198 0
173 197 0
173 197 0
175 198 0
174 198 0
177 199 0
175 198 0
176 198 0
174 198 0
175 198 0
175 198 0
175 198 0
175 198 0
176 198 0
174 198 0
174 197 0
175 198 0
174 198 0
173 197 0
174 198 0
175 198 0
174 197 0
174 197 0
174 198 0
176 198 0
173 197 0
174 198 0
174 197 0
174 198 0
173 197 0
173 197 0
174 197 0
175 198 0
175 198 0
174 197 0
174 198 0
174 197 0
174 197 0
175 198 0
174 197 0
175 198 0
173 197 0
174 197 0
175 198 0
174 197 0
173 197 0
174 198 0
176 199 0
174 198 0
174 198 0
174 197 0
174 197 0
175 198 0
175 198 0
174 197 0
174 198 0
174 197 0
174 198 0
173 197 0
175 198 0
175 198 0
174 198 0
174 197 0
173 197 0
175 198 0
174 197 0
173 197 0
173 197 0
174 197 0
174 197 0
174 197 0
175 198 0
176 199 0
174 197 0
172 196 0
174 197 0
174 197 0
172 196 0
174 197 0
174 197 0
175 198 0
174 197 0
175 198 0
175 198 0
174 198 0
175 198 0
176 199 0
173 197 0
174 197 0
174 197 0
174 197 0
175 198 0
173 197 0
173 197 0
173 197 0
173 197 0
174 197 0
174 198 0
174 198 0
173 197 0
173 197 0
174 197 0
174 198 0
174 198 0
173 197 0
173 197 0
174 197 0
175 198 0
174 197 0
173 197 0
172 196 0
173 196 0
176 199 0
174 197 0
175 198 0
173 197 0
173 196 0
173 197 0
174 197 0
176 198 0
173 197 0
174 198 0
174 197 0
174 198 0
173 197 0
175 198 0
174 198 0
175 197 0
175 198 0
173 197 0
173 197 0
172 196 0
175 198 0
172 196 0
174 198 0
174 197 0
174 197 0
174 197 0
171 195 0
173 196 0
171 195 0
174 197 0
174 197 0
173 197 0
174 198 0
174 197 0
171 194 0
174 198 0
172 196 0
173 197 0
170 195 0
175 198 0
174 197 0
175 198 0
173 196 0
172 196 0
174 197 0
171 196 0
174 197 0
173 197 0
172 196 0
174 197 0
173 197 0
173 197 0
171 195 0
173 196 0
173 197 0
173 196 0
171 195 0
169 192 0
175 198 0
173 196 0
173 197 0
174 197 0
176 199 0
173 197 0
173 197 0
172 196 0
173 196 0
173 196 0
172 196 0
174 198 0
172 196 0
175 198 0
173 197 0
170 194 0
171 195 0
173 196 0
176 198 0
172 196 0
174 198 0
172 196 0
171 194 0
172 196 0
172 196 0
174 197 0
172 196 0
172 196 0
174 197 0
171 195 0
171 195 0
175 198 0
172 196 0
174 197 0
173 195 0
170 194 0
172 196 0
175 197 0
172 196 0
173 197 0
173 196 0
174 196 0
173 196 0
173 196 0
172 196 0
173 197 0
172 195 0
170 194 0
172 195 0
174 198 0
172 196 0
171 196 0
170 194 0
171 194 0
174 197 0
173 196 0
170 194 0
173 196 0
176 199 0
173 196 0
173 196 0
172 195 0
173 197 0
173 196 0
172 196 0
174 196 0
172 196 0
174 197 0
175 198 0
173 197 0
174 197 0
174 197 0
174 197 0
175 198 0
171 195 0
172 196 0
170 194 0
174 197 0
172 196 0
174 197 0
173 197 0
173 196 0
172 195 0
173 196 0
173 195 0
173 197 0
173 196 0
174 197 0
173 196 0
171 195 0
173 197 0
174 197 0
174 198 0
174 197 0
174 198 0
172 196 0
173 197 0
174 197 0
173 196 0
174 198 0
173 197 0
175 198 0
175 198 0
173 197 0
174 198 0
174 197 0
172 195 0
173 197 0
173 196 0
172 197 0
173 197 0
173 197 0
173 197 0
173 197 0
174 197 0
174 196 0
173 197 0
174 197 0
173 197 0
172 195 0
172 196 0
174 197 0
174 197 0
174 197 0
174 198 0
174 197 0
174 197 0
174 197 0
172 195 0
175 198 0
175 198 0
172 196 0
175 198 0
174 197 0
173 197 0
171 195 0
174 197 0
173 197 0
174 197 0
174 197 0
173 197 0
175 198 0
174 198 0
173 196 0
173 197 0
174 198 0
175 198 0
174 198 0
172 195 0
174 198 0
174 198 0
173 197 0
174 197 0
175 198 0
174 197 0
173 196 0
175 198 0
173 197 0
172 196 0
174 198 0
173 197 0
175 198 0
173 196 0
174 197 0
173 197 0
175 198 0
174 197 0
174 197 0
174 198 0
175 198 0
176 199 0
174 197 0
173 197 0
175 198 0
175 198 0
172 197 0
173 196 0
173 197 0
173 197 0
175 198 0
175 198 0
174 197 0
173 197 0
173 197 0
174 198 0
175 198 0
174 197 0
174 198 0
173 197 0
173 197 0
172 197 0
174 197 0
172 196 0
174 197 0
174 198 0
177 199 0
173 197 0
174 198 0
175 198 0
174 197 0
175 198 0
175 198 0
173 197 0
173 197 0
173 197 0
172 197 0
174 197 0
175 198 0
174 198 0
174 197 0
175 198 0
175 198 0
172 196 0
174 197 0
175 198 0
173 197 0
175 198 0
175 198 0
175 198 0
173 197 0
174 198 0
174 198 0
175 198 0
174 197 0
175 198 0
176 198 0
174 198 0
175 198 0
175 198 0
174 198 0
176 199 0
175 198 0
173 197 0
174 197 0
175 198 0
174 198 0
173 197 0
173 197 0
174 198 0
174 197 0
175 198 0
173 197 0
177 199 0
175 198 0
175 198 0
175 198 0
174 197 0
175 198 0
174 198 0
172 196 0
174 198 0
175 198 0
176 198 0
174 197 0
175 198 0
173 197 0
173 197 0
173 197 0
174 197 0
174 198 0
173 197 0
174 197 0
176 198 0
174 197 0
175 198 0
173 197 0
175 198 0
174 198 0
174 198 0
174 198 0
174 198 0
174 198 0
175 198 0
173 197 0
174 198 0
176 199 0
174 198 0
173 197 0
173 197 0
174 198 0
174 198 0
174 198 0
175 198 0
174 198 0
174 198 0
175 198 0
174 198 0
174 198 0
175 198 0
174 198 0
175 198 0
174 198 0
173 197 0
172 196 0
173 197 0
174 198 0
173 197 0
175 198 0
173 197 0
174 197 0
174 198 0
173 197 0
174 197 0
173 197 0
173 197 0
174 198 0
175 198 0
174 198 0
174 198 0
175 198 0
174 198 0
174 198 0
173 197 0
174 197 0
173 197 0
175 198 0
176 199 0
176 199 0
173 197 0
172 196 0
173 197 0
175 198 0
174 198 0
175 198 0
173 197 0
174 198 0
174 197 0
174 197 0
175 198 0
174 198 0
174 197 0
174 197 0
174 197 0
172 196 0
173 196 0
174 198 0
175 197 0
174 197 0
175 198 0
174 197 0
173 196 0
174 198 0
175 198 0
173 197 0
175 198 0
174 198 0
173 197 0
173 197 0
173 197 0
176 199 0
174 198 0
174 198 0
174 197 0
175 198 0
176 199 0
174 197 0
172 196 0
173 197 0
172 196 0
172 196 0
172 196 0
173 197 0
174 197 0
175 198 0
173 196 0
173 197 0
174 197 0
173 197 0
173 197 0
173 197 0
171 195 0
175 198 0
175 198 0
175 198 0
173 197 0
173 196 0
174 197 0
174 197 0
173 196 0
173 197 0
174 197 0
175 198 0
172 196 0
174 197 0
175 198 0
174 197 0
171 195 0
174 197 0
173 197 0
173 196 0
172 196 0
173 196 0
171 195 0
174 198 0
173 197 0
173 196 0
173 196 0
172 196 0
173 196 0
172 196 0
172 195 0
173 196 0
172 196 0
174 197 0
173 197 0
174 198 0
173 197 0
174 197 0
172 196 0
172 196 0
174 198 0
172 195 0
174 197 0
171 196 0
175 198 0
175 198 0
174 197 0
174 197 0
173 196 0
172 195 0
172 196 0
172 196 0
171 195 0
172 196 0
175 198 0
174 197 0
171 196 0
173 197 0
174 198 0
173 196 0
176 198 0
173 196 0
174 197 0
171 195 0
173 197 0
175 198 0
174 197 0
172 195 0
173 196 0
174 197 0
171 194 0
175 198 0
175 198 0
174 197 0
172 195 0
172 196 0
172 196 0
172 196 0
173 197 0
173 197 0
174 197 0
173 197 0
174 197 0
175 198 0
173 195 0
173 196 0
175 198 0
169 193 0
175 198 0
173 197 0
173 197 0
173 197 0
171 195 0
175 198 0
172 196 0
173 196 0
175 198 0
174 198 0
171 194 0
173 197 0
172 196 0
174 198 0
174 197 0
172 196 0
174 198 0
173 196 0
172 196 0
172 196 0
174 197 0
174 197 0
171 195 0
173 197 0
172 196 0
173 197 0
172 197 0
174 198 0
174 197 0
171 194 0
174 197 0
173 197 0
172 196 0
175 198 0
173 197 0
173 197 0
173 197 0
173 196 0
173 197 0
173 197 0
174 197 0
173 197 0
173 197 0
176 198 0
172 196 0
173 197 0
174 197 0
173 196 0
174 197 0
174 198 0
174 198 0
172 196 0
175 198 0
173 197 0
173 197 0
173 196 0
174 197 0
174 197 0
175 198 0
175 198 0
172 195 0
174 198 0
173 197 0
174 197 0
175 198 0
174 197 0
173 197 0
172 196 0
172 196 0
172 196 0
172 196 0
173 197 0
175 198 0
173 196 0
174 198 0
174 198 0
175 198 0
174 197 0
173 196 0
172 196 0
175 197 0
173 196 0
174 197 0
174 198 0
174 197 0
175 198 0
174 197 0
173 197 0
175 198 0
175 198 0
174 197 0
174 198 0
175 198 0
174 198 0
176 198 0
174 198 0
173 196 0
174 197 0
173 197 0
174 197 0
174 197 0
173 196 0
173 197 0
173 197 0
174 198 0
175 198 0
173 196 0
174 197 0
175 198 0
175 198 0
175 198 0
173 197 0
174 198 0
175 198 0
174 197 0
174 197 0
174 197 0
174 198 0
174 197 0
174 197 0
176 198 0
175 198 0
174 197 0
176 198 0
175 198 0
173 197 0
174 198 0
174 198 0
173 196 0
173 197 0
175 198 0
175 197 0
174 198 0
173 197 0
175 198 0
174 198 0
173 197 0
175 198 0
174 198 0
174 197 0
173 197 0
174 197 0
174 198 0
175 198 0
175 198 0
173 197 0
175 198 0
175 198 0
173 197 0
173 197 0
176 198 0
175 198 0
173 197 0
174 198 0
173 197 0
174 198 0
173 197 0
172 196 0
175 198 0
174 197 0
173 197 0
176 198 0
174 197 0
174 198 0
174 198 0
174 197 0
173 197 0
175 198 0
174 198 0
174 197 0
173 197 0
175 198 0
174 197 0
174 198 0
174 198 0
173 197 0
175 198 0
174 198 0
174 198 0
174 197 0
172 197 0
174 198 0
175 198 0
176 198 0
175 198 0
174 198 0
174 198 0
173 197 0
175 198 0
173 197 0
175 198 0
174 197 0
173 197 0
175 198 0
174 198 0
175 198 0
174 198 0
173 197 0
174 198 0
174 198 0
175 198 0
175 198 0
173 197 0
175 198 0
174 198 0
175 198 0
174 198 0
176 199 0
174 198 0
175 198 0
173 197 0
173 197 0
175 198 0
174 197 0
174 197 0
174 198 0
174 198 0
175 198 0
174 197 0
173 197 0
172 196 0
175 198 0
175 198 0
174 198 0
175 198 0
175 198 0
173 197 0
174 197 0
177 199 0
174 197 0
174 198 0
174 198 0
173 197 0
173 197 0
172 196 0
175 198 0
174 198 0
174 198 0
174 197 0
173 197 0
174 198 0
172 196 0
174 197 0
175 198 0
173 196 0
173 196 0
174 198 0
174 197 0
173 197 0
174 198 0
175 198 0
172 196 0
174 197 0
176 198 0
174 198 0
174 198 0
174 198 0
174 198 0
175 198 0
175 198 0
174 197 0
173 197 0
176 199 0
175 198 0
174 198 0
176 198 0
174 197 0
174 198 0
174 197 0
175 198 0
175 198 0
175 198 0
173 197 0
176 199 0
172 196 0
174 197 0
173 197 0
174 198 0
174 198 0
174 198 0
175 198 0
176 198 0
175 198 0
176 199 0
172 197 0
174 197 0
174 197 0
174 198 0
173 197 0
173 197 0
173 197 0
174 197 0
174 197 0
174 197 0
175 198 0
174 198 0
173 197 0
173 196 0
173 197 0
173 196 0
174 197 0
173 196 0
175 198 0
173 196 0
173 197 0
175 197 0
174 198 0
175 198 0
174 197 0
175 198 0
173 197 0
174 197 0
174 198 0
173 197 0
174 197 0
175 198 0
173 197 0
175 198 0
174 197 0
172 195 0
173 197 0
174 197 0
173 197 0
173 197 0
176 199 0
175 198 0
175 198 0
175 198 0
173 197 0
175 198 0
173 196 0
174 197 0
174 197 0
175 198 0
172 196 0
174 198 0
175 197 0
174 197 0
172 195 0
174 198 0
174 197 0
173 196 0
173 197 0
174 197 0
174 197 0
172 196 0
170 194 0
173 196 0
175 198 0
173 197 0
174 197 0
175 197 0
172 196 0
174 197 0
173 197 0
171 195 0
173 196 0
174 198 0
172 196 0
174 198 0
174 197 0
172 196 0
173 197 0
174 197 0
173 196 0
173 196 0
173 197 0
173 196 0
173 197 0
174 197 0
175 198 0
173 197 0
172 196 0
172 196 0
174 198 0
173 197 0
172 195 0
172 196 0
169 193 0
173 196 0
175 198 0
174 197 0
174 197 0
173 197 0
168 191 0
173 197 0
172 195 0
174 198 0
175 197 0
172 196 0
173 196 0
172 195 0
172 196 0
172 195 0
172 196 0
172 195 0
174 197 0
172 195 0
172 196 0
167 191 0
173 196 0
174 197 0
171 196 0
172 195 0
170 194 0
173 195 0
173 196 0
173 197 0
173 197 0
174 198 0
174 197 0
174 197 0
175 198 0
172 195 0
175 197 0
173 197 0
173 197 0
174 197 0
175 198 0
173 197 0
174 198 0
174 197 0
174 197 0
172 195 0
172 196 0
175 197 0
173 197 0
171 195 0
175 198 0
173 196 0
174 198 0
174 198 0
172 195 0
174 197 0
172 195 0
173 197 0
171 194 0
173 197 0
175 198 0
174 197 0
174 197 0
175 198 0
174 197 0
175 198 0
173 197 0
174 197 0
173 196 0
174 196 0
172 196 0
172 196 0
173 197 0
174 197 0
172 196 0
175 198 0
174 197 0
173 196 0
172 196 0
175 198 0
174 197 0
173 197 0
173 197 0
174 197 0
172 196 0
173 196 0
174 197 0
174 197 0
174 196 0
174 197 0
174 198 0
175 198 0
174 197 0
173 197 0
173 196 0
173 197 0
175 198 0
175 198 0
174 197 0
174 198 0
175 198 0
172 196 0
175 198 0
173 196 0
175 198 0
175 198 0
174 197 0
174 198 0
175 198 0
174 198 0
173 197 0
174 197 0
172 196 0
174 198 0
174 198 0
172 197 0
175 198 0
175 198 0
172 196 0
174 197 0
174 198 0
174 198 0
173 197 0
173 197 0
173 197 0
175 198 0
174 197 0
176 198 0
173 197 0
177 199 0
174 197 0
173 197 0
174 197 0
175 198 0
176 198 0
173 197 0
173 197 0
175 198 0
175 198 0
172 197 0
175 198 0
174 198 0
174 198 0
173 197 0
174 197 0
174 198 0
175 198 0
175 198 0
175 198 0
174 197 0
172 196 0
173 197 0
175 198 0
175 198 0
174 198 0
173 197 0
174 198 0
173 196 0
174 197 0
174 197 0
173 197 0
173 197 0
175 198 0
174 197 0
175 198 0
174 197 0
174 198 0
174 197 0
174 198 0
175 198 0
175 198 0
175 198 0
173 197 0
175 198 0
176 199 0
175 197 0
173 197 0
175 198 0
174 197 0
174 197 0
175 198 0
174 198 0
174 197 0
175 198 0
175 198 0
175 198 0
175 198 0
174 198 0
172 196 0
174 197 0
173 197 0
173 196 0
175 198 0
174 198 0
175 198 0
174 197 0
174 198 0
175 198 0
174 197 0
176 199 0
175 198 0
174 198 0
176 199 0
173 197 0
175 198 0
174 198 0
173 197 0
175 198 0
175 198 0
175 198 0
175 198 0
173 197 0
175 197 0
174 198 0
174 198 0
173 197 0
174 198 0
174 198 0
173 197 0
175 198 0
175 198 0
173 197 0
173 197 0
176 198 0
174 198 0
174 198 0
175 198 0
174 198 0
175 198 0
173 197 0
173 197 0
174 198 0
175 198 0
174 197 0
175 198 0
173 197 0
175 198 0
173 197 0
174 197 0
176 198 0
175 198 0
175 198 0
174 198 0
173 197 0
173 197 0
175 198 0
173 197 0
175 198 0
174 198 0
176 198 0
174 198 0
172 197 0
174 197 0
175 198 0
174 198 0
175 198 0
175 198 0
174 197 0
175 198 0
173 197 0
174 198 0
174 198 0
173 197 0
175 198 0
173 197 0
173 197 0
173 197 0
174 198 0
174 197 0
174 198 0
174 197 0
173 197 0
174 197 0
174 198 0
174 197 0
172 196 0
176 198 0
174 198 0
174 198 0
174 197 0
173 197 0
176 198 0
173 197 0
175 198 0
176 199 0
172 196 0
175 198 0
173 197 0
175 198 0
174 198 0
173 197 0
174 198 0
175 198 0
174 197 0
173 197 0
174 198 0
174 197 0
175 198 0
172 196 0
175 198 0
175 198 0
174 197 0
174 198 0
173 197 0
173 197 0
171 195 0
174 198 0
174 198 0
174 197 0
174 198 0
173 197 0
173 196 0
175 198 0
175 198 0
171 195 0
174 198 0
174 197 0
174 198 0
173 197 0
175 198 0
174 198 0
173 197 0
176 198 0
176 199 0
173 197 0
172 196 0
174 198 0
174 197 0
175 198 0
175 198 0
175 198 0
175 198 0
171 195 0
174 197 0
174 197 0
174 197 0
175 198 0
175 198 0
174 198 0
174 198 0
173 197 0
173 197 0
173 197 0
172 197 0
172 197 0
173 197 0
173 197 0
173 197 0
175 198 0
174 196 0
173 196 0
175 198 0
174 197 0
173 196 0
172 196 0
172 196 0
174 197 0
173 196 0
173 197 0
173 197 0
174 197 0
174 197 0
174 198 0
174 197 0
172 196 0
172 196 0
172 196 0
172 196 0
172 196 0
172 196 0
172 195 0
174 197 0
172 196 0
171 195 0
174 197 0
171 195 0
172 196 0
173 197 0
176 198 0
173 197 0
172 196 0
172 196 0
170 195 0
171 195 0
173 197 0
173 197 0
174 197 0
171 195 0
174 197 0
173 197 0
174 198 0
175 198 0
175 198 0
173 196 0
175 198 0
174 197 0
173 197 0
173 197 0
174 197 0
174 198 0
172 196 0
174 197 0
172 196 0
170 194 0
173 196 0
172 196 0
171 195 0
174 197 0
172 196 0
174 197 0
175 198 0
172 195 0
173 196 0
173 196 0
173 196 0
173 196 0
175 198 0
171 195 0
174 197 0
170 194 0
173 196 0
173 195 0
172 196 0
173 196 0
172 196 0
173 196 0
175 198 0
173 196 0
173 197 0
173 197 0
172 195 0
176 199 0
171 195 0
172 195 0
175 198 0
173 196 0
173 196 0
170 195 0
173 196 0
172 195 0
173 196 0
174 198 0
171 195 0
170 194 0
175 198 0
173 196 0
173 196 0
173 197 0
173 196 0
174 198 0
172 196 0
173 196 0
172 195 0
174 198 0
172 196 0
175 197 0
175 198 0
171 195 0
174 197 0
174 198 0
174 198 0
172 195 0
172 196 0
175 198 0
174 198 0
174 198 0
172 196 0
174 197 0
175 198 0
171 195 0
174 198 0
176 198 0
174 198 0
173 196 0
174 197 0
175 198 0
174 198 0
173 196 0
173 196 0
176 197 0
172 196 0
175 198 0
173 196 0
174 198 0
173 196 0
174 197 0
174 198 0
174 197 0
174 198 0
173 196 0
172 196 0
175 198 0
175 198 0
172 196 0
176 199 0
176 199 0
174 197 0
170 195 0
174 198 0
175 198 0
174 197 0
173 196 0
175 198 0
173 196 0
174 197 0
174 197 0
174 198 0
176 198 0
173 197 0
172 196 0
173 196 0
175 198 0
173 197 0
173 196 0
175 198 0
174 197 0
174 198 0
174 198 0
173 197 0
173 197 0
174 198 0
175 198 0
173 197 0
174 197 0
175 198 0
175 198 0
174 197 0
173 197 0
174 197 0
173 197 0
173 196 0
174 198 0
173 197 0
176 198 0
175 198 0
175 198 0
172 197 0
173 197 0
174 198 0
172 196 0
174 198 0
175 198 0
173 197 0
175 198 0
174 197 0
174 198 0
175 198 0
175 198 0
174 198 0
173 197 0
175 198 0
175 198 0
175 198 0
174 198 0
175 198 0
175 198 0
175 198 0
175 197 0
175 198 0
174 198 0
175 198 0
175 198 0
173 197 0
172 196 0
173 197 0
174 198 0
173 197 0
173 197 0
174 198 0
171 196 0
173 196 0
174 197 0
172 196 0
176 199 0
173 197 0
173 197 0
173 197 0
175 198 0
174 197 0
174 198 0
175 198 0
174 197 0
172 196 0
173 197 0
176 198 0
175 198 0
174 198 0
175 198 0
175 198 0
174 197 0
175 198 0
173 197 0
176 198 0
175 198 0
175 198 0
174 198 0
173 197 0
174 198 0
176 198 0
174 198 0
175 198 0
175 198 0
174 198 0
174 198 0
174 198 0
174 198 0
174 198 0
173 197 0
175 198 0
176 199 0
173 197 0
175 198 0
174 197 0
173 197 0
174 198 0
174 197 0
174 198 0
173 197 0
175 198 0
173 197 0
175 198 0
172 196 0
175 198 0
174 198 0
174 197 0
174 197 0
174 197 0
173 197 0
174 198 0
174 198 0
174 197 0
173 197 0
174 197 0
173 197 0
173 197 0
175 198 0
174 198 0
174 198 0
173 197 0
175 198 0
175 198 0
174 198 0
174 198 0
174 198 0
175 198 0
175 198 0
174 198 0
175 198 0
174 197 0
174 198 0
173 197 0
175 198 0
174 197 0
174 198 0
175 198 0
175 198 0
173 197 0
174 197 0
174 198 0
174 198 0
175 198 0
174 198 0
175 198 0
174 197 0
174 197 0
173 197 0
175 198 0
172 196 0
174 198 0
174 198 0
173 197 0
174 198 0
173 197 0
173 197 0
176 199 0
174 198 0
173 197 0
173 197 0
173 197 0
174 197 0
174 197 0
174 197 0
175 198 0
175 198 0
173 197 0
175 198 0
175 198 0
174 197 0
174 198 0
173 197 0
174 197 0
175 198 0
175 198 0
172 196 0
173 197 0
174 198 0
173 197 0
174 197 0
176 198 0
175 198 0
174 198 0
174 197 0
173 197 0
175 198 0
174 198 0
174 197 0
173 197 0
172 196 0
174 198 0
175 198 0
174 197 0
174 197 0
175 198 0
175 198 0
172 196 0
174 198 0
174 197 0
173 197 0
175 198 0
173 196 0
174 198 0
172 195 0
173 196 0
173 197 0
175 198 0
173 196 0
173 197 0
173 197 0
174 198 0
172 196 0
174 198 0
173 197 0
174 198 0
173 197 0
172 197 0
173 197 0
173 197 0
172 195 0
176 199 0
173 197 0
174 197 0
174 197 0
174 198 0
173 197 0
173 197 0
174 197 0
173 196 0
175 197 0
172 196 0
173 196 0
174 197 0
171 195 0
173 196 0
173 197 0
174 197 0
172 196 0
174 197 0
173 196 0
174 197 0
173 196 0
172 196 0
174 197 0
172 196 0
173 197 0
172 195 0
173 196 0
172 195 0
173 197 0
173 196 0
171 195 0
174 197 0
170 194 0
173 196 0
173 197 0
175 198 0
172 195 0
176 199 0
173 196 0
171 195 0
175 198 0
174 197 0
172 196 0
172 195 0
173 197 0
174 197 0
174 197 0
173 197 0
171 195 0
175 197 0
173 197 0
172 195 0
172 196 0
174 197 0
171 194 0
172 196 0
171 194 0
174 197 0
170 194 0
171 195 0
173 197 0
173 197 0
172 196 0
175 197 0
171 195 0
174 197 0
174 197 0
173 197 0
173 196 0
173 195 0
174 197 0
175 198 0
175 198 0
171 194 0
174 197 0
170 195 0
175 198 0
172 196 0
172 196 0
173 197 0
172 196 0
172 196 0
173 197 0
171 194 0
172 195 0
172 196 0
173 196 0
172 195 0
171 195 0
173 197 0
173 196 0
175 197 0
170 194 0
173 196 0
174 197 0
172 196 0
172 195 0
174 197 0
172 196 0
173 197 0
174 197 0
173 197 0
171 195 0
173 196 0
173 197 0
171 195 0
176 198 0
173 196 0
174 197 0
174 197 0
174 197 0
173 197 0
173 197 0
173 196 0
174 198 0
173 197 0
174 197 0
175 198 0
174 198 0
173 196 0
173 196 0
174 198 0
173 196 0
172 196 0
172 196 0
173 196 0
173 197 0
173 196 0
174 197 0
173 197 0
175 197 0
173 197 0
174 198 0
173 196 0
173 197 0
172 196 0
173 196 0
173 197 0
174 198 0
175 197 0
171 196 0
174 197 0
172 196 0
173 196 0
175 198 0
175 198 0
175 198 0
173 197 0
174 197 0
173 197 0
174 198 0
174 198 0
174 198 0
173 197 0
173 197 0
175 197 0
173 197 0
174 196 0
173 197 0
173 197 0
175 198 0
173 197 0
174 197 0
174 197 0
173 197 0
174 198 0
174 197 0
174 198 0
175 198 0
174 197 0
174 197 0
175 198 0
173 196 0
174 198 0
173 197 0
174 197 0
172 197 0
173 197 0
174 197 0
174 197 0
173 196 0
173 197 0
173 197 0
174 197 0
175 198 0
174 197 0
175 198 0
174 197 0
175 198 0
172 196 0
174 198 0
176 199 0
173 197 0
173 197 0
175 198 0
174 198 0
174 198 0
175 198 0
172 197 0
175 198 0
175 198 0
174 198 0
173 197 0
175 198 0
174 197 0
175 198 0
174 197 0
174 197 0
175 198 0
175 198 0
174 196 0
174 197 0
175 198 0
174 197 0
174 198 0
174 198 0
175 198 0
174 198 0
175 198 0
176 199 0
174 198 0
174 197 0
173 195 0
174 197 0
176 198 0
173 197 0
175 198 0
173 196 0
174 198 0
174 198 0
174 197 0
174 198 0
175 198 0
172 197 0
174 197 0
174 197 0
174 198 0
172 196 0
175 198 0
174 198 0
173 197 0
174 198 0
176 198 0
173 197 0
173 197 0
174 197 0
175 198 0
175 198 0
175 198 0
173 197 0
173 197 0
174 198 0
175 198 0
175 198 0
175 198 0
175 198 0
176 199 0
175 198 0
174 197 0
174 198 0
176 199 0
174 198 0
173 197 0
174 198 0
176 198 0
176 198 0
174 198 0
172 197 0
174 198 0
174 198 0
174 198 0
175 198 0
174 198 0
173 197 0
174 197 0
175 198 0
175 198 0
174 197 0
172 197 0
175 198 0
175 198 0
175 198 0
176 198 0
175 198 0
172 196 0
173 197 0
174 198 0
175 198 0
174 198 0
175 198 0
175 198 0
174 198 0
174 198 0
172 196 0
176 198 0
174 197 0
174 197 0
174 198 0
175 198 0
174 198 0
174 197 0
174 198 0
173 197 0
173 196 0
176 199 0
174 197 0
174 198 0
175 198 0
175 198 0
176 199 0
175 198 0
174 198 0
173 197 0
174 197 0
176 198 0
172 196 0
173 197 0
175 198 0
175 198 0
175 198 0
172 196 0
175 198 0
173 197 0
175 198 0
174 198 0
173 197 0
174 197 0
173 197 0
175 198 0
174 198 0
174 198 0
175 198 0
172 196 0
174 198 0
174 198 0
175 198 0
175 198 0
174 198 0
173 196 0
174 198 0
173 197 0
175 198 0
173 197 0
174 197 0
175 198 0
173 197 0
176 199 0
172 196 0
174 197 0
174 197 0
175 198 0
175 198 0
175 198 0
175 198 0
174 197 0
175 198 0
173 197 0
174 197 0
173 196 0
172 196 0
174 197 0
175 198 0
175 198 0
172 196 0
174 198 0
173 197 0
174 198 0
174 198 0
172 196 0
173 197 0
175 198 0
174 197 0
173 196 0
175 198 0
175 198 0
173 197 0
173 197 0
174 197 0
174 198 0
174 198 0
171 195 0
173 196 0
174 198 0
174 198 0
174 197 0
173 197 0
173 197 0
174 197 0
175 198 0
174 197 0
174 198 0
174 197 0
173 197 0
173 197 0
173 197 0
174 198 0
174 197 0
173 197 0
172 197 0
176 198 0
175 198 0
174 197 0
173 197 0
175 197 0
172 195 0
176 199 0
174 198 0
174 198 0
173 197 0
174 197 0
175 198 0
175 198 0
172 196 0
174 198 0
173 197 0
172 196 0
172 196 0
174 196 0
173 196 0
172 196 0
172 197 0
173 197 0
173 196 0
174 197 0
174 197 0
175 198 0
174 197 0
173 196 0
174 197 0
172 196 0
172 195 0
173 197 0
174 197 0
171 195 0
173 197 0
175 198 0
173 197 0
173 197 0
169 193 0
172 196 0
172 196 0
174 197 0
174 198 0
175 198 0
175 198 0
172 196 0
174 197 0
173 197 0
173 196 0
171 194 0
173 196 0
174 197 0
173 197 0
175 197 0
173 196 0
171 194 0
174 197 0
173 196 0
171 194 0
173 197 0
173 197 0
172 195 0
171 195 0
174 197 0
174 197 0
171 194 0
173 197 0
174 198 0
171 194 0
174 197 0
173 196 0
173 197 0
172 196 0
172 196 0
173 196 0
174 197 0
174 197 0
173 195 0
172 195 0
172 195 0
171 195 0
170 194 0
172 196 0
172 196 0
173 196 0
172 196 0
175 198 0
174 198 0
173 196 0
173 196 0
172 196 0
173 196 0
173 196 0
173 196 0
175 198 0
174 197 0
173 197 0
173 196 0
174 198 0
170 194 0
174 197 0
174 197 0
173 196 0
174 197 0
173 197 0
173 196 0
175 198 0
172 196 0
174 197 0
174 197 0
174 197 0
172 196 0
175 198 0
174 197 0
176 198 0
174 197 0
173 196 0
174 197 0
173 196 0
173 196 0
173 196 0
174 197 0
174 196 0
174 197 0
174 197 0
172 196 0
174 197 0
172 196 0
173 197 0
172 196 0
171 195 0
173 196 0
174 198 0
173 196 0
173 196 0
172 197 0
174 197 0
172 196 0
173 197 0
175 197 0
174 198 0
173 197 0
174 197 0
174 197 0
173 196 0
172 196 0
172 197 0
174 197 0
173 197 0
172 197 0
170 195 0
173 197 0
174 197 0
174 198 0
173 196 0
172 196 0
174 198 0
173 197 0
171 195 0
175 198 0
174 196 0
173 197 0
174 197 0
175 198 0
172 196 0
175 198 0
173 197 0
175 198 0
175 198 0
175 198 0
174 197 0
174 197 0
173 196 0
174 198 0
172 196 0
174 197 0
174 197 0
175 198 0
174 197 0
173 197 0
174 198 0
173 196 0
174 198 0
173 197 0
172 197 0
172 196 0
174 197 0
173 197 0
175 198 0
173 196 0
174 197 0
175 198 0
175 198 0
176 198 0
175 198 0
171 196 0
174 197 0
174 198 0
174 198 0
174 198 0
174 197 0
172 195 0
174 197 0
175 198 0
174 198 0
174 198 0
175 197 0
177 199 0
174 197 0
173 197 0
174 197 0
174 197 0
174 197 0
175 198 0
175 198 0
173 197 0
174 198 0
174 198 0
174 198 0
174 197 0
174 198 0
175 198 0
175 198 0
174 198 0
174 197 0
174 197 0
175 197 0
174 198 0
175 198 0
173 196 0
173 197 0
173 197 0
175 198 0
173 197 0
174 198 0
175 198 0
173 196 0
172 196 0
174 198 0
173 197 0
175 198 0
174 198 0
176 199 0
174 198 0
173 197 0
175 198 0
173 197 0
174 198 0
175 198 0
174 198 0
174 197 0
174 197 0
174 197 0
173 196 0
173 197 0
175 198 0
175 198 0
175 198 0
175 198 0
173 197 0
172 196 0
173 197 0
175 198 0
174 198 0
176 199 0
176 199 0
175 198 0
173 197 0
176 198 0
173 197 0
173 197 0
174 197 0
174 198 0
175 198 0
174 198 0
174 197 0
174 198 0
175 198 0
173 197 0
174 198 0
174 198 0
175 198 0
176 198 0
174 198 0
174 198 0
173 197 0
173 197 0
173 197 0
175 198 0
174 198 0
172 197 0
177 199 0
174 198 0
175 198 0
173 197 0
172 196 0
176 198 0
174 197 0
175 198 0
174 197 0
174 198 0
172 196 0
173 197 0
174 197 0
175 198 0
175 198 0
175 198 0
173 197 0
175 197 0
174 198 0
174 198 0
174 197 0
173 197 0
174 198 0
173 197 0
175 198 0
174 198 0
173 197 0
174 198 0
175 198 0
174 197 0
175 198 0
174 197 0
175 198 0
175 198 0
175 198 0
175 198 0
175 198 0
173 197 0
176 198 0
175 198 0
175 198 0
175 198 0
175 198 0
175 198 0
173 196 0
175 198 0
175 198 0
173 197 0
175 198 0
177 199 0
174 198 0
175 198 0
173 197 0
173 196 0
174 198 0
175 198 0
175 198 0
174 197 0
172 197 0
174 198 0
173 197 0
173 197 0
172 195 0
175 198 0
173 197 0
177 199 0
173 197 0
172 195 0
173 196 0
173 197 0
172 196 0
171 196 0
177 199 0
172 196 0
173 197 0
173 197 0
173 197 0
174 198 0
173 197 0
174 197 0
171 195 0
174 198 0
173 197 0
174 197 0
175 198 0
175 198 0
173 197 0
175 198 0
175 198 0
173 197 0
172 196 0
174 197 0
174 198 0
174 197 0
174 197 0
174 198 0
174 198 0
172 196 0
175 198 0
174 198 0
175 198 0
173 196 0
174 198 0
172 197 0
173 197 0
175 197 0
175 198 0
176 198 0
174 197 0
171 194 0
173 197 0
173 197 0
174 197 0
173 197 0
174 197 0
173 196 0
175 197 0
173 196 0
174 197 0
171 194 0
171 196 0
173 196 0
173 197 0
172 196 0
173 197 0
173 197 0
174 197 0
176 198 0
174 198 0
174 197 0
174 198 0
174 198 0
175 198 0
175 198 0
172 196 0
172 196 0
172 195 0
175 198 0
176 198 0
176 198 0
172 195 0
171 195 0
173 197 0
172 196 0
173 197 0
172 195 0
173 197 0
173 196 0
174 197 0
173 196 0
172 196 0
170 193 0
174 197 0
173 196 0
176 199 0
172 196 0
173 196 0
171 195 0
173 197 0
175 198 0
174 197 0
173 196 0
172 196 0
173 197 0
174 197 0
173 197 0
173 196 0
173 196 0
175 198 0
172 196 0
171 195 0
173 196 0
173 196 0
172 196 0
173 197 0
173 197 0
173 197 0
173 197 0
170 194 0
174 197 0
172 196 0
173 196 0
170 194 0
175 198 0
171 195 0
175 197 0
174 198 0
171 195 0
172 196 0
173 197 0
173 196 0
175 198 0
172 196 0
172 196 0
173 196 0
172 196 0
174 197 0
172 196 0
173 196 0
169 193 0
172 195 0
172 196 0
174 197 0
175 198 0
174 196 0
174 197 0
172 195 0
171 195 0
173 196 0
172 195 0
174 197 0
174 197 0
173 197 0
174 197 0
173 196 0
173 196 0
173 197 0
173 197 0
175 198 0
174 197 0
175 198 0
172 196 0
173 196 0
171 195 0
173 197 0
174 197 0
175 198 0
173 197 0
172 196 0
175 198 0
172 196 0
175 198 0
175 198 0
174 197 0
174 197 0
172 195 0
174 197 0
171 195 0
171 196 0
174 197 0
174 197 0
176 199 0
172 196 0
173 197 0
173 196 0
173 197 0
172 196 0
173 196 0
172 196 0
175 197 0
174 197 0
174 198 0
173 197 0
172 195 0
169 194 0
173 197 0
173 197 0
175 198 0
176 198 0
173 197 0
174 197 0
174 197 0
174 197 0
173 196 0
173 196 0
175 198 0
174 198 0
172 195 0
174 198 0
173 196 0
172 196 0
176 199 0
175 198 0
174 197 0
173 197 0
173 197 0
174 197 0
174 197 0
172 197 0
175 198 0
172 196 0
174 197 0
174 198 0
174 197 0
175 198 0
173 196 0
175 197 0
175 198 0
174 197 0
175 198 0
174 198 0
176 199 0
173 197 0
174 198 0
172 196 0
174 197 0
174 197 0
173 197 0
173 197 0
175 198 0
175 198 0
175 198 0
173 197 0
174 198 0
173 197 0
174 198 0
175 198 0
174 197 0
173 197 0
174 198 0
174 198 0
174 198 0
173 197 0
174 197 0
173 197 0
174 198 0
175 198 0
174 197 0
175 198 0
174 198 0
174 198 0
175 198 0
173 197 0
174 197 0
174 197 0
174 198 0
173 197 0
173 197 0
173 197 0
175 198 0
174 198 0
173 197 0
173 197 0
174 197 0
175 197 0
174 198 0
175 198 0
174 197 0
174 198 0
173 197 0
175 198 0
174 198 0
174 198 0
174 198 0
174 197 0
174 198 0
174 197 0
175 198 0
175 198 0
175 198 0
175 198 0
174 198 0
174 197 0
174 197 0
175 198 0
176 199 0
176 198 0
175 198 0
175 198 0
175 198 0
174 197 0
172 196 0
175 198 0
174 197 0
175 198 0
173 197 0
172 197 0
174 198 0
175 198 0
173 197 0
173 197 0
176 199 0
174 198 0
173 197 0
173 197 0
174 198 0
174 197 0
172 197 0
175 198 0
173 197 0
176 199 0
173 196 0
174 198 0
173 197 0
175 198 0
175 198 0
174 198 0
175 198 0
173 197 0
175 198 0
175 198 0
175 198 0
173 197 0
175 198 0
174 198 0
173 197 0
174 198 0
175 198 0
173 197 0
175 198 0
173 197 0
175 198 0
174 197 0
174 198 0
174 198 0
174 198 0
174 198 0
175 198 0
175 198 0
174 198 0
174 197 0
174 198 0
177 199 0
174 197 0
175 198 0
175 198 0
175 198 0
172 196 0
174 197 0
174 197 0
174 197 0
175 198 0
174 198 0
174 197 0
174 198 0
173 197 0
175 198 0
175 198 0
175 198 0
175 198 0
174 198 0
176 198 0
175 198 0
175 198 0
175 198 0
174 198 0
173 197 0
175 198 0
174 197 0
174 198 0
174 197 0
175 198 0
171 195 0
174 197 0
173 197 0
174 198 0
175 198 0
173 196 0
174 197 0
173 197 0
174 197 0
174 198 0
172 196 0
174 197 0
174 198 0
173 197 0
174 196 0
174 197 0
174 198 0
175 198 0
173 197 0
172 196 0
175 198 0
176 198 0
175 198 0
173 197 0
175 198 0
173 197 0
174 197 0
174 197 0
174 197 0
172 196 0
175 198 0
175 198 0
175 198 0
174 197 0
174 197 0
175 198 0
173 197 0
173 197 0
175 198 0
174 198 0
173 197 0
173 197 0
175 198 0
175 198 0
175 198 0
174 197 0
173 197 0
174 197 0
173 197 0
173 197 0
174 198 0
174 198 0
174 198 0
173 197 0
173 197 0
174 197 0
175 198 0
175 198 0
175 198 0
174 197 0
173 197 0
173 197 0
173 197 0
174 198 0
174 197 0
173 197 0
174 198 0
173 197 0
174 197 0
172 196 0
174 197 0
174 198 0
172 196 0
174 197 0
174 198 0
173 197 0
174 197 0
173 196 0
174 197 0
174 197 0
170 194 0
174 197 0
172 196 0
172 196 0
172 196 0
174 197 0
171 196 0
172 196 0
175 198 0
174 197 0
174 197 0
172 195 0
174 197 0
174 197 0
174 197 0
173 196 0
173 197 0
173 197 0
172 196 0
171 196 0
173 197 0
172 195 0
173 197 0
172 196 0
172 195 0
174 198 0
173 196 0
173 197 0
172 196 0
173 197 0
170 194 0
172 196 0
172 196 0
174 197 0
175 198 0
172 196 0
174 197 0
174 197 0
171 194 0
174 197 0
173 196 0
172 196 0
171 195 0
175 197 0
171 195 0
174 198 0
171 196 0
172 196 0
173 197 0
173 196 0
174 197 0
174 197 0
174 197 0
173 196 0
174 198 0
174 198 0
174 197 0
173 197 0
172 196 0
173 197 0
173 197 0
172 196 0
174 197 0
175 198 0
174 198 0
173 197 0
173 196 0
173 197 0
172 195 0
175 198 0
174 198 0
173 197 0
172 197 0
174 197 0
173 197 0
172 195 0
174 197 0
175 197 0
172 197 0
173 197 0
172 195 0
173 197 0
174 197 0
173 196 0
173 197 0
174 197 0
174 197 0
174 197 0
173 197 0
173 197 0
172 196 0
173 196 0
173 197 0
172 195 0
176 198 0
172 196 0
171 194 0
174 197 0
172 196 0
173 196 0
171 195 0
173 196 0
173 196 0
174 198 0
173 197 0
172 195 0
174 197 0
173 196 0
173 197 0
173 197 0
172 196 0
175 198 0
173 196 0
174 197 0
173 196 0
176 199 0
175 198 0
171 196 0
173 197 0
173 197 0
172 196 0
175 198 0
176 198 0
174 198 0
172 197 0
174 197 0
172 196 0
174 197 0
174 197 0
172 197 0
172 196 0
174 197 0
176 198 0
173 196 0
173 196 0
175 197 0
175 198 0
174 197 0
174 198 0
175 198 0
172 196 0
172 196 0
174 198 0
173 197 0
174 197 0
175 198 0
175 198 0
174 198 0
175 198 0
173 196 0
173 197 0
173 197 0
172 196 0
175 198 0
172 195 0
172 196 0
175 198 0
174 197 0
174 198 0
175 198 0
174 197 0
174 197 0
173 197 0
171 195 0
175 198 0
173 197 0
173 196 0
171 194 0
173 196 0
174 197 0
175 198 0
173 197 0
172 195 0
174 197 0
173 197 0
175 198 0
172 196 0
175 198 0
174 197 0
175 198 0
173 197 0
174 197 0
174 197 0
173 197 0
173 197 0
175 198 0
175 198 0
174 197 0
172 196 0
174 197 0
174 198 0
175 198 0
174 198 0
174 197 0
174 198 0
176 199 0
174 198 0
174 197 0
173 196 0
173 197 0
175 198 0
174 197 0
175 198 0
175 198 0
174 198 0
174 198 0
174 197 0
173 197 0
173 197 0
173 197 0
175 198 0
174 198 0
174 198 0
176 199 0
176 199 0
175 198 0
174 197 0
173 197 0
176 198 0
175 198 0
174 198 0
174 198 0
174 197 0
172 197 0
174 197 0
174 197 0
174 197 0
174 197 0
176 198 0
174 198 0
174 198 0
174 197 0
175 198 0
175 198 0
176 199 0
174 198 0
175 198 0
174 198 0
173 197 0
173 197 0
174 197 0
175 198 0
175 198 0
175 198 0
175 198 0
175 198 0
176 199 0
175 198 0
174 198 0
175 198 0
175 198 0
175 198 0
172 196 0
175 198 0
173 197 0
174 197 0
173 197 0
173 197 0
175 198 0
174 198 0
173 197 0
174 197 0
174 198 0
174 198 0
175 198 0
175 198 0
173 197 0
174 198 0
173 197 0
174 198 0
174 197 0
175 198 0
175 198 0
176 199 0
174 198 0
174 198 0
175 198 0
175 198 0
174 197 0
175 198 0
175 198 0
174 198 0
174 198 0
175 198 0
174 197 0
175 198 0
176 199 0
172 195 0
176 198 0
174 197 0
175 198 0
175 198 0
175 198 0
174 198 0
175 198 0
174 197 0
175 198 0
175 198 0
176 199 0
175 198 0
173 196 0
174 198 0
173 197 0
175 198 0
174 197 0
175 198 0
175 198 0
174 197 0
176 199 0
173 197 0
175 198 0
175 198 0
174 198 0
175 198 0
174 198 0
174 197 0
173 197 0
173 197 0
174 198 0
174 197 0
174 197 0
177 199 0
174 197 0
176 199 0
174 197 0
174 197 0
173 197 0
174 198 0
173 196 0
173 197 0
175 198 0
175 198 0
173 197 0
173 197 0
173 197 0
174 198 0
174 197 0
172 196 0
174 197 0
175 198 0
173 197 0
174 198 0
175 198 0
175 198 0
174 197 0
174 198 0
174 197 0
173 197 0
174 197 0
174 198 0
172 196 0
173 197 0
173 196 0
174 198 0
174 198 0
174 198 0
175 198 0
176 198 0
174 198 0
174 197 0
172 196 0
175 198 0
176 198 0
173 197 0
174 198 0
175 197 0
175 198 0
173 196 0
174 197 0
174 197 0
173 197 0
173 197 0
172 195 0
173 197 0
174 197 0
174 197 0
173 197 0
174 197 0
173 197 0
175 198 0
175 198 0
173 196 0
174 198 0
174 197 0
173 197 0
172 197 0
173 197 0
174 197 0
174 197 0
173 196 0
175 198 0
174 198 0
172 196 0
173 197 0
175 198 0
172 196 0
171 195 0
174 198 0
173 197 0
174 197 0
174 197 0
173 197 0
174 197 0
174 197 0
172 197 0
174 197 0
174 197 0
173 196 0
177 199 0
172 196 0
172 196 0
173 196 0
175 198 0
174 197 0
173 197 0
173 197 0
174 198 0
173 196 0
174 197 0
171 195 0
170 195 0
175 198 0
172 196 0
173 197 0
173 196 0
172 196 0
172 196 0
175 198 0
175 198 0
173 197 0
174 197 0
173 197 0
173 197 0
173 197 0
175 198 0
173 196 0
173 197 0
175 198 0
173 196 0
173 197 0
172 196 0
173 197 0
173 197 0
176 199 0
172 196 0
173 197 0
174 197 0
172 196 0
173 197 0
173 197 0
172 196 0
173 197 0
173 196 0
172 196 0
170 194 0
176 198 0
173 196 0
173 197 0
172 196 0
173 196 0
172 195 0
172 195 0
173 196 0
173 197 0
171 194 0
171 195 0
170 194 0
173 196 0
172 196 0
176 199 0
174 197 0
173 196 0
172 196 0
172 196 0
172 195 0
174 197 0
173 197 0
174 197 0
173 197 0
174 197 0
174 197 0
170 194 0
174 198 0
173 196 0
174 198 0
172 196 0
176 198 0
172 196 0
174 197 0
174 197 0
172 196 0
173 197 0
173 197 0
173 197 0
173 196 0
172 196 0
174 197 0
173 197 0
173 196 0
175 197 0
175 198 0
173 197 0
174 198 0
176 198 0
174 197 0
174 197 0
171 195 0
175 198 0
173 196 0
172 196 0
174 197 0
173 197 0
172 195 0
172 196 0
173 197 0
175 198 0
175 198 0
172 196 0
173 197 0
173 196 0
171 194 0
175 198 0
174 197 0
174 197 0
175 198 0
176 198 0
175 197 0
174 197 0
172 196 0
174 197 0
172 196 0
174 198 0
172 195 0
174 198 0
172 196 0
175 197 0
175 198 0
176 198 0
176 198 0
174 198 0
172 196 0
173 196 0
172 196 0
174 197 0
175 198 0
173 197 0
173 196 0
175 197 0
176 198 0
172 196 0
175 198 0
174 198 0
174 197 0
174 198 0
174 197 0
175 197 0
174 197 0
173 197 0
174 198 0
175 198 0
175 198 0
172 196 0
173 197 0
175 197 0
173 197 0
174 197 0
174 197 0
175 198 0
172 197 0
173 197 0
174 197 0
174 197 0
171 196 0
174 197 0
173 196 0
173 197 0
173 197 0
174 197 0
174 198 0
172 196 0
172 196 0
175 198 0
175 198 0
174 197 0
173 197 0
175 198 0
174 198 0
175 198 0
175 198 0
173 197 0
173 197 0
175 198 0
174 197 0
174 198 0
172 197 0
176 199 0
175 198 0
173 196 0
172 196 0
175 198 0
174 197 0
173 197 0
175 198 0
176 198 0
174 198 0
173 197 0
174 198 0
175 198 0
173 197 0
176 199 0
173 197 0
173 197 0
173 197 0
173 197 0
175 198 0
176 199 0
175 198 0
173 197 0
173 197 0
173 197 0
174 198 0
173 197 0
175 198 0
175 198 0
173 197 0
175 198 0
174 198 0
175 198 0
175 198 0
176 199 0
175 198 0
175 198 0
175 198 0
174 197 0
174 198 0
175 198 0
176 199 0
175 198 0
174 198 0
173 197 0
174 198 0
174 198 0
173 197 0
176 198 0
174 198 0
174 197 0
175 198 0
174 198 0
175 198 0
175 198 0
174 197 0
175 198 0
176 198 0
174 198 0
175 198 0
174 198 0
174 198 0
174 198 0
175 198 0
174 197 0
173 197 0
174 198 0
175 198 0
174 198 0
175 198 0
173 197 0
174 198 0
175 198 0
175 198 0
172 196 0
174 197 0
175 198 0
174 197 0
174 197 0
176 199 0
175 198 0
175 198 0
174 198 0
174 197 0
173 197 0
175 198 0
175 198 0
175 198 0
173 197 0
173 197 0
174 198 0
174 197 0
175 198 0
175 198 0
174 198 0
176 198 0
176 199 0
175 198 0
175 198 0
173 197 0
175 198 0
176 198 0
175 198 0
173 197 0
174 198 0
173 197 0
173 197 0
174 197 0
175 198 0
174 198 0
174 198 0
174 198 0
176 199 0
175 198 0
175 198 0
175 198 0
174 198 0
174 198 0
175 198 0
173 197 0
175 198 0
174 197 0
175 198 0
175 198 0
175 198 0
173 197 0
174 198 0
174 197 0
174 197 0
174 198 0
174 198 0
174 198 0
175 198 0
173 197 0
174 197 0
174 197 0
175 198 0
173 197 0
174 197 0
175 198 0
175 198 0
174 198 0
174 197 0
174 197 0
174 197 0
174 197 0
174 198 0
174 198 0
175 198 0
173 197 0
173 197 0
175 198 0
174 197 0
175 198 0
174 197 0
173 197 0
174 197 0
174 197 0
174 198 0
173 197 0
171 195 0
175 198 0
175 198 0
174 198 0
174 197 0
174 198 0
176 199 0
173 196 0
174 197 0
172 197 0
173 196 0
175 198 0
175 198 0
174 197 0
173 197 0
175 198 0
172 196 0
172 196 0
175 198 0
174 197 0
174 197 0
173 197 0
173 197 0
174 198 0
172 196 0
175 198 0
174 197 0
173 196 0
173 197 0
175 198 0
174 198 0
175 198 0
175 198 0
174 198 0
173 197 0
173 196 0
174 198 0
173 197 0
175 198 0
174 197 0
173 196 0
174 198 0
175 198 0
173 197 0
173 197 0
173 197 0
175 198 0
173 196 0
173 197 0
174 197 0
172 196 0
172 196 0
174 197 0
172 196 0
175 198 0
174 197 0
174 197 0
173 197 0
174 197 0
173 197 0
172 196 0
173 196 0
174 197 0
175 198 0
171 195 0
173 197 0
173 197 0
174 197 0
174 197 0
170 194 0
175 198 0
172 196 0
172 196 0
174 198 0
174 197 0
172 195 0
174 197 0
173 197 0
173 197 0
172 196 0
174 197 0
174 197 0
173 196 0
175 198 0
173 197 0
175 198 0
172 194 0
173 197 0
173 197 0
174 197 0
171 195 0
173 196 0
172 196 0
175 198 0
174 198 0
173 196 0
175 198 0
172 195 0
172 196 0
173 196 0
174 198 0
173 197 0
174 197 0
172 195 0
173 197 0
172 195 0
173 197 0
174 197 0
175 198 0
175 198 0
172 196 0
173 197 0
173 197 0
172 196 0
171 195 0
172 195 0
172 196 0
175 198 0
175 198 0
173 195 0
174 198 0
173 197 0
174 198 0
174 197 0
172 196 0
173 197 0
172 196 0
173 196 0
171 195 0
173 197 0
175 198 0
174 197 0
173 197 0
173 196 0
170 194 0
172 196 0
171 195 0
173 197 0
173 196 0
174 198 0
171 195 0
171 195 0
174 197 0
174 198 0
173 196 0
172 195 0
173 197 0
174 197 0
174 197 0
174 197 0
173 196 0
173 197 0
174 196 0
173 197 0
175 198 0
174 197 0
175 198 0
173 197 0
175 198 0
174 198 0
174 197 0
175 198 0
174 198 0
173 197 0
174 198 0
175 198 0
173 196 0
174 197 0
174 197 0
172 196 0
174 198 0
173 197 0
175 197 0
174 197 0
174 197 0
175 198 0
174 197 0
173 197 0
172 197 0
175 198 0
171 195 0
176 199 0
174 197 0
173 196 0
174 196 0
173 197 0
172 196 0
174 198 0
173 196 0
174 197 0
171 195 0
172 196 0
174 197 0
174 197 0
174 197 0
172 196 0
174 197 0
175 198 0
175 198 0
172 196 0
173 197 0
172 196 0
173 197 0
174 198 0
174 198 0
173 197 0
173 197 0
174 198 0
175 198 0
175 198 0
175 198 0
174 197 0
175 198 0
175 198 0
174 197 0
174 198 0
175 198 0
174 198 0
174 197 0
175 198 0
174 198 0
174 197 0
174 198 0
174 197 0
172 196 0
175 197 0
173 197 0
174 197 0
173 197 0
175 197 0
174 197 0
175 198 0
172 196 0
176 199 0
174 197 0
174 198 0
172 196 0
174 198 0
174 198 0
175 198 0
173 197 0
175 198 0
173 197 0
175 198 0
172 197 0
174 197 0
174 197 0
174 198 0
174 197 0
176 199 0
175 198 0
175 198 0
174 197 0
174 197 0
174 198 0
174 198 0
175 198 0
174 197 0
176 199 0
175 198 0
173 197 0
174 197 0
174 197 0
175 198 0
174 198 0
173 196 0
172 195 0
173 197 0
172 197 0
174 198 0
175 198 0
174 197 0
174 198 0
173 197 0
176 198 0
174 198 0
175 198 0
173 197 0
174 198 0
174 197 0
175 198 0
174 197 0
174 198 0
173 197 0
174 197 0
174 198 0
175 198 0
173 197 0
174 198 0
174 197 0
174 197 0
173 197 0
175 198 0
175 198 0
177 199 0
174 197 0
176 199 0
172 197 0
176 199 0
174 197 0
174 198 0
175 198 0
174 197 0
173 197 0
176 199 0
174 198 0
174 198 0
177 199 0
173 197 0
174 198 0
175 198 0
175 198 0
174 198 0
176 198 0
174 197 0
174 198 0
175 198 0
175 198 0
174 197 0
174 198 0
174 198 0
174 197 0
173 197 0
173 197 0
174 197 0
174 198 0
174 197 0
173 197 0
174 198 0
174 198 0
175 198 0
174 197 0
174 198 0
175 198 0
174 198 0
174 198 0
174 197 0
175 198 0
174 198 0
175 198 0
174 198 0
174 197 0
174 197 0
173 197 0
173 197 0
174 198 0
174 197 0
175 198 0
174 197 0
174 197 0
173 197 0
176 199 0
176 199 0
174 198 0
174 198 0
174 198 0
172 197 0
174 197 0
172 196 0
173 197 0
174 198 0
175 198 0
174 198 0
172 196 0
174 197 0
174 197 0
173 197 0
174 198 0
174 198 0
173 197 0
173 197 0
172 196 0
174 198 0
173 196 0
173 197 0
174 197 0
175 198 0
173 197 0
174 197 0
174 198 0
174 198 0
174 198 0
174 198 0
174 198 0
174 198 0
174 197 0
174 198 0
174 198 0
173 196 0
171 195 0
174 197 0
174 198 0
174 198 0
174 197 0
175 198 0
173 197 0
175 198 0
174 198 0
174 197 0
173 197 0
175 197 0
173 197 0
175 198 0
175 198 0
176 199 0
172 195 0
173 197 0
174 197 0
174 198 0
172 196 0
173 197 0
176 198 0
170 194 0
173 197 0
173 196 0
175 198 0
174 198 0
174 198 0
173 197 0
174 198 0
173 197 0
175 198 0
175 198 0
174 197 0
174 198 0
176 198 0
172 197 0
176 198 0
172 195 0
175 198 0
174 198 0
172 196 0
174 197 0
173 197 0
174 197 0
174 197 0
174 197 0
173 197 0
175 198 0
173 197 0
172 196 0
172 196 0
173 197 0
174 197 0
173 196 0
175 197 0
172 196 0
172 196 0
173 197 0
174 197 0
175 198 0
172 196 0
173 197 0
175 198 0
173 196 0
174 197 0
174 197 0
173 196 0
174 198 0
172 195 0
173 197 0
174 197 0
171 195 0
173 197 0
173 197 0
172 196 0
172 195 0
174 197 0
172 196 0
172 196 0
173 196 0
173 196 0
173 197 0
174 197 0
175 198 0
170 195 0
173 197 0
174 197 0
172 195 0
174 197 0
171 195 0
173 196 0
173 197 0
175 198 0
173 197 0
174 197 0
173 196 0
173 196 0
175 198 0
174 197 0
174 198 0
173 197 0
173 197 0
172 196 0
175 198 0
173 196 0
172 195 0
172 196 0
171 195 0
173 196 0
173 197 0
174 198 0
172 196 0
171 195 0
174 197 0
173 197 0
175 198 0
175 198 0
170 194 0
174 197 0
173 197 0
175 198 0
171 194 0
172 195 0
173 197 0
174 197 0
172 196 0
173 197 0
172 196 0
174 198 0
172 196 0
173 196 0
172 196 0
175 198 0
174 198 0
172 196 0
174 197 0
176 199 0
174 197 0
171 195 0
172 195 0
174 197 0
174 197 0
173 196 0
172 196 0
175 198 0
173 196 0
175 198 0
173 197 0
173 197 0
173 197 0
173 197 0
174 197 0
174 197 0
174 198 0
174 197 0
172 195 0
172 196 0
173 196 0
173 197 0
173 197 0
173 197 0
174 197 0
174 197 0
171 194 0
175 198 0
174 198 0
173 197 0
175 198 0
175 198 0
173 196 0
173 197 0
176 198 0
174 197 0
173 197 0
174 197 0
173 197 0
174 197 0
174 197 0
170 194 0
174 197 0
173 196 0
175 197 0
174 198 0
175 198 0
173 196 0
174 197 0
174 198 0
171 194 0
169 194 0
173 197 0
172 196 0
174 198 0
174 197 0
173 197 0
174 197 0
174 197 0
175 198 0
173 196 0
174 197 0
176 199 0
173 197 0
174 197 0
172 195 0
175 198 0
173 197 0
172 196 0
172 196 0
173 197 0
174 197 0
173 197 0
174 197 0
175 197 0
174 197 0
172 196 0
175 198 0
175 198 0
173 196 0
174 197 0
172 196 0
174 198 0
170 195 0
174 197 0
174 197 0
173 196 0
173 196 0
173 197 0
173 197 0
173 197 0
174 197 0
173 197 0
175 198 0
174 197 0
174 197 0
175 198 0
172 196 0
172 196 0
174 198 0
174 197 0
175 198 0
174 197 0
174 197 0
175 198 0
175 198 0
175 198 0
173 197 0
173 197 0
173 196 0
174 198 0
173 197 0
174 198 0
174 197 0
175 198 0
175 198 0
175 198 0
175 198 0
177 199 0
173 196 0
174 197 0
176 198 0
174 198 0
174 197 0
174 198 0
175 198 0
173 197 0
175 198 0
175 198 0
175 198 0
174 198 0
175 198 0
174 197 0
175 198 0
175 198 0
173 197 0
172 196 0
175 198 0
173 196 0
174 197 0
173 197 0
175 198 0
173 197 0
173 196 0
173 197 0
176 199 0
175 198 0
174 197 0
175 198 0
174 198 0
174 197 0
174 198 0
174 198 0
172 196 0
174 197 0
174 197 0
172 196 0
175 198 0
173 197 0
176 199 0
175 198 0
173 197 0
174 198 0
174 197 0
175 198 0
175 198 0
173 197 0
174 198 0
175 198 0
172 196 0
174 197 0
175 198 0
175 198 0
173 197 0
174 198 0
177 199 0
174 198 0
174 197 0
174 198 0
175 198 0
175 198 0
173 197 0
173 197 0
176 199 0
176 198 0
174 197 0
174 197 0
174 198 0
173 197 0
174 198 0
175 198 0
174 198 0
175 198 0
174 198 0
175 198 0
173 197 0
176 199 0
176 198 0
174 198 0
173 197 0
173 197 0
174 198 0
173 197 0
173 197 0
175 198 0
174 198 0
173 197 0
175 198 0
174 198 0
175 198 0
174 198 0
172 195 0
175 198 0
174 198 0
175 198 0
174 198 0
174 197 0
174 198 0
174 198 0
175 198 0
173 197 0
173 197 0
174 198 0
175 198 0
174 197 0
173 197 0
173 197 0
174 198 0
175 198 0
174 197 0
174 198 0
176 198 0
174 197 0
176 198 0
175 198 0
174 197 0
175 198 0
175 198 0
173 197 0
174 198 0
173 197 0
174 197 0
174 198 0
173 197 0
176 199 0
174 197 0
175 198 0
174 198 0
174 198 0
174 197 0
175 198 0
173 197 0
175 198 0
175 198 0
174 197 0
174 198 0
176 199 0
175 198 0
171 196 0
173 197 0
172 196 0
173 197 0
174 198 0
174 198 0
173 197 0
174 197 0
173 197 0
173 197 0
174 198 0
175 198 0
176 198 0
173 197 0
174 198 0
173 197 0
173 197 0
174 197 0
175 198 0
174 197 0
175 198 0
176 199 0
174 197 0
174 198 0
175 198 0
174 198 0
174 198 0
172 196 0
175 198 0
172 196 0
174 197 0
171 195 0
174 197 0
174 197 0
174 198 0
173 197 0
174 198 0
175 198 0
173 196 0
174 197 0
173 196 0
174 197 0
173 197 0
174 197 0
172 196 0
175 198 0
174 198 0
175 198 0
174 197 0
173 197 0
174 197 0
174 198 0
174 197 0
175 198 0
177 199 0
173 197 0
175 198 0
175 198 0
174 198 0
175 198 0
174 197 0
171 194 0
174 197 0
175 198 0
173 197 0
174 197 0
174 197 0
173 197 0
173 197 0
174 197 0
175 197 0
174 197 0
174 196 0
174 198 0
171 195 0
174 197 0
173 197 0
173 196 0
173 196 0
174 197 0
172 196 0
173 196 0
173 197 0
173 197 0
174 198 0
174 197 0
175 198 0
173 197 0
174 197 0
172 196 0
174 197 0
171 195 0
172 196 0
171 195 0
173 197 0
172 196 0
173 196 0
174 197 0
173 197 0
174 197 0
173 197 0
173 196 0
171 195 0
172 196 0
172 196 0
174 197 0
173 196 0
173 197 0
172 196 0
175 198 0
175 198 0
172 196 0
172 195 0
171 194 0
175 198 0
173 197 0
172 196 0
173 196 0
175 198 0
173 195 0
172 196 0
175 198 0
173 197 0
173 197 0
173 197 0
176 198 0
173 197 0
171 194 0
173 197 0
174 197 0
172 196 0
173 197 0
173 196 0
173 197 0
174 197 0
174 197 0
174 197 0
173 196 0
171 196 0
173 197 0
172 196 0
174 197 0
173 196 0
173 196 0
175 198 0
174 197 0
173 197 0
173 196 0
174 197 0
172 196 0
173 197 0
174 196 0
172 197 0
172 196 0
173 197 0
172 196 0
173 196 0
172 196 0
172 195 0
174 197 0
173 196 0
173 197 0
174 197 0
172 196 0
172 196 0
172 195 0
172 196 0
172 196 0
174 197 0
175 198 0
173 197 0
176 198 0
175 198 0
171 194 0
172 196 0
174 197 0
175 198 0
174 198 0
172 195 0
174 197 0
174 197 0
174 197 0
175 198 0
176 198 0
172 196 0
174 197 0
174 198 0
173 197 0
173 196 0
173 197 0
173 196 0
174 198 0
174 198 0
173 197 0
173 197 0
175 198 0
175 198 0
175 197 0
176 198 0
172 196 0
173 196 0
174 197 0
174 197 0
175 198 0
172 196 0
173 197 0
173 197 0
174 198 0
175 198 0
174 197 0
174 198 0
175 198 0
175 198 0
174 197 0
173 196 0
174 197 0
174 197 0
173 197 0
174 197 0
173 197 0
174 197 0
174 197 0
175 198 0
174 197 0
173 196 0
173 197 0
176 198 0
174 198 0
174 198 0
175 198 0
172 196 0
175 198 0
174 197 0
173 197 0
175 198 0
173 197 0
174 197 0
172 196 0
174 198 0
174 198 0
174 198 0
174 197 0
175 198 0
174 198 0
175 198 0
175 198 0
175 198 0
173 196 0
173 197 0
173 197 0
175 198 0
175 198 0
174 198 0
174 197 0
174 197 0
175 198 0
174 198 0
174 198 0
174 197 0
174 198 0
174 198 0
175 198 0
173 197 0
173 197 0
175 197 0
174 197 0
174 198 0
175 198 0
175 198 0
173 197 0
175 198 0
175 198 0
175 198 0
173 197 0
173 197 0
172 197 0
173 197 0
174 197 0
174 197 0
173 197 0
174 198 0
175 198 0
175 198 0
174 197 0
175 198 0
174 198 0
175 198 0
174 198 0
173 197 0
173 197 0
175 198 0
174 198 0
175 198 0
174 198 0
173 197 0
174 197 0
176 198 0
174 198 0
175 198 0
172 197 0
174 198 0
175 198 0
175 198 0
174 198 0
174 197 0
174 198 0
174 198 0
175 198 0
172 197 0
174 198 0
174 198 0
173 197 0
173 197 0
175 198 0
174 197 0
175 198 0
175 198 0
175 198 0
174 198 0
173 197 0
175 198 0
175 198 0
176 198 0
175 198 0
176 198 0
174 198 0
174 197 0
173 197 0
175 198 0
174 197 0
175 198 0
174 198 0
173 197 0
175 198 0
176 199 0
175 198 0
174 197 0
174 198 0
176 199 0
174 198 0
173 197 0
175 198 0
172 196 0
174 198 0
172 197 0
174 198 0
176 199 0
175 198 0
177 199 0
175 198 0
172 196 0
173 197 0
173 197 0
174 197 0
174 198 0
174 197 0
174 198 0
173 197 0
173 197 0
174 198 0
172 196 0
175 198 0
174 198 0
175 198 0
173 197 0
175 198 0
174 198 0
173 197 0
175 198 0
174 198 0
174 198 0
175 198 0
175 198 0
174 197 0
176 198 0
175 198 0
176 199 0
175 198 0
175 198 0
175 198 0
175 198 0
175 198 0
175 198 0
175 198 0
175 198 0
175 198 0
174 198 0
172 196 0
175 198 0
173 197 0
173 197 0
173 197 0
174 197 0
173 197 0
175 198 0
174 197 0
175 198 0
175 198 0
174 198 0
175 198 0
174 197 0
173 196 0
173 197 0
174 198 0
174 198 0
173 197 0
175 198 0
173 197 0
174 198 0
175 198 0
175 198 0
176 199 0
174 197 0
174 198 0
174 198 0
174 198 0
174 197 0
175 198 0
172 196 0
174 197 0
173 197 0
175 198 0
175 198 0
174 197 0
175 198 0
174 198 0
173 197 0
174 197 0
174 198 0
171 195 0
173 196 0
172 196 0
173 197 0
174 198 0
173 197 0
175 198 0
175 198 0
175 198 0
174 197 0
175 198 0
174 198 0
173 197 0
174 198 0
174 198 0
173 197 0
175 198 0
174 197 0
173 196 0
172 196 0
173 197 0
175 198 0
173 197 0
174 198 0
173 196 0
174 198 0
173 196 0
174 197 0
174 198 0
174 197 0
173 196 0
174 197 0
175 198 0
175 198 0
174 197 0
176 198 0
174 198 0
174 198 0
173 197 0
173 196 0
173 197 0
174 197 0
175 198 0
171 195 0
172 195 0
173 197 0
175 198 0
176 199 0
173 196 0
172 196 0
171 195 0
174 198 0
175 198 0
173 196 0
172 195 0
173 197 0
175 198 0
174 198 0
173 196 0
173 196 0
173 197 0
172 197 0
173 196 0
173 196 0
172 196 0
171 195 0
173 197 0
174 198 0
173 197 0
173 196 0
175 198 0
174 198 0
174 197 0
173 196 0
173 197 0
172 195 0
171 195 0
174 198 0
171 195 0
172 195 0
173 196 0
173 196 0
172 195 0
170 193 0
175 198 0
175 197 0
172 196 0
171 195 0
172 195 0
174 198 0
172 196 0
174 197 0
172 196 0
174 197 0
175 198 0
171 194 0
173 196 0
172 196 0
171 195 0
174 196 0
171 194 0
175 198 0
173 197 0
173 197 0
172 195 0
173 197 0
174 197 0
173 196 0
172 196 0
175 198 0
172 196 0
170 194 0
172 196 0
172 195 0
173 197 0
172 196 0
173 197 0
173 196 0
173 197 0
172 195 0
175 198 0
171 195 0
174 197 0
175 198 0
174 197 0
174 197 0
174 197 0
173 196 0
172 195 0
174 197 0
176 199 0
172 196 0
173 196 0
174 197 0
172 196 0
173 197 0
173 197 0
174 197 0
173 196 0
172 196 0
175 198 0
174 198 0
172 195 0
171 194 0
173 197 0
174 198 0
173 197 0
173 197 0
176 199 0
174 197 0
173 196 0
174 197 0
172 196 0
174 198 0
175 198 0
174 197 0
172 195 0
174 197 0
176 198 0
173 197 0
174 197 0
173 197 0
173 196 0
174 198 0
173 197 0
171 195 0
173 197 0
175 198 0
174 198 0
173 197 0
174 198 0
175 198 0
175 198 0
175 198 0
173 197 0
174 197 0
174 197 0
175 197 0
173 196 0
174 197 0
174 197 0
172 196 0
173 197 0
174 198 0
174 197 0
175 198 0
174 197 0
174 198 0
173 197 0
173 197 0
176 199 0
174 197 0
175 198 0
174 197 0
176 199 0
174 197 0
174 198 0
174 198 0
174 197 0
174 197 0
174 197 0
174 198 0
174 197 0
174 197 0
174 197 0
175 198 0
174 198 0
176 199 0
173 197 0
173 196 0
175 198 0
174 197 0
173 197 0
174 197 0
174 198 0
173 197 0
175 198 0
174 198 0
175 198 0
174 198 0
174 198 0
175 198 0
173 197 0
173 197 0
176 198 0
173 197 0
175 198 0
174 197 0
175 198 0
174 198 0
175 198 0
173 197 0
174 197 0
173 197 0
175 198 0
174 197 0
175 198 0
174 198 0
173 197 0
175 198 0
175 198 0
175 198 0
175 198 0
175 198 0
173 197 0
172 196 0
176 199 0
175 198 0
174 198 0
176 198 0
176 198 0
175 198 0
174 197 0
175 198 0
174 198 0
174 197 0
174 198 0
176 198 0
175 198 0
175 198 0
174 198 0
174 198 0
175 198 0
173 197 0
174 197 0
174 197 0
174 197 0
175 198 0
174 198 0
173 197 0
174 198 0
175 198 0
173 197 0
173 197 0
173 197 0
174 198 0
173 197 0
177 199 0
174 198 0
174 198 0
174 198 0
174 197 0
175 198 0
174 197 0
175 198 0
175 198 0
174 198 0
175 198 0
174 197 0
174 198 0
173 197 0
174 198 0
175 198 0
175 198 0
174 198 0
172 196 0
174 198 0
175 198 0
175 198 0
174 198 0
173 197 0
175 198 0
175 198 0
176 199 0
173 197 0
173 196 0
175 198 0
174 197 0
173 197 0
175 198 0
176 199 0
174 198 0
175 198 0
175 198 0
176 199 0
178 200 0
173 197 0
173 197 0
175 198 0
175 198 0
175 198 0
175 198 0
174 198 0
174 198 0
174 198 0
174 197 0
174 197 0
176 198 0
174 198 0
174 197 0
174 198 0
174 198 0
173 197 0
175 198 0
173 197 0
172 196 0
176 198 0
175 198 0
173 197 0
174 198 0
174 198 0
174 198 0
174 198 0
174 198 0
175 198 0
174 198 0
174 198 0
175 198 0
174 198 0
174 198 0
173 197 0
173 197 0
175 198 0
175 198 0
174 198 0
176 199 0
175 198 0
173 197 0
174 197 0
175 198 0
175 198 0
175 198 0
175 198 0
173 197 0
173 196 0
174 198 0
172 196 0
174 197 0
173 197 0
173 197 0
173 197 0
175 198 0
174 198 0
174 197 0
174 198 0
175 198 0
172 196 0
173 197 0
175 198 0
174 197 0
174 198 0
173 197 0
175 198 0
174 198 0
175 198 0
175 198 0
173 196 0
175 198 0
173 197 0
173 196 0
174 198 0
174 197 0
175 198 0
175 198 0
174 198 0
174 198 0
175 198 0
172 196 0
173 197 0
176 199 0
173 197 0
173 197 0
172 196 0
173 197 0
173 197 0
175 198 0
174 197 0
173 196 0
174 198 0
174 198 0
174 198 0
173 196 0
173 197 0
174 198 0
173 197 0
174 197 0
176 198 0
174 197 0
174 198 0
174 198 0
175 198 0
173 197 0
172 196 0
173 197 0
173 196 0
172 195 0
175 197 0
173 197 0
174 197 0
174 198 0
174 197 0
175 198 0
173 197 0
174 197 0
175 198 0
173 197 0
174 197 0
173 197 0
172 197 0
172 196 0
173 197 0
174 197 0
173 197 0
175 198 0
171 195 0
174 197 0
174 197 0
172 195 0
172 196 0
173 197 0
170 194 0
171 195 0
173 197 0
173 197 0
173 197 0
173 196 0
172 196 0
173 196 0
171 195 0
174 197 0
173 197 0
173 197 0
173 197 0
172 196 0
175 198 0
175 198 0
171 195 0
174 198 0
172 196 0
172 195 0
174 197 0
174 198 0
174 197 0
173 197 0
174 197 0
174 197 0
173 196 0
173 196 0
172 196 0
172 195 0
173 197 0
174 197 0
173 196 0
174 197 0
172 195 0
172 196 0
173 196 0
173 197 0
175 198 0
174 197 0
176 199 0
170 194 0
174 197 0
173 197 0
174 197 0
172 195 0
172 196 0
173 196 0
172 195 0
175 197 0
173 197 0
170 194 0
174 197 0
173 196 0
172 195 0
172 196 0
173 196 0
174 196 0
175 198 0
173 196 0
173 197 0
175 198 0
173 196 0
173 197 0
175 198 0
174 197 0
172 196 0
173 196 0
173 196 0
172 196 0
173 196 0
174 198 0
174 198 0
173 197 0
175 198 0
174 197 0
173 196 0
174 197 0
172 195 0
174 197 0
173 196 0
175 198 0
174 197 0
172 196 0
174 197 0
174 197 0
174 197 0
173 197 0
172 195 0
175 198 0
174 196 0
174 197 0
174 198 0
173 196 0
171 195 0
174 197 0
171 196 0
173 197 0
174 197 0
174 197 0
173 196 0
175 198 0
173 197 0
173 196 0
175 198 0
174 197 0
172 196 0
174 197 0
173 197 0
174 197 0
173 196 0
174 198 0
173 197 0
171 196 0
173 197 0
174 197 0
175 198 0
175 198 0
174 197 0
173 197 0
174 197 0
172 196 0
173 197 0
174 197 0
172 195 0
174 197 0
174 197 0
173 197 0
174 198 0
175 198 0
174 198 0
175 198 0
175 198 0
173 197 0
174 197 0
174 198 0
175 198 0
173 196 0
172 197 0
174 197 0
174 198 0
174 197 0
173 197 0
174 198 0
172 196 0
173 196 0
173 196 0
173 197 0
175 198 0
173 196 0
173 196 0
174 198 0
173 197 0
175 198 0
171 195 0
173 197 0
174 197 0
175 198 0
174 198 0
173 197 0
174 197 0
173 197 0
174 198 0
174 197 0
175 198 0
173 197 0
174 198 0
173 197 0
175 198 0
175 198 0
175 198 0
176 198 0
174 197 0
175 198 0
175 198 0
175 198 0
174 198 0
175 198 0
173 197 0
175 198 0
175 198 0
175 198 0
173 197 0
174 198 0
174 197 0
174 197 0
174 197 0
176 199 0
173 196 0
175 198 0
175 198 0
177 199 0
175 198 0
171 195 0
173 197 0
173 197 0
177 199 0
175 198 0
176 199 0
172 197 0
175 198 0
173 197 0
172 197 0
175 198 0
173 197 0
174 197 0
174 197 0
175 198 0
174 197 0
176 198 0
176 199 0
175 198 0
173 197 0
174 197 0
174 198 0
173 197 0
175 198 0
175 198 0
174 198 0
175 198 0
173 197 0
175 198 0
175 198 0
174 197 0
174 197 0
175 198 0
175 198 0
175 198 0
174 197 0
175 198 0
174 198 0
174 197 0
175 198 0
174 197 0
174 198 0
173 197 0
174 197 0
174 197 0
175 198 0
174 198 0
176 198 0
174 198 0
174 198 0
174 198 0
173 197 0
173 197 0
175 198 0
175 198 0
174 198 0
173 197 0
174 197 0
173 197 0
174 197 0
174 198 0
174 198 0
173 197 0
174 198 0
174 197 0
175 198 0
175 198 0
174 198 0
174 198 0
174 198 0
175 198 0
174 198 0
176 199 0
175 198 0
175 198 0
177 199 0
173 197 0
173 197 0
172 196 0
175 198 0
175 198 0
173 197 0
174 198 0
174 198 0
175 198 0
173 197 0
175 198 0
174 198 0
174 198 0
174 197 0
175 198 0
173 197 0
175 198 0
174 198 0
174 198 0
174 198 0
174 198 0
176 198 0
173 197 0
173 197 0
174 198 0
175 198 0
173 197 0
174 198 0
175 198 0
176 198 0
176 199 0
174 198 0
174 198 0
174 197 0
174 198 0
174 197 0
174 197 0
174 198 0
173 197 0
174 198 0
175 198 0
173 197 0
174 198 0
172 196 0
174 197 0
173 196 0
172 197 0
176 199 0
173 197 0
176 199 0
174 198 0
174 197 0
176 199 0
173 197 0
175 198 0
172 196 0
173 197 0
175 198 0
176 199 0
174 198 0
174 198 0
174 197 0
175 198 0
175 198 0
174 197 0
175 198 0
174 198 0
174 197 0
173 197 0
175 198 0
173 196 0
176 198 0
174 197 0
173 196 0
173 196 0
174 197 0
174 197 0
175 198 0
173 197 0
173 197 0
173 197 0
170 195 0
174 197 0
172 196 0
174 198 0
174 198 0
174 198 0
174 198 0
174 197 0
175 197 0
175 198 0
175 198 0
173 197 0
172 196 0
173 197 0
172 196 0
174 197 0
171 196 0
172 196 0
175 198 0
174 197 0
172 196 0
174 198 0
175 198 0
174 197 0
173 197 0
175 198 0
171 195 0
175 198 0
174 197 0
174 198 0
173 197 0
174 197 0
175 198 0
173 197 0
174 197 0
173 197 0
172 196 0
174 198 0
172 196 0
172 196 0
174 197 0
174 197 0
174 197 0
175 198 0
172 196 0
172 196 0
171 194 0
175 198 0
173 197 0
172 196 0
173 197 0
174 197 0
174 198 0
175 197 0
175 198 0
173 197 0
174 197 0
173 195 0
173 197 0
172 196 0
173 196 0
174 197 0
174 197 0
172 196 0
173 196 0
172 195 0
171 195 0
173 197 0
173 197 0
174 197 0
173 196 0
170 193 0
172 196 0
175 197 0
173 196 0
172 196 0
174 196 0
174 197 0
173 197 0
174 197 0
173 197 0
175 198 0
173 196 0
174 197 0
173 197 0
173 197 0
173 197 0
172 196 0
175 198 0
172 196 0
175 198 0
174 197 0
174 197 0
173 197 0
173 197 0
175 198 0
174 198 0
174 198 0
173 197 0
172 196 0
172 196 0
172 195 0
174 198 0
172 196 0
172 195 0
172 196 0
173 197 0
175 198 0
173 197 0
174 197 0
172 196 0
174 197 0
174 197 0
173 195 0
173 196 0
174 198 0
173 197 0
174 197 0
173 196 0
172 196 0
171 195 0
175 198 0
174 197 0
173 197 0
172 196 0
173 197 0
173 197 0
173 197 0
174 196 0
174 198 0
173 196 0
175 198 0
172 196 0
172 196 0
173 197 0
175 198 0
174 198 0
172 196 0
173 197 0
174 197 0
175 197 0
171 195 0
174 197 0
174 198 0
175 198 0
175 198 0
173 196 0
173 197 0
173 197 0
175 198 0
175 198 0
173 196 0
172 196 0
174 197 0
173 196 0
172 196 0
173 197 0
174 198 0
174 197 0
175 198 0
175 197 0
174 197 0
175 198 0
170 195 0
173 197 0
175 198 0
175 198 0
173 197 0
172 196 0
174 197 0
176 198 0
173 196 0
174 197 0
173 197 0
172 196 0
174 197 0
172 195 0
175 198 0
172 195 0
172 196 0
173 196 0
175 198 0
174 198 0
175 198 0
175 198 0
175 197 0
173 197 0
174 197 0
175 198 0
174 198 0
173 197 0
174 198 0
175 198 0
176 198 0
174 196 0
174 198 0
175 198 0
177 199 0
174 197 0
176 199 0
174 198 0
172 196 0
173 197 0
174 197 0
173 197 0
174 197 0
171 196 0
173 197 0
174 198 0
175 198 0
175 198 0
175 198 0
174 198 0
171 195 0
175 197 0
174 197 0
173 197 0
174 198 0
174 198 0
173 196 0
174 197 0
173 197 0
175 198 0
174 197 0
175 198 0
174 198 0
175 198 0
174 197 0
175 198 0
175 198 0
175 198 0
174 197 0
175 198 0
175 198 0
173 197 0
175 198 0
174 197 0
175 198 0
175 198 0
175 198 0
174 197 0
175 198 0
176 198 0
176 198 0
175 198 0
173 197 0
174 197 0
174 197 0
174 197 0
174 198 0
174 197 0
173 197 0
174 198 0
174 197 0
174 197 0
175 198 0
176 198 0
174 197 0
175 198 0
175 198 0
174 197 0
173 197 0
175 198 0
175 198 0
174 198 0
175 198 0
174 197 0
174 197 0
174 198 0
173 197 0
175 198 0
173 196 0
174 198 0
175 197 0
176 198 0
175 198 0
175 198 0
175 198 0
173 197 0
176 199 0
174 198 0
173 197 0
174 198 0
174 198 0
174 198 0
174 198 0
174 198 0
176 199 0
172 197 0
174 198 0
176 199 0
173 197 0
174 197 0
173 197 0
175 198 0
175 198 0
176 199 0
174 198 0
176 199 0
176 198 0
174 198 0
175 198 0
174 198 0
174 198 0
174 198 0
176 199 0
174 198 0
174 198 0
173 197 0
176 199 0
175 198 0
174 198 0
173 197 0
175 198 0
177 199 0
174 197 0
174 198 0
173 197 0
174 198 0
174 198 0
176 199 0
174 198 0
175 198 0
174 197 0
174 198 0
174 197 0
176 199 0
173 197 0
173 197 0
176 199 0
174 197 0
175 198 0
175 198 0
173 197 0
175 198 0
173 197 0
173 197 0
174 198 0
174 197 0
175 198 0
173 197 0
174 197 0
173 197 0
175 198 0
173 197 0
175 198 0
176 199 0
172 196 0
175 198 0
174 197 0
175 198 0
174 198 0
174 198 0
174 197 0
173 197 0
174 198 0
174 197 0
173 197 0
176 198 0
174 198 0
175 198 0
175 198 0
174 198 0
174 198 0
174 198 0
172 196 0
176 199 0
174 197 0
174 198 0
175 198 0
173 196 0
175 198 0
173 197 0
175 198 0
174 197 0
172 196 0
174 197 0
173 197 0
175 198 0
172 196 0
171 195 0
174 198 0
175 198 0
175 198 0
174 197 0
173 197 0
173 197 0
175 198 0
173 197 0
173 196 0
175 198 0
175 198 0
175 198 0
173 197 0
173 197 0
173 197 0
172 196 0
172 195 0
175 198 0
173 197 0
174 197 0
176 198 0
175 198 0
174 198 0
174 197 0
173 197 0
174 198 0
175 198 0
175 198 0
173 196 0
173 197 0
175 198 0
174 198 0
173 197 0
174 198 0
174 196 0
174 197 0
173 196 0
174 197 0
173 197 0
173 197 0
171 195 0
174 198 0
174 197 0
174 198 0
172 196 0
175 198 0
175 198 0
173 197 0
174 198 0
174 198 0
173 196 0
175 198 0
173 197 0
174 197 0
174 197 0
173 196 0
174 198 0
173 197 0
173 197 0
175 198 0
173 197 0
173 197 0
173 197 0
173 197 0
174 198 0
174 197 0
175 198 0
171 195 0
174 197 0
175 198 0
174 198 0
172 196 0
172 196 0
175 198 0
174 198 0
175 198 0
172 196 0
172 196 0
173 196 0
173 197 0
174 197 0
173 196 0
175 198 0
173 197 0
174 197 0
173 197 0
173 197 0
174 197 0
170 194 0
172 196 0
172 196 0
175 198 0
174 197 0
174 197 0
171 195 0
173 197 0
176 199 0
174 198 0
176 198 0
173 197 0
173 197 0
174 197 0
174 197 0
174 197 0
173 197 0
173 196 0
172 196 0
173 197 0
172 197 0
172 196 0
173 197 0
171 196 0
173 197 0
175 198 0
174 197 0
170 194 0
173 197 0
174 197 0
174 197 0
176 198 0
173 197 0
173 197 0
173 197 0
173 197 0
174 198 0
172 196 0
171 195 0
172 196 0
172 196 0
172 196 0
174 197 0
171 195 0
172 196 0
174 197 0
173 196 0
174 197 0
171 195 0
173 197 0
173 197 0
172 196 0
173 197 0
174 198 0
173 197 0
174 198 0
174 197 0
175 197 0
173 196 0
174 197 0
173 196 0
170 195 0
173 196 0
175 198 0
173 196 0
172 196 0
173 197 0
172 195 0
173 197 0
172 196 0
174 197 0
174 197 0
175 198 0
173 197 0
175 198 0
174 197 0
174 197 0
175 198 0
173 197 0
174 198 0
172 196 0
173 197 0
173 197 0
173 197 0
174 197 0
173 197 0
174 197 0
172 196 0
173 196 0
174 197 0
175 198 0
175 198 0
174 197 0
175 198 0
172 196 0
174 197 0
174 197 0
174 197 0
174 197 0
173 197 0
173 197 0
172 196 0
173 197 0
174 197 0
174 197 0
172 196 0
174 198 0
173 196 0
175 198 0
175 198 0
173 197 0
172 196 0
175 198 0
172 196 0
175 198 0
174 197 0
174 198 0
174 198 0
173 197 0
175 198 0
175 198 0
176 198 0
173 197 0
174 198 0
174 197 0
175 197 0
173 196 0
174 198 0
174 198 0
174 198 0
174 197 0
173 197 0
174 197 0
172 196 0
174 197 0
172 197 0
175 198 0
173 197 0
174 197 0
174 197 0
173 197 0
175 197 0
174 197 0
175 198 0
175 198 0
174 198 0
173 197 0
175 198 0
174 198 0
175 198 0
174 198 0
172 195 0
173 196 0
173 197 0
175 198 0
175 198 0
175 198 0
175 198 0
174 198 0
174 198 0
174 197 0
173 196 0
174 197 0
174 198 0
175 198 0
175 198 0
173 196 0
174 198 0
175 198 0
174 197 0
174 198 0
175 198 0
176 199 0
173 197 0
174 198 0
175 198 0
175 198 0
174 197 0
174 197 0
176 199 0
174 198 0
175 198 0
175 198 0
174 197 0
176 198 0
174 197 0
174 197 0
173 197 0
174 198 0
174 197 0
175 198 0
174 197 0
174 197 0
175 198 0
176 198 0
172 196 0
175 198 0
174 198 0
173 197 0
174 198 0
174 197 0
174 198 0
175 198 0
174 198 0
174 197 0
174 197 0
175 198 0
173 197 0
173 196 0
174 198 0
175 198 0
175 198 0
173 197 0
174 197 0
174 198 0
173 197 0
174 197 0
173 197 0
174 198 0
175 198 0
174 198 0
175 198 0
174 198 0
176 198 0
175 198 0
174 198 0
175 198 0
174 198 0
172 197 0
173 197 0
174 197 0
174 198 0
174 198 0
174 198 0
173 197 0
174 197 0
175 198 0
176 198 0
174 198 0
175 198 0
174 197 0
173 197 0
176 199 0
174 198 0
174 198 0
174 198 0
175 198 0
175 198 0
173 197 0
175 198 0
174 197 0
176 199 0
175 198 0
175 198 0
175 198 0
173 197 0
175 198 0
174 197 0
174 198 0
173 197 0
174 198 0
174 197 0
173 197 0
175 198 0
175 198 0
174 198 0
171 196 0
173 197 0
174 197 0
174 198 0
174 198 0
175 198 0
174 198 0
174 197 0
175 198 0
174 198 0
174 198 0
174 198 0
174 198 0
175 198 0
175 198 0
175 198 0
171 195 0
174 198 0
174 198 0
173 197 0
175 198 0
174 197 0
175 198 0
175 198 0
175 198 0
172 197 0
175 198 0
175 198 0
175 198 0
175 198 0
175 198 0
176 198 0
176 199 0
174 197 0
172 196 0
174 197 0
175 198 0
175 198 0
174 197 0
174 197 0
175 198 0
174 198 0
173 196 0
175 198 0
172 197 0
174 197 0
171 195 0
174 198 0
175 198 0
173 197 0
173 197 0
174 198 0
175 198 0
175 198 0
173 197 0
174 198 0
175 198 0
175 198 0
174 197 0
174 197 0
173 197 0
172 196 0
174 197 0
174 197 0
171 195 0
174 197 0
173 197 0
175 198 0
174 198 0
174 197 0
173 197 0
174 198 0
176 198 0
174 198 0
174 198 0
174 197 0
174 196 0
175 198 0
175 198 0
174 197 0
173 197 0
172 196 0
176 199 0
175 198 0
173 197 0
174 197 0
175 198 0
175 198 0
172 196 0
171 195 0
173 196 0
175 198 0
174 198 0
175 198 0
173 196 0
175 198 0
173 197 0
174 197 0
173 197 0
173 197 0
174 198 0
171 195 0
175 197 0
172 197 0
173 196 0
174 197 0
174 197 0
173 197 0
173 196 0
172 197 0
172 196 0
175 198 0
176 199 0
174 197 0
172 197 0
172 197 0
173 196 0
173 197 0
171 196 0
172 196 0
174 197 0
174 197 0
173 197 0
174 197 0
173 196 0
173 197 0
171 194 0
172 196 0
173 196 0
173 197 0
174 197 0
175 198 0
171 195 0
173 197 0
173 196 0
173 197 0
175 198 0
175 198 0
174 198 0
173 197 0
174 196 0
173 197 0
173 196 0
173 197 0
171 195 0
172 196 0
174 197 0
174 198 0
173 197 0
174 198 0
173 197 0
173 197 0
172 195 0
173 196 0
175 198 0
173 196 0
174 197 0
172 196 0
174 197 0
175 198 0
174 197 0
172 196 0
174 197 0
174 198 0
174 197 0
174 198 0
174 197 0
174 197 0
174 198 0
173 197 0
173 196 0
171 195 0
174 197 0
173 196 0
173 197 0
173 196 0
175 198 0
175 198 0
175 198 0
174 197 0
173 197 0
174 198 0
172 195 0
174 197 0
174 197 0
175 197 0
174 197 0
172 196 0
174 198 0
174 197 0
173 196 0
173 196 0
174 198 0
173 197 0
173 197 0
172 196 0
173 197 0
173 196 0
173 197 0
174 197 0
174 198 0
173 197 0
173 197 0
173 197 0
173 197 0
170 193 0
171 196 0
174 197 0
173 197 0
175 198 0
176 198 0
173 196 0
174 197 0
173 196 0
174 198 0
173 197 0
173 196 0
175 198 0
172 195 0
174 197 0
175 198 0
173 197 0
175 198 0
174 197 0
173 197 0
174 197 0
173 195 0
173 197 0
174 197 0
175 198 0
173 197 0
175 198 0
176 198 0
173 197 0
175 198 0
175 197 0
174 197 0
174 198 0
174 197 0
175 198 0
174 197 0
175 197 0
174 197 0
174 197 0
175 198 0
174 198 0
175 198 0
173 197 0
175 198 0
174 198 0
174 198 0
174 198 0
173 197 0
175 198 0
175 198 0
173 197 0
174 197 0
171 194 0
174 196 0
174 197 0
174 197 0
173 196 0
173 196 0
173 197 0
172 197 0
174 197 0
173 197 0
174 197 0
173 197 0
175 198 0
175 198 0
176 198 0
175 198 0
176 198 0
175 198 0
176 199 0
174 197 0
173 196 0
175 198 0
175 198 0
175 198 0
175 198 0
174 197 0
174 197 0
174 198 0
173 197 0
174 198 0
171 195 0
173 197 0
174 198 0
175 198 0
174 197 0
171 195 0
173 197 0
175 197 0
174 197 0
173 196 0
175 198 0
174 198 0
175 197 0
174 198 0
173 197 0
175 198 0
175 198 0
174 197 0
175 198 0
174 198 0
173 197 0
173 197 0
174 198 0
174 197 0
173 197 0
175 198 0
175 198 0
176 198 0
173 197 0
174 197 0
176 198 0
175 198 0
173 197 0
173 196 0
174 197 0
174 197 0
174 198 0
175 198 0
174 198 0
173 197 0
174 197 0
173 197 0
173 197 0
173 197 0
175 198 0
176 198 0
175 198 0
174 197 0
173 197 0
175 198 0
174 198 0
176 199 0
172 197 0
173 197 0
174 198 0
172 196 0
174 198 0
176 199 0
174 198 0
175 198 0
175 198 0
174 197 0
175 198 0
174 198 0
175 198 0
175 198 0
175 198 0
174 197 0
174 197 0
173 197 0
173 197 0
174 197 0
173 197 0
174 197 0
174 198 0
174 197 0
174 197 0
176 199 0
176 199 0
175 198 0
173 197 0
174 198 0
175 198 0
175 198 0
175 198 0
174 198 0
177 199 0
173 197 0
176 199 0
174 198 0
175 198 0
174 198 0
172 196 0
175 198 0
173 197 0
173 197 0
175 198 0
175 198 0
176 199 0
174 198 0
173 197 0
175 198 0
174 197 0
175 198 0
173 196 0
174 198 0
174 198 0
173 197 0
172 196 0
174 198 0
175 198 0
173 197 0
175 198 0
174 197 0
174 197 0
175 198 0
176 198 0
174 198 0
175 198 0
174 198 0
173 197 0
175 198 0
175 198 0
174 197 0
176 199 0
176 199 0
174 198 0
175 198 0
173 197 0
174 198 0
173 197 0
175 198 0
175 198 0
174 197 0
173 197 0
173 196 0
173 197 0
173 197 0
172 197 0
175 198 0
176 199 0
173 196 0
174 197 0
175 198 0
173 197 0
174 197 0
173 197 0
173 197 0
175 198 0
173 197 0
174 198 0
174 198 0
173 197 0
176 198 0
174 198 0
175 198 0
174 198 0
174 197 0
175 198 0
173 197 0
173 197 0
172 196 0
173 196 0
173 196 0
173 197 0
174 198 0
174 197 0
173 196 0
175 198 0
173 197 0
175 198 0
174 198 0
174 198 0
174 197 0
174 197 0
174 197 0
174 197 0
172 196 0
175 198 0
173 197 0
174 197 0
174 197 0
173 197 0
174 197 0
174 197 0
174 197 0
171 195 0
174 198 0
174 198 0
171 196 0
175 198 0
173 197 0
173 197 0
174 198 0
173 197 0
173 197 0
173 197 0
173 196 0
173 196 0
173 197 0
173 197 0
174 197 0
171 195 0
175 198 0
173 197 0
172 196 0
177 199 0
174 198 0
174 197 0
174 197 0
172 196 0
174 198 0
173 197 0
172 195 0
173 197 0
175 198 0
173 196 0
172 196 0
173 197 0
174 198 0
171 195 0
175 198 0
173 197 0
174 197 0
172 196 0
173 196 0
175 198 0
175 198 0
174 197 0
172 196 0
174 197 0
172 196 0
174 197 0
175 198 0
175 198 0
174 197 0
174 197 0
175 198 0
173 196 0
172 195 0
174 197 0
174 198 0
174 197 0
172 195 0
175 197 0
174 197 0
173 195 0
174 198 0
174 197 0
172 195 0
173 196 0
172 196 0
173 197 0
171 194 0
174 197 0
172 196 0
173 197 0
172 196 0
173 197 0
173 197 0
173 197 0
174 197 0
173 196 0
173 197 0
175 198 0
173 197 0
173 196 0
171 195 0
173 197 0
174 197 0
173 195 0
173 197 0
174 197 0
173 197 0
173 196 0
176 198 0
174 197 0
172 196 0
172 196 0
174 198 0
173 196 0
173 197 0
172 196 0
173 197 0
171 195 0
175 198 0
174 197 0
175 197 0
174 197 0
173 196 0
172 196 0
174 197 0
175 197 0
174 198 0
172 195 0
172 196 0
172 195 0
173 196 0
174 197 0
174 198 0
170 193 0
171 195 0
173 196 0
172 196 0
173 196 0
174 197 0
172 195 0
174 197 0
174 197 0
173 196 0
174 197 0
174 197 0
172 195 0
174 196 0
175 198 0
172 196 0
175 198 0
174 198 0
174 197 0
174 197 0
172 196 0
174 198 0
173 197 0
172 196 0
170 195 0
173 196 0
174 197 0
173 197 0
174 197 0
174 197 0
175 198 0
175 198 0
174 197 0
175 198 0
177 198 0
172 196 0
175 198 0
175 198 0
175 198 0
172 195 0
173 196 0
174 198 0
175 198 0
173 197 0
175 198 0
174 197 0
174 197 0
173 197 0
174 197 0
175 198 0
174 198 0
173 197 0
174 198 0
174 197 0
170 195 0
173 197 0
174 197 0
174 197 0
174 198 0
174 198 0
172 196 0
175 198 0
175 198 0
176 199 0
173 196 0
173 197 0
175 198 0
174 198 0
175 198 0
174 198 0
174 197 0
174 197 0
175 198 0
173 197 0
174 197 0
173 197 0
173 196 0
175 198 0
175 198 0
174 198 0
174 197 0
173 197 0
175 198 0
172 196 0
175 198 0
173 197 0
173 197 0
175 198 0
174 198 0
176 198 0
174 198 0
175 198 0
176 198 0
176 198 0
174 198 0
175 198 0
174 197 0
176 198 0
173 196 0
174 198 0
174 197 0
174 197 0
173 197 0
176 199 0
175 198 0
175 197 0
172 197 0
173 197 0
176 199 0
174 198 0
174 198 0
173 197 0
174 197 0
174 198 0
174 198 0
173 197 0
175 198 0
174 197 0
174 198 0
175 198 0
175 198 0
174 198 0
174 198 0
173 197 0
174 197 0
172 196 0
174 198 0
175 198 0
174 197 0
175 198 0
175 198 0
174 198 0
174 197 0
174 197 0
173 197 0
174 197 0
174 197 0
174 198 0
173 197 0
174 197 0
173 196 0
174 198 0
175 198 0
173 196 0
174 198 0
175 198 0
175 198 0
175 198 0
175 198 0
172 196 0
175 198 0
174 198 0
175 198 0
174 197 0
174 198 0
176 198 0
173 197 0
173 197 0
173 196 0
174 198 0
176 199 0
173 197 0
175 198 0
173 197 0
173 197 0
175 198 0
175 198 0
174 197 0
175 198 0
175 198 0
175 198 0
174 198 0
176 199 0
174 198 0
173 197 0
173 197 0
174 198 0
175 198 0
174 198 0
174 197 0
175 198 0
174 198 0
174 198 0
173 197 0
175 198 0
175 198 0
176 199 0
174 197 0
175 198 0
174 197 0
174 197 0
173 197 0
174 198 0
175 198 0
176 199 0
175 198 0
175 198 0
175 198 0
174 198 0
174 197 0
174 198 0
176 199 0
174 198 0
173 197 0
174 198 0
174 197 0
176 198 0
175 198 0
175 198 0
175 198 0
173 197 0
173 197 0
173 197 0
175 198 0
175 198 0
174 198 0
174 198 0
176 199 0
176 199 0
173 197 0
174 198 0
174 198 0
173 197 0
174 198 0
175 198 0
176 199 0
175 198 0
173 197 0
174 198 0
175 198 0
175 198 0
175 198 0
175 198 0
173 197 0
174 198 0
172 197 0
175 198 0
174 198 0
176 198 0
176 198 0
173 197 0
175 198 0
175 198 0
175 198 0
174 198 0
173 197 0
174 197 0
173 197 0
175 198 0
174 197 0
175 198 0
172 196 0
173 197 0
172 196 0
174 198 0
174 197 0
175 198 0
174 197 0
172 196 0
173 197 0
175 198 0
174 198 0
172 196 0
174 198 0
175 198 0
174 197 0
174 198 0
173 197 0
175 198 0
174 198 0
174 198 0
175 198 0
175 198 0
174 197 0
176 199 0
175 198 0
173 196 0
175 198 0
174 197 0
173 197 0
174 197 0
173 197 0
174 198 0
174 197 0
176 198 0
173 197 0
173 197 0
174 198 0
172 196 0
175 198 0
176 199 0
173 197 0
173 197 0
175 198 0
174 197 0
172 196 0
175 198 0
173 197 0
173 197 0
173 197 0
174 197 0
175 198 0
174 197 0
172 196 0
174 197 0
174 198 0
171 194 0
173 197 0
173 197 0
173 197 0
173 197 0
173 197 0
174 198 0
173 196 0
173 197 0
175 198 0
175 198 0
173 197 0
174 197 0
174 196 0
173 197 0
172 196 0
174 198 0
174 198 0
174 197 0
174 198 0
172 196 0
173 196 0
171 194 0
172 197 0
174 197 0
175 198 0
173 196 0
173 197 0
171 195 0
173 196 0
174 197 0
175 198 0
175 198 0
172 196 0
175 198 0
174 198 0
174 197 0
173 196 0
175 198 0
171 196 0
174 197 0
174 197 0
172 196 0
173 196 0
172 196 0
174 197 0
173 197 0
172 196 0
174 197 0
172 195 0
172 196 0
174 197 0
174 198 0
173 196 0
172 196 0
174 197 0
175 198 0
174 197 0
173 196 0
173 197 0
172 196 0
174 198 0
172 195 0
175 198 0
173 196 0
172 196 0
175 198 0
172 195 0
173 197 0
173 197 0
172 196 0
174 197 0
173 197 0
176 198 0
173 197 0
173 196 0
174 197 0
173 196 0
172 196 0
172 196 0
172 196 0
174 197 0
173 197 0
174 197 0
174 197 0
172 195 0
174 197 0
172 196 0
169 193 0
173 197 0
175 198 0
171 196 0
174 197 0
172 196 0
173 197 0
173 196 0
174 197 0
174 197 0
173 196 0
174 197 0
173 197 0
173 197 0
172 197 0
174 197 0
174 197 0
173 196 0
173 197 0
175 198 0
174 197 0
174 197 0
174 197 0
173 197 0
174 197 0
172 196 0
172 196 0
174 197 0
174 197 0
172 195 0
174 197 0
173 197 0
172 196 0
174 197 0
172 196 0
172 194 0
171 195 0
173 196 0
173 197 0
174 197 0
173 196 0
173 197 0
174 197 0
175 198 0
175 198 0
174 197 0
172 196 0
174 198 0
174 197 0
173 197 0
174 197 0
176 199 0
174 197 0
174 197 0
175 198 0
174 197 0
174 197 0
173 196 0
172 195 0
172 196 0
174 197 0
175 198 0
171 195 0
174 196 0
174 198 0
173 197 0
174 197 0
174 197 0
174 197 0
174 198 0
174 197 0
175 198 0
174 197 0
175 198 0
174 197 0
174 197 0
173 197 0
176 199 0
174 197 0
174 197 0
176 198 0
175 198 0
173 196 0
173 196 0
174 197 0
172 196 0
174 196 0
175 198 0
173 197 0
175 198 0
174 197 0
172 196 0
173 197 0
172 196 0
174 197 0
173 197 0
174 197 0
172 197 0
175 198 0
175 198 0
174 197 0
173 196 0
174 198 0
174 198 0
175 198 0
174 198 0
174 197 0
173 197 0
172 195 0
172 196 0
172 197 0
175 198 0
174 197 0
172 197 0
173 197 0
176 199 0
173 197 0
175 198 0
175 198 0
174 197 0
176 198 0
173 197 0
176 198 0
175 198 0
174 197 0
174 198 0
174 198 0
174 197 0
175 198 0
174 198 0
172 196 0
174 198 0
174 197 0
174 197 0
173 197 0
173 197 0
175 198 0
173 197 0
174 198 0
173 197 0
174 197 0
174 197 0
175 198 0
174 197 0
176 199 0
175 198 0
174 198 0
175 198 0
174 198 0
175 198 0
174 197 0
172 196 0
173 196 0
174 198 0
174 198 0
176 198 0
173 197 0
175 198 0
175 198 0
175 198 0
176 199 0
174 197 0
174 197 0
176 199 0
174 198 0
174 197 0
174 197 0
174 197 0
176 199 0
173 197 0
173 197 0
174 198 0
174 198 0
175 198 0
173 197 0
175 198 0
175 198 0
175 198 0
173 197 0
172 196 0
176 199 0
174 197 0
175 198 0
173 197 0
174 198 0
175 198 0
175 198 0
174 197 0
175 198 0
173 197 0
174 197 0
173 197 0
176 199 0
173 197 0
175 198 0
175 198 0
176 198 0
175 198 0
173 197 0
176 199 0
174 198 0
174 197 0
175 198 0
175 198 0
174 198 0
175 198 0
175 198 0
175 198 0
175 198 0
174 197 0
174 198 0
172 197 0
175 198 0
176 198 0
173 197 0
174 198 0
175 198 0
174 198 0
174 198 0
176 199 0
175 198 0
172 196 0
175 198 0
174 198 0
173 197 0
173 197 0
174 198 0
174 198 0
173 196 0
174 197 0
174 197 0
174 198 0
174 197 0
174 198 0
175 198 0
174 197 0
175 198 0
173 196 0
173 196 0
174 197 0
174 197 0
174 197 0
173 197 0
176 198 0
175 198 0
174 197 0
174 197 0
173 197 0
174 197 0
174 198 0
175 198 0
176 199 0
173 197 0
173 197 0
175 198 0
174 198 0
175 198 0
176 199 0
174 197 0
175 198 0
172 196 0
176 199 0
174 197 0
175 198 0
175 198 0
177 199 0
173 197 0
175 198 0
174 198 0
174 197 0
175 198 0
176 198 0
174 198 0
172 197 0
174 198 0
173 197 0
173 197 0
174 198 0
175 198 0
175 198 0
173 197 0
172 196 0
174 197 0
175 198 0
174 198 0
171 195 0
173 197 0
174 198 0
174 198 0
174 198 0
175 198 0
173 197 0
172 197 0
174 197 0
175 198 0
176 198 0
175 198 0
175 198 0
174 197 0
173 197 0
172 196 0
174 197 0
174 197 0
174 197 0
173 197 0
174 198 0
173 196 0
175 198 0
174 197 0
174 197 0
173 197 0
175 198 0
173 196 0
174 197 0
173 196 0
174 197 0
173 197 0
169 193 0
174 198 0
174 198 0
175 198 0
175 198 0
173 197 0
174 197 0
175 198 0
174 197 0
173 196 0
174 197 0
173 197 0
173 197 0
172 196 0
173 197 0
174 197 0
172 195 0
174 197 0
174 198 0
175 198 0
173 197 0
173 197 0
174 197 0
171 195 0
172 196 0
174 198 0
174 198 0
172 196 0
173 196 0
175 198 0
172 197 0
171 195 0
172 195 0
175 198 0
174 197 0
174 198 0
173 197 0
171 195 0
175 198 0
172 196 0
173 197 0
173 197 0
173 197 0
174 197 0
174 197 0
174 197 0
174 198 0
175 197 0
174 198 0
173 197 0
173 197 0
172 196 0
174 197 0
171 195 0
174 198 0
173 197 0
173 197 0
173 197 0
174 197 0
175 198 0
172 196 0
173 197 0
173 196 0
174 197 0
175 198 0
174 197 0
172 195 0
173 196 0
171 196 0
174 197 0
174 198 0
173 196 0
173 196 0
175 198 0
173 196 0
173 197 0
174 197 0
173 197 0
173 196 0
172 195 0
174 197 0
174 198 0
173 197 0
171 195 0
174 197 0
174 197 0
171 195 0
174 197 0
173 197 0
174 197 0
172 197 0
175 198 0
173 196 0
173 197 0
171 196 0
173 197 0
172 196 0
171 195 0
173 196 0
174 197 0
174 197 0
173 196 0
174 198 0
173 197 0
174 197 0
173 196 0
174 197 0
174 197 0
173 197 0
174 198 0
174 197 0
175 198 0
173 196 0
173 197 0
175 198 0
173 196 0
172 195 0
172 196 0
170 194 0
174 197 0
174 198 0
173 197 0
174 197 0
173 197 0
174 198 0
176 198 0
173 197 0
173 197 0
173 196 0
171 195 0
173 197 0
174 197 0
173 197 0
174 197 0
173 197 0
173 197 0
175 198 0
173 197 0
174 197 0
175 198 0
175 198 0
174 197 0
175 198 0
175 198 0
172 195 0
174 197 0
174 197 0
176 199 0
176 199 0
174 198 0
175 198 0
172 197 0
174 197 0
175 198 0
174 197 0
174 198 0
173 197 0
175 198 0
174 197 0
175 197 0
174 198 0
173 196 0
174 197 0
176 198 0
175 198 0
176 198 0
174 198 0
175 198 0
174 197 0
173 197 0
175 198 0
174 197 0
174 198 0
174 197 0
175 198 0
173 197 0
174 197 0
172 196 0
173 197 0
175 198 0
175 198 0
172 196 0
173 197 0
173 197 0
173 197 0
175 198 0
173 197 0
174 198 0
172 196 0
174 197 0
173 197 0
174 198 0
176 198 0
173 197 0
173 197 0
175 198 0
174 197 0
174 198 0
175 198 0
175 198 0
173 196 0
174 198 0
174 197 0
174 198 0
174 198 0
174 197 0
173 197 0
174 198 0
174 198 0
175 198 0
174 197 0
173 197 0
174 198 0
175 198 0
176 199 0
175 198 0
173 197 0
175 198 0
174 197 0
174 197 0
174 198 0
175 198 0
175 198 0
173 197 0
173 197 0
174 197 0
177 199 0
174 197 0
174 197 0
176 199 0
174 197 0
174 198 0
176 199 0
173 197 0
175 198 0
174 197 0
175 198 0
173 196 0
173 197 0
173 197 0
173 197 0
173 197 0
175 198 0
175 198 0
175 198 0
175 198 0
174 198 0
173 197 0
175 198 0
173 197 0
177 199 0
173 197 0
175 198 0
174 197 0
175 198 0
175 198 0
174 198 0
173 197 0
174 197 0
175 198 0
174 197 0
173 197 0
174 198 0
172 196 0
175 198 0
173 197 0
173 197 0
176 198 0
176 198 0
173 197 0
175 198 0
173 197 0
174 197 0
175 198 0
174 198 0
175 198 0
173 197 0
176 199 0
176 199 0
175 198 0
176 199 0
174 198 0
175 198 0
175 198 0
174 197 0
172 196 0
174 197 0
175 198 0
175 198 0
175 198 0
175 198 0
173 197 0
174 197 0
173 197 0
173 197 0
175 198 0
173 197 0
174 197 0
174 198 0
175 198 0
175 198 0
175 198 0
174 198 0
174 197 0
173 197 0
176 199 0
175 198 0
175 198 0
175 198 0
173 196 0
175 198 0
174 197 0
176 198 0
174 198 0
175 198 0
174 198 0
174 198 0
174 198 0
174 198 0
174 197 0
175 198 0
173 197 0
176 199 0
176 199 0
174 197 0
171 195 0
173 197 0
174 198 0
175 198 0
174 197 0
174 197 0
172 197 0
175 198 0
174 197 0
174 198 0
174 197 0
174 198 0
173 197 0
174 198 0
176 198 0
175 198 0
175 198 0
174 197 0
173 197 0
174 198 0
175 198 0
173 197 0
174 197 0
174 198 0
174 198 0
173 197 0
174 197 0
173 197 0
175 198 0
173 197 0
174 197 0
174 198 0
175 198 0
174 197 0
174 197 0
175 198 0
175 198 0
174 197 0
172 196 0
173 197 0
175 198 0
172 196 0
172 196 0
173 197 0
174 198 0
175 198 0
174 197 0
176 199 0
174 197 0
173 196 0
175 198 0
171 195 0
174 197 0
173 197 0
172 196 0
175 198 0
174 197 0
174 197 0
174 198 0
175 198 0
175 198 0
174 198 0
175 198 0
174 197 0
174 198 0
174 198 0
176 199 0
174 197 0
172 196 0
175 198 0
174 198 0
173 197 0
173 197 0
175 198 0
174 198 0
176 198 0
174 197 0
175 198 0
176 198 0
172 196 0
174 198 0
175 198 0
174 198 0
173 196 0
174 197 0
174 197 0
173 196 0
172 196 0
174 198 0
174 197 0
173 197 0
173 197 0
174 197 0
173 197 0
176 198 0
173 197 0
172 196 0
175 198 0
172 196 0
169 193 0
173 196 0
174 197 0
173 197 0
175 198 0
175 197 0
171 195 0
175 198 0
174 197 0
172 196 0
174 197 0
174 197 0
175 198 0
174 197 0
173 197 0
173 197 0
174 197 0
172 196 0
173 197 0
175 197 0
172 196 0
174 197 0
174 197 0
175 198 0
174 198 0
175 198 0
174 197 0
174 198 0
171 195 0
175 198 0
175 197 0
176 199 0
173 197 0
173 197 0
172 196 0
174 197 0
173 196 0
174 197 0
174 197 0
175 198 0
174 197 0
173 196 0
174 197 0
171 196 0
173 197 0
173 197 0
175 198 0
174 198 0
174 197 0
174 198 0
173 197 0
171 196 0
172 196 0
174 198 0
172 196 0
174 197 0
172 196 0
172 196 0
174 198 0
174 197 0
175 198 0
174 197 0
174 197 0
173 197 0
174 197 0
173 197 0
174 196 0
173 196 0
172 197 0
173 196 0
172 196 0
174 197 0
172 196 0
174 197 0
173 197 0
172 196 0
175 198 0
173 197 0
173 196 0
174 197 0
174 197 0
175 198 0
173 196 0
176 199 0
174 197 0
171 196 0
172 195 0
175 198 0
173 197 0
172 196 0
175 198 0
173 197 0
176 199 0
173 197 0
172 196 0
174 197 0
173 197 0
174 198 0
169 193 0
175 198 0
176 198 0
175 198 0
173 197 0
170 194 0
173 197 0
173 197 0
175 197 0
174 198 0
174 197 0
176 198 0
172 196 0
171 195 0
173 196 0
174 197 0
174 197 0
173 196 0
174 198 0
172 196 0
175 198 0
174 197 0
174 197 0
175 198 0
175 198 0
173 196 0
174 197 0
172 196 0
174 197 0
173 197 0
174 198 0
172 197 0
173 197 0
174 198 0
174 198 0
175 198 0
174 197 0
175 198 0
175 198 0
173 196 0
175 198 0
174 197 0
173 197 0
174 198 0
173 197 0
173 196 0
175 198 0
173 197 0
175 198 0
174 197 0
176 198 0
175 198 0
175 198 0
174 198 0
174 198 0
175 198 0
175 198 0
174 198 0
174 197 0
173 197 0
176 198 0
173 196 0
173 196 0
174 198 0
173 197 0
173 196 0
174 197 0
174 197 0
172 195 0
174 197 0
174 198 0
173 197 0
173 196 0
174 197 0
174 198 0
174 198 0
174 198 0
176 199 0
174 197 0
173 197 0
173 197 0
175 197 0
176 198 0
175 198 0
176 198 0
173 197 0
176 198 0
173 197 0
175 198 0
176 198 0
174 198 0
174 198 0
174 198 0
174 198 0
175 198 0
175 198 0
174 197 0
175 198 0
174 198 0
172 197 0
174 197 0
172 196 0
175 198 0
175 198 0
174 198 0
174 197 0
173 197 0
175 198 0
175 198 0
175 198 0
174 198 0
175 198 0
173 197 0
174 198 0
174 197 0
175 198 0
174 198 0
174 198 0
176 199 0
174 197 0
174 198 0
175 198 0
173 197 0
172 196 0
175 198 0
173 197 0
175 198 0
175 198 0
173 197 0
173 197 0
175 198 0
175 198 0
175 198 0
176 199 0
173 197 0
174 197 0
173 197 0
176 199 0
173 197 0
174 198 0
175 198 0
177 199 0
174 198 0
172 196 0
174 197 0
176 199 0
173 197 0
174 198 0
175 198 0
174 197 0
174 197 0
175 198 0
172 197 0
175 198 0
174 198 0
175 198 0
174 197 0
174 198 0
172 196 0
175 198 0
176 198 0
175 198 0
176 198 0
174 197 0
174 198 0
175 198 0
174 197 0
175 198 0
174 197 0
175 198 0
174 198 0
173 197 0
173 197 0
175 198 0
174 198 0
174 198 0
175 198 0
174 197 0
175 198 0
175 198 0
172 196 0
173 197 0
174 198 0
175 198 0
174 197 0
174 197 0
175 198 0
175 198 0
174 197 0
174 197 0
175 198 0
174 197 0
174 198 0
175 198 0
176 199 0
174 198 0
174 197 0
174 197 0
175 198 0
176 198 0
174 197 0
173 197 0
174 198 0
174 198 0
174 197 0
174 197 0
175 198 0
174 198 0
174 198 0
175 198 0
175 198 0
175 198 0
175 198 0
172 196 0
173 197 0
174 198 0
174 198 0
173 196 0
174 197 0
174 198 0
173 197 0
173 197 0
176 199 0
174 197 0
175 198 0
172 196 0
172 197 0
173 197 0
175 198 0
173 197 0
174 197 0
174 198 0
174 197 0
173 197 0
174 197 0
172 196 0
175 198 0
175 198 0
174 197 0
173 197 0
175 198 0
175 198 0
174 197 0
174 197 0
174 197 0
173 197 0
173 197 0
173 197 0
173 197 0
174 197 0
172 197 0
175 198 0
173 197 0
173 197 0
175 198 0
175 198 0
172 196 0
175 197 0
172 197 0
173 197 0
172 196 0
171 195 0
174 198 0
174 197 0
175 198 0
175 198 0
175 198 0
173 197 0
174 197 0
172 196 0
172 196 0
173 197 0
174 197 0
176 198 0
174 198 0
174 197 0
171 195 0
174 197 0
176 198 0
174 197 0
175 198 0
175 198 0
173 197 0
174 198 0
172 196 0
172 196 0
173 197 0
175 198 0
171 195 0
175 198 0
174 198 0
173 197 0
174 198 0
175 197 0
175 198 0
174 197 0
173 197 0
175 198 0
174 197 0
173 197 0
174 197 0
174 197 0
173 197 0
174 198 0
172 196 0
175 198 0
174 197 0
173 196 0
171 194 0
174 197 0
173 197 0
174 197 0
174 197 0
173 196 0
174 197 0
172 195 0
174 198 0
171 195 0
174 197 0
172 195 0
173 196 0
173 197 0
174 197 0
174 197 0
172 196 0
174 197 0
174 197 0
173 197 0
175 198 0
173 196 0
173 197 0
170 194 0
175 197 0
175 198 0
176 198 0
173 197 0
175 198 0
174 198 0
172 196 0
174 197 0
172 196 0
174 197 0
175 198 0
173 196 0
174 197 0
173 197 0
175 198 0
174 197 0
174 198 0
174 197 0
174 198 0
176 199 0
173 197 0
174 197 0
172 196 0
175 198 0
173 196 0
173 196 0
173 196 0
173 197 0
172 196 0
172 196 0
173 196 0
174 197 0
174 198 0
173 197 0
173 197 0
174 197 0
172 195 0
174 198 0
170 194 0
173 196 0
173 197 0
174 198 0
173 196 0
172 196 0
173 197 0
176 198 0
174 197 0
173 197 0
175 198 0
173 196 0
174 197 0
174 198 0
171 196 0
173 197 0
174 197 0
172 196 0
174 198 0
175 198 0
174 198 0
175 198 0
175 198 0
172 195 0
174 197 0
175 198 0
174 197 0
174 197 0
174 198 0
174 197 0
172 196 0
176 198 0
172 196 0
172 197 0
174 197 0
172 196 0
170 194 0
174 197 0
173 197 0
174 197 0
173 196 0
173 197 0
173 197 0
172 196 0
175 198 0
172 196 0
175 198 0
174 197 0
175 198 0
173 197 0
171 195 0
176 198 0
172 196 0
175 198 0
174 197 0
175 197 0
175 198 0
175 198 0
174 198 0
173 196 0
175 198 0
175 198 0
176 199 0
175 198 0
173 197 0
173 197 0
175 198 0
174 198 0
173 197 0
174 198 0
174 197 0
173 196 0
175 198 0
173 196 0
174 198 0
173 196 0
176 198 0
173 197 0
176 198 0
175 198 0
173 196 0
175 198 0
174 197 0
171 195 0
173 196 0
174 198 0
174 197 0
174 197 0
175 198 0
175 198 0
174 198 0
173 197 0
175 198 0
174 197 0
175 198 0
176 199 0
174 197 0
174 198 0
175 198 0
173 197 0
175 198 0
174 198 0
174 197 0
175 198 0
175 198 0
174 197 0
172 197 0
174 197 0
173 197 0
174 197 0
175 198 0
175 198 0
173 197 0
174 197 0
175 198 0
175 198 0
175 198 0
174 198 0
174 198 0
173 197 0
175 198 0
174 198 0
175 197 0
175 198 0
175 198 0
177 199 0
174 198 0
174 198 0
174 197 0
174 198 0
174 197 0
173 197 0
175 198 0
176 199 0
176 199 0
174 198 0
174 197 0
174 197 0
174 197 0
171 196 0
174 198 0
174 197 0
175 198 0
175 198 0
174 197 0
174 198 0
175 197 0
173 196 0
174 198 0
175 198 0
176 198 0
175 198 0
173 197 0
176 199 0
175 198 0
175 198 0
172 197 0
172 197 0
173 196 0
176 199 0
173 197 0
173 197 0
175 198 0
175 198 0
174 198 0
174 198 0
173 196 0
173 197 0
176 199 0
173 196 0
173 197 0
174 198 0
175 198 0
174 198 0
175 198 0
174 198 0
174 198 0
174 198 0
173 197 0
174 197 0
174 197 0
174 197 0
176 199 0
174 197 0
173 197 0
175 198 0
175 198 0
175 198 0
175 198 0
174 197 0
174 197 0
175 198 0
174 198 0
174 197 0
173 197 0
174 198 0
175 198 0
175 198 0
175 198 0
174 198 0
175 198 0
174 198 0
175 198 0
173 197 0
174 198 0
173 197 0
175 198 0
175 198 0
173 197 0
171 195 0
173 197 0
174 197 0
174 198 0
173 197 0
174 198 0
175 198 0
175 198 0
172 197 0
174 197 0
175 198 0
175 198 0
176 199 0
175 198 0
175 198 0
173 197 0
175 198 0
175 198 0
172 196 0
174 197 0
175 198 0
174 198 0
174 198 0
174 197 0
172 196 0
175 198 0
173 197 0
175 198 0
171 196 0
172 196 0
174 197 0
176 198 0
176 199 0
174 197 0
173 196 0
174 198 0
175 198 0
174 197 0
173 196 0
173 197 0
174 198 0
175 198 0
174 198 0
174 197 0
174 198 0
174 198 0
175 197 0
174 197 0
176 198 0
173 197 0
175 198 0
174 198 0
173 197 0
175 198 0
174 197 0
175 198 0
174 198 0
175 198 0
176 198 0
172 196 0
175 198 0
175 198 0
174 197 0
176 198 0
176 199 0
174 197 0
175 198 0
173 197 0
176 199 0
175 198 0
173 196 0
174 198 0
172 195 0
174 198 0
173 197 0
175 198 0
176 199 0
175 198 0
175 198 0
174 198 0
172 196 0
173 197 0
174 197 0
171 196 0
172 196 0
174 197 0
174 197 0
175 198 0
174 198 0
174 197 0
174 198 0
173 197 0
175 198 0
174 197 0
175 198 0
173 197 0
174 198 0
174 198 0
173 197 0
174 198 0
172 197 0
175 198 0
174 197 0
174 197 0
174 197 0
173 196 0
175 198 0
171 195 0
174 198 0
174 198 0
175 198 0
174 198 0
173 197 0
174 197 0
173 197 0
174 197 0
173 197 0
171 196 0
174 197 0
174 197 0
171 195 0
173 196 0
176 198 0
172 196 0
173 197 0
175 198 0
173 196 0
174 198 0
173 196 0
175 198 0
173 197 0
176 198 0
172 196 0
174 197 0
170 194 0
175 198 0
173 197 0
174 197 0
173 196 0
171 194 0
174 198 0
174 197 0
172 195 0
173 196 0
172 195 0
174 198 0
173 196 0
173 197 0
173 196 0
172 197 0
174 197 0
173 197 0
171 195 0
172 196 0
174 197 0
171 195 0
174 197 0
175 198 0
172 196 0
174 197 0
173 196 0
174 197 0
172 196 0
173 196 0
172 196 0
174 197 0
173 197 0
173 197 0
175 198 0
175 198 0
173 197 0
173 196 0
174 197 0
174 197 0
175 198 0
174 197 0
173 197 0
172 197 0
173 197 0
173 197 0
174 197 0
175 198 0
174 197 0
173 196 0
171 195 0
174 198 0
174 198 0
173 197 0
174 196 0
174 197 0
174 198 0
174 198 0
175 198 0
170 194 0
172 195 0
175 198 0
175 198 0
173 195 0
175 198 0
175 198 0
174 197 0
173 197 0
171 195 0
174 197 0
174 198 0
173 197 0
175 198 0
172 196 0
174 197 0
174 197 0
176 198 0
174 197 0
173 197 0
173 197 0
172 196 0
172 195 0
173 197 0
174 197 0
175 198 0
173 196 0
174 197 0
175 198 0
175 198 0
175 198 0
173 197 0
174 197 0
176 198 0
172 196 0
174 197 0
176 198 0
174 197 0
175 198 0
174 197 0
176 199 0
175 198 0
174 197 0
174 197 0
173 197 0
176 198 0
176 198 0
173 196 0
175 197 0
174 198 0
174 197 0
173 196 0
174 198 0
174 198 0
173 196 0
174 197 0
173 197 0
175 198 0
174 198 0
175 198 0
176 198 0
174 197 0
171 195 0
174 198 0
174 197 0
172 197 0
174 198 0
173 196 0
174 198 0
174 197 0
174 198 0
175 198 0
175 198 0
173 197 0
175 198 0
174 197 0
173 197 0
172 196 0
175 198 0
172 196 0
175 197 0
175 198 0
175 198 0
174 198 0
173 197 0
174 198 0
174 197 0
174 197 0
175 198 0
174 197 0
175 198 0
173 197 0
174 198 0
174 197 0
175 198 0
174 197 0
174 198 0
174 197 0
176 198 0
174 197 0
175 198 0
174 197 0
174 197 0
174 198 0
175 198 0
174 198 0
174 197 0
174 197 0
174 197 0
174 197 0
174 197 0
174 197 0
174 197 0
174 197 0
175 198 0
175 198 0
175 198 0
175 198 0
174 198 0
174 197 0
174 198 0
174 197 0
176 199 0
173 197 0
174 198 0
175 198 0
172 197 0
174 198 0
174 198 0
174 197 0
174 197 0
175 198 0
175 198 0
175 198 0
175 198 0
175 198 0
174 198 0
174 198 0
174 198 0
174 197 0
174 197 0
175 198 0
174 196 0
173 197 0
173 197 0
173 196 0
173 197 0
174 197 0
174 197 0
175 198 0
174 198 0
173 197 0
175 198 0
175 198 0
171 195 0
173 197 0
173 197 0
173 197 0
174 198 0
173 197 0
175 198 0
173 197 0
173 197 0
175 198 0
175 198 0
175 198 0
174 198 0
175 198 0
175 198 0
175 198 0
175 198 0
174 197 0
174 197 0
175 198 0
175 198 0
174 197 0
174 198 0
173 197 0
174 198 0
174 198 0
175 198 0
173 197 0
175 198 0
173 196 0
175 198 0
175 198 0
173 196 0
174 197 0
175 198 0
174 198 0
174 198 0
175 198 0
173 197 0
173 196 0
173 197 0
174 197 0
174 198 0
175 198 0
174 198 0
175 198 0
173 197 0
175 198 0
174 198 0
175 198 0
175 198 0
173 197 0
174 198 0
174 198 0
174 197 0
174 197 0
175 198 0
173 197 0
174 197 0
175 198 0
177 199 0
174 198 0
173 197 0
173 197 0
173 197 0
174 197 0
174 197 0
175 198 0
174 197 0
173 197 0
174 198 0
172 196 0
175 198 0
173 196 0
174 197 0
175 198 0
175 198 0
174 197 0
174 198 0
174 198 0
174 198 0
174 198 0
175 198 0
174 198 0
174 198 0
174 197 0
174 198 0
173 197 0
176 198 0
175 198 0
174 198 0
176 199 0
175 198 0
174 197 0
175 198 0
174 198 0
174 198 0
175 198 0
173 197 0
174 198 0
174 198 0
175 198 0
175 198 0
175 198 0
175 198 0
174 198 0
174 197 0
172 196 0
173 196 0
175 198 0
174 198 0
174 198 0
173 197 0
174 197 0
173 197 0
173 197 0
172 196 0
172 196 0
174 198 0
174 197 0
172 196 0
174 197 0
174 197 0
174 198 0
175 198 0
174 197 0
172 196 0
173 197 0
176 199 0
174 197 0
174 197 0
175 198 0
174 197 0
174 197 0
174 198 0
174 197 0
173 197 0
172 196 0
174 198 0
174 197 0
172 196 0
175 198 0
176 198 0
174 197 0
173 196 0
173 196 0
173 197 0
174 197 0
170 194 0
174 198 0
174 197 0
174 198 0
173 197 0
173 197 0
173 197 0
174 198 0
175 198 0
175 198 0
175 198 0
176 198 0
174 197 0
172 196 0
173 196 0
174 198 0
172 196 0
175 198 0
172 196 0
174 197 0
173 196 0
173 196 0
174 197 0
174 198 0
173 197 0
174 198 0
172 196 0
174 197 0
173 197 0
170 194 0
174 197 0
172 196 0
173 197 0
175 198 0
173 197 0
175 198 0
173 197 0
173 197 0
172 196 0
173 197 0
172 196 0
174 198 0
174 197 0
173 197 0
172 196 0
173 197 0
172 196 0
174 198 0
173 197 0
174 198 0
176 198 0
173 196 0
171 196 0
172 195 0
174 197 0
176 199 0
174 197 0
173 197 0
171 195 0
173 197 0
173 196 0
172 196 0
172 196 0
173 197 0
175 198 0
173 197 0
174 198 0
173 196 0
171 195 0
174 196 0
174 197 0
174 197 0
172 196 0
173 197 0
174 198 0
172 195 0
174 197 0
175 198 0
172 196 0
174 198 0
175 198 0
172 196 0
173 196 0
174 197 0
174 198 0
175 198 0
174 197 0
173 197 0
174 197 0
174 197 0
171 195 0
172 196 0
172 196 0
173 197 0
173 197 0
173 196 0
172 196 0
174 197 0
172 196 0
174 198 0
174 197 0
173 197 0
173 196 0
173 197 0
175 198 0
174 197 0
173 197 0
173 197 0
174 197 0
174 198 0
174 197 0
173 197 0
173 197 0
173 197 0
174 197 0
174 197 0
175 198 0
175 198 0
173 197 0
175 198 0
174 197 0
175 198 0
173 197 0
173 197 0
174 198 0
176 199 0
173 197 0
174 197 0
172 195 0
174 197 0
174 197 0
175 198 0
174 198 0
174 197 0
173 197 0
175 198 0
174 197 0
173 197 0
175 198 0
173 197 0
175 198 0
174 197 0
174 197 0
172 196 0
172 196 0
176 198 0
174 198 0
172 196 0
173 197 0
175 198 0
174 197 0
174 197 0
171 195 0
175 198 0
175 198 0
174 197 0
172 197 0
174 197 0
173 196 0
176 198 0
173 197 0
174 198 0
174 197 0
173 197 0
173 197 0
171 195 0
171 195 0
175 198 0
174 197 0
174 197 0
174 198 0
174 197 0
173 197 0
173 197 0
173 197 0
175 198 0
174 197 0
173 197 0
174 198 0
174 198 0
173 196 0
175 198 0
173 197 0
174 197 0
173 197 0
174 198 0
174 198 0
174 198 0
173 197 0
172 197 0
174 198 0
175 198 0
174 197 0
173 196 0
174 198 0
174 198 0
173 197 0
173 197 0
173 197 0
175 198 0
174 198 0
173 197 0
174 197 0
174 197 0
175 198 0
175 198 0
175 198 0
175 198 0
174 198 0
175 198 0
173 197 0
174 198 0
175 198 0
175 198 0
174 197 0
174 197 0
174 198 0
174 198 0
174 197 0
175 198 0
174 197 0
175 198 0
175 198 0
175 198 0
175 198 0
174 197 0
173 197 0
173 197 0
175 198 0
173 197 0
174 198 0
173 197 0
172 197 0
176 199 0
173 197 0
174 197 0
174 197 0
175 198 0
173 197 0
173 197 0
175 198 0
174 198 0
175 198 0
174 198 0
175 198 0
174 198 0
174 198 0
174 198 0
175 198 0
175 198 0
173 197 0
176 198 0
173 197 0
172 196 0
175 198 0
174 198 0
175 198 0
176 198 0
174 197 0
174 197 0
175 198 0
175 198 0
174 198 0
174 197 0
174 197 0
174 197 0
174 198 0
173 197 0
175 198 0
174 198 0
174 198 0
173 196 0
175 197 0
175 198 0
174 197 0
174 198 0
175 198 0
175 198 0
174 197 0
176 198 0
174 198 0
176 198 0
174 198 0
175 198 0
176 198 0
174 198 0
175 198 0
174 198 0
176 199 0
174 197 0
175 198 0
174 197 0
173 197 0
174 198 0
175 198 0
174 197 0
174 198 0
173 197 0
174 197 0
172 196 0
175 198 0
174 198 0
173 196 0
174 198 0
174 198 0
175 198 0
175 198 0
172 196 0
175 198 0
174 198 0
175 198 0
175 198 0
173 197 0
174 197 0
173 197 0
173 196 0
175 198 0
175 198 0
171 196 0
175 198 0
175 198 0
174 198 0
174 197 0
174 197 0
175 198 0
175 198 0
174 198 0
175 198 0
172 196 0
175 198 0
176 199 0
175 198 0
174 197 0
173 197 0
173 196 0
174 197 0
175 198 0
172 196 0
175 198 0
175 198 0
176 198 0
175 198 0
173 197 0
174 197 0
175 198 0
174 197 0
174 197 0
175 198 0
172 196 0
175 198 0
175 198 0
172 196 0
174 198 0
174 198 0
174 198 0
173 197 0
174 197 0
174 197 0
173 197 0
174 198 0
174 198 0
174 198 0
175 198 0
176 199 0
174 197 0
175 198 0
173 197 0
174 198 0
175 198 0
173 196 0
174 197 0
174 198 0
174 198 0
173 197 0
172 196 0
174 198 0
175 198 0
174 197 0
173 197 0
174 197 0
172 196 0
173 197 0
175 198 0
173 196 0
174 198 0
173 197 0
174 197 0
173 197 0
173 197 0
176 198 0
174 197 0
172 196 0
173 197 0
174 197 0
172 196 0
174 197 0
174 197 0
173 197 0
174 197 0
172 195 0
174 198 0
174 198 0
173 196 0
173 197 0
175 198 0
172 196 0
174 197 0
174 197 0
174 197 0
173 197 0
175 197 0
173 197 0
173 197 0
172 196 0
173 196 0
170 194 0
174 198 0
174 197 0
173 197 0
173 197 0
175 198 0
172 195 0
172 196 0
174 198 0
170 194 0
172 196 0
173 197 0
173 196 0
176 199 0
172 196 0
173 197 0
172 197 0
175 198 0
174 197 0
172 196 0
174 197 0
171 195 0
174 197 0
172 196 0
174 197 0
173 196 0
175 198 0
173 197 0
175 198 0
171 195 0
174 197 0
173 197 0
173 196 0
173 196 0
174 197 0
170 194 0
172 196 0
172 196 0
173 196 0
174 197 0
171 195 0
173 197 0
175 198 0
173 197 0
173 197 0
175 198 0
174 197 0
172 195 0
173 196 0
174 197 0
173 197 0
173 197 0
173 197 0
174 198 0
174 197 0
173 197 0
175 198 0
173 197 0
171 195 0
172 196 0
174 197 0
174 197 0
173 197 0
173 196 0
174 197 0
173 197 0
174 197 0
173 197 0
172 196 0
172 196 0
171 194 0
172 196 0
174 197 0
174 198 0
172 196 0
172 196 0
174 197 0
172 195 0
174 197 0
171 195 0
173 196 0
174 198 0
174 198 0
174 198 0
173 196 0
173 196 0
171 195 0
172 195 0
172 196 0
174 198 0
175 198 0
173 197 0
172 196 0
174 198 0
172 196 0
173 196 0
172 195 0
174 197 0
172 196 0
174 197 0
172 196 0
174 198 0
174 197 0
175 198 0
175 198 0
174 196 0
175 198 0
174 197 0
174 197 0
173 196 0
173 197 0
172 196 0
176 198 0
172 196 0
174 198 0
174 197 0
174 197 0
174 197 0
173 197 0
174 198 0
173 196 0
172 197 0
175 198 0
175 198 0
173 197 0
173 196 0
174 197 0
173 197 0
175 198 0
174 197 0
174 198 0
174 198 0
173 197 0
175 198 0
174 198 0
174 197 0
175 198 0
175 198 0
173 197 0
173 196 0
173 197 0
174 197 0
175 198 0
174 198 0
174 197 0
173 197 0
174 198 0
175 198 0
174 198 0
175 198 0
173 197 0
173 197 0
174 198 0
173 196 0
174 197 0
174 198 0
173 197 0
174 198 0
176 198 0
176 198 0
172 196 0
175 198 0
175 198 0
173 197 0
175 198 0
173 197 0
175 198 0
173 197 0
174 196 0
175 198 0
173 196 0
171 195 0
174 198 0
175 198 0
176 198 0
174 197 0
175 198 0
175 198 0
172 195 0
174 198 0
174 197 0
173 197 0
175 198 0
172 196 0
174 198 0
172 196 0
173 197 0
174 197 0
174 197 0
175 198 0
174 197 0
175 198 0
174 198 0
173 197 0
175 198 0
175 198 0
173 197 0
173 197 0
173 197 0
174 198 0
174 198 0
174 198 0
175 198 0
173 197 0
174 197 0
174 198 0
175 198 0
174 197 0
175 198 0
174 197 0
174 197 0
174 197 0
176 198 0
174 198 0
173 197 0
174 198 0
175 198 0
175 198 0
175 198 0
174 197 0
175 198 0
176 198 0
175 198 0
173 197 0
174 197 0
175 198 0
173 197 0
173 197 0
174 198 0
174 198 0
173 197 0
174 198 0
173 197 0
174 198 0
173 197 0
174 198 0
174 197 0
174 198 0
174 197 0
173 197 0
175 198 0
175 198 0
173 197 0
174 197 0
174 197 0
175 198 0
175 198 0
173 197 0
175 198 0
174 198 0
173 197 0
173 197 0
175 198 0
176 199 0
172 196 0
175 198 0
175 198 0
173 197 0
177 199 0
174 198 0
176 199 0
175 198 0
174 198 0
173 197 0
176 199 0
174 198 0
173 197 0
175 198 0
174 197 0
174 197 0
175 198 0
174 197 0
174 198 0
174 198 0
174 197 0
175 198 0
175 198 0
174 198 0
174 197 0
173 196 0
176 199 0
174 198 0
173 197 0
177 199 0
173 197 0
174 197 0
175 198 0
174 198 0
175 198 0
174 197 0
175 198 0
175 198 0
174 198 0
172 197 0
174 198 0
174 198 0
175 197 0
172 197 0
177 199 0
175 198 0
174 197 0
174 198 0
174 197 0
174 198 0
174 198 0
173 197 0
175 198 0
172 196 0
175 198 0
172 196 0
174 198 0
174 198 0
175 198 0
175 198 0
173 197 0
173 197 0
172 196 0
173 197 0
173 197 0
174 198 0
174 197 0
175 198 0
173 197 0
174 197 0
174 198 0
173 197 0
174 197 0
175 198 0
174 198 0
175 198 0
174 197 0
174 198 0
175 198 0
174 197 0
173 197 0
175 198 0
172 196 0
174 197 0
174 197 0
175 198 0
175 198 0
174 198 0
174 198 0
174 197 0
175 198 0
173 196 0
173 197 0
174 197 0
174 198 0
175 198 0
174 198 0
175 198 0
174 198 0
174 198 0
174 197 0
173 197 0
173 197 0
174 197 0
174 198 0
175 198 0
175 198 0
175 198 0
174 198 0
175 198 0
175 198 0
174 198 0
174 198 0
175 198 0
175 198 0
174 197 0
174 197 0
176 198 0
174 198 0
172 196 0
175 198 0
173 197 0
173 197 0
177 199 0
174 198 0
174 197 0
174 197 0
174 197 0
175 198 0
173 197 0
174 198 0
175 198 0
174 197 0
174 197 0
173 196 0
174 197 0
175 198 0
173 197 0
172 196 0
174 197 0
173 196 0
174 198 0
173 196 0
174 198 0
174 197 0
173 197 0
170 194 0
174 198 0
172 195 0
175 198 0
175 197 0
175 198 0
175 197 0
176 199 0
172 197 0
176 198 0
174 198 0
172 195 0
174 198 0
172 196 0
175 197 0
172 195 0
174 197 0
174 197 0
174 197 0
174 197 0
172 196 0
174 197 0
174 197 0
173 197 0
175 198 0
172 196 0
173 196 0
174 198 0
172 196 0
175 198 0
173 197 0
175 198 0
173 197 0
173 196 0
174 197 0
176 199 0
172 196 0
174 197 0
175 198 0
173 197 0
174 197 0
171 195 0
174 198 0
173 197 0
174 198 0
173 196 0
172 196 0
171 195 0
174 198 0
173 196 0
173 196 0
173 196 0
174 197 0
173 197 0
173 196 0
173 197 0
175 198 0
174 197 0
174 198 0
172 196 0
174 197 0
175 198 0
173 197 0
173 196 0
173 197 0
173 196 0
173 197 0
174 197 0
173 197 0
173 196 0
174 198 0
172 196 0
175 198 0
175 198 0
171 195 0
172 195 0
175 198 0
174 197 0
173 196 0
172 195 0
173 197 0
174 197 0
172 196 0
175 198 0
173 196 0
175 198 0
173 197 0
173 197 0
174 197 0
175 198 0
174 197 0
175 198 0
173 195 0
174 197 0
175 198 0
174 198 0
175 198 0
173 197 0
174 197 0
172 196 0
173 197 0
172 197 0
175 198 0
171 195 0
174 197 0
172 196 0
175 198 0
174 197 0
174 198 0
173 196 0
171 195 0
175 198 0
174 197 0
174 198 0
172 196 0
173 197 0
175 197 0
173 197 0
174 197 0
172 196 0
174 198 0
172 196 0
174 197 0
174 197 0
174 198 0
175 198 0
174 198 0
174 197 0
174 198 0
174 198 0
175 198 0
173 197 0
173 197 0
172 196 0
174 197 0
173 197 0
174 197 0
172 195 0
175 198 0
175 198 0
175 198 0
175 198 0
174 197 0
174 198 0
172 196 0
174 197 0
172 196 0
172 197 0
173 196 0
174 197 0
174 198 0
173 197 0
174 198 0
173 197 0
173 197 0
172 197 0
175 198 0
175 198 0
175 198 0
175 198 0
175 198 0
174 197 0
174 197 0
174 197 0
175 198 0
175 198 0
174 197 0
174 198 0
177 199 0
176 199 0
173 197 0
175 198 0
173 197 0
174 198 0
175 198 0
174 197 0
174 198 0
177 199 0
175 198 0
174 197 0
174 197 0
173 197 0
174 198 0
174 198 0
174 197 0
174 198 0
174 197 0
174 198 0
175 198 0
172 197 0
176 198 0
174 198 0
174 198 0
175 198 0
175 198 0
173 197 0
175 198 0
174 197 0
174 198 0
176 198 0
174 198 0
174 197 0
173 197 0
175 198 0
174 197 0
174 197 0
174 198 0
174 197 0
175 198 0
173 197 0
173 197 0
174 197 0
174 198 0
175 198 0
174 198 0
176 198 0
175 198 0
174 198 0
174 198 0
177 199 0
173 197 0
175 198 0
175 198 0
175 198 0
173 197 0
174 198 0
174 197 0
174 197 0
173 197 0
175 198 0
174 197 0
174 197 0
175 198 0
172 196 0
175 198 0
174 198 0
175 198 0
174 198 0
175 198 0
175 198 0
176 199 0
172 197 0
175 198 0
174 197 0
176 198 0
173 197 0
175 198 0
175 198 0
175 198 0
173 197 0
175 198 0
174 197 0
176 199 0
175 198 0
175 198 0
174 198 0
175 198 0
175 198 0
173 197 0
175 198 0
175 198 0
174 197 0
173 197 0
173 197 0
175 198 0
175 198 0
174 198 0
175 197 0
175 198 0
174 198 0
174 197 0
175 198 0
174 198 0
175 198 0
174 197 0
175 198 0
174 197 0
174 198 0
175 198 0
174 198 0
174 198 0
175 198 0
173 197 0
175 198 0
173 197 0
174 198 0
175 198 0
175 198 0
175 198 0
174 197 0
173 197 0
175 198 0
174 198 0
175 198 0
172 196 0
175 198 0
174 197 0
174 198 0
173 197 0
172 196 0
173 197 0
172 196 0
175 198 0
176 199 0
172 196 0
174 198 0
174 198 0
175 198 0
176 199 0
174 197 0
176 199 0
173 197 0
173 197 0
175 198 0
173 197 0
175 198 0
173 197 0
175 198 0
173 197 0
173 197 0
173 197 0
175 198 0
174 197 0
174 198 0
174 198 0
175 198 0
175 198 0
175 198 0
175 198 0
174 198 0
173 197 0
174 197 0
174 197 0
174 198 0
174 198 0
174 197 0
175 198 0
174 198 0
174 198 0
174 197 0
173 197 0
174 197 0
173 197 0
174 198 0
174 197 0
175 198 0
175 198 0
174 197 0
174 197 0
175 198 0
174 198 0
174 197 0
174 197 0
172 196 0
173 197 0
174 198 0
174 197 0
173 197 0
173 197 0
171 195 0
171 195 0
174 197 0
176 199 0
174 197 0
174 198 0
175 198 0
172 196 0
174 197 0
174 197 0
172 196 0
174 197 0
174 198 0
175 198 0
174 197 0
175 198 0
173 197 0
176 199 0
173 197 0
174 197 0
174 197 0
174 198 0
174 198 0
173 197 0
175 198 0
173 197 0
173 197 0
174 198 0
174 197 0
176 198 0
171 195 0
173 197 0
173 197 0
173 197 0
174 197 0
171 195 0
175 198 0
174 197 0
170 194 0
173 197 0
175 198 0
172 196 0
173 196 0
174 198 0
173 197 0
173 196 0
174 197 0
171 195 0
172 195 0
173 196 0
174 197 0
174 197 0
174 198 0
170 194 0
172 196 0
173 197 0
172 195 0
172 196 0
174 197 0
174 197 0
172 196 0
173 196 0
174 198 0
174 198 0
172 196 0
173 197 0
171 195 0
173 197 0
173 196 0
174 197 0
173 196 0
175 198 0
174 197 0
170 194 0
173 197 0
172 195 0
174 197 0
174 197 0
173 197 0
173 196 0
172 195 0
174 197 0
175 198 0
171 194 0
171 195 0
173 197 0
174 198 0
173 197 0
175 198 0
173 196 0
174 198 0
172 196 0
174 198 0
176 198 0
174 197 0
175 198 0
172 196 0
173 196 0
172 195 0
174 197 0
175 198 0
171 195 0
172 196 0
173 196 0
173 196 0
173 197 0
175 198 0
174 198 0
174 197 0
176 198 0
173 197 0
174 197 0
174 197 0
173 196 0
175 198 0
174 198 0
173 197 0
175 198 0
172 197 0
173 197 0
172 196 0
173 196 0
175 198 0
173 196 0
174 198 0
173 197 0
176 199 0
174 198 0
172 196 0
173 197 0
174 197 0
173 197 0
175 197 0
173 196 0
175 198 0
174 197 0
173 197 0
176 198 0
172 196 0
173 197 0
174 197 0
175 198 0
175 198 0
171 195 0
171 195 0
173 196 0
173 197 0
174 197 0
175 198 0
174 197 0
173 197 0
171 196 0
173 197 0
172 195 0
172 195 0
173 197 0
175 198 0
173 197 0
173 197 0
174 196 0
172 196 0
174 197 0
174 197 0
174 198 0
171 195 0
176 199 0
173 197 0
175 198 0
175 198 0
175 198 0
175 198 0
173 196 0
173 196 0
173 196 0
172 197 0
175 198 0
174 197 0
173 197 0
174 197 0
174 196 0
174 198 0
173 197 0
175 198 0
176 198 0
175 198 0
175 198 0
175 198 0
174 198 0
176 198 0
174 197 0
173 197 0
175 197 0
175 198 0
174 197 0
176 198 0
173 197 0
174 197 0
174 197 0
173 197 0
175 198 0
174 197 0
175 198 0
173 197 0
175 198 0
176 198 0
173 197 0
175 198 0
172 196 0
175 198 0
174 197 0
174 197 0
175 198 0
173 196 0
174 197 0
174 197 0
173 197 0
174 198 0
171 196 0
173 196 0
175 198 0
175 197 0
174 198 0
175 198 0
175 198 0
173 197 0
173 197 0
173 197 0
173 197 0
174 197 0
174 198 0
175 198 0
174 197 0
173 197 0
173 197 0
174 197 0
174 197 0
172 196 0
173 197 0
174 198 0
175 198 0
172 196 0
175 198 0
174 198 0
172 196 0
172 196 0
176 199 0
175 198 0
174 198 0
174 197 0
176 198 0
174 198 0
176 199 0
175 198 0
175 198 0
174 197 0
174 197 0
174 197 0
172 196 0
175 198 0
176 198 0
173 197 0
174 198 0
175 198 0
174 198 0
175 198 0
173 197 0
174 197 0
175 197 0
174 198 0
175 198 0
176 198 0
173 197 0
174 197 0
174 198 0
173 197 0
173 197 0
177 199 0
174 198 0
175 198 0
174 198 0
173 197 0
175 198 0
175 198 0
175 198 0
175 198 0
174 198 0
175 198 0
173 197 0
174 197 0
175 198 0
175 198 0
176 199 0
175 198 0
174 197 0
174 198 0
175 198 0
173 197 0
176 198 0
173 197 0
174 198 0
174 198 0
175 198 0
174 198 0
175 198 0
173 197 0
174 197 0
174 198 0
174 198 0
176 199 0
174 198 0
173 197 0
174 197 0
173 197 0
174 197 0
173 197 0
174 198 0
174 198 0
173 197 0
174 197 0
174 197 0
174 198 0
176 198 0
174 197 0
173 196 0
175 198 0
175 198 0
174 198 0
174 198 0
175 198 0
173 197 0
174 197 0
175 198 0
177 199 0
176 198 0
174 198 0
175 198 0
176 199 0
175 198 0
176 199 0
174 197 0
174 198 0
175 198 0
175 198 0
174 198 0
173 197 0
173 197 0
173 197 0
176 199 0
176 199 0
175 198 0
174 198 0
175 198 0
174 198 0
176 198 0
174 198 0
174 198 0
176 198 0
174 197 0
175 198 0
175 198 0
174 198 0
175 198 0
174 198 0
173 197 0
173 197 0
173 197 0
173 197 0
172 197 0
173 197 0
175 198 0
174 197 0
175 198 0
174 197 0
174 198 0
174 197 0
172 196 0
174 198 0
175 198 0
174 197 0
172 196 0
173 197 0
173 197 0
175 198 0
173 196 0
174 198 0
174 198 0
172 196 0
174 197 0
173 197 0
176 199 0
175 198 0
173 197 0
174 198 0
174 197 0
174 197 0
174 197 0
174 197 0
174 198 0
174 197 0
173 197 0
173 195 0
172 196 0
173 197 0
171 195 0
174 198 0
175 198 0
174 197 0
175 198 0
173 197 0
174 198 0
173 197 0
174 198 0
176 199 0
174 197 0
173 196 0
174 197 0
173 197 0
172 196 0
173 196 0
173 197 0
174 197 0
174 197 0
174 198 0
173 197 0
172 195 0
174 197 0
173 197 0
174 197 0
175 198 0
173 197 0
174 197 0
176 198 0
174 197 0
174 198 0
174 198 0
173 196 0
173 196 0
174 197 0
173 196 0
172 196 0
174 197 0
175 198 0
174 197 0
173 196 0
173 197 0
174 198 0
175 198 0
173 196 0
172 197 0
173 197 0
175 198 0
172 197 0
174 197 0
173 197 0
173 196 0
172 196 0
173 197 0
175 198 0
175 198 0
173 197 0
174 198 0
175 198 0
173 197 0
173 196 0
174 196 0
172 196 0
172 196 0
174 197 0
171 195 0
174 198 0
173 196 0
173 197 0
175 197 0
173 197 0
172 195 0
174 197 0
174 198 0
175 198 0
174 197 0
176 199 0
172 196 0
174 197 0
175 198 0
174 197 0
174 198 0
175 198 0
174 197 0
174 197 0
172 195 0
173 197 0
173 197 0
175 198 0
174 198 0
172 196 0
172 195 0
172 196 0
174 198 0
174 198 0
173 196 0
173 197 0
174 197 0
174 197 0
174 197 0
174 197 0
173 197 0
173 197 0
174 197 0
174 198 0
174 197 0
177 199 0
174 197 0
176 199 0
174 198 0
173 197 0
172 196 0
173 197 0
174 197 0
173 196 0
172 196 0
175 198 0
171 195 0
172 195 0
172 196 0
175 198 0
174 197 0
173 197 0
172 196 0
173 197 0
173 196 0
172 196 0
174 197 0
174 197 0
175 198 0
174 198 0
172 196 0
172 196 0
175 197 0
175 198 0
174 197 0
174 197 0
173 197 0
172 196 0
174 197 0
174 198 0
174 197 0
174 197 0
173 196 0
175 198 0
174 198 0
174 198 0
176 198 0
173 197 0
173 197 0
175 198 0
172 196 0
174 197 0
173 197 0
175 198 0
175 198 0
173 197 0
173 197 0
172 196 0
175 198 0
176 198 0
176 198 0
174 197 0
174 197 0
174 198 0
174 198 0
174 197 0
174 197 0
174 198 0
174 198 0
176 198 0
174 198 0
174 198 0
175 198 0
173 196 0
175 198 0
172 196 0
174 198 0
175 198 0
173 197 0
172 196 0
176 198 0
174 198 0
173 197 0
175 198 0
174 197 0
173 197 0
173 196 0
174 197 0
174 197 0
175 198 0
175 198 0
172 196 0
174 197 0
173 197 0
176 199 0
174 198 0
174 197 0
174 197 0
175 197 0
176 198 0
175 197 0
171 196 0
174 197 0
173 197 0
174 198 0
174 197 0
173 196 0
174 197 0
175 198 0
175 198 0
173 197 0
173 197 0
172 197 0
173 197 0
174 197 0
175 198 0
174 197 0
174 198 0
175 198 0
174 197 0
174 197 0
174 198 0
175 198 0
172 196 0
173 197 0
173 197 0
173 197 0
173 197 0
173 197 0
173 197 0
173 196 0
174 198 0
176 199 0
174 197 0
174 197 0
172 196 0
173 197 0
173 197 0
174 197 0
175 198 0
174 198 0
174 197 0
172 197 0
175 198 0
175 198 0
175 198 0
173 197 0
174 198 0
174 197 0
173 197 0
175 198 0
175 198 0
176 198 0
173 197 0
175 198 0
174 197 0
175 198 0
173 197 0
175 198 0
175 198 0
175 198 0
175 198 0
174 197 0
175 198 0
173 197 0
173 197 0
175 197 0
174 198 0
173 197 0
173 197 0
173 197 0
175 198 0
173 197 0
174 198 0
175 198 0
175 198 0
175 198 0
174 197 0
173 197 0
173 197 0
175 198 0
176 199 0
176 198 0
174 198 0
173 197 0
174 198 0
174 198 0
173 197 0
174 198 0
174 198 0
174 197 0
174 198 0
174 198 0
175 198 0
173 197 0
174 198 0
173 197 0
174 198 0
174 198 0
175 198 0
174 198 0
173 197 0
175 198 0
175 198 0
174 198 0
175 198 0
173 196 0
174 198 0
175 198 0
172 197 0
174 198 0
175 198 0
175 198 0
173 197 0
174 197 0
174 197 0
175 198 0
174 197 0
173 197 0
174 197 0
175 198 0
175 198 0
175 198 0
175 198 0
174 197 0
174 198 0
174 197 0
174 198 0
174 198 0
173 196 0
173 197 0
173 197 0
175 198 0
175 198 0
175 198 0
174 198 0
173 197 0
174 198 0
175 198 0
174 198 0
175 198 0
174 197 0
174 197 0
175 198 0
175 198 0
174 197 0
174 198 0
173 197 0
174 197 0
175 198 0
173 197 0
174 198 0
173 197 0
174 198 0
174 197 0
176 199 0
173 197 0
175 198 0
173 197 0
174 198 0
175 198 0
174 197 0
175 198 0
174 198 0
174 198 0
173 197 0
174 197 0
175 198 0
174 198 0
172 196 0
173 197 0
173 197 0
175 198 0
174 197 0
174 197 0
173 197 0
173 197 0
175 198 0
174 198 0
176 199 0
175 198 0
175 198 0
174 198 0
174 197 0
176 199 0
174 198 0
174 197 0
175 198 0
174 197 0
173 197 0
173 197 0
172 196 0
175 198 0
173 196 0
173 196 0
175 198 0
173 197 0
174 197 0
174 198 0
174 198 0
174 197 0
173 196 0
177 199 0
172 196 0
174 197 0
173 197 0
174 197 0
173 197 0
174 198 0
174 197 0
173 197 0
172 196 0
173 196 0
172 196 0
172 197 0
171 196 0
173 197 0
174 197 0
174 198 0
174 197 0
174 197 0
173 196 0
174 197 0
173 197 0
174 198 0
172 196 0
173 196 0
174 197 0
173 197 0
174 198 0
172 196 0
174 197 0
174 198 0
173 197 0
174 198 0
175 198 0
174 197 0
173 197 0
174 197 0
176 199 0
173 197 0
173 197 0
173 197 0
175 197 0
173 197 0
175 198 0
173 196 0
172 196 0
174 198 0
172 195 0
172 196 0
172 195 0
175 198 0
173 197 0
175 198 0
174 197 0
174 197 0
175 198 0
174 197 0
174 196 0
173 197 0
173 197 0
173 197 0
172 196 0
175 198 0
174 197 0
173 197 0
173 197 0
173 197 0
174 197 0
173 196 0
172 196 0
173 196 0
171 196 0
174 197 0
174 197 0
175 198 0
174 198 0
174 198 0
174 197 0
174 197 0
174 197 0
175 198 0
174 198 0
174 197 0
170 194 0
175 198 0
173 196 0
175 198 0
173 196 0
175 198 0
175 198 0
173 196 0
173 196 0
174 197 0
173 197 0
174 198 0
173 196 0
174 197 0
174 198 0
175 198 0
173 196 0
174 197 0
175 198 0
173 197 0
174 198 0
172 196 0
173 196 0
174 197 0
174 197 0
175 198 0
174 197 0
174 197 0
172 196 0
173 196 0
174 197 0
173 197 0
174 197 0
175 198 0
171 195 0
173 197 0
172 196 0
172 196 0
174 196 0
172 196 0
173 197 0
174 198 0
175 198 0
173 196 0
175 198 0
173 196 0
174 198 0
174 197 0
175 198 0
173 197 0
176 198 0
172 195 0
174 197 0
173 197 0
174 198 0
174 198 0
175 198 0
174 197 0
174 197 0
171 195 0
172 196 0
172 196 0
172 196 0
175 198 0
172 196 0
174 197 0
175 198 0
173 197 0
173 197 0
173 196 0
174 198 0
175 198 0
174 197 0
174 197 0
173 197 0
173 196 0
173 197 0
175 198 0
173 197 0
174 198 0
174 197 0
174 197 0
172 196 0
173 197 0
175 198 0
172 195 0
174 198 0
175 198 0
176 198 0
175 198 0
174 198 0
176 198 0
173 197 0
174 197 0
174 198 0
172 196 0
176 199 0
176 199 0
174 198 0
175 198 0
175 198 0
175 198 0
175 198 0
174 198 0
174 198 0
174 198 0
173 196 0
174 198 0
175 198 0
175 198 0
173 197 0
173 196 0
172 195 0
170 194 0
174 197 0
175 198 0
175 198 0
173 197 0
175 198 0
172 196 0
175 198 0
175 198 0
174 198 0
175 198 0
173 196 0
174 197 0
175 198 0
175 198 0
174 198 0
175 198 0
175 198 0
173 197 0
175 197 0
173 197 0
173 197 0
172 196 0
173 197 0
174 198 0
173 197 0
174 198 0
173 196 0
174 197 0
174 197 0
173 197 0
176 199 0
174 197 0
174 197 0
173 197 0
176 199 0
172 196 0
174 198 0
174 198 0
174 197 0
174 198 0
174 197 0
174 197 0
174 197 0
176 198 0
177 199 0
174 197 0
174 197 0
174 198 0
176 198 0
175 198 0
174 197 0
174 197 0
175 198 0
174 197 0
175 198 0
174 197 0
175 198 0
174 197 0
173 197 0
176 198 0
175 198 0
174 198 0
175 198 0
174 198 0
173 197 0
173 197 0
174 197 0
175 198 0
173 197 0
175 198 0
174 197 0
174 197 0
174 198 0
176 198 0
175 198 0
174 197 0
174 198 0
175 198 0
176 198 0
175 198 0
174 197 0
175 198 0
174 198 0
172 196 0
173 197 0
174 197 0
174 198 0
175 198 0
176 199 0
175 198 0
174 198 0
174 197 0
172 196 0
173 197 0
175 198 0
173 197 0
175 198 0
174 197 0
175 198 0
174 198 0
174 198 0
174 197 0
174 197 0
173 196 0
172 197 0
173 197 0
175 198 0
173 197 0
174 197 0
175 198 0
175 198 0
174 197 0
175 198 0
175 198 0
174 198 0
174 198 0
173 197 0
174 198 0
174 197 0
175 198 0
175 198 0
174 197 0
173 197 0
174 198 0
174 198 0
174 197 0
173 197 0
174 197 0
174 198 0
175 198 0
174 197 0
175 198 0
175 198 0
174 198 0
175 198 0
175 198 0
174 198 0
174 198 0
173 197 0
174 197 0
174 198 0
174 198 0
174 197 0
174 197 0
173 197 0
175 198 0
174 198 0
175 198 0
174 198 0
175 198 0
172 196 0
172 196 0
174 198 0
174 198 0
175 198 0
175 198 0
176 199 0
173 197 0
174 197 0
173 197 0
174 197 0
174 198 0
174 197 0
173 197 0
175 198 0
174 197 0
175 198 0
175 198 0
175 198 0
174 197 0
174 197 0
174 197 0
176 198 0
174 198 0
172 196 0
174 198 0
174 197 0
173 197 0
176 199 0
174 198 0
175 198 0
173 197 0
172 196 0
173 196 0
174 198 0
173 197 0
175 198 0
175 198 0
174 197 0
174 197 0
175 198 0
174 197 0
173 197 0
174 197 0
174 197 0
172 196 0
174 198 0
175 198 0
173 197 0
174 198 0
174 198 0
173 197 0
174 198 0
172 196 0
173 197 0
172 196 0
174 198 0
173 196 0
175 197 0
175 198 0
175 198 0
173 196 0
174 198 0
173 197 0
173 197 0
174 198 0
174 197 0
173 197 0
174 197 0
174 197 0
172 196 0
174 197 0
174 197 0
173 197 0
174 198 0
174 197 0
175 198 0
173 196 0
174 198 0
172 197 0
172 196 0
173 197 0
174 197 0
174 198 0
174 197 0
175 198 0
173 197 0
175 198 0
174 197 0
171 195 0
172 195 0
173 197 0
175 198 0
174 197 0
174 198 0
172 195 0
174 198 0
172 195 0
174 198 0
175 198 0
174 198 0
172 196 0
174 197 0
175 197 0
171 194 0
175 198 0
174 198 0
173 196 0
172 196 0
172 196 0
175 198 0
171 195 0
174 197 0
174 197 0
174 197 0
174 197 0
173 196 0
173 197 0
174 197 0
175 198 0
174 197 0
173 197 0
171 195 0
173 196 0
172 196 0
174 198 0
173 197 0
173 196 0
173 196 0
171 195 0
173 197 0
171 195 0
172 196 0
175 198 0
173 196 0
172 196 0
175 198 0
174 197 0
175 198 0
172 197 0
175 198 0
174 197 0
174 197 0
171 195 0
174 197 0
175 198 0
175 198 0
175 198 0
175 198 0
173 197 0
172 195 0
172 196 0
174 198 0
173 197 0
174 197 0
172 196 0
174 198 0
172 195 0
175 198 0
173 197 0
173 197 0
173 196 0
173 196 0
175 198 0
173 197 0
174 196 0
173 197 0
172 196 0
173 196 0
174 197 0
171 195 0
175 198 0
173 197 0
172 196 0
173 197 0
175 198 0
174 198 0
173 197 0
174 198 0
174 197 0
173 196 0
172 196 0
174 198 0
174 198 0
173 197 0
173 196 0
173 197 0
174 197 0
172 197 0
174 197 0
174 196 0
175 197 0
175 198 0
175 198 0
176 198 0
174 197 0
174 197 0
172 196 0
173 197 0
172 196 0
173 197 0
173 196 0
173 197 0
173 196 0
175 198 0
172 197 0
174 198 0
173 197 0
174 197 0
173 197 0
174 198 0
174 197 0
174 197 0
174 198 0
171 195 0
173 197 0
174 197 0
175 198 0
174 197 0
174 198 0
173 196 0
174 197 0
175 198 0
174 198 0
175 198 0
175 198 0
173 197 0
175 198 0
175 198 0
173 197 0
175 197 0
173 197 0
175 198 0
174 197 0
175 198 0
174 197 0
173 197 0
174 197 0
174 197 0
174 198 0
173 197 0
174 198 0
176 198 0
173 197 0
173 196 0
174 197 0
173 197 0
173 197 0
175 198 0
173 197 0
173 197 0
174 198 0
174 197 0
173 197 0
174 197 0
174 197 0
174 198 0
175 198 0
173 196 0
175 198 0
174 197 0
175 198 0
174 198 0
174 197 0
173 197 0
175 198 0
176 199 0
175 198 0
174 198 0
175 198 0
175 198 0
172 196 0
174 198 0
175 198 0
173 197 0
174 198 0
175 198 0
173 197 0
172 197 0
174 198 0
175 198 0
174 197 0
175 198 0
175 198 0
175 198 0
175 198 0
175 198 0
175 198 0
174 198 0
172 196 0
175 198 0
174 197 0
175 198 0
176 198 0
172 196 0
175 198 0
175 198 0
174 198 0
173 197 0
174 198 0
172 196 0
173 197 0
173 197 0
173 197 0
173 197 0
175 198 0
172 195 0
174 198 0
175 198 0
175 197 0
174 198 0
175 198 0
174 198 0
176 198 0
174 198 0
175 198 0
174 197 0
175 198 0
174 198 0
173 197 0
175 197 0
174 198 0
174 198 0
174 198 0
174 197 0
174 198 0
175 198 0
173 197 0
176 199 0
177 199 0
176 199 0
174 198 0
176 198 0
175 198 0
175 198 0
175 198 0
176 199 0
173 197 0
173 197 0
174 197 0
174 198 0
173 197 0
173 197 0
174 197 0
174 197 0
176 199 0
173 197 0
173 197 0
175 198 0
174 197 0
174 198 0
173 197 0
173 197 0
174 197 0
176 199 0
175 198 0
174 198 0
175 198 0
176 198 0
174 198 0
174 198 0
176 199 0
174 197 0
174 197 0
176 199 0
175 198 0
174 197 0
176 198 0
174 198 0
174 198 0
174 197 0
175 198 0
174 197 0
176 199 0
173 197 0
175 198 0
174 197 0
174 197 0
174 198 0
174 198 0
174 198 0
175 198 0
174 198 0
175 198 0
176 198 0
175 198 0
174 197 0
173 197 0
175 198 0
176 198 0
175 198 0
173 197 0
175 198 0
174 198 0
174 198 0
175 198 0
175 198 0
175 198 0
173 197 0
174 198 0
175 198 0
173 197 0
175 198 0
174 197 0
174 198 0
175 198 0
174 198 0
174 198 0
174 198 0
175 198 0
173 197 0
174 197 0
174 197 0
174 198 0
175 198 0
175 198 0
175 198 0
173 197 0
171 196 0
175 198 0
175 198 0
174 198 0
175 198 0
173 197 0
175 198 0
175 198 0
174 198 0
174 198 0
174 198 0
173 196 0
174 198 0
173 197 0
173 197 0
175 198 0
172 196 0
173 197 0
173 197 0
173 197 0
174 197 0
173 197 0
173 197 0
174 198 0
173 197 0
174 198 0
172 196 0
174 197 0
175 197 0
174 198 0
174 197 0
173 197 0
173 197 0
173 197 0
173 195 0
174 197 0
173 196 0
175 198 0
173 197 0
173 197 0
173 197 0
174 198 0
176 199 0
171 196 0
174 198 0
173 197 0
174 197 0
174 197 0
175 198 0
174 198 0
174 197 0
174 198 0
172 195 0
173 197 0
172 196 0
174 197 0
172 196 0
173 197 0
172 196 0
173 197 0
174 198 0
175 198 0
174 198 0
175 198 0
174 197 0
174 197 0
174 197 0
173 197 0
173 197 0
174 198 0
174 198 0
175 198 0
174 197 0
174 197 0
171 195 0
171 195 0
173 197 0
174 196 0
176 198 0
173 197 0
172 196 0
174 198 0
175 198 0
174 198 0
172 196 0
173 197 0
172 196 0
171 195 0
175 198 0
174 197 0
173 196 0
174 196 0
173 196 0
172 195 0
175 198 0
172 196 0
174 198 0
172 196 0
171 195 0
174 197 0
173 197 0
174 197 0
175 198 0
174 197 0
174 198 0
175 198 0
174 197 0
174 198 0
171 194 0
174 198 0
173 197 0
171 195 0
175 198 0
172 196 0
175 198 0
173 196 0
174 197 0
174 198 0
173 197 0
174 197 0
173 197 0
173 196 0
175 198 0
174 197 0
173 197 0
173 196 0
171 196 0
174 197 0
176 199 0
175 198 0
174 197 0
172 196 0
171 195 0
172 195 0
174 198 0
171 195 0
169 193 0
173 196 0
174 197 0
173 196 0
174 198 0
173 197 0
174 197 0
174 197 0
175 198 0
173 197 0
172 195 0
173 196 0
175 198 0
173 197 0
174 197 0
173 196 0
175 198 0
173 197 0
174 197 0
173 197 0
174 198 0
174 198 0
173 197 0
174 198 0
173 197 0
174 197 0
172 197 0
174 197 0
177 199 0
173 196 0
174 198 0
171 195 0
176 197 0
171 195 0
174 198 0
174 198 0
174 198 0
174 198 0
173 196 0
174 197 0
175 197 0
172 196 0
173 196 0
173 197 0
173 197 0
174 197 0
174 197 0
172 195 0
172 196 0
175 198 0
173 197 0
175 198 0
176 199 0
173 196 0
175 198 0
173 197 0
174 198 0
172 196 0
172 196 0
173 197 0
175 198 0
174 198 0
175 198 0
174 197 0
173 197 0
175 198 0
174 197 0
173 197 0
174 198 0
175 198 0
174 198 0
174 197 0
174 197 0
174 197 0
174 197 0
173 197 0
176 199 0
174 197 0
175 198 0
174 197 0
173 196 0
174 198 0
176 198 0
175 198 0
174 197 0
172 197 0
174 198 0
175 198 0
172 196 0
173 196 0
174 198 0
176 199 0
174 197 0
173 197 0
174 198 0
174 198 0
174 198 0
175 198 0
172 196 0
172 196 0
175 197 0
174 198 0
174 197 0
174 197 0
173 197 0
172 196 0
174 197 0
173 197 0
174 197 0
174 198 0
174 197 0
175 198 0
172 196 0
175 198 0
173 197 0
174 198 0
174 198 0
174 197 0
174 198 0
174 197 0
174 198 0
176 198 0
174 198 0
175 198 0
173 197 0
174 198 0
174 197 0
174 197 0
174 198 0
174 198 0
174 198 0
174 197 0
175 198 0
171 195 0
174 197 0
174 198 0
175 198 0
175 198 0
173 197 0
175 198 0
175 198 0
175 198 0
174 197 0
174 198 0
174 197 0
174 197 0
175 198 0
175 198 0
172 196 0
175 198 0
173 197 0
174 197 0
174 197 0
175 198 0
174 198 0
175 198 0
176 198 0
174 197 0
173 197 0
174 198 0
175 198 0
176 199 0
174 198 0
173 197 0
174 197 0
174 198 0
174 197 0
173 197 0
176 199 0
175 198 0
174 198 0
173 197 0
173 197 0
175 198 0
173 197 0
174 197 0
176 198 0
174 198 0
175 198 0
174 198 0
174 198 0
174 197 0
174 198 0
175 198 0
174 198 0
173 197 0
176 198 0
173 197 0
174 198 0
175 198 0
173 197 0
175 198 0
173 197 0
176 199 0
173 197 0
174 198 0
173 197 0
173 197 0
174 198 0
175 198 0
175 198 0
173 197 0
175 198 0
175 198 0
175 198 0
175 198 0
176 199 0
173 197 0
174 198 0
175 198 0
175 198 0
173 197 0
174 197 0
175 198 0
174 198 0
173 196 0
174 197 0
175 198 0
175 198 0
174 198 0
175 198 0
173 197 0
173 197 0
174 198 0
174 197 0
174 197 0
174 198 0
174 198 0
175 198 0
174 197 0
176 198 0
172 196 0
174 198 0
174 198 0
172 196 0
175 198 0
175 198 0
174 197 0
175 198 0
173 197 0
174 198 0
173 197 0
174 198 0
174 197 0
176 199 0
174 198 0
175 198 0
176 199 0
174 198 0
172 196 0
174 197 0
176 199 0
173 197 0
175 198 0
174 198 0
176 198 0
173 197 0
172 197 0
175 198 0
174 197 0
175 198 0
175 198 0
173 197 0
175 198 0
174 198 0
174 198 0
175 198 0
175 198 0
174 198 0
172 197 0
175 198 0
174 197 0
173 197 0
174 198 0
175 198 0
175 198 0
174 197 0
174 197 0
173 197 0
174 197 0
174 197 0
175 198 0
175 198 0
173 197 0
173 197 0
175 198 0
176 198 0
174 197 0
176 199 0
175 198 0
173 197 0
173 197 0
173 197 0
175 198 0
174 197 0
174 198 0
175 198 0
173 197 0
175 198 0
175 198 0
174 198 0
175 198 0
173 196 0
174 198 0
174 197 0
174 197 0
175 198 0
176 199 0
173 197 0
175 198 0
173 197 0
174 197 0
174 197 0
173 196 0
175 198 0
174 197 0
174 198 0
172 197 0
173 197 0
174 197 0
175 198 0
174 197 0
173 197 0
175 198 0
172 196 0
172 196 0
174 197 0
174 198 0
172 196 0
172 196 0
176 199 0
175 198 0
173 197 0
174 197 0
175 198 0
173 196 0
172 196 0
174 197 0
172 196 0
173 197 0
173 197 0
173 196 0
175 198 0
174 197 0
173 196 0
172 195 0
174 198 0
174 197 0
175 198 0
172 196 0
172 196 0
176 199 0
174 197 0
172 197 0
172 196 0
175 198 0
175 198 0
176 198 0
170 194 0
172 195 0
174 197 0
174 198 0
175 198 0
172 196 0
172 196 0
174 197 0
174 198 0
175 198 0
174 198 0
172 196 0
174 197 0
174 197 0
171 196 0
175 198 0
172 196 0
173 197 0
175 198 0
172 196 0
172 196 0
173 196 0
174 197 0
174 197 0
175 197 0
174 197 0
175 198 0
173 196 0
172 196 0
175 198 0
175 198 0
174 197 0
174 197 0
175 198 0
172 196 0
175 198 0
174 197 0
173 196 0
174 198 0
174 197 0
175 198 0
173 197 0
171 195 0
174 198 0
175 198 0
172 196 0
175 198 0
173 197 0
172 196 0
174 198 0
174 197 0
172 196 0
173 197 0
173 197 0
174 197 0
173 197 0
173 196 0
174 197 0
174 197 0
173 196 0
173 197 0
175 197 0
174 197 0
174 197 0
172 196 0
175 198 0
174 197 0
175 198 0
173 197 0
175 197 0
175 198 0
173 196 0
173 197 0
170 194 0
174 198 0
174 198 0
173 197 0
172 197 0
177 199 0
176 198 0
173 197 0
174 197 0
173 197 0
174 197 0
173 197 0
175 198 0
176 199 0
173 197 0
174 197 0
172 196 0
174 197 0
173 197 0
171 195 0
173 196 0
174 197 0
175 198 0
173 197 0
174 198 0
173 196 0
174 198 0
174 198 0
175 198 0
174 198 0
174 197 0
172 196 0
175 198 0
172 196 0
174 197 0
174 197 0
175 198 0
173 197 0
174 198 0
172 196 0
175 198 0
172 196 0
173 197 0
173 197 0
175 198 0
173 197 0
175 198 0
174 197 0
174 198 0
173 196 0
173 196 0
174 198 0
174 198 0
174 198 0
175 198 0
174 198 0
175 198 0
175 198 0
175 198 0
175 198 0
173 197 0
175 198 0
175 197 0
175 198 0
173 197 0
175 198 0
173 197 0
173 197 0
175 198 0
176 199 0
176 199 0
175 198 0
176 198 0
174 198 0
175 198 0
173 196 0
174 198 0
174 198 0
173 197 0
174 197 0
175 198 0
175 198 0
175 198 0
174 197 0
174 198 0
173 197 0
172 196 0
176 198 0
172 196 0
175 198 0
176 198 0
175 198 0
173 197 0
174 198 0
174 198 0
173 197 0
174 198 0
174 197 0
175 198 0
176 199 0
174 198 0
173 197 0
175 198 0
174 197 0
174 198 0
173 197 0
174 198 0
175 198 0
173 197 0
174 198 0
175 198 0
172 196 0
174 198 0
174 198 0
174 198 0
174 198 0
174 197 0
171 195 0
174 198 0
174 198 0
175 198 0
176 199 0
175 198 0
173 197 0
173 197 0
175 198 0
174 198 0
176 198 0
174 198 0
176 199 0
174 197 0
174 198 0
173 196 0
173 197 0
175 198 0
174 198 0
175 198 0
175 198 0
175 198 0
174 197 0
173 197 0
175 198 0
175 198 0
174 198 0
174 197 0
176 198 0
175 198 0
174 198 0
174 198 0
174 198 0
174 198 0
174 198 0
175 198 0
175 198 0
172 196 0
174 197 0
174 197 0
176 199 0
174 197 0
175 198 0
174 197 0
175 198 0
174 198 0
173 197 0
173 197 0
174 198 0
173 197 0
174 197 0
175 198 0
173 197 0
174 197 0
174 198 0
175 198 0
174 197 0
175 198 0
174 197 0
174 198 0
174 198 0
174 197 0
176 198 0
175 198 0
174 197 0
175 198 0
175 198 0
176 198 0
174 197 0
175 198 0
174 198 0
175 198 0
173 197 0
174 197 0
174 198 0
171 196 0
173 196 0
174 197 0
174 198 0
174 197 0
175 198 0
172 197 0
175 198 0
173 197 0
174 197 0
173 197 0
175 198 0
174 198 0
173 197 0
175 198 0
175 198 0
175 198 0
174 198 0
172 196 0
175 198 0
174 198 0
174 198 0
175 198 0
173 197 0
174 197 0
177 199 0
173 197 0
173 197 0
173 197 0
174 197 0
173 197 0
174 197 0
175 198 0
175 198 0
174 197 0
173 197 0
173 197 0
173 197 0
174 197 0
175 198 0
175 198 0
175 198 0
174 198 0
173 197 0
173 197 0
173 197 0
175 198 0
176 199 0
174 198 0
175 198 0
173 197 0
173 197 0
175 198 0
175 198 0
175 198 0
175 198 0
174 197 0
174 197 0
174 197 0
175 198 0
175 198 0
174 197 0
175 198 0
175 198 0
175 198 0
174 198 0
174 197 0
173 197 0
176 198 0
173 197 0
174 197 0
174 198 0
175 198 0
175 198 0
174 198 0
174 198 0
172 196 0
174 197 0
174 198 0
174 197 0
172 197 0
174 197 0
172 196 0
175 198 0
173 197 0
174 198 0
172 196 0
175 198 0
175 198 0
173 197 0
176 198 0
173 196 0
174 197 0
175 198 0
172 197 0
176 199 0
173 197 0
174 197 0
174 198 0
175 198 0
174 198 0
173 197 0
174 198 0
174 197 0
173 197 0
175 198 0
173 196 0
174 197 0
172 196 0
174 197 0
175 198 0
173 197 0
173 197 0
172 195 0
173 197 0
175 198 0
173 197 0
173 197 0
172 196 0
173 197 0
171 195 0
174 198 0
175 198 0
173 197 0
173 197 0
174 197 0
175 198 0
174 197 0
171 194 0
174 197 0
175 198 0
173 197 0
174 197 0
175 198 0
174 197 0
173 197 0
173 197 0
173 196 0
174 198 0
173 197 0
173 197 0
173 197 0
173 197 0
174 198 0
175 198 0
171 195 0
175 198 0
175 198 0
173 197 0
172 196 0
173 197 0
174 197 0
174 197 0
173 197 0
172 196 0
173 197 0
174 197 0
173 196 0
175 198 0
175 198 0
173 197 0
172 195 0
173 196 0
174 198 0
174 197 0
173 197 0
174 197 0
173 197 0
172 195 0
175 198 0
174 197 0
172 196 0
175 198 0
173 197 0
171 195 0
173 197 0
174 197 0
173 197 0
174 196 0
173 197 0
172 196 0
174 197 0
174 197 0
175 198 0
173 196 0
174 197 0
174 198 0
173 197 0
173 197 0
174 197 0
175 198 0
175 197 0
176 199 0
172 196 0
173 197 0
174 197 0
175 198 0
173 196 0
174 197 0
174 197 0
175 198 0
172 197 0
174 197 0
174 198 0
173 196 0
175 198 0
173 197 0
173 196 0
174 198 0
174 197 0
173 197 0
172 196 0
175 198 0
173 196 0
173 197 0
172 195 0
174 197 0
173 197 0
173 197 0
173 196 0
174 197 0
173 196 0
171 194 0
175 197 0
174 198 0
171 196 0
173 197 0
176 198 0
174 197 0
172 196 0
175 198 0
175 198 0
175 198 0
174 197 0
172 196 0
173 197 0
174 197 0
174 197 0
173 197 0
174 197 0
175 198 0
174 198 0
174 197 0
173 197 0
174 197 0
175 198 0
174 197 0
173 197 0
174 198 0
175 198 0
174 198 0
174 198 0
173 197 0
175 197 0
173 196 0
174 197 0
176 198 0
175 198 0
172 195 0
175 198 0
176 198 0
175 198 0
175 198 0
172 196 0
173 197 0
175 198 0
174 197 0
173 197 0
174 197 0
176 199 0
174 197 0
173 197 0
174 198 0
174 197 0
174 198 0
174 198 0
174 198 0
174 197 0
174 197 0
176 199 0
176 199 0
175 198 0
173 197 0
175 198 0
174 197 0
174 197 0
175 198 0
173 197 0
175 198 0
174 198 0
175 198 0
175 198 0
174 197 0
174 197 0
173 197 0
175 198 0
174 197 0
175 198 0
173 197 0
175 198 0
175 198 0
173 197 0
176 199 0
174 197 0
174 198 0
176 199 0
175 198 0
175 198 0
176 198 0
174 197 0
175 198 0
174 198 0
173 197 0
173 197 0
172 196 0
176 199 0
174 198 0
175 198 0
176 198 0
175 198 0
175 198 0
172 196 0
173 197 0
175 198 0
175 198 0
174 197 0
175 198 0
174 198 0
174 198 0
175 198 0
174 198 0
175 198 0
174 198 0
174 198 0
174 198 0
175 198 0
174 198 0
177 199 0
175 198 0
173 196 0
176 199 0
175 198 0
174 198 0
175 198 0
174 198 0
174 198 0
174 198 0
176 198 0
176 198 0
174 197 0
174 198 0
174 198 0
175 198 0
176 198 0
174 198 0
173 197 0
173 197 0
174 198 0
174 197 0
173 197 0
173 197 0
174 198 0
173 197 0
173 197 0
173 197 0
175 198 0
173 196 0
173 197 0
174 197 0
175 198 0
173 197 0
175 198 0
175 198 0
175 198 0
175 198 0
175 198 0
175 198 0
175 198 0
175 198 0
176 199 0
173 197 0
175 198 0
177 199 0
175 198 0
173 197 0
173 197 0
175 198 0
177 199 0
173 197 0
172 197 0
174 197 0
175 198 0
174 197 0
173 197 0
174 198 0
173 197 0
174 198 0
174 197 0
173 197 0
175 198 0
176 199 0
173 196 0
174 197 0
174 197 0
176 198 0
173 197 0
174 198 0
176 199 0
175 198 0
173 196 0
175 198 0
174 197 0
175 198 0
173 197 0
175 198 0
176 199 0
172 196 0
175 198 0
174 197 0
172 196 0
175 198 0
174 197 0
173 197 0
176 199 0
173 197 0
174 197 0
174 198 0
174 198 0
175 198 0
174 197 0
173 197 0
173 196 0
176 199 0
173 197 0
175 198 0
175 198 0
174 198 0
173 197 0
173 197 0
175 198 0
175 198 0
175 198 0
174 197 0
174 197 0
176 199 0
174 197 0
174 198 0
175 198 0
175 198 0
173 197 0
175 198 0
175 198 0
172 197 0
174 198 0
173 197 0
175 198 0
175 198 0
174 197 0
174 198 0
173 197 0
174 197 0
173 197 0
175 198 0
175 198 0
175 198 0
174 198 0
175 198 0
173 197 0
173 197 0
173 197 0
173 196 0
175 198 0
174 197 0
172 196 0
174 198 0
172 196 0
174 198 0
174 197 0
174 198 0
174 198 0
174 197 0
173 196 0
172 196 0
173 197 0
175 198 0
172 197 0
175 198 0
175 198 0
174 197 0
174 197 0
173 197 0
174 197 0
174 198 0
173 197 0
174 197 0
173 197 0
173 197 0
174 197 0
175 198 0
174 197 0
173 197 0
173 197 0
173 197 0
174 197 0
176 199 0
174 198 0
174 198 0
176 198 0
174 197 0
175 198 0
174 198 0
172 196 0
174 198 0
174 197 0
175 198 0
174 198 0
173 197 0
176 199 0
173 196 0
171 194 0
174 198 0
174 197 0
174 197 0
174 197 0
172 196 0
173 197 0
173 197 0
174 197 0
173 196 0
173 197 0
174 198 0
173 196 0
174 198 0
171 196 0
174 197 0
174 198 0
174 197 0
173 197 0
173 197 0
174 198 0
172 196 0
173 197 0
175 198 0
175 197 0
173 197 0
174 198 0
172 196 0
174 198 0
172 197 0
174 198 0
172 196 0
174 197 0
173 197 0
173 197 0
174 197 0
174 197 0
173 197 0
174 197 0
171 195 0
172 196 0
175 198 0
174 198 0
174 197 0
175 198 0
174 197 0
173 197 0
175 198 0
173 197 0
174 197 0
175 198 0
175 198 0
175 198 0
170 194 0
173 196 0
174 197 0
172 196 0
174 197 0
173 197 0
175 197 0
175 198 0
173 197 0
174 197 0
177 199 0
173 196 0
173 197 0
174 197 0
172 196 0
174 197 0
173 197 0
175 198 0
174 197 0
174 197 0
174 197 0
175 197 0
174 198 0
172 196 0
172 195 0
174 197 0
174 198 0
174 197 0
174 197 0
174 198 0
172 197 0
173 197 0
175 198 0
174 198 0
172 196 0
174 197 0
173 197 0
175 198 0
174 198 0
174 198 0
174 197 0
174 197 0
175 198 0
172 196 0
172 196 0
170 194 0
176 199 0
174 197 0
173 197 0
174 197 0
174 197 0
174 197 0
173 197 0
174 197 0
173 197 0
174 197 0
173 197 0
172 196 0
174 197 0
174 197 0
174 198 0
175 198 0
173 196 0
173 197 0
174 197 0
173 197 0
175 198 0
173 197 0
173 197 0
175 198 0
174 198 0
175 198 0
174 198 0
175 198 0
171 194 0
175 198 0
175 198 0
175 198 0
172 196 0
173 196 0
175 198 0
174 197 0
175 198 0
173 197 0
175 198 0
175 198 0
174 198 0
174 198 0
172 196 0
176 198 0
174 198 0
174 198 0
174 198 0
174 198 0
176 199 0
173 197 0
175 198 0
173 197 0
173 197 0
173 196 0
173 196 0
174 197 0
173 196 0
175 198 0
174 197 0
174 198 0
173 197 0
174 197 0
174 197 0
176 198 0
175 198 0
173 197 0
174 197 0
175 198 0
173 197 0
174 197 0
175 198 0
172 196 0
176 198 0
173 197 0
175 198 0
171 195 0
175 198 0
173 197 0
173 197 0
176 199 0
174 198 0
174 198 0
174 198 0
175 198 0
175 198 0
174 197 0
173 197 0
174 197 0
175 198 0
175 198 0
174 197 0
174 197 0
173 197 0
174 197 0
175 198 0
174 198 0
174 198 0
175 198 0
172 196 0
175 198 0
176 198 0
173 197 0
174 197 0
172 196 0
175 198 0
175 198 0
174 198 0
174 197 0
173 197 0
175 198 0
174 197 0
174 197 0
175 198 0
176 199 0
175 198 0
173 197 0
175 198 0
176 199 0
175 198 0
176 199 0
176 198 0
174 198 0
174 197 0
174 197 0
174 198 0
175 198 0
174 198 0
176 199 0
173 197 0
175 198 0
174 198 0
173 197 0
175 198 0
173 197 0
173 197 0
173 197 0
174 197 0
174 198 0
175 198 0
175 198 0
178 200 0
176 199 0
172 196 0
175 198 0
173 196 0
175 198 0
176 199 0
174 197 0
174 198 0
175 198 0
175 198 0
175 198 0
174 197 0
173 197 0
174 198 0
175 198 0
173 197 0
174 198 0
173 197 0
174 198 0
175 198 0
176 198 0
173 197 0
174 198 0
175 198 0
174 198 0
172 197 0
174 197 0
173 197 0
174 198 0
173 197 0
174 198 0
175 198 0
173 197 0
175 198 0
173 197 0
175 198 0
174 198 0
174 197 0
174 198 0
174 198 0
175 198 0
173 197 0
174 197 0
172 195 0
173 197 0
175 198 0
174 197 0
174 197 0
174 197 0
174 197 0
176 198 0
175 198 0
173 197 0
174 198 0
175 198 0
174 197 0
175 198 0
173 197 0
174 198 0
174 198 0
173 197 0
175 198 0
173 197 0
174 197 0
175 198 0
173 197 0
173 197 0
174 198 0
175 198 0
173 197 0
174 197 0
175 198 0
174 197 0
173 197 0
175 198 0
174 198 0
173 197 0
174 197 0
174 197 0
175 198 0
174 197 0
175 198 0
175 198 0
175 198 0
175 198 0
174 198 0
175 198 0
174 197 0
173 196 0
173 197 0
174 197 0
175 198 0
175 198 0
172 196 0
175 198 0
174 197 0
171 195 0
174 198 0
174 197 0
174 198 0
174 197 0
174 197 0
174 198 0
174 197 0
174 197 0
175 198 0
174 198 0
174 197 0
175 198 0
174 197 0
173 196 0
174 197 0
174 197 0
174 197 0
175 198 0
173 197 0
174 198 0
175 198 0
175 198 0
173 197 0
173 197 0
174 198 0
174 198 0
173 197 0
175 198 0
174 198 0
172 197 0
174 198 0
173 197 0
173 197 0
173 197 0
174 197 0
174 198 0
175 198 0
174 197 0
175 198 0
173 197 0
173 197 0
173 196 0
174 197 0
175 198 0
174 197 0
172 197 0
170 194 0
173 197 0
174 198 0
174 198 0
172 196 0
175 198 0
172 196 0
175 198 0
174 197 0
175 197 0
172 196 0
172 196 0
173 197 0
174 198 0
174 197 0
172 196 0
173 197 0
174 197 0
173 197 0
173 197 0
174 198 0
172 196 0
174 198 0
173 197 0
172 195 0
173 197 0
175 198 0
175 198 0
173 196 0
174 197 0
174 198 0
172 197 0
173 196 0
174 198 0
173 197 0
173 197 0
175 198 0
173 197 0
174 198 0
174 197 0
173 196 0
174 196 0
174 197 0
174 197 0
174 197 0
174 197 0
173 197 0
174 197 0
172 196 0
174 198 0
174 197 0
173 197 0
174 197 0
174 198 0
172 195 0
173 197 0
172 196 0
172 196 0
173 197 0
175 198 0
173 197 0
172 197 0
172 196 0
173 196 0
172 196 0
172 196 0
175 198 0
172 196 0
174 198 0
174 198 0
174 197 0
174 198 0
173 197 0
174 197 0
177 199 0
174 197 0
174 197 0
172 195 0
174 197 0
172 196 0
174 198 0
175 198 0
173 196 0
174 198 0
175 198 0
173 197 0
170 194 0
173 197 0
176 198 0
174 197 0
175 197 0
175 198 0
175 197 0
172 195 0
173 197 0
174 197 0
175 198 0
175 198 0
174 197 0
176 198 0
173 197 0
173 197 0
175 198 0
174 197 0
174 197 0
172 195 0
173 197 0
174 197 0
173 197 0
174 197 0
173 197 0
174 197 0
175 198 0
173 197 0
176 199 0
173 197 0
173 197 0
174 198 0
175 198 0
175 198 0
173 197 0
173 196 0
172 196 0
174 197 0
174 198 0
173 197 0
173 197 0
173 197 0
174 197 0
173 197 0
173 197 0
173 197 0
175 198 0
172 196 0
175 198 0
172 196 0
173 197 0
175 198 0
175 198 0
172 196 0
171 195 0
174 197 0
173 196 0
173 196 0
173 197 0
172 196 0
172 196 0
175 198 0
174 197 0
174 197 0
173 197 0
173 197 0
175 198 0
173 197 0
174 198 0
175 198 0
172 197 0
173 197 0
173 196 0
173 197 0
174 197 0
175 198 0
174 197 0
175 198 0
174 198 0
175 198 0
173 197 0
175 198 0
174 198 0
175 198 0
174 197 0
173 197 0
174 196 0
175 198 0
174 198 0
175 198 0
174 198 0
175 198 0
174 197 0
173 197 0
174 198 0
176 198 0
173 197 0
174 198 0
174 197 0
174 197 0
175 198 0
175 198 0
174 198 0
175 198 0
174 198 0
173 196 0
175 198 0
173 196 0
173 197 0
175 198 0
175 198 0
176 198 0
174 198 0
173 197 0
174 198 0
174 197 0
173 197 0
174 198 0
173 197 0
174 197 0
176 199 0
175 198 0
175 198 0
175 198 0
175 198 0
173 196 0
176 199 0
174 198 0
173 197 0
174 197 0
176 199 0
174 198 0
175 198 0
174 198 0
174 198 0
174 198 0
176 199 0
174 198 0
175 198 0
176 199 0
173 197 0
174 197 0
174 197 0
174 198 0
173 196 0
175 198 0
173 197 0
175 198 0
174 197 0
174 197 0
175 198 0
175 198 0
174 197 0
176 199 0
172 197 0
173 197 0
174 197 0
173 197 0
174 198 0
175 198 0
174 198 0
175 198 0
175 198 0
173 197 0
173 197 0
174 198 0
175 198 0
173 197 0
174 197 0
175 198 0
174 198 0
175 198 0
174 198 0
175 198 0
174 197 0
174 198 0
176 199 0
176 198 0
175 198 0
171 196 0
174 197 0
174 198 0
176 199 0
173 197 0
175 198 0
175 198 0
174 197 0
175 198 0
175 198 0
175 198 0
175 198 0
175 198 0
173 197 0
173 197 0
174 197 0
174 197 0
175 198 0
175 198 0
175 198 0
174 197 0
172 197 0
174 197 0
174 197 0
175 198 0
176 198 0
176 198 0
174 198 0
174 198 0
174 198 0
176 199 0
174 197 0
175 198 0
175 198 0
176 198 0
175 198 0
174 197 0
174 197 0
174 198 0
173 196 0
176 199 0
175 198 0
172 196 0
173 197 0
176 199 0
173 197 0
175 198 0
174 198 0
174 198 0
175 198 0
175 198 0
172 197 0
175 198 0
175 198 0
174 197 0
173 197 0
175 198 0
173 197 0
174 198 0
175 198 0
173 197 0
175 198 0
174 197 0
174 197 0
173 197 0
174 198 0
175 198 0
174 198 0
175 198 0
174 197 0
174 198 0
174 198 0
175 198 0
175 198 0
174 198 0
176 198 0
173 197 0
174 198 0
174 198 0
176 198 0
173 197 0
177 199 0
174 197 0
177 199 0
174 198 0
176 199 0
174 197 0
174 197 0
174 198 0
175 198 0
175 198 0
175 198 0
174 198 0
174 197 0
175 198 0
174 198 0
173 197 0
175 198 0
174 198 0
173 197 0
174 198 0
174 198 0
173 196 0
174 197 0
173 197 0
173 197 0
174 197 0
174 197 0
172 196 0
174 197 0
175 198 0
174 197 0
175 198 0
174 196 0
173 196 0
173 197 0
175 198 0
174 197 0
175 198 0
174 197 0
175 198 0
175 198 0
173 196 0
174 198 0
174 198 0
173 197 0
172 196 0
173 197 0
173 197 0
174 198 0
174 197 0
174 197 0
175 198 0
173 197 0
175 198 0
174 197 0
175 198 0
175 198 0
173 197 0
176 199 0
175 198 0
172 195 0
173 196 0
173 197 0
175 198 0
173 197 0
173 197 0
173 197 0
173 195 0
175 198 0
171 195 0
175 198 0
173 197 0
173 196 0
173 196 0
175 198 0
173 197 0
173 197 0
172 196 0
175 198 0
174 198 0
172 196 0
172 196 0
174 197 0
172 197 0
171 195 0
174 197 0
174 198 0
175 198 0
174 198 0
173 197 0
173 197 0
173 196 0
176 198 0
174 197 0
175 198 0
173 197 0
175 197 0
173 197 0
174 197 0
173 197 0
173 197 0
174 197 0
173 196 0
174 197 0
173 197 0
173 196 0
172 196 0
172 196 0
174 196 0
174 197 0
173 196 0
174 197 0
174 198 0
172 196 0
175 198 0
172 195 0
171 195 0
173 196 0
174 198 0
173 197 0
173 197 0
173 196 0
173 196 0
172 196 0
174 197 0
173 197 0
172 196 0
175 197 0
173 196 0
173 196 0
174 197 0
172 196 0
174 198 0
173 197 0
174 197 0
175 198 0
173 196 0
172 196 0
174 198 0
171 195 0
173 196 0
170 194 0
174 197 0
174 198 0
175 198 0
173 196 0
174 197 0
174 197 0
172 196 0
172 196 0
173 197 0
174 198 0
173 196 0
174 197 0
174 197 0
172 195 0
174 198 0
176 199 0
175 197 0
175 198 0
174 197 0
174 197 0
175 198 0
174 198 0
174 198 0
172 196 0
174 197 0
175 198 0
174 197 0
172 195 0
174 198 0
174 198 0
173 196 0
174 197 0
173 196 0
172 196 0
174 197 0
173 197 0
173 197 0
174 198 0
175 198 0
174 197 0
175 198 0
172 196 0
174 197 0
174 197 0
173 197 0
173 197 0
173 197 0
172 196 0
174 198 0
174 198 0
172 196 0
173 197 0
173 197 0
174 198 0
173 196 0
175 198 0
174 198 0
174 198 0
175 198 0
173 197 0
174 197 0
172 196 0
174 198 0
173 197 0
175 198 0
174 198 0
175 198 0
173 197 0
175 198 0
174 197 0
175 198 0
174 197 0
173 197 0
174 197 0
174 197 0
174 198 0
177 199 0
174 197 0
174 197 0
173 197 0
174 197 0
174 198 0
176 198 0
174 198 0
174 198 0
174 197 0
173 196 0
173 197 0
174 197 0
172 195 0
173 197 0
173 197 0
173 197 0
175 197 0
175 198 0
174 198 0
174 197 0
172 196 0
174 197 0
174 198 0
175 198 0
174 198 0
174 197 0
174 197 0
175 198 0
174 198 0
175 197 0
173 196 0
174 198 0
173 197 0
174 197 0
174 197 0
174 197 0
175 198 0
177 199 0
173 197 0
174 197 0
173 197 0
173 196 0
173 197 0
173 197 0
176 199 0
172 197 0
175 198 0
175 198 0
175 198 0
175 198 0
174 197 0
174 198 0
173 197 0
173 197 0
174 197 0
173 197 0
175 198 0
173 197 0
174 198 0
175 198 0
174 198 0
173 197 0
174 197 0
174 198 0
173 197 0
175 198 0
174 198 0
175 198 0
173 197 0
176 199 0
173 197 0
174 197 0
175 198 0
176 198 0
174 197 0
176 198 0
174 198 0
175 198 0
175 198 0
175 198 0
175 198 0
173 197 0
176 199 0
176 198 0
175 198 0
175 198 0
176 199 0
175 198 0
174 198 0
172 196 0
176 198 0
174 198 0
174 197 0
174 198 0
175 198 0
173 197 0
174 197 0
174 197 0
173 197 0
175 198 0
174 198 0
173 197 0
175 198 0
173 196 0
173 197 0
175 198 0
175 198 0
174 198 0
174 197 0
174 198 0
174 198 0
174 197 0
174 198 0
174 198 0
175 198 0
174 198 0
172 197 0
174 198 0
173 197 0
173 197 0
173 197 0
174 197 0
173 196 0
174 197 0
176 199 0
175 198 0
174 198 0
174 198 0
174 198 0
177 199 0
174 198 0
173 197 0
174 198 0
175 198 0
176 199 0
174 198 0
175 198 0
173 197 0
174 198 0
174 197 0
174 197 0
176 199 0
173 197 0
173 197 0
172 197 0
174 198 0
173 197 0
173 197 0
173 197 0
174 198 0
174 197 0
173 197 0
175 198 0
175 198 0
176 199 0
173 196 0
174 197 0
173 197 0
175 198 0
173 197 0
174 198 0
174 198 0
174 197 0
175 198 0
172 197 0
175 198 0
176 198 0
175 198 0
175 198 0
175 198 0
174 198 0
177 199 0
174 198 0
176 198 0
175 198 0
175 198 0
174 198 0
174 198 0
175 198 0
173 197 0
174 197 0
172 196 0
175 198 0
175 198 0
174 197 0
174 198 0
174 197 0
174 198 0
174 198 0
173 197 0
174 198 0
173 197 0
174 198 0
175 198 0
173 197 0
174 197 0
175 198 0
173 197 0
174 198 0
174 198 0
174 197 0
172 196 0
173 197 0
173 197 0
174 197 0
174 198 0
174 198 0
174 198 0
175 198 0
174 197 0
174 198 0
174 197 0
173 197 0
173 197 0
174 198 0
174 198 0
173 197 0
174 198 0
173 196 0
174 197 0
174 197 0
173 197 0
174 198 0
174 197 0
173 197 0
175 198 0
173 197 0
174 197 0
175 198 0
176 198 0
174 198 0
175 198 0
175 198 0
177 199 0
172 196 0
174 197 0
175 198 0
175 198 0
174 197 0
173 197 0
173 197 0
175 198 0
175 198 0
174 197 0
172 196 0
172 195 0
176 199 0
176 198 0
172 196 0
175 198 0
175 198 0
177 199 0
175 198 0
173 197 0
174 198 0
175 198 0
172 196 0
175 198 0
173 196 0
172 197 0
174 197 0
172 196 0
174 198 0
176 198 0
174 198 0
176 198 0
174 197 0
172 196 0
173 197 0
174 197 0
173 196 0
174 197 0
173 197 0
173 197 0
174 197 0
175 198 0
173 197 0
174 198 0
173 197 0
173 196 0
174 197 0
173 196 0
173 197 0
174 198 0
174 198 0
173 197 0
174 198 0
174 198 0
174 198 0
172 195 0
172 196 0
172 195 0
174 197 0
173 197 0
173 197 0
174 197 0
176 198 0
173 197 0
173 197 0
173 197 0
175 198 0
173 197 0
176 199 0
174 197 0
172 196 0
175 198 0
173 197 0
174 198 0
174 197 0
172 196 0
174 197 0
174 198 0
172 195 0
174 197 0
175 198 0
173 197 0
173 197 0
174 198 0
168 192 0
173 197 0
173 196 0
174 197 0
176 198 0
175 198 0
175 198 0
175 198 0
174 197 0
174 198 0
172 196 0
174 197 0
173 197 0
173 197 0
174 198 0
174 198 0
173 196 0
174 197 0
174 198 0
172 195 0
171 195 0
173 197 0
176 198 0
172 197 0
175 198 0
175 198 0
171 195 0
173 197 0
173 197 0
174 198 0
173 197 0
171 195 0
176 199 0
175 198 0
174 197 0
174 198 0
175 198 0
172 196 0
174 198 0
175 198 0
174 197 0
174 197 0
173 197 0
171 196 0
172 196 0
175 198 0
175 198 0
173 197 0
174 198 0
173 196 0
174 198 0
172 196 0
175 198 0
173 197 0
173 196 0
172 196 0
172 196 0
174 198 0
173 196 0
172 196 0
175 198 0
176 198 0
173 196 0
174 197 0
174 197 0
173 197 0
174 197 0
173 197 0
173 197 0
175 198 0
174 198 0
175 198 0
173 196 0
174 198 0
174 198 0
175 198 0
175 198 0
175 198 0
174 198 0
173 196 0
174 197 0
175 197 0
175 198 0
174 197 0
174 198 0
175 198 0
175 198 0
174 198 0
173 197 0
173 197 0
174 198 0
175 198 0
175 198 0
174 198 0
175 198 0
174 196 0
175 198 0
173 197 0
174 197 0
174 197 0
174 198 0
175 198 0
174 198 0
174 197 0
174 197 0
176 199 0
174 197 0
171 196 0
175 198 0
173 196 0
174 198 0
176 198 0
175 198 0
174 198 0
174 197 0
173 197 0
174 198 0
173 197 0
174 198 0
173 197 0
175 198 0
174 198 0
173 197 0
176 199 0
174 197 0
175 198 0
173 197 0
174 198 0
175 198 0
174 198 0
174 197 0
174 198 0
175 198 0
174 198 0
174 198 0
175 198 0
174 197 0
174 198 0
176 198 0
174 197 0
174 198 0
174 197 0
176 199 0
175 198 0
174 198 0
174 197 0
175 198 0
175 198 0
175 198 0
174 198 0
175 198 0
174 198 0
174 198 0
175 198 0
174 197 0
173 197 0
174 198 0
175 198 0
175 198 0
174 197 0
174 197 0
176 198 0
174 198 0
174 198 0
173 197 0
174 198 0
174 197 0
174 197 0
173 197 0
176 199 0
174 197 0
174 198 0
174 198 0
176 199 0
175 198 0
175 198 0
174 198 0
174 197 0
173 197 0
173 197 0
175 198 0
174 198 0
175 198 0
176 199 0
176 199 0
173 197 0
174 198 0
175 198 0
174 198 0
174 198 0
175 198 0
174 198 0
174 197 0
175 198 0
174 198 0
175 198 0
174 198 0
175 198 0
174 198 0
175 198 0
174 197 0
175 198 0
173 197 0
175 198 0
176 198 0
175 198 0
175 198 0
175 198 0
174 197 0
173 197 0
176 199 0
174 197 0
172 196 0
173 197 0
174 197 0
173 197 0
175 198 0
175 198 0
176 198 0
172 196 0
174 197 0
176 199 0
175 198 0
173 197 0
174 198 0
175 198 0
175 198 0
174 198 0
174 197 0
174 198 0
173 196 0
174 198 0
174 198 0
174 198 0
173 197 0
173 197 0
175 198 0
176 198 0
174 197 0
175 197 0
175 198 0
174 198 0
175 198 0
175 198 0
174 198 0
175 198 0
173 197 0
174 197 0
174 197 0
176 199 0
175 198 0
174 197 0
175 198 0
176 198 0
173 197 0
175 198 0
174 197 0
175 198 0
176 199 0
175 198 0
174 197 0
173 197 0
174 197 0
174 197 0
175 197 0
173 197 0
175 198 0
174 197 0
173 197 0
172 197 0
173 197 0
174 198 0
176 199 0
174 197 0
174 198 0
175 198 0
175 198 0
174 197 0
172 197 0
174 198 0
174 198 0
174 197 0
172 196 0
173 197 0
173 197 0
175 198 0
173 197 0
172 197 0
175 198 0
174 197 0
174 198 0
174 198 0
173 197 0
174 198 0
173 197 0
176 198 0
173 197 0
174 197 0
174 197 0
172 195 0
174 198 0
174 197 0
174 198 0
173 197 0
174 197 0
172 196 0
174 197 0
175 198 0
174 198 0
172 196 0
173 197 0
173 197 0
174 198 0
173 196 0
175 198 0
173 197 0
174 197 0
173 197 0
173 197 0
173 197 0
172 196 0
174 198 0
177 199 0
173 197 0
173 196 0
171 195 0
172 196 0
174 198 0
171 196 0
175 198 0
173 197 0
174 198 0
173 196 0
172 196 0
173 197 0
173 197 0
173 197 0
173 196 0
174 198 0
173 197 0
175 198 0
174 198 0
175 198 0
171 195 0
175 198 0
173 196 0
173 197 0
173 197 0
172 196 0
174 198 0
173 197 0
174 197 0
174 197 0
173 197 0
172 195 0
173 196 0
173 196 0
175 198 0
173 197 0
173 197 0
173 197 0
173 196 0
172 196 0
173 196 0
172 196 0
173 196 0
172 196 0
174 197 0
174 197 0
172 196 0
174 197 0
175 198 0
174 198 0
175 198 0
175 198 0
173 197 0
173 197 0
174 197 0
174 197 0
175 197 0
173 197 0
173 197 0
172 196 0
174 197 0
173 196 0
173 197 0
172 196 0
172 196 0
173 196 0
174 197 0
174 198 0
175 198 0
174 198 0
174 198 0
173 197 0
173 197 0
174 197 0
174 197 0
171 195 0
175 198 0
174 197 0
174 197 0
174 198 0
174 198 0
175 198 0
175 198 0
173 196 0
176 198 0
174 198 0
175 198 0
175 198 0
173 197 0
174 197 0
172 196 0
173 197 0
175 198 0
174 197 0
174 197 0
175 198 0
172 196 0
174 197 0
175 198 0
173 196 0
172 196 0
174 197 0
174 198 0
173 197 0
175 198 0
174 197 0
175 198 0
172 196 0
173 196 0
174 197 0
173 196 0
173 196 0
175 198 0
174 198 0
172 195 0
173 196 0
175 198 0
174 197 0
174 198 0
175 198 0
174 197 0
175 198 0
172 197 0
173 196 0
175 198 0
173 195 0
174 198 0
175 198 0
175 198 0
174 197 0
173 197 0
175 198 0
174 197 0
173 197 0
172 195 0
175 198 0
175 197 0
173 197 0
174 197 0
174 197 0
174 197 0
175 198 0
175 198 0
173 196 0
173 197 0
174 198 0
174 197 0
173 197 0
175 198 0
173 197 0
175 198 0
174 198 0
174 197 0
176 199 0
173 196 0
176 199 0
173 196 0
173 197 0
175 198 0
172 196 0
173 197 0
175 198 0
175 198 0
171 196 0
172 196 0
175 198 0
172 196 0
173 196 0
175 198 0
174 197 0
174 197 0
174 197 0
175 198 0
173 197 0
175 198 0
174 197 0
174 198 0
173 197 0
175 198 0
175 198 0
174 198 0
174 197 0
174 197 0
174 198 0
175 198 0
175 198 0
175 198 0
173 197 0
174 197 0
175 198 0
173 197 0
173 197 0
175 198 0
174 198 0
175 198 0
174 198 0
175 198 0
174 198 0
173 197 0
174 198 0
174 197 0
172 196 0
175 198 0
176 199 0
172 197 0
174 197 0
173 197 0
174 197 0
175 198 0
176 199 0
174 198 0
175 198 0
174 197 0
173 197 0
175 198 0
174 198 0
174 198 0
174 198 0
173 197 0
175 198 0
175 198 0
176 199 0
175 198 0
177 199 0
174 197 0
173 197 0
173 197 0
175 198 0
173 197 0
173 197 0
175 198 0
173 197 0
176 198 0
173 197 0
173 197 0
174 198 0
176 198 0
176 199 0
175 198 0
174 198 0
175 198 0
174 198 0
175 198 0
175 198 0
174 197 0
174 198 0
174 198 0
174 197 0
173 197 0
174 198 0
173 197 0
173 197 0
172 196 0
176 199 0
175 198 0
175 198 0
174 198 0
173 197 0
176 198 0
175 198 0
175 198 0
175 198 0
174 197 0
174 197 0
174 198 0
173 197 0
174 198 0
175 198 0
175 198 0
174 198 0
176 199 0
175 198 0
174 198 0
176 198 0
174 197 0
175 198 0
174 198 0
177 199 0
174 197 0
173 197 0
175 198 0
173 197 0
173 197 0
173 197 0
173 197 0
175 198 0
174 198 0
174 198 0
174 198 0
174 198 0
174 197 0
175 198 0
176 199 0
174 198 0
175 198 0
172 196 0
176 199 0
175 198 0
175 198 0
175 198 0
174 198 0
174 197 0
174 198 0
174 197 0
174 198 0
173 197 0
175 198 0
174 197 0
174 198 0
174 197 0
174 198 0
172 196 0
174 197 0
175 198 0
173 197 0
174 198 0
174 198 0
173 196 0
174 198 0
174 198 0
173 197 0
174 197 0
175 198 0
174 198 0
175 198 0
174 197 0
173 197 0
175 198 0
175 198 0
174 198 0
173 197 0
173 197 0
174 197 0
172 196 0
176 198 0
172 196 0
175 198 0
173 197 0
172 196 0
174 198 0
173 197 0
176 198 0
174 198 0
175 198 0
174 197 0
174 198 0
173 197 0
175 198 0
172 196 0
176 199 0
174 198 0
174 198 0
172 196 0
175 198 0
176 199 0
174 198 0
174 198 0
175 197 0
173 197 0
173 197 0
173 196 0
174 197 0
173 197 0
173 197 0
173 197 0
175 198 0
173 197 0
174 198 0
173 197 0
175 198 0
175 198 0
175 198 0
172 196 0
173 197 0
173 197 0
173 197 0
172 196 0
175 198 0
175 198 0
172 196 0
174 197 0
172 196 0
173 197 0
174 197 0
171 195 0
172 197 0
171 196 0
175 198 0
172 197 0
176 198 0
173 197 0
173 197 0
174 197 0
174 197 0
174 197 0
172 195 0
174 198 0
174 196 0
171 196 0
174 197 0
174 197 0
173 197 0
173 196 0
174 198 0
172 196 0
175 198 0
173 196 0
176 198 0
171 194 0
175 198 0
174 197 0
174 197 0
174 198 0
173 197 0
173 197 0
174 197 0
176 198 0
175 198 0
175 198 0
174 197 0
173 197 0
175 198 0
174 198 0
174 197 0
174 197 0
174 197 0
173 197 0
175 198 0
174 197 0
173 197 0
173 197 0
174 197 0
174 197 0
175 198 0
172 195 0
174 197 0
175 198 0
172 196 0
171 196 0
173 197 0
175 197 0
173 196 0
171 194 0
174 197 0
174 197 0
173 196 0
173 197 0
174 198 0
173 197 0
175 198 0
176 198 0
175 198 0
174 197 0
173 196 0
175 198 0
174 197 0
173 197 0
174 198 0
174 198 0
174 198 0
174 197 0
174 196 0
173 197 0
170 194 0
172 195 0
174 198 0
174 197 0
174 197 0
173 197 0
173 197 0
174 198 0
174 198 0
172 197 0
174 198 0
173 197 0
173 197 0
174 197 0
173 196 0
173 197 0
174 197 0
174 197 0
175 198 0
174 198 0
174 198 0
175 198 0
173 197 0
174 197 0
173 196 0
174 198 0
175 197 0
174 197 0
175 198 0
174 198 0
174 197 0
174 197 0
174 197 0
173 196 0
174 197 0
174 198 0
174 198 0
174 197 0
174 197 0
174 197 0
174 198 0
173 197 0
174 197 0
175 198 0
174 198 0
175 198 0
173 197 0
174 197 0
174 197 0
174 198 0
174 197 0
170 194 0
174 198 0
173 197 0
176 199 0
175 198 0
173 197 0
173 197 0
173 197 0
175 198 0
173 197 0
175 198 0
174 197 0
173 196 0
174 197 0
173 196 0
175 198 0
173 196 0
172 196 0
173 196 0
173 197 0
174 197 0
172 197 0
175 198 0
174 198 0
173 197 0
173 197 0
174 197 0
174 197 0
176 199 0
174 198 0
174 198 0
173 196 0
174 197 0
172 196 0
172 196 0
173 197 0
175 198 0
173 196 0
173 197 0
175 197 0
173 197 0
176 199 0
174 198 0
173 197 0
173 197 0
174 197 0
173 197 0
175 198 0
173 197 0
174 198 0
173 197 0
174 197 0
173 197 0
174 196 0
174 197 0
176 199 0
172 196 0
176 198 0
175 198 0
174 198 0
174 197 0
174 198 0
174 197 0
175 198 0
175 198 0
174 197 0
174 198 0
174 198 0
174 197 0
175 198 0
175 198 0
175 198 0
175 198 0
175 197 0
174 198 0
175 197 0
174 198 0
174 198 0
176 199 0
175 198 0
173 197 0
176 199 0
175 198 0
174 198 0
174 197 0
175 198 0
174 197 0
174 197 0
174 197 0
175 198 0
173 197 0
176 198 0
173 197 0
174 198 0
175 198 0
174 197 0
173 197 0
173 197 0
173 197 0
174 197 0
172 196 0
172 196 0
174 198 0
173 197 0
174 198 0
176 199 0
175 198 0
174 197 0
176 199 0
172 196 0
174 198 0
173 197 0
172 196 0
173 197 0
174 197 0
176 199 0
175 198 0
171 195 0
174 197 0
174 197 0
175 198 0
174 198 0
175 198 0
