P3
400 225
255
204 226 255
204 226 255
204 226 255
204 226 255
204 226 255
204 226 255
204 226 255
204 226 255
204 226 255
204 226 255
204 226 255
204 226 255
204 226 255
204 226 255
204 226 255
203 226 255
203 226 255
203 226 255
203 226 255
203 226 255
203 226 255
203 226 255
203 226 255
203 225 255
203 225 255
203 225 255
203 225 255
203 225 255
203 225 255
203 225 255
203 225 255
203 225 255
202 225 255
202 225 255
202 225 255
202 225 255
202 225 255
202 225 255
202 225 255
202 225 255
202 225 255
202 225 255
202 225 255
202 225 255
202 225 255
202 225 255
202 225 255
202 225 255
201 225 255
201 225 255
201 225 255
201 225 255
201 224 255
201 224 255
201 224 255
201 224 255
201 224 255
201 224 255
201 224 255
201 224 255
201 224 255
201 224 255
201 224 255
200 224 255
200 224 255
200 224 255
200 224 255
200 224 255
200 224 255
200 224 255
200 224 255
200 224 255
200 224 255
200 224 255
200 224 255
200 224 255
200 224 255
200 224 255
199 224 255
199 224 255
199 223 255
199 223 255
199 223 255
199 223 255
199 223 255
199 223 255
199 223 255
199 223 255
199 223 255
199 223 255
199 223 255
199 223 255
198 223 255
198 223 255
198 223 255
198 223 255
198 223 255
198 223 255
198 223 255
198 223 255
198 223 255
198 223 255
198 223 255
198 223 255
198 223 255
198 223 255
197 223 255
197 222 255
197 222 255
197 222 255
197 222 255
197 222 255
197 222 255
197 222 255
197 222 255
197 222 255
197 222 255
197 222 255
197 222 255
197 222 255
197 222 255
196 222 255
196 222 255
196 222 255
196 222 255
196 222 255
196 222 255
196 222 255
196 222 255
196 222 255
196 222 255
196 222 255
196 222 255
196 222 255
196 222 255
196 221 255
196 221 255
195 221 255
195 221 255
195 221 255
195 221 255
195 221 255
195 221 255
195 221 255
195 221 255
195 221 255
195 221 255
195 221 255
195 221 255
195 221 255
195 221 255
195 221 255
195 221 255
195 221 255
195 221 255
194 221 255
194 221 255
194 221 255
194 221 255
194 221 255
194 221 255
194 221 255
194 221 255
194 221 255
194 221 255
194 221 255
194 221 255
194 221 255
194 221 255
194 221 255
194 221 255
194 221 255
194 221 255
194 221 255
194 221 255
194 221 255
194 221 255
194 220 255
194 220 255
194 220 255
194 220 255
194 220 255
194 220 255
194 220 255
194 220 255
194 220 255
193 220 255
193 220 255
193 220 255
193 220 255
193 220 255
193 220 255
193 220 255
193 220 255
193 220 255
193 220 255
193 220 255
193 220 255
193 220 255
193 220 255
193 220 255
193 220 255
193 220 255
193 220 255
193 220 255
193 220 255
193 220 255
193 220 255
193 220 255
193 220 255
193 220 255
193 220 255
193 220 255
193 220 255
194 220 255
194 220 255
194 220 255
194 220 255
194 220 255
194 220 255
194 220 255
194 220 255
194 221 255
194 221 255
194 221 255
194 221 255
194 221 255
194 221 255
194 221 255
194 221 255
194 221 255
194 221 255
194 221 255
194 221 255
194 221 255
194 221 255
194 221 255
194 221 255
194 221 255
194 221 255
194 221 255
194 221 255
194 221 255
194 221 255
194 221 255
195 221 255
195 221 255
195 221 255
195 221 255
195 221 255
195 221 255
195 221 255
195 221 255
195 221 255
195 221 255
195 221 255
195 221 255
195 221 255
195 221 255
195 221 255
195 221 255
195 221 255
195 221 255
196 221 255
196 221 255
196 222 255
196 222 255
196 222 255
196 222 255
196 222 255
196 222 255
196 222 255
196 222 255
196 222 255
196 222 255
196 222 255
196 222 255
196 222 255
196 222 255
197 222 255
197 222 255
197 222 255
197 222 255
197 222 255
197 222 255
197 222 255
197 222 255
197 222 255
197 222 255
197 222 255
197 222 255
197 222 255
197 222 255
197 223 255
198 223 255
198 223 255
198 223 255
198 223 255
198 223 255
198 223 255
198 223 255
198 223 255
198 223 255
198 223 255
198 223 255
198 223 255
198 223 255
198 223 255
199 223 255
199 223 255
199 223 255
199 223 255
199 223 255
199 223 255
199 223 255
199 223 255
199 223 255
199 223 255
199 223 255
199 223 255
199 224 255
199 224 255
199 224 255
200 224 255
200 224 255
200 224 255
200 224 255
200 224 255
200 224 255
200 224 255
200 224 255
200 224 255
200 224 255
200 224 255
200 224 255
200 224 255
200 224 255
201 224 255
201 224 255
201 224 255
201 224 255
201 224 255
201 224 255
201 224 255
201 224 255
201 224 255
201 224 255
201 225 255
201 225 255
201 225 255
201 225 255
201 225 255
202 225 255
202 225 255
202 225 255
202 225 255
202 225 255
202 225 255
202 225 255
202 225 255
202 225 255
202 225 255
202 225 255
202 225 255
202 225 255
202 225 255
202 225 255
202 225 255
203 225 255
203 225 255
203 225 255
203 225 255
203 225 255
203 225 255
203 225 255
203 225 255
203 225 255
203 226 255
203 226 255
203 226 255
203 226 255
203 226 255
203 226 255
203 226 255
203 226 255
204 226 255
204 226 255
204 226 255
204 226 255
204 226 255
204 226 255
204 226 255
204 226 255
204 226 255
204 226 255
204 226 255
204 226 255
204 226 255
204 226 255
204 226 255
204 226 255
204 226 255
204 226 255
204 226 255
204 226 255
204 226 255
204 226 255
204 226 255
204 226 255
204 226 255
204 226 255
204 226 255
204 226 255
204 226 255
204 226 255
204 226 255
204 226 255
204 226 255
203 226 255
203 226 255
203 226 255
203 226 255
203 226 255
203 226 255
203 226 255
203 225 255
203 225 255
203 225 255
203 225 255
203 225 255
203 225 255
203 225 255
203 225 255
203 225 255
202 225 255
202 225 255
202 225 255
202 225 255
202 225 255
202 225 255
202 225 255
202 225 255
202 225 255
202 225 255
202 225 255
202 225 255
202 225 255
202 225 255
202 225 255
202 225 255
201 225 255
201 225 255
201 225 255
201 225 255
201 225 255
201 224 255
201 224 255
201 224 255
201 224 255
201 224 255
201 224 255
201 224 255
201 224 255
201 224 255
201 224 255
200 224 255
200 224 255
200 224 255
200 224 255
200 224 255
200 224 255
200 224 255
200 224 255
200 224 255
200 224 255
200 224 255
200 224 255
200 224 255
200 224 255
200 224 255
199 224 255
199 224 255
199 223 255
199 223 255
199 223 255
199 223 255
199 223 255
199 223 255
199 223 255
199 223 255
199 223 255
199 223 255
199 223 255
199 223 255
198 223 255
198 223 255
198 223 255
198 223 255
198 223 255
198 223 255
198 223 255
198 223 255
198 223 255
198 223 255
198 223 255
198 223 255
198 223 255
198 223 255
197 223 255
197 222 255
197 222 255
197 222 255
197 222 255
197 222 255
197 222 255
197 222 255
197 222 255
197 222 255
197 222 255
197 222 255
197 222 255
197 222 255
197 222 255
196 222 255
196 222 255
196 222 255
196 222 255
196 222 255
196 222 255
196 222 255
196 222 255
196 222 255
196 222 255
196 222 255
196 222 255
196 222 255
196 222 255
196 222 255
196 221 255
195 221 255
195 221 255
195 221 255
195 221 255
195 221 255
195 221 255
195 221 255
195 221 255
195 221 255
195 221 255
195 221 255
195 221 255
195 221 255
195 221 255
195 221 255
195 221 255
195 221 255
195 221 255
195 221 255
194 221 255
194 221 255
194 221 255
194 221 255
194 221 255
194 221 255
194 221 255
194 221 255
194 221 255
194 221 255
194 221 255
194 221 255
194 221 255
194 221 255
194 221 255
194 221 255
194 221 255
194 221 255
194 221 255
194 221 255
194 221 255
194 221 255
194 221 255
194 221 255
194 221 255
194 220 255
194 220 255
194 220 255
194 220 255
194 220 255
194 220 255
194 220 255
194 220 255
194 220 255
194 220 255
194 220 255
194 220 255
194 220 255
194 220 255
194 220 255
194 220 255
194 220 255
194 220 255
194 220 255
194 220 255
194 220 255
194 220 255
194 220 255
194 220 255
194 220 255
194 220 255
194 220 255
194 220 255
194 220 255
194 220 255
194 220 255
194 220 255
194 220 255
194 220 255
194 221 255
194 221 255
194 221 255
194 221 255
194 221 255
194 221 255
194 221 255
194 221 255
194 221 255
194 221 255
194 221 255
194 221 255
194 221 255
194 221 255
194 221 255
194 221 255
194 221 255
194 221 255
194 221 255
194 221 255
194 221 255
194 221 255
194 221 255
194 221 255
195 221 255
195 221 255
195 221 255
195 221 255
195 221 255
195 221 255
195 221 255
195 221 255
195 221 255
195 221 255
195 221 255
195 221 255
195 221 255
195 221 255
195 221 255
195 221 255
195 221 255
195 221 255
195 221 255
195 221 255
196 221 255
196 222 255
196 222 255
196 222 255
196 222 255
196 222 255
196 222 255
196 222 255
196 222 255
196 222 255
196 222 255
196 222 255
196 222 255
196 222 255
196 222 255
196 222 255
197 222 255
197 222 255
197 222 255
197 222 255
197 222 255
197 222 255
197 222 255
197 222 255
197 222 255
197 222 255
197 222 255
197 222 255
197 222 255
197 222 255
197 223 255
198 223 255
198 223 255
198 223 255
198 223 255
198 223 255
198 223 255
198 223 255
198 223 255
198 223 255
198 223 255
198 223 255
198 223 255
198 223 255
198 223 255
199 223 255
199 223 255
199 223 255
199 223 255
199 223 255
199 223 255
199 223 255
199 223 255
199 223 255
199 223 255
199 223 255
199 223 255
199 224 255
199 224 255
199 224 255
200 224 255
200 224 255
200 224 255
200 224 255
200 224 255
200 224 255
200 224 255
200 224 255
200 224 255
200 224 255
200 224 255
200 224 255
200 224 255
200 224 255
201 224 255
201 224 255
201 224 255
201 224 255
201 224 255
201 224 255
201 224 255
201 224 255
201 224 255
201 224 255
201 225 255
201 225 255
201 225 255
201 225 255
201 225 255
202 225 255
202 225 255
202 225 255
202 225 255
202 225 255
202 225 255
202 225 255
202 225 255
202 225 255
202 225 255
202 225 255
202 225 255
202 225 255
202 225 255
202 225 255
202 225 255
203 225 255
203 225 255
203 225 255
203 225 255
203 225 255
203 225 255
203 225 255
203 225 255
203 225 255
203 226 255
203 226 255
203 226 255
203 226 255
203 226 255
203 226 255
203 226 255
204 226 255
204 226 255
204 226 255
204 226 255
204 226 255
204 226 255
204 226 255
204 226 255
204 226 255
204 226 255
204 226 255
204 226 255
204 226 255
204 226 255
204 226 255
204 226 255
204 226 255
204 226 255
205 226 255
205 226 255
204 226 255
204 226 255
204 226 255
204 226 255
204 226 255
204 226 255
204 226 255
204 226 255
204 226 255
204 226 255
204 226 255
204 226 255
204 226 255
204 226 255
204 226 255
204 226 255
204 226 255
204 226 255
203 226 255
203 226 255
203 226 255
203 226 255
203 226 255
203 226 255
203 226 255
203 225 255
203 225 255
203 225 255
203 225 255
203 225 255
203 225 255
203 225 255
203 225 255
203 225 255
202 225 255
202 225 255
202 225 255
202 225 255
202 225 255
202 225 255
202 225 255
202 225 255
202 225 255
202 225 255
202 225 255
202 225 255
202 225 255
202 225 255
202 225 255
202 225 255
201 225 255
201 225 255
201 225 255
201 225 255
201 225 255
201 224 255
201 224 255
201 224 255
201 224 255
201 224 255
201 224 255
201 224 255
201 224 255
201 224 255
201 224 255
200 224 255
200 224 255
200 224 255
200 224 255
200 224 255
200 224 255
200 224 255
200 224 255
200 224 255
200 224 255
200 224 255
200 224 255
200 224 255
200 224 255
200 224 255
199 224 255
199 224 255
199 223 255
199 223 255
199 223 255
199 223 255
199 223 255
199 223 255
199 223 255
199 223 255
199 223 255
199 223 255
199 223 255
199 223 255
198 223 255
198 223 255
198 223 255
198 223 255
198 223 255
198 223 255
198 223 255
198 223 255
198 223 255
198 223 255
198 223 255
198 223 255
198 223 255
198 223 255
197 223 255
197 222 255
197 222 255
197 222 255
197 222 255
197 222 255
197 222 255
197 222 255
197 222 255
197 222 255
197 222 255
197 222 255
197 222 255
197 222 255
197 222 255
196 222 255
196 222 255
196 222 255
196 222 255
196 222 255
196 222 255
196 222 255
196 222 255
196 222 255
196 222 255
196 222 255
196 222 255
196 222 255
196 222 255
196 222 255
196 221 255
195 221 255
195 221 255
195 221 255
195 221 255
195 221 255
195 221 255
195 221 255
195 221 255
195 221 255
195 221 255
195 221 255
195 221 255
195 221 255
195 221 255
195 221 255
195 221 255
195 221 255
195 221 255
195 221 255
195 221 255
194 221 255
194 221 255
194 221 255
194 221 255
194 221 255
194 221 255
194 221 255
194 221 255
194 221 255
194 221 255
194 221 255
194 221 255
194 221 255
194 221 255
194 221 255
194 221 255
194 221 255
194 221 255
194 221 255
194 221 255
194 221 255
194 221 255
194 221 255
194 221 255
194 221 255
194 221 255
194 221 255
194 221 255
194 221 255
194 221 255
194 221 255
194 220 255
194 220 255
194 220 255
194 220 255
194 220 255
194 220 255
194 220 255
194 220 255
194 220 255
194 220 255
194 220 255
194 220 255
194 220 255
194 220 255
194 220 255
194 220 255
194 221 255
194 221 255
194 221 255
194 221 255
194 221 255
194 221 255
194 221 255
194 221 255
194 221 255
194 221 255
194 221 255
194 221 255
194 221 255
194 221 255
194 221 255
194 221 255
194 221 255
194 221 255
194 221 255
194 221 255
194 221 255
194 221 255
194 221 255
194 221 255
194 221 255
194 221 255
194 221 255
194 221 255
194 221 255
194 221 255
195 221 255
195 221 255
195 221 255
195 221 255
195 221 255
195 221 255
195 221 255
195 221 255
195 221 255
195 221 255
195 221 255
195 221 255
195 221 255
195 221 255
195 221 255
195 221 255
195 221 255
195 221 255
195 221 255
195 221 255
196 221 255
196 221 255
196 222 255
196 222 255
196 222 255
196 222 255
196 222 255
196 222 255
196 222 255
196 222 255
196 222 255
196 222 255
196 222 255
196 222 255
196 222 255
196 222 255
196 222 255
197 222 255
197 222 255
197 222 255
197 222 255
197 222 255
197 222 255
197 222 255
197 222 255
197 222 255
197 222 255
197 222 255
197 222 255
197 222 255
197 222 255
197 223 255
198 223 255
198 223 255
198 223 255
198 223 255
198 223 255
198 223 255
198 223 255
198 223 255
198 223 255
198 223 255
198 223 255
198 223 255
198 223 255
198 223 255
199 223 255
199 223 255
199 223 255
199 223 255
199 223 255
199 223 255
199 223 255
199 223 255
199 223 255
199 223 255
199 223 255
199 223 255
199 224 255
199 224 255
200 224 255
200 224 255
200 224 255
200 224 255
200 224 255
200 224 255
200 224 255
200 224 255
200 224 255
200 224 255
200 224 255
200 224 255
200 224 255
200 224 255
200 224 255
201 224 255
201 224 255
201 224 255
201 224 255
201 224 255
201 224 255
201 224 255
201 224 255
201 224 255
201 224 255
201 225 255
201 225 255
201 225 255
201 225 255
201 225 255
202 225 255
202 225 255
202 225 255
202 225 255
202 225 255
202 225 255
202 225 255
202 225 255
202 225 255
202 225 255
202 225 255
202 225 255
202 225 255
202 225 255
202 225 255
203 225 255
203 225 255
203 225 255
203 225 255
203 225 255
203 225 255
203 225 255
203 225 255
203 225 255
203 225 255
203 226 255
203 226 255
203 226 255
203 226 255
203 226 255
203 226 255
203 226 255
204 226 255
204 226 255
204 226 255
204 226 255
204 226 255
204 226 255
204 226 255
204 226 255
204 226 255
204 226 255
204 226 255
204 226 255
204 226 255
204 226 255
204 226 255
204 226 255
204 226 255
204 226 255
205 226 255
205 226 255
205 226 255
205 226 255
205 226 255
205 226 255
204 226 255
204 226 255
204 226 255
204 226 255
204 226 255
204 226 255
204 226 255
204 226 255
204 226 255
204 226 255
204 226 255
204 226 255
204 226 255
204 226 255
204 226 255
204 226 255
204 226 255
204 226 255
203 226 255
203 226 255
203 226 255
203 226 255
203 226 255
203 226 255
203 226 255
203 226 255
203 225 255
203 225 255
203 225 255
203 225 255
203 225 255
203 225 255
203 225 255
203 225 255
203 225 255
202 225 255
202 225 255
202 225 255
202 225 255
202 225 255
202 225 255
202 225 255
202 225 255
202 225 255
202 225 255
202 225 255
202 225 255
202 225 255
202 225 255
202 225 255
201 225 255
201 225 255
201 225 255
201 225 255
201 225 255
201 224 255
201 224 255
201 224 255
201 224 255
201 224 255
201 224 255
201 224 255
201 224 255
201 224 255
201 224 255
200 224 255
200 224 255
200 224 255
200 224 255
200 224 255
200 224 255
200 224 255
200 224 255
200 224 255
200 224 255
200 224 255
200 224 255
200 224 255
200 224 255
200 224 255
199 224 255
199 224 255
199 223 255
199 223 255
199 223 255
199 223 255
199 223 255
199 223 255
199 223 255
199 223 255
199 223 255
199 223 255
199 223 255
199 223 255
198 223 255
198 223 255
198 223 255
198 223 255
198 223 255
198 223 255
198 223 255
198 223 255
198 223 255
198 223 255
198 223 255
198 223 255
198 223 255
198 223 255
197 223 255
197 222 255
197 222 255
197 222 255
197 222 255
197 222 255
197 222 255
197 222 255
197 222 255
197 222 255
197 222 255
197 222 255
197 222 255
197 222 255
197 222 255
196 222 255
196 222 255
196 222 255
196 222 255
196 222 255
196 222 255
196 222 255
196 222 255
196 222 255
196 222 255
196 222 255
196 222 255
196 222 255
196 222 255
196 222 255
196 221 255
196 221 255
195 221 255
195 221 255
195 221 255
195 221 255
195 221 255
195 221 255
195 221 255
195 221 255
195 221 255
195 221 255
195 221 255
195 221 255
195 221 255
195 221 255
195 221 255
195 221 255
195 221 255
195 221 255
195 221 255
195 221 255
195 221 255
194 221 255
194 221 255
194 221 255
194 221 255
194 221 255
194 221 255
194 221 255
194 221 255
194 221 255
194 221 255
194 221 255
194 221 255
194 221 255
194 221 255
194 221 255
194 221 255
194 221 255
194 221 255
194 221 255
194 221 255
194 221 255
194 221 255
194 221 255
194 221 255
194 221 255
194 221 255
194 221 255
194 221 255
194 221 255
194 221 255
194 221 255
194 221 255
194 221 255
194 221 255
194 221 255
194 221 255
194 221 255
194 221 255
194 221 255
194 221 255
194 221 255
194 221 255
194 221 255
194 221 255
194 221 255
194 221 255
194 221 255
194 221 255
194 221 255
194 221 255
194 221 255
194 221 255
194 221 255
194 221 255
194 221 255
194 221 255
194 221 255
194 221 255
194 221 255
194 221 255
194 221 255
194 221 255
194 221 255
194 221 255
194 221 255
194 221 255
194 221 255
194 221 255
194 221 255
194 221 255
195 221 255
195 221 255
195 221 255
195 221 255
195 221 255
195 221 255
195 221 255
195 221 255
195 221 255
195 221 255
195 221 255
195 221 255
195 221 255
195 221 255
195 221 255
195 221 255
195 221 255
195 221 255
195 221 255
195 221 255
195 221 255
196 221 255
196 221 255
196 222 255
196 222 255
196 222 255
196 222 255
196 222 255
196 222 255
196 222 255
196 222 255
196 222 255
196 222 255
196 222 255
196 222 255
196 222 255
196 222 255
196 222 255
197 222 255
197 222 255
197 222 255
197 222 255
197 222 255
197 222 255
197 222 255
197 222 255
197 222 255
197 222 255
197 222 255
197 222 255
197 222 255
197 222 255
197 223 255
198 223 255
198 223 255
198 223 255
198 223 255
198 223 255
198 223 255
198 223 255
198 223 255
198 223 255
198 223 255
198 223 255
198 223 255
198 223 255
198 223 255
199 223 255
199 223 255
199 223 255
199 223 255
199 223 255
199 223 255
199 223 255
199 223 255
199 223 255
199 223 255
199 223 255
199 223 255
199 224 255
199 224 255
200 224 255
200 224 255
200 224 255
200 224 255
200 224 255
200 224 255
200 224 255
200 224 255
200 224 255
200 224 255
200 224 255
200 224 255
200 224 255
200 224 255
200 224 255
201 224 255
201 224 255
201 224 255
201 224 255
201 224 255
201 224 255
201 224 255
201 224 255
201 224 255
201 224 255
201 225 255
201 225 255
201 225 255
201 225 255
201 225 255
202 225 255
202 225 255
202 225 255
202 225 255
202 225 255
202 225 255
202 225 255
202 225 255
202 225 255
202 225 255
202 225 255
202 225 255
202 225 255
202 225 255
202 225 255
203 225 255
203 225 255
203 225 255
203 225 255
203 225 255
203 225 255
203 225 255
203 225 255
203 225 255
203 226 255
203 226 255
203 226 255
203 226 255
203 226 255
203 226 255
203 226 255
203 226 255
204 226 255
204 226 255
204 226 255
204 226 255
204 226 255
204 226 255
204 226 255
204 226 255
204 226 255
204 226 255
204 226 255
204 226 255
204 226 255
204 226 255
204 226 255
204 226 255
204 226 255
204 226 255
205 226 255
205 226 255
205 226 255
205 226 255
205 226 255
205 226 255
205 226 255
205 226 255
205 226 255
205 226 255
205 226 255
204 226 255
204 226 255
204 226 255
204 226 255
204 226 255
204 226 255
204 226 255
204 226 255
204 226 255
204 226 255
204 226 255
204 226 255
204 226 255
204 226 255
204 226 255
204 226 255
204 226 255
204 226 255
203 226 255
203 226 255
203 226 255
203 226 255
203 226 255
203 226 255
203 226 255
203 225 255
203 225 255
203 225 255
203 225 255
203 225 255
203 225 255
203 225 255
203 225 255
203 225 255
202 225 255
202 225 255
202 225 255
202 225 255
202 225 255
202 225 255
202 225 255
202 225 255
202 225 255
202 225 255
202 225 255
202 225 255
202 225 255
202 225 255
202 225 255
201 225 255
201 225 255
201 225 255
201 225 255
201 225 255
201 224 255
201 224 255
201 224 255
201 224 255
201 224 255
201 224 255
201 224 255
201 224 255
201 224 255
201 224 255
200 224 255
200 224 255
200 224 255
200 224 255
200 224 255
200 224 255
200 224 255
200 224 255
200 224 255
200 224 255
200 224 255
200 224 255
200 224 255
200 224 255
200 224 255
199 224 255
199 224 255
199 223 255
199 223 255
199 223 255
199 223 255
199 223 255
199 223 255
199 223 255
199 223 255
199 223 255
199 223 255
199 223 255
199 223 255
198 223 255
198 223 255
198 223 255
198 223 255
198 223 255
198 223 255
198 223 255
198 223 255
198 223 255
198 223 255
198 223 255
198 223 255
198 223 255
198 223 255
197 223 255
197 222 255
197 222 255
197 222 255
197 222 255
197 222 255
197 222 255
197 222 255
197 222 255
197 222 255
197 222 255
197 222 255
197 222 255
197 222 255
197 222 255
197 222 255
196 222 255
196 222 255
196 222 255
196 222 255
196 222 255
196 222 255
196 222 255
196 222 255
196 222 255
196 222 255
196 222 255
196 222 255
196 222 255
196 222 255
196 222 255
196 221 255
196 221 255
195 221 255
195 221 255
195 221 255
195 221 255
195 221 255
195 221 255
195 221 255
195 221 255
195 221 255
195 221 255
195 221 255
195 221 255
195 221 255
195 221 255
195 221 255
195 221 255
195 221 255
195 221 255
195 221 255
195 221 255
195 221 255
195 221 255
194 221 255
194 221 255
194 221 255
194 221 255
194 221 255
194 221 255
194 221 255
194 221 255
194 221 255
194 221 255
194 221 255
194 221 255
194 221 255
194 221 255
194 221 255
194 221 255
194 221 255
194 221 255
194 221 255
194 221 255
194 221 255
194 221 255
194 221 255
194 221 255
194 221 255
194 221 255
194 221 255
194 221 255
194 221 255
194 221 255
194 221 255
194 221 255
194 221 255
194 221 255
194 221 255
194 221 255
194 221 255
194 221 255
194 221 255
194 221 255
194 221 255
194 221 255
194 221 255
194 221 255
194 221 255
194 221 255
194 221 255
194 221 255
194 221 255
194 221 255
194 221 255
194 221 255
194 221 255
194 221 255
194 221 255
194 221 255
194 221 255
194 221 255
194 221 255
194 221 255
194 221 255
194 221 255
195 221 255
195 221 255
195 221 255
195 221 255
195 221 255
195 221 255
195 221 255
195 221 255
195 221 255
195 221 255
195 221 255
195 221 255
195 221 255
195 221 255
195 221 255
195 221 255
195 221 255
195 221 255
195 221 255
195 221 255
195 221 255
195 221 255
196 221 255
196 221 255
196 222 255
196 222 255
196 222 255
196 222 255
196 222 255
196 222 255
196 222 255
196 222 255
196 222 255
196 222 255
196 222 255
196 222 255
196 222 255
196 222 255
196 222 255
197 222 255
197 222 255
197 222 255
197 222 255
197 222 255
197 222 255
197 222 255
197 222 255
197 222 255
197 222 255
197 222 255
197 222 255
197 222 255
197 222 255
197 222 255
198 223 255
198 223 255
198 223 255
198 223 255
198 223 255
198 223 255
198 223 255
198 223 255
198 223 255
198 223 255
198 223 255
198 223 255
198 223 255
198 223 255
198 223 255
199 223 255
199 223 255
199 223 255
199 223 255
199 223 255
199 223 255
199 223 255
199 223 255
199 223 255
199 223 255
199 223 255
199 223 255
199 224 255
199 224 255
200 224 255
200 224 255
200 224 255
200 224 255
200 224 255
200 224 255
200 224 255
200 224 255
200 224 255
200 224 255
200 224 255
200 224 255
200 224 255
200 224 255
200 224 255
201 224 255
201 224 255
201 224 255
201 224 255
201 224 255
201 224 255
201 224 255
201 224 255
201 224 255
201 224 255
201 225 255
201 225 255
201 225 255
201 225 255
201 225 255
202 225 255
202 225 255
202 225 255
202 225 255
202 225 255
202 225 255
202 225 255
202 225 255
202 225 255
202 225 255
202 225 255
202 225 255
202 225 255
202 225 255
202 225 255
203 225 255
203 225 255
203 225 255
203 225 255
203 225 255
203 225 255
203 225 255
203 225 255
203 225 255
203 226 255
203 226 255
203 226 255
203 226 255
203 226 255
203 226 255
203 226 255
203 226 255
204 226 255
204 226 255
204 226 255
204 226 255
204 226 255
204 226 255
204 226 255
204 226 255
204 226 255
204 226 255
204 226 255
204 226 255
204 226 255
204 226 255
204 226 255
204 226 255
204 226 255
205 226 255
205 226 255
205 226 255
205 226 255
205 226 255
205 226 255
205 226 255
205 227 255
205 227 255
205 226 255
205 226 255
205 226 255
205 226 255
205 226 255
205 226 255
205 226 255
204 226 255
204 226 255
204 226 255
204 226 255
204 226 255
204 226 255
204 226 255
204 226 255
204 226 255
204 226 255
204 226 255
204 226 255
204 226 255
204 226 255
204 226 255
204 226 255
204 226 255
204 226 255
203 226 255
203 226 255
203 226 255
203 226 255
203 226 255
203 226 255
203 226 255
203 225 255
203 225 255
203 225 255
203 225 255
203 225 255
203 225 255
203 225 255
203 225 255
203 225 255
202 225 255
202 225 255
202 225 255
202 225 255
202 225 255
202 225 255
202 225 255
202 225 255
202 225 255
202 225 255
202 225 255
202 225 255
202 225 255
202 225 255
202 225 255
201 225 255
201 225 255
201 225 255
201 225 255
201 225 255
201 224 255
201 224 255
201 224 255
201 224 255
201 224 255
201 224 255
201 224 255
201 224 255
201 224 255
201 224 255
200 224 255
200 224 255
200 224 255
200 224 255
200 224 255
200 224 255
200 224 255
200 224 255
200 224 255
200 224 255
200 224 255
200 224 255
200 224 255
200 224 255
200 224 255
199 224 255
199 224 255
199 223 255
199 223 255
199 223 255
199 223 255
199 223 255
199 223 255
199 223 255
199 223 255
199 223 255
199 223 255
199 223 255
199 223 255
198 223 255
198 223 255
198 223 255
198 223 255
198 223 255
198 223 255
198 223 255
198 223 255
198 223 255
198 223 255
198 223 255
198 223 255
198 223 255
198 223 255
198 223 255
197 222 255
197 222 255
197 222 255
197 222 255
197 222 255
197 222 255
197 222 255
197 222 255
197 222 255
197 222 255
197 222 255
197 222 255
197 222 255
197 222 255
197 222 255
196 222 255
196 222 255
196 222 255
196 222 255
196 222 255
196 222 255
196 222 255
196 222 255
196 222 255
196 222 255
196 222 255
196 222 255
196 222 255
196 222 255
196 222 255
196 222 255
196 221 255
195 221 255
195 221 255
195 221 255
195 221 255
195 221 255
195 221 255
195 221 255
195 221 255
195 221 255
195 221 255
195 221 255
195 221 255
195 221 255
195 221 255
195 221 255
195 221 255
195 221 255
195 221 255
195 221 255
195 221 255
195 221 255
195 221 255
195 221 255
195 221 255
194 221 255
194 221 255
194 221 255
194 221 255
194 221 255
194 221 255
194 221 255
194 221 255
194 221 255
194 221 255
194 221 255
194 221 255
194 221 255
194 221 255
194 221 255
194 221 255
194 221 255
194 221 255
194 221 255
194 221 255
194 221 255
194 221 255
194 221 255
194 221 255
194 221 255
194 221 255
194 221 255
194 221 255
194 221 255
194 221 255
194 221 255
194 221 255
194 221 255
194 221 255
194 221 255
194 221 255
194 221 255
194 221 255
194 221 255
194 221 255
194 221 255
194 221 255
194 221 255
194 221 255
194 221 255
194 221 255
194 221 255
194 221 255
194 221 255
194 221 255
194 221 255
194 221 255
194 221 255
194 221 255
195 221 255
195 221 255
195 221 255
195 221 255
195 221 255
195 221 255
195 221 255
195 221 255
195 221 255
195 221 255
195 221 255
195 221 255
195 221 255
195 221 255
195 221 255
195 221 255
195 221 255
195 221 255
195 221 255
195 221 255
195 221 255
195 221 255
195 221 255
196 221 255
196 221 255
196 222 255
196 222 255
196 222 255
196 222 255
196 222 255
196 222 255
196 222 255
196 222 255
196 222 255
196 222 255
196 222 255
196 222 255
196 222 255
196 222 255
196 222 255
196 222 255
197 222 255
197 222 255
197 222 255
197 222 255
197 222 255
197 222 255
197 222 255
197 222 255
197 222 255
197 222 255
197 222 255
197 222 255
197 222 255
197 222 255
197 222 255
198 223 255
198 223 255
198 223 255
198 223 255
198 223 255
198 223 255
198 223 255
198 223 255
198 223 255
198 223 255
198 223 255
198 223 255
198 223 255
198 223 255
198 223 255
199 223 255
199 223 255
199 223 255
199 223 255
199 223 255
199 223 255
199 223 255
199 223 255
199 223 255
199 223 255
199 223 255
199 223 255
199 224 255
199 224 255
200 224 255
200 224 255
200 224 255
200 224 255
200 224 255
200 224 255
200 224 255
200 224 255
200 224 255
200 224 255
200 224 255
200 224 255
200 224 255
200 224 255
201 224 255
201 224 255
201 224 255
201 224 255
201 224 255
201 224 255
201 224 255
201 224 255
201 224 255
201 224 255
201 224 255
201 225 255
201 225 255
201 225 255
201 225 255
202 225 255
202 225 255
202 225 255
202 225 255
202 225 255
202 225 255
202 225 255
202 225 255
202 225 255
202 225 255
202 225 255
202 225 255
202 225 255
202 225 255
202 225 255
202 225 255
203 225 255
203 225 255
203 225 255
203 225 255
203 225 255
203 225 255
203 225 255
203 225 255
203 225 255
203 226 255
203 226 255
203 226 255
203 226 255
203 226 255
203 226 255
203 226 255
204 226 255
204 226 255
204 226 255
204 226 255
204 226 255
204 226 255
204 226 255
204 226 255
204 226 255
204 226 255
204 226 255
204 226 255
204 226 255
204 226 255
204 226 255
204 226 255
204 226 255
204 226 255
205 226 255
205 226 255
205 226 255
205 226 255
205 226 255
205 226 255
205 226 255
205 227 255
205 227 255
205 227 255
205 227 255
205 227 255
205 227 255
205 226 255
205 226 255
205 226 255
205 226 255
205 226 255
205 226 255
205 226 255
205 226 255
204 226 255
204 226 255
204 226 255
204 226 255
204 226 255
204 226 255
204 226 255
204 226 255
204 226 255
204 226 255
204 226 255
204 226 255
204 226 255
204 226 255
204 226 255
204 226 255
204 226 255
203 226 255
203 226 255
203 226 255
203 226 255
203 226 255
203 226 255
203 226 255
203 225 255
203 225 255
203 225 255
203 225 255
203 225 255
203 225 255
203 225 255
203 225 255
203 225 255
202 225 255
202 225 255
202 225 255
202 225 255
202 225 255
202 225 255
202 225 255
202 225 255
202 225 255
202 225 255
202 225 255
202 225 255
202 225 255
202 225 255
202 225 255
202 225 255
201 225 255
201 225 255
201 225 255
201 225 255
201 224 255
201 224 255
201 224 255
201 224 255
201 224 255
201 224 255
201 224 255
201 224 255
201 224 255
201 224 255
201 224 255
200 224 255
200 224 255
200 224 255
200 224 255
200 224 255
200 224 255
200 224 255
200 224 255
200 224 255
200 224 255
200 224 255
200 224 255
200 224 255
200 224 255
199 224 255
199 224 255
199 223 255
199 223 255
199 223 255
199 223 255
199 223 255
199 223 255
199 223 255
199 223 255
199 223 255
199 223 255
199 223 255
199 223 255
198 223 255
198 223 255
198 223 255
198 223 255
198 223 255
198 223 255
198 223 255
198 223 255
198 223 255
198 223 255
198 223 255
198 223 255
198 223 255
198 223 255
198 223 255
197 222 255
197 222 255
197 222 255
197 222 255
197 222 255
197 222 255
197 222 255
197 222 255
197 222 255
197 222 255
197 222 255
197 222 255
197 222 255
197 222 255
197 222 255
196 222 255
196 222 255
196 222 255
196 222 255
196 222 255
196 222 255
196 222 255
196 222 255
196 222 255
196 222 255
196 222 255
196 222 255
196 222 255
196 222 255
196 222 255
196 222 255
196 221 255
196 221 255
195 221 255
195 221 255
195 221 255
195 221 255
195 221 255
195 221 255
195 221 255
195 221 255
195 221 255
195 221 255
195 221 255
195 221 255
195 221 255
195 221 255
195 221 255
195 221 255
195 221 255
195 221 255
195 221 255
195 221 255
195 221 255
195 221 255
195 221 255
195 221 255
195 221 255
195 221 255
194 221 255
194 221 255
194 221 255
194 221 255
194 221 255
194 221 255
194 221 255
194 221 255
194 221 255
194 221 255
194 221 255
194 221 255
194 221 255
194 221 255
194 221 255
194 221 255
194 221 255
194 221 255
194 221 255
194 221 255
194 221 255
194 221 255
194 221 255
194 221 255
194 221 255
194 221 255
194 221 255
194 221 255
194 221 255
194 221 255
194 221 255
194 221 255
194 221 255
194 221 255
194 221 255
194 221 255
194 221 255
194 221 255
194 221 255
194 221 255
194 221 255
194 221 255
194 221 255
194 221 255
195 221 255
195 221 255
195 221 255
195 221 255
195 221 255
195 221 255
195 221 255
195 221 255
195 221 255
195 221 255
195 221 255
195 221 255
195 221 255
195 221 255
195 221 255
195 221 255
195 221 255
195 221 255
195 221 255
195 221 255
195 221 255
195 221 255
195 221 255
195 221 255
195 221 255
195 221 255
196 221 255
196 222 255
196 222 255
196 222 255
196 222 255
196 222 255
196 222 255
196 222 255
196 222 255
196 222 255
196 222 255
196 222 255
196 222 255
196 222 255
196 222 255
196 222 255
196 222 255
196 222 255
197 222 255
197 222 255
197 222 255
197 222 255
197 222 255
197 222 255
197 222 255
197 222 255
197 222 255
197 222 255
197 222 255
197 222 255
197 222 255
197 222 255
197 222 255
198 223 255
198 223 255
198 223 255
198 223 255
198 223 255
198 223 255
198 223 255
198 223 255
198 223 255
198 223 255
198 223 255
198 223 255
198 223 255
198 223 255
198 223 255
199 223 255
199 223 255
199 223 255
199 223 255
199 223 255
199 223 255
199 223 255
199 223 255
199 223 255
199 223 255
199 223 255
199 223 255
199 224 255
199 224 255
200 224 255
200 224 255
200 224 255
200 224 255
200 224 255
200 224 255
200 224 255
200 224 255
200 224 255
200 224 255
200 224 255
200 224 255
200 224 255
200 224 255
200 224 255
201 224 255
201 224 255
201 224 255
201 224 255
201 224 255
201 224 255
201 224 255
201 224 255
201 224 255
201 224 255
201 225 255
201 225 255
201 225 255
201 225 255
202 225 255
202 225 255
202 225 255
202 225 255
202 225 255
202 225 255
202 225 255
202 225 255
202 225 255
202 225 255
202 225 255
202 225 255
202 225 255
202 225 255
202 225 255
202 225 255
203 225 255
203 225 255
203 225 255
203 225 255
203 225 255
203 225 255
203 225 255
203 225 255
203 225 255
203 226 255
203 226 255
203 226 255
203 226 255
203 226 255
203 226 255
203 226 255
204 226 255
204 226 255
204 226 255
204 226 255
204 226 255
204 226 255
204 226 255
204 226 255
204 226 255
204 226 255
204 226 255
204 226 255
204 226 255
204 226 255
204 226 255
204 226 255
204 226 255
205 226 255
205 226 255
205 226 255
205 226 255
205 226 255
205 226 255
205 226 255
205 226 255
205 227 255
205 227 255
205 227 255
205 227 255
205 227 255
205 227 255
205 227 255
205 227 255
205 227 255
205 227 255
205 227 255
205 226 255
205 226 255
205 226 255
205 226 255
205 226 255
205 226 255
205 226 255
204 226 255
204 226 255
204 226 255
204 226 255
204 226 255
204 226 255
204 226 255
204 226 255
204 226 255
204 226 255
204 226 255
204 226 255
204 226 255
204 226 255
204 226 255
204 226 255
204 226 255
203 226 255
203 226 255
203 226 255
203 226 255
203 226 255
203 226 255
203 226 255
203 226 255
203 225 255
203 225 255
203 225 255
203 225 255
203 225 255
203 225 255
203 225 255
203 225 255
203 225 255
202 225 255
202 225 255
202 225 255
202 225 255
202 225 255
202 225 255
202 225 255
202 225 255
202 225 255
202 225 255
202 225 255
202 225 255
202 225 255
202 225 255
202 225 255
201 225 255
201 225 255
201 225 255
201 225 255
201 224 255
201 224 255
201 224 255
201 224 255
201 224 255
201 224 255
201 224 255
201 224 255
201 224 255
201 224 255
201 224 255
200 224 255
200 224 255
200 224 255
200 224 255
200 224 255
200 224 255
200 224 255
200 224 255
200 224 255
200 224 255
200 224 255
200 224 255
200 224 255
200 224 255
199 224 255
199 224 255
199 223 255
199 223 255
199 223 255
199 223 255
199 223 255
199 223 255
199 223 255
199 223 255
199 223 255
199 223 255
199 223 255
199 223 255
199 223 255
198 223 255
198 223 255
198 223 255
198 223 255
198 223 255
198 223 255
198 223 255
198 223 255
198 223 255
198 223 255
198 223 255
198 223 255
198 223 255
198 223 255
197 223 255
197 222 255
197 222 255
197 222 255
197 222 255
197 222 255
197 222 255
197 222 255
197 222 255
197 222 255
197 222 255
197 222 255
197 222 255
197 222 255
197 222 255
197 222 255
196 222 255
196 222 255
196 222 255
196 222 255
196 222 255
196 222 255
196 222 255
196 222 255
196 222 255
196 222 255
196 222 255
196 222 255
196 222 255
196 222 255
196 222 255
196 222 255
196 222 255
196 221 255
195 221 255
195 221 255
195 221 255
195 221 255
195 221 255
195 221 255
195 221 255
195 221 255
195 221 255
195 221 255
195 221 255
195 221 255
195 221 255
195 221 255
195 221 255
195 221 255
195 221 255
195 221 255
195 221 255
195 221 255
195 221 255
195 221 255
195 221 255
195 221 255
195 221 255
195 221 255
195 221 255
195 221 255
195 221 255
195 221 255
194 221 255
194 221 255
194 221 255
194 221 255
194 221 255
194 221 255
194 221 255
194 221 255
194 221 255
194 221 255
194 221 255
194 221 255
194 221 255
194 221 255
194 221 255
194 221 255
194 221 255
194 221 255
194 221 255
194 221 255
194 221 255
194 221 255
194 221 255
194 221 255
194 221 255
194 221 255
194 221 255
194 221 255
194 221 255
194 221 255
195 221 255
195 221 255
195 221 255
195 221 255
195 221 255
195 221 255
195 221 255
195 221 255
195 221 255
195 221 255
195 221 255
195 221 255
195 221 255
195 221 255
195 221 255
195 221 255
195 221 255
195 221 255
195 221 255
195 221 255
195 221 255
195 221 255
195 221 255
195 221 255
195 221 255
195 221 255
195 221 255
195 221 255
195 221 255
195 221 255
196 221 255
196 222 255
196 222 255
196 222 255
196 222 255
196 222 255
196 222 255
196 222 255
196 222 255
196 222 255
196 222 255
196 222 255
196 222 255
196 222 255
196 222 255
196 222 255
196 222 255
196 222 255
197 222 255
197 222 255
197 222 255
197 222 255
197 222 255
197 222 255
197 222 255
197 222 255
197 222 255
197 222 255
197 222 255
197 222 255
197 222 255
197 222 255
197 222 255
197 222 255
198 223 255
198 223 255
198 223 255
198 223 255
198 223 255
198 223 255
198 223 255
198 223 255
198 223 255
198 223 255
198 223 255
198 223 255
198 223 255
198 223 255
198 223 255
199 223 255
199 223 255
199 223 255
199 223 255
199 223 255
199 223 255
199 223 255
199 223 255
199 223 255
199 223 255
199 223 255
199 223 255
199 224 255
199 224 255
200 224 255
200 224 255
200 224 255
200 224 255
200 224 255
200 224 255
200 224 255
200 224 255
200 224 255
200 224 255
200 224 255
200 224 255
200 224 255
200 224 255
201 224 255
201 224 255
201 224 255
201 224 255
201 224 255
201 224 255
201 224 255
201 224 255
201 224 255
201 224 255
201 224 255
201 225 255
201 225 255
201 225 255
201 225 255
202 225 255
202 225 255
202 225 255
202 225 255
202 225 255
202 225 255
202 225 255
202 225 255
202 225 255
202 225 255
202 225 255
202 225 255
202 225 255
202 225 255
202 225 255
203 225 255
203 225 255
203 225 255
203 225 255
203 225 255
203 225 255
203 225 255
203 225 255
203 225 255
203 226 255
203 226 255
203 226 255
203 226 255
203 226 255
203 226 255
203 226 255
203 226 255
204 226 255
204 226 255
204 226 255
204 226 255
204 226 255
204 226 255
204 226 255
204 226 255
204 226 255
204 226 255
204 226 255
204 226 255
204 226 255
204 226 255
204 226 255
204 226 255
204 226 255
205 226 255
205 226 255
205 226 255
205 226 255
205 226 255
205 226 255
205 226 255
205 227 255
205 227 255
205 227 255
205 227 255
205 227 255
205 227 255
205 227 255
205 227 255
205 227 255
205 227 255
205 227 255
205 227 255
205 227 255
205 227 255
205 227 255
205 227 255
205 226 255
205 226 255
205 226 255
205 226 255
205 226 255
205 226 255
205 226 255
204 226 255
204 226 255
204 226 255
204 226 255
204 226 255
204 226 255
204 226 255
204 226 255
204 226 255
204 226 255
204 226 255
204 226 255
204 226 255
204 226 255
204 226 255
204 226 255
204 226 255
204 226 255
203 226 255
203 226 255
203 226 255
203 226 255
203 226 255
203 226 255
203 226 255
203 225 255
203 225 255
203 225 255
203 225 255
203 225 255
203 225 255
203 225 255
203 225 255
203 225 255
202 225 255
202 225 255
202 225 255
202 225 255
202 225 255
202 225 255
202 225 255
202 225 255
202 225 255
202 225 255
202 225 255
202 225 255
202 225 255
202 225 255
202 225 255
201 225 255
201 225 255
201 225 255
201 225 255
201 225 255
201 224 255
201 224 255
201 224 255
201 224 255
201 224 255
201 224 255
201 224 255
201 224 255
201 224 255
201 224 255
200 224 255
200 224 255
200 224 255
200 224 255
200 224 255
200 224 255
200 224 255
200 224 255
200 224 255
200 224 255
200 224 255
200 224 255
200 224 255
200 224 255
199 224 255
199 224 255
199 224 255
199 223 255
199 223 255
199 223 255
199 223 255
199 223 255
199 223 255
199 223 255
199 223 255
199 223 255
199 223 255
199 223 255
199 223 255
198 223 255
198 223 255
198 223 255
198 223 255
198 223 255
198 223 255
198 223 255
198 223 255
198 223 255
198 223 255
198 223 255
198 223 255
198 223 255
198 223 255
197 223 255
197 222 255
197 222 255
197 222 255
197 222 255
197 222 255
197 222 255
197 222 255
197 222 255
197 222 255
197 222 255
197 222 255
197 222 255
197 222 255
197 222 255
197 222 255
196 222 255
196 222 255
196 222 255
196 222 255
196 222 255
196 222 255
196 222 255
196 222 255
196 222 255
196 222 255
196 222 255
196 222 255
196 222 255
196 222 255
196 222 255
196 222 255
196 222 255
196 222 255
196 221 255
195 221 255
195 221 255
195 221 255
195 221 255
195 221 255
195 221 255
195 221 255
195 221 255
195 221 255
195 221 255
195 221 255
195 221 255
195 221 255
195 221 255
195 221 255
195 221 255
195 221 255
195 221 255
195 221 255
195 221 255
195 221 255
195 221 255
195 221 255
195 221 255
195 221 255
195 221 255
195 221 255
195 221 255
195 221 255
195 221 255
195 221 255
195 221 255
195 221 255
195 221 255
195 221 255
195 221 255
195 221 255
195 221 255
195 221 255
195 221 255
195 221 255
195 221 255
195 221 255
195 221 255
195 221 255
195 221 255
195 221 255
195 221 255
195 221 255
195 221 255
195 221 255
195 221 255
195 221 255
195 221 255
195 221 255
195 221 255
195 221 255
195 221 255
195 221 255
195 221 255
195 221 255
195 221 255
195 221 255
195 221 255
195 221 255
195 221 255
195 221 255
195 221 255
195 221 255
195 221 255
195 221 255
195 221 255
195 221 255
195 221 255
195 221 255
195 221 255
195 221 255
195 221 255
195 221 255
195 221 255
195 221 255
195 221 255
195 221 255
195 221 255
196 221 255
196 222 255
196 222 255
196 222 255
196 222 255
196 222 255
196 222 255
196 222 255
196 222 255
196 222 255
196 222 255
196 222 255
196 222 255
196 222 255
196 222 255
196 222 255
196 222 255
196 222 255
197 222 255
197 222 255
197 222 255
197 222 255
197 222 255
197 222 255
197 222 255
197 222 255
197 222 255
197 222 255
197 222 255
197 222 255
197 222 255
197 222 255
197 222 255
197 222 255
197 223 255
198 223 255
198 223 255
198 223 255
198 223 255
198 223 255
198 223 255
198 223 255
198 223 255
198 223 255
198 223 255
198 223 255
198 223 255
198 223 255
198 223 255
199 223 255
199 223 255
199 223 255
199 223 255
199 223 255
199 223 255
199 223 255
199 223 255
199 223 255
199 223 255
199 223 255
199 223 255
199 224 255
199 224 255
199 224 255
200 224 255
200 224 255
200 224 255
200 224 255
200 224 255
200 224 255
200 224 255
200 224 255
200 224 255
200 224 255
200 224 255
200 224 255
200 224 255
200 224 255
201 224 255
201 224 255
201 224 255
201 224 255
201 224 255
201 224 255
201 224 255
201 224 255
201 224 255
201 224 255
201 225 255
201 225 255
201 225 255
201 225 255
201 225 255
202 225 255
202 225 255
202 225 255
202 225 255
202 225 255
202 225 255
202 225 255
202 225 255
202 225 255
202 225 255
202 225 255
202 225 255
202 225 255
202 225 255
202 225 255
203 225 255
203 225 255
203 225 255
203 225 255
203 225 255
203 225 255
203 225 255
203 225 255
203 225 255
203 226 255
203 226 255
203 226 255
203 226 255
203 226 255
203 226 255
203 226 255
204 226 255
204 226 255
204 226 255
204 226 255
204 226 255
204 226 255
204 226 255
204 226 255
204 226 255
204 226 255
204 226 255
204 226 255
204 226 255
204 226 255
204 226 255
204 226 255
204 226 255
204 226 255
205 226 255
205 226 255
205 226 255
205 226 255
205 226 255
205 226 255
205 226 255
205 227 255
205 227 255
205 227 255
205 227 255
205 227 255
205 227 255
205 227 255
205 227 255
205 227 255
205 227 255
205 227 255
205 227 255
205 227 255
205 227 255
205 227 255
205 227 255
205 227 255
205 227 255
205 227 255
205 227 255
205 227 255
205 226 255
205 226 255
205 226 255
205 226 255
205 226 255
205 226 255
205 226 255
204 226 255
204 226 255
204 226 255
204 226 255
204 226 255
204 226 255
204 226 255
204 226 255
204 226 255
204 226 255
204 226 255
204 226 255
204 226 255
204 226 255
204 226 255
204 226 255
204 226 255
203 226 255
203 226 255
203 226 255
203 226 255
203 226 255
203 226 255
203 226 255
203 225 255
203 225 255
203 225 255
203 225 255
203 225 255
203 225 255
203 225 255
203 225 255
203 225 255
202 225 255
202 225 255
202 225 255
202 225 255
202 225 255
202 225 255
202 225 255
202 225 255
202 225 255
202 225 255
202 225 255
202 225 255
202 225 255
202 225 255
202 225 255
201 225 255
201 225 255
201 225 255
201 225 255
201 225 255
201 224 255
201 224 255
201 224 255
201 224 255
201 224 255
201 224 255
201 224 255
201 224 255
201 224 255
201 224 255
200 224 255
200 224 255
200 224 255
200 224 255
200 224 255
200 224 255
200 224 255
200 224 255
200 224 255
200 224 255
200 224 255
200 224 255
200 224 255
200 224 255
199 224 255
199 224 255
199 224 255
199 223 255
199 223 255
199 223 255
199 223 255
199 223 255
199 223 255
199 223 255
199 223 255
199 223 255
199 223 255
199 223 255
199 223 255
198 223 255
198 223 255
198 223 255
198 223 255
198 223 255
198 223 255
198 223 255
198 223 255
198 223 255
198 223 255
198 223 255
198 223 255
198 223 255
198 223 255
198 223 255
197 222 255
197 222 255
197 222 255
197 222 255
197 222 255
197 222 255
197 222 255
197 222 255
197 222 255
197 222 255
197 222 255
197 222 255
197 222 255
197 222 255
197 222 255
197 222 255
196 222 255
196 222 255
196 222 255
196 222 255
196 222 255
196 222 255
196 222 255
196 222 255
196 222 255
196 222 255
196 222 255
196 222 255
196 222 255
196 222 255
196 222 255
196 222 255
196 222 255
196 222 255
196 221 255
196 221 255
195 221 255
195 221 255
195 221 255
195 221 255
195 221 255
195 221 255
195 221 255
195 221 255
195 221 255
195 221 255
195 221 255
195 221 255
195 221 255
195 221 255
195 221 255
195 221 255
195 221 255
195 221 255
195 221 255
195 221 255
195 221 255
195 221 255
195 221 255
195 221 255
195 221 255
195 221 255
195 221 255
195 221 255
195 221 255
195 221 255
195 221 255
195 221 255
195 221 255
195 221 255
195 221 255
195 221 255
195 221 255
195 221 255
195 221 255
195 221 255
195 221 255
195 221 255
195 221 255
195 221 255
195 221 255
195 221 255
195 221 255
195 221 255
195 221 255
195 221 255
195 221 255
195 221 255
195 221 255
195 221 255
195 221 255
195 221 255
195 221 255
195 221 255
195 221 255
195 221 255
195 221 255
195 221 255
195 221 255
195 221 255
195 221 255
195 221 255
195 221 255
195 221 255
195 221 255
195 221 255
195 221 255
195 221 255
195 221 255
195 221 255
195 221 255
195 221 255
196 221 255
196 221 255
196 222 255
196 222 255
196 222 255
196 222 255
196 222 255
196 222 255
196 222 255
196 222 255
196 222 255
196 222 255
196 222 255
196 222 255
196 222 255
196 222 255
196 222 255
196 222 255
196 222 255
196 222 255
197 222 255
197 222 255
197 222 255
197 222 255
197 222 255
197 222 255
197 222 255
197 222 255
197 222 255
197 222 255
197 222 255
197 222 255
197 222 255
197 222 255
197 222 255
197 222 255
198 223 255
198 223 255
198 223 255
198 223 255
198 223 255
198 223 255
198 223 255
198 223 255
198 223 255
198 223 255
198 223 255
198 223 255
198 223 255
198 223 255
198 223 255
199 223 255
199 223 255
199 223 255
199 223 255
199 223 255
199 223 255
199 223 255
199 223 255
199 223 255
199 223 255
199 223 255
199 223 255
199 224 255
199 224 255
199 224 255
200 224 255
200 224 255
200 224 255
200 224 255
200 224 255
200 224 255
200 224 255
200 224 255
200 224 255
200 224 255
200 224 255
200 224 255
200 224 255
200 224 255
201 224 255
201 224 255
201 224 255
201 224 255
201 224 255
201 224 255
201 224 255
201 224 255
201 224 255
201 224 255
201 225 255
201 225 255
201 225 255
201 225 255
201 225 255
202 225 255
202 225 255
202 225 255
202 225 255
202 225 255
202 225 255
202 225 255
202 225 255
202 225 255
202 225 255
202 225 255
202 225 255
202 225 255
202 225 255
202 225 255
203 225 255
203 225 255
203 225 255
203 225 255
203 225 255
203 225 255
203 225 255
203 225 255
203 225 255
203 226 255
203 226 255
203 226 255
203 226 255
203 226 255
203 226 255
203 226 255
204 226 255
204 226 255
204 226 255
204 226 255
204 226 255
204 226 255
204 226 255
204 226 255
204 226 255
204 226 255
204 226 255
204 226 255
204 226 255
204 226 255
204 226 255
204 226 255
204 226 255
205 226 255
205 226 255
205 226 255
205 226 255
205 226 255
205 226 255
205 226 255
205 227 255
205 227 255
205 227 255
205 227 255
205 227 255
205 227 255
205 227 255
205 227 255
205 227 255
205 227 255
205 227 255
205 227 255
206 227 255
206 227 255
206 227 255
205 227 255
205 227 255
205 227 255
205 227 255
205 227 255
205 227 255
205 227 255
205 227 255
205 227 255
205 227 255
205 227 255
205 226 255
205 226 255
205 226 255
205 226 255
205 226 255
205 226 255
205 226 255
204 226 255
204 226 255
204 226 255
204 226 255
204 226 255
204 226 255
204 226 255
204 226 255
204 226 255
204 226 255
204 226 255
204 226 255
204 226 255
204 226 255
204 226 255
204 226 255
204 226 255
203 226 255
203 226 255
203 226 255
203 226 255
203 226 255
203 226 255
203 226 255
203 226 255
203 225 255
203 225 255
203 225 255
203 225 255
203 225 255
203 225 255
203 225 255
203 225 255
202 225 255
202 225 255
202 225 255
202 225 255
202 225 255
202 225 255
202 225 255
202 225 255
202 225 255
202 225 255
202 225 255
202 225 255
202 225 255
202 225 255
202 225 255
202 225 255
201 225 255
201 225 255
201 225 255
201 225 255
201 224 255
201 224 255
201 224 255
201 224 255
201 224 255
201 224 255
201 224 255
201 224 255
201 224 255
201 224 255
200 224 255
200 224 255
200 224 255
200 224 255
200 224 255
200 224 255
200 224 255
200 224 255
200 224 255
200 224 255
200 224 255
200 224 255
200 224 255
200 224 255
200 224 255
199 224 255
199 224 255
199 223 255
199 223 255
199 223 255
199 223 255
199 223 255
199 223 255
199 223 255
199 223 255
199 223 255
199 223 255
199 223 255
199 223 255
198 223 255
198 223 255
198 223 255
198 223 255
198 223 255
198 223 255
198 223 255
198 223 255
198 223 255
198 223 255
198 223 255
198 223 255
198 223 255
198 223 255
198 223 255
197 223 255
197 222 255
197 222 255
197 222 255
197 222 255
197 222 255
197 222 255
197 222 255
197 222 255
197 222 255
197 222 255
197 222 255
197 222 255
197 222 255
197 222 255
197 222 255
197 222 255
196 222 255
196 222 255
196 222 255
196 222 255
196 222 255
196 222 255
196 222 255
196 222 255
196 222 255
196 222 255
196 222 255
196 222 255
196 222 255
196 222 255
196 222 255
196 222 255
196 222 255
196 222 255
196 221 255
196 221 255
196 221 255
195 221 255
195 221 255
195 221 255
195 221 255
195 221 255
195 221 255
195 221 255
195 221 255
195 221 255
195 221 255
195 221 255
195 221 255
195 221 255
195 221 255
195 221 255
195 221 255
195 221 255
195 221 255
195 221 255
195 221 255
195 221 255
195 221 255
195 221 255
195 221 255
195 221 255
195 221 255
195 221 255
195 221 255
195 221 255
195 221 255
195 221 255
195 221 255
195 221 255
195 221 255
195 221 255
195 221 255
195 221 255
195 221 255
195 221 255
195 221 255
195 221 255
195 221 255
195 221 255
195 221 255
195 221 255
195 221 255
195 221 255
195 221 255
195 221 255
195 221 255
195 221 255
195 221 255
195 221 255
195 221 255
195 221 255
195 221 255
195 221 255
195 221 255
195 221 255
195 221 255
195 221 255
195 221 255
195 221 255
195 221 255
195 221 255
195 221 255
195 221 255
195 221 255
196 221 255
196 221 255
196 221 255
196 222 255
196 222 255
196 222 255
196 222 255
196 222 255
196 222 255
196 222 255
196 222 255
196 222 255
196 222 255
196 222 255
196 222 255
196 222 255
196 222 255
196 222 255
196 222 255
196 222 255
196 222 255
197 222 255
197 222 255
197 222 255
197 222 255
197 222 255
197 222 255
197 222 255
197 222 255
197 222 255
197 222 255
197 222 255
197 222 255
197 222 255
197 222 255
197 222 255
197 222 255
197 223 255
198 223 255
198 223 255
198 223 255
198 223 255
198 223 255
198 223 255
198 223 255
198 223 255
198 223 255
198 223 255
198 223 255
198 223 255
198 223 255
198 223 255
198 223 255
199 223 255
199 223 255
199 223 255
199 223 255
199 223 255
199 223 255
199 223 255
199 223 255
199 223 255
199 223 255
199 223 255
199 223 255
199 224 255
199 224 255
200 224 255
200 224 255
200 224 255
200 224 255
200 224 255
200 224 255
200 224 255
200 224 255
200 224 255
200 224 255
200 224 255
200 224 255
200 224 255
200 224 255
200 224 255
201 224 255
201 224 255
201 224 255
201 224 255
201 224 255
201 224 255
201 224 255
201 224 255
201 224 255
201 224 255
201 225 255
201 225 255
201 225 255
201 225 255
202 225 255
202 225 255
202 225 255
202 225 255
202 225 255
202 225 255
202 225 255
202 225 255
202 225 255
202 225 255
202 225 255
202 225 255
202 225 255
202 225 255
202 225 255
202 225 255
203 225 255
203 225 255
203 225 255
203 225 255
203 225 255
203 225 255
203 225 255
203 225 255
203 226 255
203 226 255
203 226 255
203 226 255
203 226 255
203 226 255
203 226 255
203 226 255
204 226 255
204 226 255
204 226 255
204 226 255
204 226 255
204 226 255
204 226 255
204 226 255
204 226 255
204 226 255
204 226 255
204 226 255
204 226 255
204 226 255
204 226 255
204 226 255
204 226 255
205 226 255
205 226 255
205 226 255
205 226 255
205 226 255
205 226 255
205 226 255
205 227 255
205 227 255
205 227 255
205 227 255
205 227 255
205 227 255
205 227 255
205 227 255
205 227 255
205 227 255
205 227 255
206 227 255
206 227 255
206 227 255
206 227 255
206 227 255
206 227 255
206 227 255
206 227 255
205 227 255
205 227 255
205 227 255
205 227 255
205 227 255
205 227 255
205 227 255
205 227 255
205 227 255
205 227 255
205 227 255
205 226 255
205 226 255
205 226 255
205 226 255
205 226 255
205 226 255
205 226 255
205 226 255
204 226 255
204 226 255
204 226 255
204 226 255
204 226 255
204 226 255
204 226 255
204 226 255
204 226 255
204 226 255
204 226 255
204 226 255
204 226 255
204 226 255
204 226 255
204 226 255
204 226 255
203 226 255
203 226 255
203 226 255
203 226 255
203 226 255
203 226 255
203 226 255
203 225 255
203 225 255
203 225 255
203 225 255
203 225 255
203 225 255
203 225 255
203 225 255
203 225 255
202 225 255
202 225 255
202 225 255
202 225 255
202 225 255
202 225 255
202 225 255
202 225 255
202 225 255
202 225 255
202 225 255
202 225 255
202 225 255
202 225 255
202 225 255
201 225 255
201 225 255
201 225 255
201 225 255
201 224 255
201 224 255
201 224 255
201 224 255
201 224 255
201 224 255
201 224 255
201 224 255
201 224 255
201 224 255
201 224 255
200 224 255
200 224 255
200 224 255
200 224 255
200 224 255
200 224 255
200 224 255
200 224 255
200 224 255
200 224 255
200 224 255
200 224 255
200 224 255
200 224 255
199 224 255
199 224 255
199 223 255
199 223 255
199 223 255
199 223 255
199 223 255
199 223 255
199 223 255
199 223 255
199 223 255
199 223 255
199 223 255
199 223 255
198 223 255
198 223 255
198 223 255
198 223 255
198 223 255
198 223 255
198 223 255
198 223 255
198 223 255
198 223 255
198 223 255
198 223 255
198 223 255
198 223 255
198 223 255
198 223 255
197 222 255
197 222 255
197 222 255
197 222 255
197 222 255
197 222 255
197 222 255
197 222 255
197 222 255
197 222 255
197 222 255
197 222 255
197 222 255
197 222 255
197 222 255
197 222 255
197 222 255
196 222 255
196 222 255
196 222 255
196 222 255
196 222 255
196 222 255
196 222 255
196 222 255
196 222 255
196 222 255
196 222 255
196 222 255
196 222 255
196 222 255
196 222 255
196 222 255
196 222 255
196 222 255
196 222 255
196 222 255
196 221 255
196 221 255
195 221 255
195 221 255
195 221 255
195 221 255
195 221 255
195 221 255
195 221 255
195 221 255
195 221 255
195 221 255
195 221 255
195 221 255
195 221 255
195 221 255
195 221 255
195 221 255
195 221 255
195 221 255
195 221 255
195 221 255
195 221 255
195 221 255
195 221 255
195 221 255
195 221 255
195 221 255
195 221 255
195 221 255
195 221 255
195 221 255
195 221 255
195 221 255
195 221 255
195 221 255
195 221 255
195 221 255
195 221 255
195 221 255
195 221 255
195 221 255
195 221 255
195 221 255
195 221 255
195 221 255
195 221 255
195 221 255
195 221 255
195 221 255
195 221 255
195 221 255
195 221 255
195 221 255
195 221 255
195 221 255
195 221 255
195 221 255
195 221 255
195 221 255
195 221 255
195 221 255
196 221 255
196 221 255
196 222 255
196 222 255
196 222 255
196 222 255
196 222 255
196 222 255
196 222 255
196 222 255
196 222 255
196 222 255
196 222 255
196 222 255
196 222 255
196 222 255
196 222 255
196 222 255
196 222 255
196 222 255
196 222 255
196 222 255
197 222 255
197 222 255
197 222 255
197 222 255
197 222 255
197 222 255
197 222 255
197 222 255
197 222 255
197 222 255
197 222 255
197 222 255
197 222 255
197 222 255
197 222 255
197 222 255
197 222 255
198 223 255
198 223 255
198 223 255
198 223 255
198 223 255
198 223 255
198 223 255
198 223 255
198 223 255
198 223 255
198 223 255
198 223 255
198 223 255
198 223 255
198 223 255
198 223 255
199 223 255
199 223 255
199 223 255
199 223 255
199 223 255
199 223 255
199 223 255
199 223 255
199 223 255
199 223 255
199 223 255
199 223 255
199 224 255
199 224 255
200 224 255
200 224 255
200 224 255
200 224 255
200 224 255
200 224 255
200 224 255
200 224 255
200 224 255
200 224 255
200 224 255
200 224 255
200 224 255
200 224 255
200 224 255
201 224 255
201 224 255
201 224 255
201 224 255
201 224 255
201 224 255
201 224 255
201 224 255
201 224 255
201 224 255
201 225 255
201 225 255
201 225 255
201 225 255
202 225 255
202 225 255
202 225 255
202 225 255
202 225 255
202 225 255
202 225 255
202 225 255
202 225 255
202 225 255
202 225 255
202 225 255
202 225 255
202 225 255
202 225 255
203 225 255
203 225 255
203 225 255
203 225 255
203 225 255
203 225 255
203 225 255
203 225 255
203 225 255
203 226 255
203 226 255
203 226 255
203 226 255
203 226 255
203 226 255
203 226 255
204 226 255
204 226 255
204 226 255
204 226 255
204 226 255
204 226 255
204 226 255
204 226 255
204 226 255
204 226 255
204 226 255
204 226 255
204 226 255
204 226 255
204 226 255
204 226 255
204 226 255
205 226 255
205 226 255
205 226 255
205 226 255
205 226 255
205 226 255
205 226 255
205 227 255
205 227 255
205 227 255
205 227 255
205 227 255
205 227 255
205 227 255
205 227 255
205 227 255
205 227 255
205 227 255
206 227 255
206 227 255
206 227 255
206 227 255
206 227 255
206 227 255
206 227 255
206 227 255
206 227 255
206 227 255
206 227 255
206 227 255
206 227 255
206 227 255
205 227 255
205 227 255
205 227 255
205 227 255
205 227 255
205 227 255
205 227 255
205 227 255
205 227 255
205 227 255
205 227 255
205 226 255
205 226 255
205 226 255
205 226 255
205 226 255
205 226 255
205 226 255
204 226 255
204 226 255
204 226 255
204 226 255
204 226 255
204 226 255
204 226 255
204 226 255
204 226 255
204 226 255
204 226 255
204 226 255
204 226 255
204 226 255
204 226 255
204 226 255
204 226 255
203 226 255
203 226 255
203 226 255
203 226 255
203 226 255
203 226 255
203 226 255
203 225 255
203 225 255
203 225 255
203 225 255
203 225 255
203 225 255
203 225 255
203 225 255
203 225 255
202 225 255
202 225 255
202 225 255
202 225 255
202 225 255
202 225 255
202 225 255
202 225 255
202 225 255
202 225 255
202 225 255
202 225 255
202 225 255
202 225 255
202 225 255
201 225 255
201 225 255
201 225 255
201 225 255
201 224 255
201 224 255
201 224 255
201 224 255
201 224 255
201 224 255
201 224 255
201 224 255
201 224 255
201 224 255
201 224 255
200 224 255
200 224 255
200 224 255
200 224 255
200 224 255
200 224 255
200 224 255
200 224 255
200 224 255
200 224 255
200 224 255
200 224 255
200 224 255
200 224 255
199 224 255
199 224 255
199 223 255
199 223 255
199 223 255
199 223 255
199 223 255
199 223 255
199 223 255
199 223 255
199 223 255
199 223 255
199 223 255
199 223 255
199 223 255
198 223 255
198 223 255
198 223 255
198 223 255
198 223 255
198 223 255
198 223 255
198 223 255
198 223 255
198 223 255
198 223 255
198 223 255
198 223 255
198 223 255
198 223 255
197 223 255
197 222 255
197 222 255
197 222 255
197 222 255
197 222 255
197 222 255
197 222 255
197 222 255
197 222 255
197 222 255
197 222 255
197 222 255
197 222 255
197 222 255
197 222 255
197 222 255
197 222 255
196 222 255
196 222 255
196 222 255
196 222 255
196 222 255
196 222 255
196 222 255
196 222 255
196 222 255
196 222 255
196 222 255
196 222 255
196 222 255
196 222 255
196 222 255
196 222 255
196 222 255
196 222 255
196 222 255
196 222 255
196 222 255
196 221 255
196 221 255
196 221 255
195 221 255
195 221 255
195 221 255
195 221 255
195 221 255
195 221 255
195 221 255
195 221 255
195 221 255
195 221 255
195 221 255
195 221 255
195 221 255
195 221 255
195 221 255
195 221 255
195 221 255
195 221 255
195 221 255
195 221 255
195 221 255
195 221 255
195 221 255
195 221 255
195 221 255
195 221 255
195 221 255
195 221 255
195 221 255
195 221 255
195 221 255
195 221 255
195 221 255
195 221 255
195 221 255
195 221 255
195 221 255
195 221 255
195 221 255
195 221 255
195 221 255
195 221 255
195 221 255
195 221 255
195 221 255
195 221 255
195 221 255
195 221 255
195 221 255
195 221 255
196 221 255
196 221 255
196 221 255
196 222 255
196 222 255
196 222 255
196 222 255
196 222 255
196 222 255
196 222 255
196 222 255
196 222 255
196 222 255
196 222 255
196 222 255
196 222 255
196 222 255
196 222 255
196 222 255
196 222 255
196 222 255
196 222 255
196 222 255
196 222 255
197 222 255
197 222 255
197 222 255
197 222 255
197 222 255
197 222 255
197 222 255
197 222 255
197 222 255
197 222 255
197 222 255
197 222 255
197 222 255
197 222 255
197 222 255
197 222 255
197 222 255
197 223 255
198 223 255
198 223 255
198 223 255
198 223 255
198 223 255
198 223 255
198 223 255
198 223 255
198 223 255
198 223 255
198 223 255
198 223 255
198 223 255
198 223 255
198 223 255
199 223 255
199 223 255
199 223 255
199 223 255
199 223 255
199 223 255
199 223 255
199 223 255
199 223 255
199 223 255
199 223 255
199 223 255
199 223 255
199 224 255
199 224 255
200 224 255
200 224 255
200 224 255
200 224 255
200 224 255
200 224 255
200 224 255
200 224 255
200 224 255
200 224 255
200 224 255
200 224 255
200 224 255
200 224 255
201 224 255
201 224 255
201 224 255
201 224 255
201 224 255
201 224 255
201 224 255
201 224 255
201 224 255
201 224 255
201 224 255
201 225 255
201 225 255
201 225 255
201 225 255
202 225 255
202 225 255
202 225 255
202 225 255
202 225 255
202 225 255
202 225 255
202 225 255
202 225 255
202 225 255
202 225 255
202 225 255
202 225 255
202 225 255
202 225 255
203 225 255
203 225 255
203 225 255
203 225 255
203 225 255
203 225 255
203 225 255
203 225 255
203 225 255
203 226 255
203 226 255
203 226 255
203 226 255
203 226 255
203 226 255
203 226 255
204 226 255
204 226 255
204 226 255
204 226 255
204 226 255
204 226 255
204 226 255
204 226 255
204 226 255
204 226 255
204 226 255
204 226 255
204 226 255
204 226 255
204 226 255
204 226 255
204 226 255
205 226 255
205 226 255
205 226 255
205 226 255
205 226 255
205 226 255
205 226 255
205 227 255
205 227 255
205 227 255
205 227 255
205 227 255
205 227 255
205 227 255
205 227 255
205 227 255
205 227 255
205 227 255
206 227 255
206 227 255
206 227 255
206 227 255
206 227 255
206 227 255
206 227 255
206 227 255
206 227 255
206 227 255
206 227 255
206 227 255
206 227 255
206 227 255
206 227 255
206 227 255
206 227 255
206 227 255
206 227 255
205 227 255
205 227 255
205 227 255
205 227 255
205 227 255
205 227 255
205 227 255
205 227 255
205 227 255
205 227 255
205 227 255
205 226 255
205 226 255
205 226 255
205 226 255
205 226 255
205 226 255
205 226 255
204 226 255
204 226 255
204 226 255
204 226 255
204 226 255
204 226 255
204 226 255
204 226 255
204 226 255
204 226 255
204 226 255
204 226 255
204 226 255
204 226 255
204 226 255
204 226 255
204 226 255
203 226 255
203 226 255
203 226 255
203 226 255
203 226 255
203 226 255
203 226 255
203 225 255
203 225 255
203 225 255
203 225 255
203 225 255
203 225 255
203 225 255
203 225 255
202 225 255
202 225 255
202 225 255
202 225 255
202 225 255
202 225 255
202 225 255
202 225 255
202 225 255
202 225 255
202 225 255
202 225 255
202 225 255
202 225 255
202 225 255
201 225 255
201 225 255
201 225 255
201 225 255
201 225 255
201 224 255
201 224 255
201 224 255
201 224 255
201 224 255
201 224 255
201 224 255
201 224 255
201 224 255
201 224 255
200 224 255
200 224 255
200 224 255
200 224 255
200 224 255
200 224 255
200 224 255
200 224 255
200 224 255
200 224 255
200 224 255
200 224 255
200 224 255
200 224 255
200 224 255
199 224 255
199 224 255
199 223 255
199 223 255
199 223 255
199 223 255
199 223 255
199 223 255
199 223 255
199 223 255
199 223 255
199 223 255
199 223 255
199 223 255
198 223 255
198 223 255
198 223 255
198 223 255
198 223 255
198 223 255
198 223 255
198 223 255
198 223 255
198 223 255
198 223 255
198 223 255
198 223 255
198 223 255
198 223 255
198 223 255
197 222 255
197 222 255
197 222 255
197 222 255
197 222 255
197 222 255
197 222 255
197 222 255
197 222 255
197 222 255
197 222 255
197 222 255
197 222 255
197 222 255
197 222 255
197 222 255
197 222 255
197 222 255
196 222 255
196 222 255
196 222 255
196 222 255
196 222 255
196 222 255
196 222 255
196 222 255
196 222 255
196 222 255
196 222 255
196 222 255
196 222 255
196 222 255
196 222 255
196 222 255
196 222 255
196 222 255
196 222 255
196 222 255
196 222 255
196 222 255
196 222 255
196 221 255
196 221 255
196 221 255
196 221 255
195 221 255
195 221 255
195 221 255
195 221 255
195 221 255
195 221 255
195 221 255
195 221 255
195 221 255
195 221 255
195 221 255
195 221 255
195 221 255
195 221 255
195 221 255
195 221 255
195 221 255
195 221 255
195 221 255
195 221 255
195 221 255
195 221 255
195 221 255
195 221 255
195 221 255
195 221 255
195 221 255
195 221 255
195 221 255
195 221 255
195 221 255
195 221 255
195 221 255
195 221 255
195 221 255
195 221 255
195 221 255
195 221 255
196 221 255
196 221 255
196 221 255
196 222 255
196 222 255
196 222 255
196 222 255
196 222 255
196 222 255
196 222 255
196 222 255
196 222 255
196 222 255
196 222 255
196 222 255
196 222 255
196 222 255
196 222 255
196 222 255
196 222 255
196 222 255
196 222 255
196 222 255
196 222 255
196 222 255
196 222 255
196 222 255
197 222 255
197 222 255
197 222 255
197 222 255
197 222 255
197 222 255
197 222 255
197 222 255
197 222 255
197 222 255
197 222 255
197 222 255
197 222 255
197 222 255
197 222 255
197 222 255
197 222 255
197 222 255
198 223 255
198 223 255
198 223 255
198 223 255
198 223 255
198 223 255
198 223 255
198 223 255
198 223 255
198 223 255
198 223 255
198 223 255
198 223 255
198 223 255
198 223 255
198 223 255
199 223 255
199 223 255
199 223 255
199 223 255
199 223 255
199 223 255
199 223 255
199 223 255
199 223 255
199 223 255
199 223 255
199 223 255
199 224 255
199 224 255
199 224 255
200 224 255
200 224 255
200 224 255
200 224 255
200 224 255
200 224 255
200 224 255
200 224 255
200 224 255
200 224 255
200 224 255
200 224 255
200 224 255
200 224 255
201 224 255
201 224 255
201 224 255
201 224 255
201 224 255
201 224 255
201 224 255
201 224 255
201 224 255
201 224 255
201 225 255
201 225 255
201 225 255
201 225 255
201 225 255
202 225 255
202 225 255
202 225 255
202 225 255
202 225 255
202 225 255
202 225 255
202 225 255
202 225 255
202 225 255
202 225 255
202 225 255
202 225 255
202 225 255
202 225 255
203 225 255
203 225 255
203 225 255
203 225 255
203 225 255
203 225 255
203 225 255
203 225 255
203 226 255
203 226 255
203 226 255
203 226 255
203 226 255
203 226 255
203 226 255
204 226 255
204 226 255
204 226 255
204 226 255
204 226 255
204 226 255
204 226 255
204 226 255
204 226 255
204 226 255
204 226 255
204 226 255
204 226 255
204 226 255
204 226 255
204 226 255
204 226 255
205 226 255
205 226 255
205 226 255
205 226 255
205 226 255
205 226 255
205 226 255
205 227 255
205 227 255
205 227 255
205 227 255
205 227 255
205 227 255
205 227 255
205 227 255
205 227 255
205 227 255
205 227 255
206 227 255
206 227 255
206 227 255
206 227 255
206 227 255
206 227 255
206 227 255
206 227 255
206 227 255
206 227 255
206 227 255
206 227 255
206 227 255
206 227 255
206 227 255
206 227 255
206 227 255
206 227 255
206 227 255
206 227 255
206 227 255
206 227 255
206 227 255
206 227 255
205 227 255
205 227 255
205 227 255
205 227 255
205 227 255
205 227 255
205 227 255
205 227 255
205 227 255
205 227 255
205 227 255
205 226 255
205 226 255
205 226 255
205 226 255
205 226 255
205 226 255
205 226 255
204 226 255
204 226 255
204 226 255
204 226 255
204 226 255
204 226 255
204 226 255
204 226 255
204 226 255
204 226 255
204 226 255
204 226 255
204 226 255
204 226 255
204 226 255
204 226 255
204 226 255
203 226 255
203 226 255
203 226 255
203 226 255
203 226 255
203 226 255
203 226 255
203 225 255
203 225 255
203 225 255
203 225 255
203 225 255
203 225 255
203 225 255
203 225 255
203 225 255
202 225 255
202 225 255
202 225 255
202 225 255
202 225 255
202 225 255
202 225 255
202 225 255
202 225 255
202 225 255
202 225 255
202 225 255
202 225 255
202 225 255
202 225 255
201 225 255
201 225 255
201 225 255
201 225 255
201 224 255
201 224 255
201 224 255
201 224 255
201 224 255
201 224 255
201 224 255
201 224 255
201 224 255
201 224 255
200 224 255
200 224 255
200 224 255
200 224 255
200 224 255
200 224 255
200 224 255
200 224 255
200 224 255
200 224 255
200 224 255
200 224 255
200 224 255
200 224 255
200 224 255
199 224 255
199 224 255
199 223 255
199 223 255
199 223 255
199 223 255
199 223 255
199 223 255
199 223 255
199 223 255
199 223 255
199 223 255
199 223 255
199 223 255
199 223 255
198 223 255
198 223 255
198 223 255
198 223 255
198 223 255
198 223 255
198 223 255
198 223 255
198 223 255
198 223 255
198 223 255
198 223 255
198 223 255
198 223 255
198 223 255
197 223 255
197 222 255
197 222 255
197 222 255
197 222 255
197 222 255
197 222 255
197 222 255
197 222 255
197 222 255
197 222 255
197 222 255
197 222 255
197 222 255
197 222 255
197 222 255
197 222 255
197 222 255
197 222 255
196 222 255
196 222 255
196 222 255
196 222 255
196 222 255
196 222 255
196 222 255
196 222 255
196 222 255
196 222 255
196 222 255
196 222 255
196 222 255
196 222 255
196 222 255
196 222 255
196 222 255
196 222 255
196 222 255
196 222 255
196 222 255
196 222 255
196 222 255
196 222 255
196 222 255
196 222 255
196 222 255
196 221 255
196 221 255
196 221 255
196 221 255
196 221 255
196 221 255
195 221 255
195 221 255
195 221 255
195 221 255
195 221 255
195 221 255
195 221 255
195 221 255
195 221 255
195 221 255
195 221 255
195 221 255
195 221 255
195 221 255
195 221 255
195 221 255
195 221 255
195 221 255
195 221 255
195 221 255
196 221 255
196 221 255
196 221 255
196 221 255
196 221 255
196 221 255
196 222 255
196 222 255
196 222 255
196 222 255
196 222 255
196 222 255
196 222 255
196 222 255
196 222 255
196 222 255
196 222 255
196 222 255
196 222 255
196 222 255
196 222 255
196 222 255
196 222 255
196 222 255
196 222 255
196 222 255
196 222 255
196 222 255
196 222 255
196 222 255
196 222 255
196 222 255
196 222 255
197 222 255
197 222 255
197 222 255
197 222 255
197 222 255
197 222 255
197 222 255
197 222 255
197 222 255
197 222 255
197 222 255
197 222 255
197 222 255
197 222 255
197 222 255
197 222 255
197 222 255
197 222 255
197 223 255
198 223 255
198 223 255
198 223 255
198 223 255
198 223 255
198 223 255
198 223 255
198 223 255
198 223 255
198 223 255
198 223 255
198 223 255
198 223 255
198 223 255
198 223 255
198 223 255
199 223 255
199 223 255
199 223 255
199 223 255
199 223 255
199 223 255
199 223 255
199 223 255
199 223 255
199 223 255
199 223 255
199 223 255
199 224 255
199 224 255
200 224 255
200 224 255
200 224 255
200 224 255
200 224 255
200 224 255
200 224 255
200 224 255
200 224 255
200 224 255
200 224 255
200 224 255
200 224 255
200 224 255
200 224 255
201 224 255
201 224 255
201 224 255
201 224 255
201 224 255
201 224 255
201 224 255
201 224 255
201 224 255
201 224 255
201 225 255
201 225 255
201 225 255
201 225 255
202 225 255
202 225 255
202 225 255
202 225 255
202 225 255
202 225 255
202 225 255
202 225 255
202 225 255
202 225 255
202 225 255
202 225 255
202 225 255
202 225 255
202 225 255
203 225 255
203 225 255
203 225 255
203 225 255
203 225 255
203 225 255
203 225 255
203 225 255
203 225 255
203 226 255
203 226 255
203 226 255
203 226 255
203 226 255
203 226 255
203 226 255
204 226 255
204 226 255
204 226 255
204 226 255
204 226 255
204 226 255
204 226 255
204 226 255
204 226 255
204 226 255
204 226 255
204 226 255
204 226 255
204 226 255
204 226 255
204 226 255
204 226 255
205 226 255
205 226 255
205 226 255
205 226 255
205 226 255
205 226 255
205 226 255
205 227 255
205 227 255
205 227 255
205 227 255
205 227 255
205 227 255
205 227 255
205 227 255
205 227 255
205 227 255
205 227 255
206 227 255
206 227 255
206 227 255
206 227 255
206 227 255
206 227 255
206 227 255
206 227 255
206 227 255
206 227 255
206 227 255
206 227 255
206 227 255
206 227 255
206 227 255
206 227 255
206 227 255
206 227 255
206 227 255
206 227 255
206 227 255
206 227 255
206 227 255
206 227 255
206 227 255
206 227 255
206 227 255
206 227 255
206 227 255
205 227 255
205 227 255
205 227 255
205 227 255
205 227 255
205 227 255
205 227 255
205 227 255
205 227 255
205 227 255
205 227 255
205 226 255
205 226 255
205 226 255
205 226 255
205 226 255
205 226 255
205 226 255
204 226 255
204 226 255
204 226 255
204 226 255
204 226 255
204 226 255
204 226 255
204 226 255
204 226 255
204 226 255
204 226 255
204 226 255
204 226 255
204 226 255
204 226 255
204 226 255
203 226 255
203 226 255
203 226 255
203 226 255
203 226 255
203 226 255
203 226 255
203 225 255
203 225 255
203 225 255
203 225 255
203 225 255
203 225 255
203 225 255
203 225 255
203 225 255
202 225 255
202 225 255
202 225 255
202 225 255
202 225 255
202 225 255
202 225 255
202 225 255
202 225 255
202 225 255
202 225 255
202 225 255
202 225 255
202 225 255
202 225 255
201 225 255
201 225 255
201 225 255
201 225 255
201 224 255
201 224 255
201 224 255
201 224 255
201 224 255
201 224 255
201 224 255
201 224 255
201 224 255
201 224 255
200 224 255
200 224 255
200 224 255
200 224 255
200 224 255
200 224 255
200 224 255
200 224 255
200 224 255
200 224 255
200 224 255
200 224 255
200 224 255
200 224 255
200 224 255
199 224 255
199 224 255
199 223 255
199 223 255
199 223 255
199 223 255
199 223 255
199 223 255
199 223 255
199 223 255
199 223 255
199 223 255
199 223 255
199 223 255
199 223 255
198 223 255
198 223 255
198 223 255
198 223 255
198 223 255
198 223 255
198 223 255
198 223 255
198 223 255
198 223 255
198 223 255
198 223 255
198 223 255
198 223 255
198 223 255
198 223 255
197 223 255
197 222 255
197 222 255
197 222 255
197 222 255
197 222 255
197 222 255
197 222 255
197 222 255
197 222 255
197 222 255
197 222 255
197 222 255
197 222 255
197 222 255
197 222 255
197 222 255
197 222 255
197 222 255
197 222 255
196 222 255
196 222 255
196 222 255
196 222 255
196 222 255
196 222 255
196 222 255
196 222 255
196 222 255
196 222 255
196 222 255
196 222 255
196 222 255
196 222 255
196 222 255
196 222 255
196 222 255
196 222 255
196 222 255
196 222 255
196 222 255
196 222 255
196 222 255
196 222 255
196 222 255
196 222 255
196 222 255
196 222 255
196 222 255
196 222 255
196 222 255
196 222 255
196 222 255
196 222 255
196 222 255
196 222 255
196 222 255
196 222 255
196 222 255
196 222 255
196 222 255
196 222 255
196 222 255
196 222 255
196 222 255
196 222 255
196 222 255
196 222 255
196 222 255
196 222 255
196 222 255
196 222 255
196 222 255
196 222 255
196 222 255
196 222 255
196 222 255
196 222 255
196 222 255
196 222 255
196 222 255
196 222 255
196 222 255
196 222 255
196 222 255
196 222 255
196 222 255
196 222 255
196 222 255
196 222 255
196 222 255
196 222 255
196 222 255
196 222 255
196 222 255
196 222 255
196 222 255
196 222 255
197 222 255
197 222 255
197 222 255
197 222 255
197 222 255
197 222 255
197 222 255
197 222 255
197 222 255
197 222 255
197 222 255
197 222 255
197 222 255
197 222 255
197 222 255
197 222 255
197 222 255
197 222 255
197 222 255
197 223 255
198 223 255
198 223 255
198 223 255
198 223 255
198 223 255
198 223 255
198 223 255
198 223 255
198 223 255
198 223 255
198 223 255
198 223 255
198 223 255
198 223 255
198 223 255
198 223 255
199 223 255
199 223 255
199 223 255
199 223 255
199 223 255
199 223 255
199 223 255
199 223 255
199 223 255
199 223 255
199 223 255
199 223 255
199 224 255
199 224 255
199 224 255
200 224 255
200 224 255
200 224 255
200 224 255
200 224 255
200 224 255
200 224 255
200 224 255
200 224 255
200 224 255
200 224 255
200 224 255
200 224 255
200 224 255
200 224 255
201 224 255
201 224 255
201 224 255
201 224 255
201 224 255
201 224 255
201 224 255
201 224 255
201 224 255
201 224 255
201 225 255
201 225 255
201 225 255
201 225 255
202 225 255
202 225 255
202 225 255
202 225 255
202 225 255
202 225 255
202 225 255
202 225 255
202 225 255
202 225 255
202 225 255
202 225 255
202 225 255
202 225 255
202 225 255
203 225 255
203 225 255
203 225 255
203 225 255
203 225 255
203 225 255
203 225 255
203 225 255
203 225 255
203 226 255
203 226 255
203 226 255
203 226 255
203 226 255
203 226 255
203 226 255
204 226 255
204 226 255
204 226 255
204 226 255
204 226 255
204 226 255
204 226 255
204 226 255
204 226 255
204 226 255
204 226 255
204 226 255
204 226 255
204 226 255
204 226 255
204 226 255
205 226 255
205 226 255
205 226 255
205 226 255
205 226 255
205 226 255
205 226 255
205 227 255
205 227 255
205 227 255
205 227 255
205 227 255
205 227 255
205 227 255
205 227 255
205 227 255
205 227 255
205 227 255
206 227 255
206 227 255
206 227 255
206 227 255
206 227 255
206 227 255
206 227 255
206 227 255
206 227 255
206 227 255
206 227 255
206 227 255
206 227 255
206 227 255
206 227 255
206 227 255
206 227 255
206 227 255
206 227 255
206 227 255
206 227 255
206 227 255
206 227 255
206 227 255
206 227 255
206 227 255
206 227 255
206 227 255
206 227 255
206 227 255
206 227 255
206 227 255
206 227 255
206 227 255
205 227 255
205 227 255
205 227 255
205 227 255
205 227 255
205 227 255
205 227 255
205 227 255
205 227 255
205 227 255
205 227 255
205 226 255
205 226 255
205 226 255
205 226 255
205 226 255
205 226 255
205 226 255
204 226 255
204 226 255
204 226 255
204 226 255
204 226 255
204 226 255
204 226 255
204 226 255
204 226 255
204 226 255
204 226 255
204 226 255
204 226 255
204 226 255
204 226 255
204 226 255
204 226 255
203 226 255
203 226 255
203 226 255
203 226 255
203 226 255
203 226 255
203 226 255
203 225 255
203 225 255
203 225 255
203 225 255
203 225 255
203 225 255
203 225 255
203 225 255
202 225 255
202 225 255
202 225 255
202 225 255
202 225 255
202 225 255
202 225 255
202 225 255
202 225 255
202 225 255
202 225 255
202 225 255
202 225 255
202 225 255
202 225 255
201 225 255
201 225 255
201 225 255
201 225 255
201 225 255
201 224 255
201 224 255
201 224 255
201 224 255
201 224 255
201 224 255
201 224 255
201 224 255
201 224 255
201 224 255
200 224 255
200 224 255
200 224 255
200 224 255
200 224 255
200 224 255
200 224 255
200 224 255
200 224 255
200 224 255
200 224 255
200 224 255
200 224 255
200 224 255
199 224 255
199 224 255
199 224 255
199 223 255
199 223 255
199 223 255
199 223 255
199 223 255
199 223 255
199 223 255
199 223 255
199 223 255
199 223 255
199 223 255
199 223 255
199 223 255
198 223 255
198 223 255
198 223 255
198 223 255
198 223 255
198 223 255
198 223 255
198 223 255
198 223 255
198 223 255
198 223 255
198 223 255
198 223 255
198 223 255
198 223 255
198 223 255
197 223 255
197 222 255
197 222 255
197 222 255
197 222 255
197 222 255
197 222 255
197 222 255
197 222 255
197 222 255
197 222 255
197 222 255
197 222 255
197 222 255
197 222 255
197 222 255
197 222 255
197 222 255
197 222 255
197 222 255
196 222 255
196 222 255
196 222 255
196 222 255
196 222 255
196 222 255
196 222 255
196 222 255
196 222 255
196 222 255
196 222 255
196 222 255
196 222 255
196 222 255
196 222 255
196 222 255
196 222 255
196 222 255
196 222 255
196 222 255
196 222 255
196 222 255
196 222 255
196 222 255
196 222 255
196 222 255
196 222 255
196 222 255
196 222 255
196 222 255
196 222 255
196 222 255
196 222 255
196 222 255
196 222 255
196 222 255
196 222 255
196 222 255
196 222 255
196 222 255
196 222 255
196 222 255
196 222 255
196 222 255
196 222 255
196 222 255
196 222 255
196 222 255
196 222 255
196 222 255
196 222 255
196 222 255
196 222 255
196 222 255
196 222 255
196 222 255
196 222 255
196 222 255
196 222 255
196 222 255
196 222 255
196 222 255
196 222 255
196 222 255
196 222 255
196 222 255
196 222 255
196 222 255
196 222 255
196 222 255
196 222 255
196 222 255
197 222 255
197 222 255
197 222 255
197 222 255
197 222 255
197 222 255
197 222 255
197 222 255
197 222 255
197 222 255
197 222 255
197 222 255
197 222 255
197 222 255
197 222 255
197 222 255
197 222 255
197 222 255
197 222 255
197 223 255
198 223 255
198 223 255
198 223 255
198 223 255
198 223 255
198 223 255
198 223 255
198 223 255
198 223 255
198 223 255
198 223 255
198 223 255
198 223 255
198 223 255
198 223 255
198 223 255
199 223 255
199 223 255
199 223 255
199 223 255
199 223 255
199 223 255
199 223 255
199 223 255
199 223 255
199 223 255
199 223 255
199 223 255
199 223 255
199 224 255
199 224 255
200 224 255
200 224 255
200 224 255
200 224 255
200 224 255
200 224 255
200 224 255
200 224 255
200 224 255
200 224 255
200 224 255
200 224 255
200 224 255
200 224 255
200 224 255
201 224 255
201 224 255
201 224 255
201 224 255
201 224 255
201 224 255
201 224 255
201 224 255
201 224 255
201 224 255
201 225 255
201 225 255
201 225 255
201 225 255
201 225 255
202 225 255
202 225 255
202 225 255
202 225 255
202 225 255
202 225 255
202 225 255
202 225 255
202 225 255
202 225 255
202 225 255
202 225 255
202 225 255
202 225 255
202 225 255
203 225 255
203 225 255
203 225 255
203 225 255
203 225 255
203 225 255
203 225 255
203 225 255
203 226 255
203 226 255
203 226 255
203 226 255
203 226 255
203 226 255
203 226 255
204 226 255
204 226 255
204 226 255
204 226 255
204 226 255
204 226 255
204 226 255
204 226 255
204 226 255
204 226 255
204 226 255
204 226 255
204 226 255
204 226 255
204 226 255
204 226 255
204 226 255
205 226 255
205 226 255
205 226 255
205 226 255
205 226 255
205 226 255
205 226 255
205 227 255
205 227 255
205 227 255
205 227 255
205 227 255
205 227 255
205 227 255
205 227 255
205 227 255
205 227 255
205 227 255
206 227 255
206 227 255
206 227 255
206 227 255
206 227 255
206 227 255
206 227 255
206 227 255
206 227 255
206 227 255
206 227 255
206 227 255
206 227 255
206 227 255
206 227 255
206 227 255
206 227 255
206 227 255
207 227 255
207 227 255
206 227 255
206 227 255
206 227 255
206 227 255
206 227 255
206 227 255
206 227 255
206 227 255
206 227 255
206 227 255
206 227 255
206 227 255
206 227 255
206 227 255
206 227 255
206 227 255
206 227 255
206 227 255
206 227 255
205 227 255
205 227 255
205 227 255
205 227 255
205 227 255
205 227 255
205 227 255
205 227 255
205 227 255
205 227 255
205 227 255
205 226 255
205 226 255
205 226 255
205 226 255
205 226 255
205 226 255
205 226 255
204 226 255
204 226 255
204 226 255
204 226 255
204 226 255
204 226 255
204 226 255
204 226 255
204 226 255
204 226 255
204 226 255
204 226 255
204 226 255
204 226 255
204 226 255
204 226 255
203 226 255
203 226 255
203 226 255
203 226 255
203 226 255
203 226 255
203 226 255
203 225 255
203 225 255
203 225 255
203 225 255
203 225 255
203 225 255
203 225 255
203 225 255
203 225 255
202 225 255
202 225 255
202 225 255
202 225 255
202 225 255
202 225 255
202 225 255
202 225 255
202 225 255
202 225 255
202 225 255
202 225 255
202 225 255
202 225 255
201 225 255
201 225 255
201 225 255
201 225 255
201 225 255
201 224 255
201 224 255
201 224 255
201 224 255
201 224 255
201 224 255
201 224 255
201 224 255
201 224 255
201 224 255
200 224 255
200 224 255
200 224 255
200 224 255
200 224 255
200 224 255
200 224 255
200 224 255
200 224 255
200 224 255
200 224 255
200 224 255
200 224 255
200 224 255
200 224 255
199 224 255
199 224 255
199 223 255
199 223 255
199 223 255
199 223 255
199 223 255
199 223 255
199 223 255
199 223 255
199 223 255
199 223 255
199 223 255
199 223 255
199 223 255
198 223 255
198 223 255
198 223 255
198 223 255
198 223 255
198 223 255
198 223 255
198 223 255
198 223 255
198 223 255
198 223 255
198 223 255
198 223 255
198 223 255
198 223 255
198 223 255
198 223 255
197 223 255
197 222 255
197 222 255
197 222 255
197 222 255
197 222 255
197 222 255
197 222 255
197 222 255
197 222 255
197 222 255
197 222 255
197 222 255
197 222 255
197 222 255
197 222 255
197 222 255
197 222 255
197 222 255
197 222 255
197 222 255
197 222 255
196 222 255
196 222 255
196 222 255
196 222 255
196 222 255
196 222 255
196 222 255
196 222 255
196 222 255
196 222 255
196 222 255
196 222 255
196 222 255
196 222 255
196 222 255
196 222 255
196 222 255
196 222 255
196 222 255
196 222 255
196 222 255
196 222 255
196 222 255
196 222 255
196 222 255
196 222 255
196 222 255
196 222 255
196 222 255
196 222 255
196 222 255
196 222 255
196 222 255
196 222 255
196 222 255
196 222 255
196 222 255
196 222 255
196 222 255
196 222 255
196 222 255
196 222 255
196 222 255
196 222 255
196 222 255
196 222 255
196 222 255
196 222 255
196 222 255
196 222 255
196 222 255
196 222 255
196 222 255
196 222 255
196 222 255
196 222 255
196 222 255
196 222 255
196 222 255
196 222 255
196 222 255
196 222 255
197 222 255
197 222 255
197 222 255
197 222 255
197 222 255
197 222 255
197 222 255
197 222 255
197 222 255
197 222 255
197 222 255
197 222 255
197 222 255
197 222 255
197 222 255
197 222 255
197 222 255
197 222 255
197 222 255
197 222 255
197 222 255
197 223 255
198 223 255
198 223 255
198 223 255
198 223 255
198 223 255
198 223 255
198 223 255
198 223 255
198 223 255
198 223 255
198 223 255
198 223 255
198 223 255
198 223 255
198 223 255
198 223 255
198 223 255
199 223 255
199 223 255
199 223 255
199 223 255
199 223 255
199 223 255
199 223 255
199 223 255
199 223 255
199 223 255
199 223 255
199 223 255
199 223 255
199 224 255
199 224 255
200 224 255
200 224 255
200 224 255
200 224 255
200 224 255
200 224 255
200 224 255
200 224 255
200 224 255
200 224 255
200 224 255
200 224 255
200 224 255
200 224 255
200 224 255
201 224 255
201 224 255
201 224 255
201 224 255
201 224 255
201 224 255
201 224 255
201 224 255
201 224 255
201 224 255
201 225 255
201 225 255
201 225 255
201 225 255
202 225 255
202 225 255
202 225 255
202 225 255
202 225 255
202 225 255
202 225 255
202 225 255
202 225 255
202 225 255
202 225 255
202 225 255
202 225 255
202 225 255
202 225 255
203 225 255
203 225 255
203 225 255
203 225 255
203 225 255
203 225 255
203 225 255
203 225 255
203 225 255
203 226 255
203 226 255
203 226 255
203 226 255
203 226 255
203 226 255
203 226 255
204 226 255
204 226 255
204 226 255
204 226 255
204 226 255
204 226 255
204 226 255
204 226 255
204 226 255
204 226 255
204 226 255
204 226 255
204 226 255
204 226 255
204 226 255
204 226 255
205 226 255
205 226 255
205 226 255
205 226 255
205 226 255
205 226 255
205 226 255
205 227 255
205 227 255
205 227 255
205 227 255
205 227 255
205 227 255
205 227 255
205 227 255
205 227 255
205 227 255
205 227 255
206 227 255
206 227 255
206 227 255
206 227 255
206 227 255
206 227 255
206 227 255
206 227 255
206 227 255
206 227 255
206 227 255
206 227 255
206 227 255
206 227 255
206 227 255
206 227 255
206 227 255
206 227 255
206 227 255
207 227 255
207 227 255
207 227 255
207 227 255
207 227 255
207 227 255
207 227 255
206 227 255
206 227 255
206 227 255
206 227 255
206 227 255
206 227 255
206 227 255
206 227 255
206 227 255
206 227 255
206 227 255
206 227 255
206 227 255
206 227 255
206 227 255
206 227 255
206 227 255
206 227 255
206 227 255
205 227 255
205 227 255
205 227 255
205 227 255
205 227 255
205 227 255
205 227 255
205 227 255
205 227 255
205 227 255
205 226 255
205 226 255
205 226 255
205 226 255
205 226 255
205 226 255
205 226 255
204 226 255
204 226 255
204 226 255
204 226 255
204 226 255
204 226 255
204 226 255
204 226 255
204 226 255
204 226 255
204 226 255
204 226 255
204 226 255
204 226 255
204 226 255
204 226 255
204 226 255
203 226 255
203 226 255
203 226 255
203 226 255
203 226 255
203 226 255
203 225 255
203 225 255
203 225 255
203 225 255
203 225 255
203 225 255
203 225 255
203 225 255
203 225 255
202 225 255
202 225 255
202 225 255
202 225 255
202 225 255
202 225 255
202 225 255
202 225 255
202 225 255
202 225 255
202 225 255
202 225 255
202 225 255
202 225 255
202 225 255
201 225 255
201 225 255
201 225 255
201 225 255
201 224 255
201 224 255
201 224 255
201 224 255
201 224 255
201 224 255
201 224 255
201 224 255
201 224 255
201 224 255
201 224 255
200 224 255
200 224 255
200 224 255
200 224 255
200 224 255
200 224 255
200 224 255
200 224 255
200 224 255
200 224 255
200 224 255
200 224 255
200 224 255
200 224 255
199 224 255
199 224 255
199 224 255
199 223 255
199 223 255
199 223 255
199 223 255
199 223 255
199 223 255
199 223 255
199 223 255
199 223 255
199 223 255
199 223 255
199 223 255
199 223 255
198 223 255
198 223 255
198 223 255
198 223 255
198 223 255
198 223 255
198 223 255
198 223 255
198 223 255
198 223 255
198 223 255
198 223 255
198 223 255
198 223 255
198 223 255
198 223 255
198 223 255
197 223 255
197 222 255
197 222 255
197 222 255
197 222 255
197 222 255
197 222 255
197 222 255
197 222 255
197 222 255
197 222 255
197 222 255
197 222 255
197 222 255
197 222 255
197 222 255
197 222 255
197 222 255
197 222 255
197 222 255
197 222 255
197 222 255
197 222 255
197 222 255
196 222 255
196 222 255
196 222 255
196 222 255
196 222 255
196 222 255
196 222 255
196 222 255
196 222 255
196 222 255
196 222 255
196 222 255
196 222 255
196 222 255
196 222 255
196 222 255
196 222 255
196 222 255
196 222 255
196 222 255
196 222 255
196 222 255
196 222 255
196 222 255
196 222 255
196 222 255
196 222 255
196 222 255
196 222 255
196 222 255
196 222 255
196 222 255
196 222 255
196 222 255
196 222 255
196 222 255
196 222 255
196 222 255
196 222 255
196 222 255
196 222 255
196 222 255
196 222 255
196 222 255
196 222 255
196 222 255
196 222 255
196 222 255
196 222 255
196 222 255
196 222 255
196 222 255
197 222 255
197 222 255
197 222 255
197 222 255
197 222 255
197 222 255
197 222 255
197 222 255
197 222 255
197 222 255
197 222 255
197 222 255
197 222 255
197 222 255
197 222 255
197 222 255
197 222 255
197 222 255
197 222 255
197 222 255
197 222 255
197 222 255
197 222 255
197 223 255
198 223 255
198 223 255
198 223 255
198 223 255
198 223 255
198 223 255
198 223 255
198 223 255
198 223 255
198 223 255
198 223 255
198 223 255
198 223 255
198 223 255
198 223 255
198 223 255
198 223 255
199 223 255
199 223 255
199 223 255
199 223 255
199 223 255
199 223 255
199 223 255
199 223 255
199 223 255
199 223 255
199 223 255
199 223 255
199 223 255
199 224 255
199 224 255
199 224 255
200 224 255
200 224 255
200 224 255
200 224 255
200 224 255
200 224 255
200 224 255
200 224 255
200 224 255
200 224 255
200 224 255
200 224 255
200 224 255
200 224 255
201 224 255
201 224 255
201 224 255
201 224 255
201 224 255
201 224 255
201 224 255
201 224 255
201 224 255
201 224 255
201 224 255
201 225 255
201 225 255
201 225 255
201 225 255
202 225 255
202 225 255
202 225 255
202 225 255
202 225 255
202 225 255
202 225 255
202 225 255
202 225 255
202 225 255
202 225 255
202 225 255
202 225 255
202 225 255
202 225 255
203 225 255
203 225 255
203 225 255
203 225 255
203 225 255
203 225 255
203 225 255
203 225 255
203 225 255
203 226 255
203 226 255
203 226 255
203 226 255
203 226 255
203 226 255
203 226 255
204 226 255
204 226 255
204 226 255
204 226 255
204 226 255
204 226 255
204 226 255
204 226 255
204 226 255
204 226 255
204 226 255
204 226 255
204 226 255
204 226 255
204 226 255
204 226 255
205 226 255
205 226 255
205 226 255
205 226 255
205 226 255
205 226 255
205 226 255
205 227 255
205 227 255
205 227 255
205 227 255
205 227 255
205 227 255
205 227 255
205 227 255
205 227 255
205 227 255
206 227 255
206 227 255
206 227 255
206 227 255
206 227 255
206 227 255
206 227 255
206 227 255
206 227 255
206 227 255
206 227 255
206 227 255
206 227 255
206 227 255
206 227 255
206 227 255
206 227 255
206 227 255
206 227 255
206 227 255
207 227 255
207 227 255
207 227 255
207 227 255
207 228 255
207 228 255
207 227 255
207 227 255
207 227 255
207 227 255
207 227 255
206 227 255
206 227 255
206 227 255
206 227 255
206 227 255
206 227 255
206 227 255
206 227 255
206 227 255
206 227 255
206 227 255
206 227 255
206 227 255
206 227 255
206 227 255
206 227 255
206 227 255
206 227 255
206 227 255
205 227 255
205 227 255
205 227 255
205 227 255
205 227 255
205 227 255
205 227 255
205 227 255
205 227 255
205 227 255
205 227 255
205 226 255
205 226 255
205 226 255
205 226 255
205 226 255
205 226 255
205 226 255
204 226 255
204 226 255
204 226 255
204 226 255
204 226 255
204 226 255
204 226 255
204 226 255
204 226 255
204 226 255
204 226 255
204 226 255
204 226 255
204 226 255
204 226 255
204 226 255
203 226 255
203 226 255
203 226 255
203 226 255
203 226 255
203 226 255
203 226 255
203 225 255
203 225 255
203 225 255
203 225 255
203 225 255
203 225 255
203 225 255
203 225 255
203 225 255
202 225 255
202 225 255
202 225 255
202 225 255
202 225 255
202 225 255
202 225 255
202 225 255
202 225 255
202 225 255
202 225 255
202 225 255
202 225 255
202 225 255
202 225 255
201 225 255
201 225 255
201 225 255
201 225 255
201 224 255
201 224 255
201 224 255
201 224 255
201 224 255
201 224 255
201 224 255
201 224 255
201 224 255
201 224 255
200 224 255
200 224 255
200 224 255
200 224 255
200 224 255
200 224 255
200 224 255
200 224 255
200 224 255
200 224 255
200 224 255
200 224 255
200 224 255
200 224 255
200 224 255
199 224 255
199 224 255
199 223 255
199 223 255
199 223 255
199 223 255
199 223 255
199 223 255
199 223 255
199 223 255
199 223 255
199 223 255
199 223 255
199 223 255
199 223 255
199 223 255
198 223 255
198 223 255
198 223 255
198 223 255
198 223 255
198 223 255
198 223 255
198 223 255
198 223 255
198 223 255
198 223 255
198 223 255
198 223 255
198 223 255
198 223 255
198 223 255
198 223 255
198 223 255
197 222 255
197 222 255
197 222 255
197 222 255
197 222 255
197 222 255
197 222 255
197 222 255
197 222 255
197 222 255
197 222 255
197 222 255
197 222 255
197 222 255
197 222 255
197 222 255
197 222 255
197 222 255
197 222 255
197 222 255
197 222 255
197 222 255
197 222 255
197 222 255
197 222 255
197 222 255
196 222 255
196 222 255
196 222 255
196 222 255
196 222 255
196 222 255
196 222 255
196 222 255
196 222 255
196 222 255
196 222 255
196 222 255
196 222 255
196 222 255
196 222 255
196 222 255
196 222 255
196 222 255
196 222 255
196 222 255
196 222 255
196 222 255
196 222 255
196 222 255
196 222 255
196 222 255
196 222 255
196 222 255
196 222 255
196 222 255
196 222 255
196 222 255
196 222 255
196 222 255
196 222 255
196 222 255
196 222 255
196 222 255
196 222 255
196 222 255
197 222 255
197 222 255
197 222 255
197 222 255
197 222 255
197 222 255
197 222 255
197 222 255
197 222 255
197 222 255
197 222 255
197 222 255
197 222 255
197 222 255
197 222 255
197 222 255
197 222 255
197 222 255
197 222 255
197 222 255
197 222 255
197 222 255
197 222 255
197 222 255
197 222 255
197 222 255
198 223 255
198 223 255
198 223 255
198 223 255
198 223 255
198 223 255
198 223 255
198 223 255
198 223 255
198 223 255
198 223 255
198 223 255
198 223 255
198 223 255
198 223 255
198 223 255
198 223 255
198 223 255
199 223 255
199 223 255
199 223 255
199 223 255
199 223 255
199 223 255
199 223 255
199 223 255
199 223 255
199 223 255
199 223 255
199 223 255
199 223 255
199 223 255
199 224 255
199 224 255
200 224 255
200 224 255
200 224 255
200 224 255
200 224 255
200 224 255
200 224 255
200 224 255
200 224 255
200 224 255
200 224 255
200 224 255
200 224 255
200 224 255
200 224 255
201 224 255
201 224 255
201 224 255
201 224 255
201 224 255
201 224 255
201 224 255
201 224 255
201 224 255
201 224 255
201 225 255
201 225 255
201 225 255
201 225 255
201 225 255
202 225 255
202 225 255
202 225 255
202 225 255
202 225 255
202 225 255
202 225 255
202 225 255
202 225 255
202 225 255
202 225 255
202 225 255
202 225 255
202 225 255
202 225 255
203 225 255
203 225 255
203 225 255
203 225 255
203 225 255
203 225 255
203 225 255
203 225 255
203 226 255
203 226 255
203 226 255
203 226 255
203 226 255
203 226 255
203 226 255
204 226 255
204 226 255
204 226 255
204 226 255
204 226 255
204 226 255
204 226 255
204 226 255
204 226 255
204 226 255
204 226 255
204 226 255
204 226 255
204 226 255
204 226 255
204 226 255
205 226 255
205 226 255
205 226 255
205 226 255
205 226 255
205 226 255
205 226 255
205 227 255
205 227 255
205 227 255
205 227 255
205 227 255
205 227 255
205 227 255
205 227 255
205 227 255
205 227 255
205 227 255
206 227 255
206 227 255
206 227 255
206 227 255
206 227 255
206 227 255
206 227 255
206 227 255
206 227 255
206 227 255
206 227 255
206 227 255
206 227 255
206 227 255
206 227 255
206 227 255
206 227 255
206 227 255
206 227 255
207 227 255
207 227 255
207 227 255
207 227 255
207 228 255
207 228 255
207 228 255
207 228 255
207 228 255
207 228 255
207 228 255
207 228 255
207 227 255
207 227 255
207 227 255
207 227 255
207 227 255
206 227 255
206 227 255
206 227 255
206 227 255
206 227 255
206 227 255
206 227 255
206 227 255
206 227 255
206 227 255
206 227 255
206 227 255
206 227 255
206 227 255
206 227 255
206 227 255
206 227 255
206 227 255
206 227 255
205 227 255
205 227 255
205 227 255
205 227 255
205 227 255
205 227 255
205 227 255
205 227 255
205 227 255
205 227 255
205 227 255
205 226 255
205 226 255
205 226 255
205 226 255
205 226 255
205 226 255
204 226 255
204 226 255
204 226 255
204 226 255
204 226 255
204 226 255
204 226 255
204 226 255
204 226 255
204 226 255
204 226 255
204 226 255
204 226 255
204 226 255
204 226 255
204 226 255
204 226 255
203 226 255
203 226 255
203 226 255
203 226 255
203 226 255
203 226 255
203 226 255
203 225 255
203 225 255
203 225 255
203 225 255
203 225 255
203 225 255
203 225 255
203 225 255
202 225 255
202 225 255
202 225 255
202 225 255
202 225 255
202 225 255
202 225 255
202 225 255
202 225 255
202 225 255
202 225 255
202 225 255
202 225 255
202 225 255
202 225 255
201 225 255
201 225 255
201 225 255
201 225 255
201 224 255
201 224 255
201 224 255
201 224 255
201 224 255
201 224 255
201 224 255
201 224 255
201 224 255
201 224 255
200 224 255
200 224 255
200 224 255
200 224 255
200 224 255
200 224 255
200 224 255
200 224 255
200 224 255
200 224 255
200 224 255
200 224 255
200 224 255
200 224 255
200 224 255
200 224 255
199 224 255
199 224 255
199 223 255
199 223 255
199 223 255
199 223 255
199 223 255
199 223 255
199 223 255
199 223 255
199 223 255
199 223 255
199 223 255
199 223 255
199 223 255
199 223 255
198 223 255
198 223 255
198 223 255
198 223 255
198 223 255
198 223 255
198 223 255
198 223 255
198 223 255
198 223 255
198 223 255
198 223 255
198 223 255
198 223 255
198 223 255
198 223 255
198 223 255
198 223 255
197 223 255
197 222 255
197 222 255
197 222 255
197 222 255
197 222 255
197 222 255
197 222 255
197 222 255
197 222 255
197 222 255
197 222 255
197 222 255
197 222 255
197 222 255
197 222 255
197 222 255
197 222 255
197 222 255
197 222 255
197 222 255
197 222 255
197 222 255
197 222 255
197 222 255
197 222 255
197 222 255
197 222 255
197 222 255
197 222 255
197 222 255
197 222 255
196 222 255
196 222 255
196 222 255
196 222 255
196 222 255
196 222 255
196 222 255
196 222 255
196 222 255
196 222 255
196 222 255
196 222 255
196 222 255
196 222 255
196 222 255
196 222 255
196 222 255
196 222 255
196 222 255
196 222 255
196 222 255
196 222 255
197 222 255
197 222 255
197 222 255
197 222 255
197 222 255
197 222 255
197 222 255
197 222 255
197 222 255
197 222 255
197 222 255
197 222 255
197 222 255
197 222 255
197 222 255
197 222 255
197 222 255
197 222 255
197 222 255
197 222 255
197 222 255
197 222 255
197 222 255
197 222 255
197 222 255
197 222 255
197 222 255
197 222 255
197 222 255
197 222 255
197 222 255
197 223 255
198 223 255
198 223 255
198 223 255
198 223 255
198 223 255
198 223 255
198 223 255
198 223 255
198 223 255
198 223 255
198 223 255
198 223 255
198 223 255
198 223 255
198 223 255
198 223 255
198 223 255
198 223 255
198 223 255
199 223 255
199 223 255
199 223 255
199 223 255
199 223 255
199 223 255
199 223 255
199 223 255
199 223 255
199 223 255
199 223 255
199 223 255
199 223 255
199 224 255
199 224 255
200 224 255
200 224 255
200 224 255
200 224 255
200 224 255
200 224 255
200 224 255
200 224 255
200 224 255
200 224 255
200 224 255
200 224 255
200 224 255
200 224 255
200 224 255
200 224 255
201 224 255
201 224 255
201 224 255
201 224 255
201 224 255
201 224 255
201 224 255
201 224 255
201 224 255
201 224 255
201 225 255
201 225 255
201 225 255
201 225 255
202 225 255
202 225 255
202 225 255
202 225 255
202 225 255
202 225 255
202 225 255
202 225 255
202 225 255
202 225 255
202 225 255
202 225 255
202 225 255
202 225 255
202 225 255
203 225 255
203 225 255
203 225 255
203 225 255
203 225 255
203 225 255
203 225 255
203 225 255
203 226 255
203 226 255
203 226 255
203 226 255
203 226 255
203 226 255
203 226 255
204 226 255
204 226 255
204 226 255
204 226 255
204 226 255
204 226 255
204 226 255
204 226 255
204 226 255
204 226 255
204 226 255
204 226 255
204 226 255
204 226 255
204 226 255
204 226 255
204 226 255
205 226 255
205 226 255
205 226 255
205 226 255
205 226 255
205 226 255
205 227 255
205 227 255
205 227 255
205 227 255
205 227 255
205 227 255
205 227 255
205 227 255
205 227 255
205 227 255
205 227 255
206 227 255
206 227 255
206 227 255
206 227 255
206 227 255
206 227 255
206 227 255
206 227 255
206 227 255
206 227 255
206 227 255
206 227 255
206 227 255
206 227 255
206 227 255
206 227 255
206 227 255
206 227 255
206 227 255
207 227 255
207 227 255
207 227 255
207 227 255
207 227 255
207 228 255
207 228 255
207 228 255
207 228 255
207 228 255
207 228 255
207 228 255
207 228 255
207 228 255
207 228 255
207 228 255
207 228 255
207 228 255
207 227 255
207 227 255
207 227 255
207 227 255
207 227 255
206 227 255
206 227 255
206 227 255
206 227 255
206 227 255
206 227 255
206 227 255
206 227 255
206 227 255
206 227 255
206 227 255
206 227 255
206 227 255
206 227 255
206 227 255
206 227 255
206 227 255
206 227 255
206 227 255
205 227 255
205 227 255
205 227 255
205 227 255
205 227 255
205 227 255
205 227 255
205 227 255
205 227 255
205 227 255
205 226 255
205 226 255
205 226 255
205 226 255
205 226 255
205 226 255
205 226 255
204 226 255
204 226 255
204 226 255
204 226 255
204 226 255
204 226 255
204 226 255
204 226 255
204 226 255
204 226 255
204 226 255
204 226 255
204 226 255
204 226 255
204 226 255
204 226 255
203 226 255
203 226 255
203 226 255
203 226 255
203 226 255
203 226 255
203 226 255
203 225 255
203 225 255
203 225 255
203 225 255
203 225 255
203 225 255
203 225 255
203 225 255
202 225 255
202 225 255
202 225 255
202 225 255
202 225 255
202 225 255
202 225 255
202 225 255
202 225 255
202 225 255
202 225 255
202 225 255
202 225 255
202 225 255
202 225 255
201 225 255
201 225 255
201 225 255
201 225 255
201 225 255
201 224 255
201 224 255
201 224 255
201 224 255
201 224 255
201 224 255
201 224 255
201 224 255
201 224 255
201 224 255
200 224 255
200 224 255
200 224 255
200 224 255
200 224 255
200 224 255
200 224 255
200 224 255
200 224 255
200 224 255
200 224 255
200 224 255
200 224 255
200 224 255
200 224 255
199 224 255
199 224 255
199 224 255
199 223 255
199 223 255
199 223 255
199 223 255
199 223 255
199 223 255
199 223 255
199 223 255
199 223 255
199 223 255
199 223 255
199 223 255
199 223 255
198 223 255
198 223 255
198 223 255
198 223 255
198 223 255
198 223 255
198 223 255
198 223 255
198 223 255
198 223 255
198 223 255
198 223 255
198 223 255
198 223 255
198 223 255
198 223 255
198 223 255
198 223 255
198 223 255
198 223 255
197 223 255
197 222 255
197 222 255
197 222 255
197 222 255
197 222 255
197 222 255
197 222 255
197 222 255
197 222 255
197 222 255
197 222 255
197 222 255
197 222 255
197 222 255
197 222 255
197 222 255
197 222 255
197 222 255
197 222 255
197 222 255
197 222 255
197 222 255
197 222 255
197 222 255
197 222 255
197 222 255
197 222 255
197 222 255
197 222 255
197 222 255
197 222 255
197 222 255
197 222 255
197 222 255
197 222 255
197 222 255
197 222 255
197 222 255
197 222 255
197 222 255
197 222 255
197 222 255
197 222 255
197 222 255
197 222 255
197 222 255
197 222 255
197 222 255
197 222 255
197 222 255
197 222 255
197 222 255
197 222 255
197 222 255
197 222 255
197 222 255
197 222 255
197 222 255
197 222 255
197 222 255
197 222 255
197 222 255
197 222 255
197 222 255
197 222 255
197 222 255
197 222 255
197 222 255
197 222 255
197 222 255
197 222 255
197 222 255
197 222 255
197 222 255
197 222 255
197 222 255
197 223 255
198 223 255
198 223 255
198 223 255
198 223 255
198 223 255
198 223 255
198 223 255
198 223 255
198 223 255
198 223 255
198 223 255
198 223 255
198 223 255
198 223 255
198 223 255
198 223 255
198 223 255
198 223 255
198 223 255
198 223 255
199 223 255
199 223 255
199 223 255
199 223 255
199 223 255
199 223 255
199 223 255
199 223 255
199 223 255
199 223 255
199 223 255
199 223 255
199 223 255
199 224 255
199 224 255
199 224 255
200 224 255
200 224 255
200 224 255
200 224 255
200 224 255
200 224 255
200 224 255
200 224 255
200 224 255
200 224 255
200 224 255
200 224 255
200 224 255
200 224 255
200 224 255
201 224 255
201 224 255
201 224 255
201 224 255
201 224 255
201 224 255
201 224 255
201 224 255
201 224 255
201 224 255
201 225 255
201 225 255
201 225 255
201 225 255
201 225 255
202 225 255
202 225 255
202 225 255
202 225 255
202 225 255
202 225 255
202 225 255
202 225 255
202 225 255
202 225 255
202 225 255
202 225 255
202 225 255
202 225 255
202 225 255
203 225 255
203 225 255
203 225 255
203 225 255
203 225 255
203 225 255
203 225 255
203 225 255
203 226 255
203 226 255
203 226 255
203 226 255
203 226 255
203 226 255
203 226 255
204 226 255
204 226 255
204 226 255
204 226 255
204 226 255
204 226 255
204 226 255
204 226 255
204 226 255
204 226 255
204 226 255
204 226 255
204 226 255
204 226 255
204 226 255
204 226 255
205 226 255
205 226 255
205 226 255
205 226 255
205 226 255
205 226 255
205 226 255
205 227 255
205 227 255
205 227 255
205 227 255
205 227 255
205 227 255
205 227 255
205 227 255
205 227 255
205 227 255
206 227 255
206 227 255
206 227 255
206 227 255
206 227 255
206 227 255
206 227 255
206 227 255
206 227 255
206 227 255
206 227 255
206 227 255
206 227 255
206 227 255
206 227 255
206 227 255
206 227 255
206 227 255
206 227 255
207 227 255
207 227 255
207 227 255
207 227 255
207 227 255
207 228 255
207 228 255
207 228 255
207 228 255
207 228 255
207 228 255
207 228 255
207 228 255
207 228 255
207 228 255
207 228 255
207 228 255
207 228 255
207 228 255
207 228 255
207 228 255
207 228 255
207 228 255
207 228 255
207 227 255
207 227 255
207 227 255
207 227 255
207 227 255
206 227 255
206 227 255
206 227 255
206 227 255
206 227 255
206 227 255
206 227 255
206 227 255
206 227 255
206 227 255
206 227 255
206 227 255
206 227 255
206 227 255
206 227 255
206 227 255
206 227 255
206 227 255
205 227 255
205 227 255
205 227 255
205 227 255
205 227 255
205 227 255
205 227 255
205 227 255
205 227 255
205 227 255
205 227 255
205 226 255
205 226 255
205 226 255
205 226 255
205 226 255
205 226 255
205 226 255
204 226 255
204 226 255
204 226 255
204 226 255
204 226 255
204 226 255
204 226 255
204 226 255
204 226 255
204 226 255
204 226 255
204 226 255
204 226 255
204 226 255
204 226 255
204 226 255
203 226 255
203 226 255
203 226 255
203 226 255
203 226 255
203 226 255
203 225 255
203 225 255
203 225 255
203 225 255
203 225 255
203 225 255
203 225 255
203 225 255
203 225 255
202 225 255
202 225 255
202 225 255
202 225 255
202 225 255
202 225 255
202 225 255
202 225 255
202 225 255
202 225 255
202 225 255
202 225 255
202 225 255
202 225 255
202 225 255
201 225 255
201 225 255
201 225 255
201 225 255
201 224 255
201 224 255
201 224 255
201 224 255
201 224 255
201 224 255
201 224 255
201 224 255
201 224 255
201 224 255
200 224 255
200 224 255
200 224 255
200 224 255
200 224 255
200 224 255
200 224 255
200 224 255
200 224 255
200 224 255
200 224 255
200 224 255
200 224 255
200 224 255
200 224 255
200 224 255
199 224 255
199 224 255
199 223 255
199 223 255
199 223 255
199 223 255
199 223 255
199 223 255
199 223 255
199 223 255
199 223 255
199 223 255
199 223 255
199 223 255
199 223 255
199 223 255
198 223 255
198 223 255
198 223 255
198 223 255
198 223 255
198 223 255
198 223 255
198 223 255
198 223 255
198 223 255
198 223 255
198 223 255
198 223 255
198 223 255
198 223 255
198 223 255
198 223 255
198 223 255
198 223 255
198 223 255
198 223 255
197 223 255
197 222 255
197 222 255
197 222 255
197 222 255
197 222 255
197 222 255
197 222 255
197 222 255
197 222 255
197 222 255
197 222 255
197 222 255
197 222 255
197 222 255
197 222 255
197 222 255
197 222 255
197 222 255
197 222 255
197 222 255
197 222 255
197 222 255
197 222 255
197 222 255
197 222 255
197 222 255
197 222 255
197 222 255
197 222 255
197 222 255
197 222 255
197 222 255
197 222 255
197 222 255
197 222 255
197 222 255
197 222 255
197 222 255
197 222 255
197 222 255
197 222 255
197 222 255
197 222 255
197 222 255
197 222 255
197 222 255
197 222 255
197 222 255
197 222 255
197 222 255
197 222 255
197 222 255
197 222 255
197 222 255
197 222 255
197 222 255
197 222 255
197 222 255
197 222 255
197 222 255
197 222 255
197 222 255
197 222 255
197 222 255
197 222 255
197 222 255
197 222 255
197 222 255
197 223 255
198 223 255
198 223 255
198 223 255
198 223 255
198 223 255
198 223 255
198 223 255
198 223 255
198 223 255
198 223 255
198 223 255
198 223 255
198 223 255
198 223 255
198 223 255
198 223 255
198 223 255
198 223 255
198 223 255
198 223 255
199 223 255
199 223 255
199 223 255
199 223 255
199 223 255
199 223 255
199 223 255
199 223 255
199 223 255
199 223 255
199 223 255
199 223 255
199 223 255
199 223 255
199 223 255
199 224 255
199 224 255
200 224 255
200 224 255
200 224 255
200 224 255
200 224 255
200 224 255
200 224 255
200 224 255
200 224 255
200 224 255
200 224 255
200 224 255
200 224 255
200 224 255
200 224 255
201 224 255
201 224 255
201 224 255
201 224 255
201 224 255
201 224 255
201 224 255
201 224 255
201 224 255
201 224 255
201 224 255
201 225 255
201 225 255
201 225 255
201 225 255
202 225 255
202 225 255
202 225 255
202 225 255
202 225 255
202 225 255
202 225 255
202 225 255
202 225 255
202 225 255
202 225 255
202 225 255
202 225 255
202 225 255
202 225 255
203 225 255
203 225 255
203 225 255
203 225 255
203 225 255
203 225 255
203 225 255
203 225 255
203 225 255
203 226 255
203 226 255
203 226 255
203 226 255
203 226 255
203 226 255
204 226 255
204 226 255
204 226 255
204 226 255
204 226 255
204 226 255
204 226 255
204 226 255
204 226 255
204 226 255
204 226 255
204 226 255
204 226 255
204 226 255
204 226 255
204 226 255
204 226 255
205 226 255
205 226 255
205 226 255
205 226 255
205 226 255
205 226 255
205 227 255
205 227 255
205 227 255
205 227 255
205 227 255
205 227 255
205 227 255
205 227 255
205 227 255
205 227 255
205 227 255
206 227 255
206 227 255
206 227 255
206 227 255
206 227 255
206 227 255
206 227 255
206 227 255
206 227 255
206 227 255
206 227 255
206 227 255
206 227 255
206 227 255
206 227 255
206 227 255
206 227 255
206 227 255
207 227 255
207 227 255
207 227 255
207 227 255
207 227 255
207 228 255
207 228 255
207 228 255
207 228 255
207 228 255
207 228 255
207 228 255
207 228 255
207 228 255
207 228 255
207 228 255
207 228 255
207 228 255
207 228 255
207 228 255
207 228 255
207 228 255
207 228 255
207 228 255
207 228 255
207 228 255
207 228 255
207 228 255
207 228 255
207 228 255
207 227 255
207 227 255
207 227 255
207 227 255
206 227 255
206 227 255
206 227 255
206 227 255
206 227 255
206 227 255
206 227 255
206 227 255
206 227 255
206 227 255
206 227 255
206 227 255
206 227 255
206 227 255
206 227 255
206 227 255
206 227 255
206 227 255
206 227 255
205 227 255
205 227 255
205 227 255
205 227 255
205 227 255
205 227 255
205 227 255
205 227 255
205 227 255
205 227 255
205 226 255
205 226 255
205 226 255
205 226 255
205 226 255
205 226 255
205 226 255
204 226 255
204 226 255
204 226 255
204 226 255
204 226 255
204 226 255
204 226 255
204 226 255
204 226 255
204 226 255
204 226 255
204 226 255
204 226 255
204 226 255
204 226 255
204 226 255
203 226 255
203 226 255
203 226 255
203 226 255
203 226 255
203 226 255
203 226 255
203 225 255
203 225 255
203 225 255
203 225 255
203 225 255
203 225 255
203 225 255
203 225 255
202 225 255
202 225 255
202 225 255
202 225 255
202 225 255
202 225 255
202 225 255
202 225 255
202 225 255
202 225 255
202 225 255
202 225 255
202 225 255
202 225 255
202 225 255
201 225 255
201 225 255
201 225 255
201 225 255
201 225 255
201 224 255
201 224 255
201 224 255
201 224 255
201 224 255
201 224 255
201 224 255
201 224 255
201 224 255
201 224 255
200 224 255
200 224 255
200 224 255
200 224 255
200 224 255
200 224 255
200 224 255
200 224 255
200 224 255
200 224 255
200 224 255
200 224 255
200 224 255
200 224 255
200 224 255
200 224 255
199 224 255
199 224 255
199 223 255
199 223 255
199 223 255
199 223 255
199 223 255
199 223 255
199 223 255
199 223 255
199 223 255
199 223 255
199 223 255
199 223 255
199 223 255
199 223 255
199 223 255
198 223 255
198 223 255
198 223 255
198 223 255
198 223 255
198 223 255
198 223 255
198 223 255
198 223 255
198 223 255
198 223 255
198 223 255
198 223 255
198 223 255
198 223 255
198 223 255
198 223 255
198 223 255
198 223 255
198 223 255
198 223 255
198 223 255
197 223 255
197 222 255
197 222 255
197 222 255
197 222 255
197 222 255
197 222 255
197 222 255
197 222 255
197 222 255
197 222 255
197 222 255
197 222 255
197 222 255
197 222 255
197 222 255
197 222 255
197 222 255
197 222 255
197 222 255
197 222 255
197 222 255
197 222 255
197 222 255
197 222 255
197 222 255
197 222 255
197 222 255
197 222 255
197 222 255
197 222 255
197 222 255
197 222 255
197 222 255
197 222 255
197 222 255
197 222 255
197 222 255
197 222 255
197 222 255
197 222 255
197 222 255
197 222 255
197 222 255
197 222 255
197 222 255
197 222 255
197 222 255
197 222 255
197 222 255
197 222 255
197 222 255
197 222 255
197 222 255
197 222 255
197 222 255
197 222 255
197 222 255
197 222 255
197 223 255
198 223 255
198 223 255
198 223 255
198 223 255
198 223 255
198 223 255
198 223 255
198 223 255
198 223 255
198 223 255
198 223 255
198 223 255
198 223 255
198 223 255
198 223 255
198 223 255
198 223 255
198 223 255
198 223 255
198 223 255
198 223 255
198 223 255
199 223 255
199 223 255
199 223 255
199 223 255
199 223 255
199 223 255
199 223 255
199 223 255
199 223 255
199 223 255
199 223 255
199 223 255
199 223 255
199 223 255
199 223 255
199 224 255
199 224 255
200 224 255
200 224 255
200 224 255
200 224 255
200 224 255
200 224 255
200 224 255
200 224 255
200 224 255
200 224 255
200 224 255
200 224 255
200 224 255
200 224 255
200 224 255
200 224 255
201 224 255
201 224 255
201 224 255
201 224 255
201 224 255
201 224 255
201 224 255
201 224 255
201 224 255
201 224 255
201 225 255
201 225 255
201 225 255
201 225 255
201 225 255
202 225 255
202 225 255
202 225 255
202 225 255
202 225 255
202 225 255
202 225 255
202 225 255
202 225 255
202 225 255
202 225 255
202 225 255
202 225 255
202 225 255
202 225 255
203 225 255
203 225 255
203 225 255
203 225 255
203 225 255
203 225 255
203 225 255
203 225 255
203 226 255
203 226 255
203 226 255
203 226 255
203 226 255
203 226 255
203 226 255
204 226 255
204 226 255
204 226 255
204 226 255
204 226 255
204 226 255
204 226 255
204 226 255
204 226 255
204 226 255
204 226 255
204 226 255
204 226 255
204 226 255
204 226 255
204 226 255
205 226 255
205 226 255
205 226 255
205 226 255
205 226 255
205 226 255
205 226 255
205 227 255
205 227 255
205 227 255
205 227 255
205 227 255
205 227 255
205 227 255
205 227 255
205 227 255
205 227 255
206 227 255
206 227 255
206 227 255
206 227 255
206 227 255
206 227 255
206 227 255
206 227 255
206 227 255
206 227 255
206 227 255
206 227 255
206 227 255
206 227 255
206 227 255
206 227 255
206 227 255
206 227 255
206 227 255
207 227 255
207 227 255
207 227 255
207 227 255
207 228 255
207 228 255
207 228 255
207 228 255
207 228 255
207 228 255
207 228 255
207 228 255
207 228 255
207 228 255
207 228 255
207 228 255
207 228 255
207 228 255
208 228 255
207 228 255
207 228 255
207 228 255
207 228 255
207 228 255
207 228 255
207 228 255
207 228 255
207 228 255
207 228 255
207 228 255
207 228 255
207 228 255
207 228 255
207 228 255
207 228 255
207 227 255
207 227 255
207 227 255
207 227 255
206 227 255
206 227 255
206 227 255
206 227 255
206 227 255
206 227 255
206 227 255
206 227 255
206 227 255
206 227 255
206 227 255
206 227 255
206 227 255
206 227 255
206 227 255
206 227 255
206 227 255
206 227 255
206 227 255
205 227 255
205 227 255
205 227 255
205 227 255
205 227 255
205 227 255
205 227 255
205 227 255
205 227 255
205 227 255
205 226 255
205 226 255
205 226 255
205 226 255
205 226 255
205 226 255
205 226 255
204 226 255
204 226 255
204 226 255
204 226 255
204 226 255
204 226 255
204 226 255
204 226 255
204 226 255
204 226 255
204 226 255
204 226 255
204 226 255
204 226 255
204 226 255
204 226 255
203 226 255
203 226 255
203 226 255
203 226 255
203 226 255
203 226 255
203 226 255
203 225 255
203 225 255
203 225 255
203 225 255
203 225 255
203 225 255
203 225 255
203 225 255
202 225 255
202 225 255
202 225 255
202 225 255
202 225 255
202 225 255
202 225 255
202 225 255
202 225 255
202 225 255
202 225 255
202 225 255
202 225 255
202 225 255
202 225 255
201 225 255
201 225 255
201 225 255
201 225 255
201 224 255
201 224 255
201 224 255
201 224 255
201 224 255
201 224 255
201 224 255
201 224 255
201 224 255
201 224 255
201 224 255
200 224 255
200 224 255
200 224 255
200 224 255
200 224 255
200 224 255
200 224 255
200 224 255
200 224 255
200 224 255
200 224 255
200 224 255
200 224 255
200 224 255
200 224 255
200 224 255
199 224 255
199 224 255
199 223 255
199 223 255
199 223 255
199 223 255
199 223 255
199 223 255
199 223 255
199 223 255
199 223 255
199 223 255
199 223 255
199 223 255
199 223 255
199 223 255
199 223 255
198 223 255
198 223 255
198 223 255
198 223 255
198 223 255
198 223 255
198 223 255
198 223 255
198 223 255
198 223 255
198 223 255
198 223 255
198 223 255
198 223 255
198 223 255
198 223 255
198 223 255
198 223 255
198 223 255
198 223 255
198 223 255
198 223 255
198 223 255
198 223 255
197 223 255
197 222 255
197 222 255
197 222 255
197 222 255
197 222 255
197 222 255
197 222 255
197 222 255
197 222 255
197 222 255
197 222 255
197 222 255
197 222 255
197 222 255
197 222 255
197 222 255
197 222 255
197 222 255
197 222 255
197 222 255
197 222 255
197 222 255
197 222 255
197 222 255
197 222 255
197 222 255
197 222 255
197 222 255
197 222 255
197 222 255
197 222 255
197 222 255
197 222 255
197 222 255
197 222 255
197 222 255
197 222 255
197 222 255
197 222 255
197 222 255
197 222 255
197 222 255
197 222 255
197 222 255
197 222 255
197 222 255
197 222 255
197 222 255
197 223 255
198 223 255
198 223 255
198 223 255
198 223 255
198 223 255
198 223 255
198 223 255
198 223 255
198 223 255
198 223 255
198 223 255
198 223 255
198 223 255
198 223 255
198 223 255
198 223 255
198 223 255
198 223 255
198 223 255
198 223 255
198 223 255
198 223 255
198 223 255
198 223 255
199 223 255
199 223 255
199 223 255
199 223 255
199 223 255
199 223 255
199 223 255
199 223 255
199 223 255
199 223 255
199 223 255
199 223 255
199 223 255
199 223 255
199 223 255
199 224 255
199 224 255
199 224 255
200 224 255
200 224 255
200 224 255
200 224 255
200 224 255
200 224 255
200 224 255
200 224 255
200 224 255
200 224 255
200 224 255
200 224 255
200 224 255
200 224 255
200 224 255
201 224 255
201 224 255
201 224 255
201 224 255
201 224 255
201 224 255
201 224 255
201 224 255
201 224 255
201 224 255
201 224 255
201 225 255
201 225 255
201 225 255
201 225 255
202 225 255
202 225 255
202 225 255
202 225 255
202 225 255
202 225 255
202 225 255
202 225 255
202 225 255
202 225 255
202 225 255
202 225 255
202 225 255
202 225 255
202 225 255
203 225 255
203 225 255
203 225 255
203 225 255
203 225 255
203 225 255
203 225 255
203 225 255
203 226 255
203 226 255
203 226 255
203 226 255
203 226 255
203 226 255
203 226 255
204 226 255
204 226 255
204 226 255
204 226 255
204 226 255
204 226 255
204 226 255
204 226 255
204 226 255
204 226 255
204 226 255
204 226 255
204 226 255
204 226 255
204 226 255
204 226 255
205 226 255
205 226 255
205 226 255
205 226 255
205 226 255
205 226 255
205 226 255
205 227 255
205 227 255
205 227 255
205 227 255
205 227 255
205 227 255
205 227 255
205 227 255
205 227 255
205 227 255
206 227 255
206 227 255
206 227 255
206 227 255
206 227 255
206 227 255
206 227 255
206 227 255
206 227 255
206 227 255
206 227 255
206 227 255
206 227 255
206 227 255
206 227 255
206 227 255
206 227 255
206 227 255
206 227 255
207 227 255
207 227 255
207 227 255
207 227 255
207 227 255
207 228 255
207 228 255
207 228 255
207 228 255
207 228 255
207 228 255
207 228 255
207 228 255
207 228 255
207 228 255
207 228 255
207 228 255
207 228 255
207 228 255
207 228 255
208 228 255
208 228 255
208 228 255
208 228 255
208 228 255
207 228 255
207 228 255
207 228 255
207 228 255
207 228 255
207 228 255
207 228 255
207 228 255
207 228 255
207 228 255
207 228 255
207 228 255
207 228 255
207 228 255
207 228 255
207 227 255
207 227 255
207 227 255
207 227 255
207 227 255
206 227 255
206 227 255
206 227 255
206 227 255
206 227 255
206 227 255
206 227 255
206 227 255
206 227 255
206 227 255
206 227 255
206 227 255
206 227 255
206 227 255
206 227 255
206 227 255
206 227 255
206 227 255
205 227 255
205 227 255
205 227 255
205 227 255
205 227 255
205 227 255
205 227 255
205 227 255
205 227 255
205 227 255
205 227 255
205 226 255
205 226 255
205 226 255
205 226 255
205 226 255
205 226 255
204 226 255
204 226 255
204 226 255
204 226 255
204 226 255
204 226 255
204 226 255
204 226 255
204 226 255
204 226 255
204 226 255
204 226 255
204 226 255
204 226 255
204 226 255
204 226 255
203 226 255
203 226 255
203 226 255
203 226 255
203 226 255
203 226 255
203 226 255
203 225 255
203 225 255
203 225 255
203 225 255
203 225 255
203 225 255
203 225 255
203 225 255
202 225 255
202 225 255
202 225 255
202 225 255
202 225 255
202 225 255
202 225 255
202 225 255
202 225 255
202 225 255
202 225 255
202 225 255
202 225 255
202 225 255
202 225 255
202 225 255
201 225 255
201 225 255
201 225 255
201 225 255
201 224 255
201 224 255
201 224 255
201 224 255
201 224 255
201 224 255
201 224 255
201 224 255
201 224 255
201 224 255
201 224 255
200 224 255
200 224 255
200 224 255
200 224 255
200 224 255
200 224 255
200 224 255
200 224 255
200 224 255
200 224 255
200 224 255
200 224 255
200 224 255
200 224 255
200 224 255
199 224 255
199 224 255
199 224 255
199 223 255
199 223 255
199 223 255
199 223 255
199 223 255
199 223 255
199 223 255
199 223 255
199 223 255
199 223 255
199 223 255
199 223 255
199 223 255
199 223 255
199 223 255
199 223 255
198 223 255
198 223 255
198 223 255
198 223 255
198 223 255
198 223 255
198 223 255
198 223 255
198 223 255
198 223 255
198 223 255
198 223 255
198 223 255
198 223 255
198 223 255
198 223 255
198 223 255
198 223 255
198 223 255
198 223 255
198 223 255
198 223 255
198 223 255
198 223 255
198 223 255
198 223 255
198 223 255
198 223 255
197 223 255
197 222 255
197 222 255
197 222 255
197 222 255
197 222 255
197 222 255
197 222 255
197 222 255
197 222 255
197 222 255
197 222 255
197 222 255
197 222 255
197 222 255
197 222 255
197 222 255
197 222 255
197 222 255
197 222 255
197 222 255
197 222 255
197 222 255
197 222 255
197 222 255
197 222 255
197 222 255
197 222 255
197 222 255
197 222 255
197 222 255
197 222 255
197 222 255
197 223 255
197 223 255
198 223 255
198 223 255
198 223 255
198 223 255
198 223 255
198 223 255
198 223 255
198 223 255
198 223 255
198 223 255
198 223 255
198 223 255
198 223 255
198 223 255
198 223 255
198 223 255
198 223 255
198 223 255
198 223 255
198 223 255
198 223 255
198 223 255
198 223 255
198 223 255
198 223 255
198 223 255
198 223 255
199 223 255
199 223 255
199 223 255
199 223 255
199 223 255
199 223 255
199 223 255
199 223 255
199 223 255
199 223 255
199 223 255
199 223 255
199 223 255
199 223 255
199 223 255
199 223 255
199 224 255
199 224 255
199 224 255
200 224 255
200 224 255
200 224 255
200 224 255
200 224 255
200 224 255
200 224 255
200 224 255
200 224 255
200 224 255
200 224 255
200 224 255
200 224 255
200 224 255
200 224 255
201 224 255
201 224 255
201 224 255
201 224 255
201 224 255
201 224 255
201 224 255
201 224 255
201 224 255
201 224 255
201 224 255
201 225 255
201 225 255
201 225 255
201 225 255
202 225 255
202 225 255
202 225 255
202 225 255
202 225 255
202 225 255
202 225 255
202 225 255
202 225 255
202 225 255
202 225 255
202 225 255
202 225 255
202 225 255
202 225 255
203 225 255
203 225 255
203 225 255
203 225 255
203 225 255
203 225 255
203 225 255
203 225 255
203 225 255
203 226 255
203 226 255
203 226 255
203 226 255
203 226 255
203 226 255
203 226 255
204 226 255
204 226 255
204 226 255
204 226 255
204 226 255
204 226 255
204 226 255
204 226 255
204 226 255
204 226 255
204 226 255
204 226 255
204 226 255
204 226 255
204 226 255
204 226 255
205 226 255
205 226 255
205 226 255
205 226 255
205 226 255
205 226 255
205 227 255
205 227 255
205 227 255
205 227 255
205 227 255
205 227 255
205 227 255
205 227 255
205 227 255
205 227 255
206 227 255
206 227 255
206 227 255
206 227 255
206 227 255
206 227 255
206 227 255
206 227 255
206 227 255
206 227 255
206 227 255
206 227 255
206 227 255
206 227 255
206 227 255
206 227 255
206 227 255
206 227 255
206 227 255
207 227 255
207 227 255
207 227 255
207 227 255
207 227 255
207 228 255
207 228 255
207 228 255
207 228 255
207 228 255
207 228 255
207 228 255
207 228 255
207 228 255
207 228 255
207 228 255
207 228 255
207 228 255
207 228 255
207 228 255
208 228 255
208 228 255
208 228 255
208 228 255
208 228 255
208 228 255
208 228 255
208 228 255
208 228 255
208 228 255
208 228 255
207 228 255
207 228 255
207 228 255
207 228 255
207 228 255
207 228 255
207 228 255
207 228 255
207 228 255
207 228 255
207 228 255
207 228 255
207 228 255
207 228 255
207 228 255
207 228 255
207 227 255
207 227 255
207 227 255
207 227 255
206 227 255
206 227 255
206 227 255
206 227 255
206 227 255
206 227 255
206 227 255
206 227 255
206 227 255
206 227 255
206 227 255
206 227 255
206 227 255
206 227 255
206 227 255
206 227 255
206 227 255
206 227 255
205 227 255
205 227 255
205 227 255
205 227 255
205 227 255
205 227 255
205 227 255
205 227 255
205 227 255
205 227 255
205 226 255
205 226 255
205 226 255
205 226 255
205 226 255
205 226 255
205 226 255
204 226 255
204 226 255
204 226 255
204 226 255
204 226 255
204 226 255
204 226 255
204 226 255
204 226 255
204 226 255
204 226 255
204 226 255
204 226 255
204 226 255
204 226 255
204 226 255
203 226 255
203 226 255
203 226 255
203 226 255
203 226 255
203 226 255
203 226 255
203 225 255
203 225 255
203 225 255
203 225 255
203 225 255
203 225 255
203 225 255
203 225 255
202 225 255
202 225 255
202 225 255
202 225 255
202 225 255
202 225 255
202 225 255
202 225 255
202 225 255
202 225 255
202 225 255
202 225 255
202 225 255
202 225 255
202 225 255
201 225 255
201 225 255
201 225 255
201 225 255
201 225 255
201 224 255
201 224 255
201 224 255
201 224 255
201 224 255
201 224 255
201 224 255
201 224 255
201 224 255
201 224 255
200 224 255
200 224 255
200 224 255
200 224 255
200 224 255
200 224 255
200 224 255
200 224 255
200 224 255
200 224 255
200 224 255
200 224 255
200 224 255
200 224 255
200 224 255
200 224 255
199 224 255
199 224 255
199 224 255
199 223 255
199 223 255
199 223 255
199 223 255
199 223 255
199 223 255
199 223 255
199 223 255
199 223 255
199 223 255
199 223 255
199 223 255
199 223 255
199 223 255
199 223 255
199 223 255
199 223 255
198 223 255
198 223 255
198 223 255
198 223 255
198 223 255
198 223 255
198 223 255
198 223 255
198 223 255
198 223 255
198 223 255
198 223 255
198 223 255
198 223 255
198 223 255
198 223 255
198 223 255
198 223 255
198 223 255
198 223 255
198 223 255
198 223 255
198 223 255
198 223 255
198 223 255
198 223 255
198 223 255
198 223 255
198 223 255
198 223 255
198 223 255
198 223 255
198 223 255
198 223 255
198 223 255
198 223 255
198 223 255
198 223 255
197 223 255
197 223 255
198 223 255
197 223 255
198 223 255
198 223 255
197 223 255
198 223 255
198 223 255
198 223 255
198 223 255
198 223 255
198 223 255
198 223 255
198 223 255
198 223 255
198 223 255
198 223 255
198 223 255
198 223 255
198 223 255
198 223 255
198 223 255
198 223 255
198 223 255
198 223 255
198 223 255
198 223 255
198 223 255
198 223 255
198 223 255
198 223 255
198 223 255
198 223 255
198 223 255
198 223 255
198 223 255
198 223 255
198 223 255
198 223 255
198 223 255
198 223 255
198 223 255
198 223 255
199 223 255
199 223 255
199 223 255
199 223 255
199 223 255
199 223 255
199 223 255
199 223 255
199 223 255
199 223 255
199 223 255
199 223 255
199 223 255
199 223 255
199 223 255
199 223 255
199 223 255
199 224 255
199 224 255
200 224 255
200 224 255
200 224 255
200 224 255
200 224 255
200 224 255
200 224 255
200 224 255
200 224 255
200 224 255
200 224 255
200 224 255
200 224 255
200 224 255
200 224 255
200 224 255
200 224 255
201 224 255
201 224 255
201 224 255
201 224 255
201 224 255
201 224 255
201 224 255
201 224 255
201 224 255
201 224 255
201 225 255
201 225 255
201 225 255
201 225 255
201 225 255
202 225 255
202 225 255
202 225 255
202 225 255
202 225 255
202 225 255
202 225 255
202 225 255
202 225 255
202 225 255
202 225 255
202 225 255
202 225 255
202 225 255
202 225 255
203 225 255
203 225 255
203 225 255
203 225 255
203 225 255
203 225 255
203 225 255
203 225 255
203 226 255
203 226 255
203 226 255
203 226 255
203 226 255
203 226 255
203 226 255
204 226 255
204 226 255
204 226 255
204 226 255
204 226 255
204 226 255
204 226 255
204 226 255
204 226 255
204 226 255
204 226 255
204 226 255
204 226 255
204 226 255
204 226 255
204 226 255
205 226 255
205 226 255
205 226 255
205 226 255
205 226 255
205 226 255
205 226 255
205 227 255
205 227 255
205 227 255
205 227 255
205 227 255
205 227 255
205 227 255
205 227 255
205 227 255
205 227 255
206 227 255
206 227 255
206 227 255
206 227 255
206 227 255
206 227 255
206 227 255
206 227 255
206 227 255
206 227 255
206 227 255
206 227 255
206 227 255
206 227 255
206 227 255
206 227 255
206 227 255
206 227 255
207 227 255
207 227 255
207 227 255
207 227 255
207 227 255
207 228 255
207 228 255
207 228 255
207 228 255
207 228 255
207 228 255
207 228 255
207 228 255
207 228 255
207 228 255
207 228 255
207 228 255
207 228 255
207 228 255
207 228 255
208 228 255
208 228 255
208 228 255
208 228 255
208 228 255
208 228 255
208 228 255
208 228 255
208 228 255
208 228 255
208 228 255
208 228 255
208 228 255
208 228 255
208 228 255
208 228 255
208 228 255
207 228 255
207 228 255
207 228 255
207 228 255
207 228 255
207 228 255
207 228 255
207 228 255
207 228 255
207 228 255
207 228 255
207 228 255
207 228 255
207 228 255
207 228 255
207 227 255
207 227 255
207 227 255
207 227 255
207 227 255
206 227 255
206 227 255
206 227 255
206 227 255
206 227 255
206 227 255
206 227 255
206 227 255
206 227 255
206 227 255
206 227 255
206 227 255
206 227 255
206 227 255
206 227 255
206 227 255
206 227 255
206 227 255
205 227 255
205 227 255
205 227 255
205 227 255
205 227 255
205 227 255
205 227 255
205 227 255
205 227 255
205 227 255
205 226 255
205 226 255
205 226 255
205 226 255
205 226 255
205 226 255
205 226 255
204 226 255
204 226 255
204 226 255
204 226 255
204 226 255
204 226 255
204 226 255
204 226 255
204 226 255
204 226 255
204 226 255
204 226 255
204 226 255
204 226 255
204 226 255
204 226 255
203 226 255
203 226 255
203 226 255
203 226 255
203 226 255
203 226 255
203 225 255
203 225 255
203 225 255
203 225 255
203 225 255
203 225 255
203 225 255
203 225 255
203 225 255
202 225 255
202 225 255
202 225 255
202 225 255
202 225 255
202 225 255
202 225 255
202 225 255
202 225 255
202 225 255
202 225 255
202 225 255
202 225 255
202 225 255
202 225 255
201 225 255
201 225 255
201 225 255
201 225 255
201 224 255
201 224 255
201 224 255
201 224 255
201 224 255
201 224 255
201 224 255
201 224 255
201 224 255
201 224 255
201 224 255
200 224 255
200 224 255
200 224 255
200 224 255
200 224 255
200 224 255
200 224 255
200 224 255
200 224 255
200 224 255
200 224 255
200 224 255
200 224 255
200 224 255
200 224 255
200 224 255
200 224 255
199 224 255
199 224 255
199 224 255
199 223 255
199 223 255
199 223 255
199 223 255
199 223 255
199 223 255
199 223 255
199 223 255
199 223 255
199 223 255
199 223 255
199 223 255
199 223 255
199 223 255
199 223 255
199 223 255
199 223 255
198 223 255
198 223 255
198 223 255
198 223 255
198 223 255
198 223 255
198 223 255
198 223 255
198 223 255
198 223 255
198 223 255
198 223 255
198 223 255
198 223 255
198 223 255
198 223 255
198 223 255
198 223 255
198 223 255
198 223 255
198 223 255
198 223 255
198 223 255
198 223 255
198 223 255
198 223 255
198 223 255
198 223 255
198 223 255
198 223 255
198 223 255
198 223 255
198 223 255
198 223 255
198 223 255
198 223 255
198 223 255
198 223 255
198 223 255
198 223 255
198 223 255
198 223 255
198 223 255
198 223 255
198 223 255
198 223 255
198 223 255
198 223 255
198 223 255
198 223 255
198 223 255
198 223 255
198 223 255
198 223 255
198 223 255
198 223 255
198 223 255
198 223 255
198 223 255
198 223 255
198 223 255
198 223 255
198 223 255
198 223 255
198 223 255
198 223 255
198 223 255
198 223 255
198 223 255
198 223 255
198 223 255
198 223 255
198 223 255
198 223 255
199 223 255
199 223 255
199 223 255
199 223 255
199 223 255
199 223 255
199 223 255
199 223 255
199 223 255
199 223 255
199 223 255
199 223 255
199 223 255
199 223 255
199 223 255
199 223 255
199 223 255
199 224 255
199 224 255
199 224 255
200 224 255
200 224 255
200 224 255
200 224 255
200 224 255
200 224 255
200 224 255
200 224 255
200 224 255
200 224 255
200 224 255
200 224 255
200 224 255
200 224 255
200 224 255
200 224 255
200 224 255
201 224 255
201 224 255
201 224 255
201 224 255
201 224 255
201 224 255
201 224 255
201 224 255
201 224 255
201 224 255
201 224 255
201 225 255
201 225 255
201 225 255
201 225 255
202 225 255
202 225 255
202 225 255
202 225 255
202 225 255
202 225 255
202 225 255
202 225 255
202 225 255
202 225 255
202 225 255
202 225 255
202 225 255
202 225 255
202 225 255
203 225 255
203 225 255
203 225 255
203 225 255
203 225 255
203 225 255
203 225 255
203 225 255
203 225 255
203 226 255
203 226 255
203 226 255
203 226 255
203 226 255
203 226 255
204 226 255
204 226 255
204 226 255
204 226 255
204 226 255
204 226 255
204 226 255
204 226 255
204 226 255
204 226 255
204 226 255
204 226 255
204 226 255
204 226 255
204 226 255
204 226 255
205 226 255
205 226 255
205 226 255
205 226 255
205 226 255
205 226 255
205 226 255
205 227 255
205 227 255
205 227 255
205 227 255
205 227 255
205 227 255
205 227 255
205 227 255
205 227 255
205 227 255
206 227 255
206 227 255
206 227 255
206 227 255
206 227 255
206 227 255
206 227 255
206 227 255
206 227 255
206 227 255
206 227 255
206 227 255
206 227 255
206 227 255
206 227 255
206 227 255
206 227 255
206 227 255
207 227 255
207 227 255
207 227 255
207 227 255
207 227 255
207 228 255
207 228 255
207 228 255
207 228 255
207 228 255
207 228 255
207 228 255
207 228 255
207 228 255
207 228 255
207 228 255
207 228 255
207 228 255
207 228 255
207 228 255
208 228 255
208 228 255
208 228 255
208 228 255
208 228 255
208 228 255
208 228 255
208 228 255
208 228 255
208 228 255
208 228 255
208 228 255
208 228 255
208 228 255
208 228 255
208 228 255
208 228 255
208 228 255
208 228 255
208 228 255
208 228 255
208 228 255
208 228 255
207 228 255
207 228 255
207 228 255
207 228 255
207 228 255
207 228 255
207 228 255
207 228 255
207 228 255
207 228 255
207 228 255
207 228 255
207 228 255
207 228 255
207 228 255
207 227 255
207 227 255
207 227 255
207 227 255
207 227 255
206 227 255
206 227 255
206 227 255
206 227 255
206 227 255
206 227 255
206 227 255
206 227 255
206 227 255
206 227 255
206 227 255
206 227 255
206 227 255
206 227 255
206 227 255
206 227 255
206 227 255
206 227 255
205 227 255
205 227 255
205 227 255
205 227 255
205 227 255
205 227 255
205 227 255
205 227 255
205 227 255
205 227 255
205 226 255
205 226 255
205 226 255
205 226 255
205 226 255
205 226 255
204 226 255
204 226 255
204 226 255
204 226 255
204 226 255
204 226 255
204 226 255
204 226 255
204 226 255
204 226 255
204 226 255
204 226 255
204 226 255
204 226 255
204 226 255
204 226 255
203 226 255
203 226 255
203 226 255
203 226 255
203 226 255
203 226 255
203 226 255
203 225 255
203 225 255
203 225 255
203 225 255
203 225 255
203 225 255
203 225 255
203 225 255
202 225 255
202 225 255
202 225 255
202 225 255
202 225 255
202 225 255
202 225 255
202 225 255
202 225 255
202 225 255
202 225 255
202 225 255
202 225 255
202 225 255
202 225 255
202 225 255
201 225 255
201 225 255
201 225 255
201 225 255
201 224 255
201 224 255
201 224 255
201 224 255
201 224 255
201 224 255
201 224 255
201 224 255
201 224 255
201 224 255
201 224 255
200 224 255
200 224 255
200 224 255
200 224 255
200 224 255
200 224 255
200 224 255
200 224 255
200 224 255
200 224 255
200 224 255
200 224 255
200 224 255
200 224 255
200 224 255
200 224 255
200 224 255
199 224 255
199 224 255
199 224 255
199 223 255
199 223 255
199 223 255
199 223 255
199 223 255
199 223 255
199 223 255
199 223 255
199 223 255
199 223 255
199 223 255
199 223 255
199 223 255
199 223 255
199 223 255
199 223 255
199 223 255
199 223 255
199 223 255
198 223 255
198 223 255
198 223 255
198 223 255
198 223 255
198 223 255
198 223 255
198 223 255
198 223 255
198 223 255
198 223 255
198 223 255
198 223 255
198 223 255
198 223 255
198 223 255
198 223 255
198 223 255
198 223 255
198 223 255
198 223 255
198 223 255
198 223 255
198 223 255
198 223 255
198 223 255
198 223 255
198 223 255
198 223 255
198 223 255
198 223 255
198 223 255
198 223 255
198 223 255
198 223 255
198 223 255
198 223 255
198 223 255
198 223 255
198 223 255
198 223 255
198 223 255
198 223 255
198 223 255
198 223 255
198 223 255
198 223 255
198 223 255
198 223 255
198 223 255
198 223 255
198 223 255
198 223 255
198 223 255
198 223 255
198 223 255
198 223 255
198 223 255
198 223 255
198 223 255
198 223 255
198 223 255
198 223 255
198 223 255
199 223 255
199 223 255
199 223 255
199 223 255
199 223 255
199 223 255
199 223 255
199 223 255
199 223 255
199 223 255
199 223 255
199 223 255
199 223 255
199 223 255
199 223 255
199 223 255
199 223 255
199 223 255
199 223 255
199 224 255
199 224 255
199 224 255
200 224 255
200 224 255
200 224 255
200 224 255
200 224 255
200 224 255
200 224 255
200 224 255
200 224 255
200 224 255
200 224 255
200 224 255
200 224 255
200 224 255
200 224 255
200 224 255
200 224 255
201 224 255
201 224 255
201 224 255
201 224 255
201 224 255
201 224 255
201 224 255
201 224 255
201 224 255
201 224 255
201 224 255
201 225 255
201 225 255
201 225 255
201 225 255
202 225 255
202 225 255
202 225 255
202 225 255
202 225 255
202 225 255
202 225 255
202 225 255
202 225 255
202 225 255
202 225 255
202 225 255
202 225 255
202 225 255
202 225 255
203 225 255
203 225 255
203 225 255
203 225 255
203 225 255
203 225 255
203 225 255
203 225 255
203 225 255
203 226 255
203 226 255
203 226 255
203 226 255
203 226 255
203 226 255
203 226 255
204 226 255
204 226 255
204 226 255
204 226 255
204 226 255
204 226 255
204 226 255
204 226 255
204 226 255
204 226 255
204 226 255
204 226 255
204 226 255
204 226 255
204 226 255
204 226 255
205 226 255
205 226 255
205 226 255
205 226 255
205 226 255
205 226 255
205 227 255
205 227 255
205 227 255
205 227 255
205 227 255
205 227 255
205 227 255
205 227 255
205 227 255
205 227 255
206 227 255
206 227 255
206 227 255
206 227 255
206 227 255
206 227 255
206 227 255
206 227 255
206 227 255
206 227 255
206 227 255
206 227 255
206 227 255
206 227 255
206 227 255
206 227 255
206 227 255
206 227 255
207 227 255
207 227 255
207 227 255
207 227 255
207 227 255
207 228 255
207 228 255
207 228 255
207 228 255
207 228 255
207 228 255
207 228 255
207 228 255
207 228 255
207 228 255
207 228 255
207 228 255
207 228 255
207 228 255
207 228 255
208 228 255
208 228 255
208 228 255
208 228 255
208 228 255
208 228 255
208 228 255
208 228 255
208 228 255
208 228 255
208 228 255
208 228 255
208 228 255
208 228 255
208 228 255
208 228 255
208 228 255
208 228 255
208 228 255
208 228 255
208 228 255
208 228 255
208 228 255
208 228 255
208 228 255
208 228 255
208 228 255
208 228 255
208 228 255
207 228 255
207 228 255
207 228 255
207 228 255
207 228 255
207 228 255
207 228 255
207 228 255
207 228 255
207 228 255
207 228 255
207 228 255
207 228 255
207 228 255
207 228 255
207 227 255
207 227 255
207 227 255
207 227 255
207 227 255
206 227 255
206 227 255
206 227 255
206 227 255
206 227 255
206 227 255
206 227 255
206 227 255
206 227 255
206 227 255
206 227 255
206 227 255
206 227 255
206 227 255
206 227 255
206 227 255
206 227 255
205 227 255
205 227 255
205 227 255
205 227 255
205 227 255
205 227 255
205 227 255
205 227 255
205 227 255
205 227 255
205 227 255
205 226 255
205 226 255
205 226 255
205 226 255
205 226 255
205 226 255
204 226 255
204 226 255
204 226 255
204 226 255
204 226 255
204 226 255
204 226 255
204 226 255
204 226 255
204 226 255
204 226 255
204 226 255
204 226 255
204 226 255
204 226 255
204 226 255
203 226 255
203 226 255
203 226 255
203 226 255
203 226 255
203 226 255
203 226 255
203 225 255
203 225 255
203 225 255
203 225 255
203 225 255
203 225 255
203 225 255
203 225 255
202 225 255
202 225 255
202 225 255
202 225 255
202 225 255
202 225 255
202 225 255
202 225 255
202 225 255
202 225 255
202 225 255
202 225 255
202 225 255
202 225 255
202 225 255
201 225 255
201 225 255
201 225 255
201 225 255
201 225 255
201 224 255
201 224 255
201 224 255
201 224 255
201 224 255
201 224 255
201 224 255
201 224 255
201 224 255
201 224 255
201 224 255
200 224 255
200 224 255
200 224 255
200 224 255
200 224 255
200 224 255
200 224 255
200 224 255
200 224 255
200 224 255
200 224 255
200 224 255
200 224 255
200 224 255
200 224 255
200 224 255
200 224 255
200 224 255
199 224 255
199 224 255
199 224 255
199 223 255
199 223 255
199 223 255
199 223 255
199 223 255
199 223 255
199 223 255
199 223 255
199 223 255
199 223 255
199 223 255
199 223 255
199 223 255
199 223 255
199 223 255
199 223 255
199 223 255
199 223 255
199 223 255
199 223 255
198 223 255
198 223 255
198 223 255
198 223 255
198 223 255
198 223 255
198 223 255
198 223 255
198 223 255
198 223 255
198 223 255
198 223 255
198 223 255
198 223 255
198 223 255
198 223 255
198 223 255
198 223 255
198 223 255
198 223 255
198 223 255
198 223 255
198 223 255
198 223 255
198 223 255
198 223 255
198 223 255
198 223 255
198 223 255
198 223 255
198 223 255
198 223 255
198 223 255
198 223 255
198 223 255
198 223 255
198 223 255
198 223 255
198 223 255
198 223 255
198 223 255
198 223 255
198 223 255
198 223 255
198 223 255
198 223 255
198 223 255
198 223 255
198 223 255
198 223 255
198 223 255
198 223 255
198 223 255
198 223 255
199 223 255
199 223 255
199 223 255
199 223 255
199 223 255
199 223 255
199 223 255
199 223 255
199 223 255
199 223 255
199 223 255
199 223 255
199 223 255
199 223 255
199 223 255
199 223 255
199 223 255
199 223 255
199 223 255
199 223 255
199 224 255
199 224 255
199 224 255
200 224 255
200 224 255
200 224 255
200 224 255
200 224 255
200 224 255
200 224 255
200 224 255
200 224 255
200 224 255
200 224 255
200 224 255
200 224 255
200 224 255
200 224 255
200 224 255
200 224 255
200 224 255
201 224 255
201 224 255
201 224 255
201 224 255
201 224 255
201 224 255
201 224 255
201 224 255
201 224 255
201 224 255
201 224 255
201 225 255
201 225 255
201 225 255
201 225 255
201 225 255
202 225 255
202 225 255
202 225 255
202 225 255
202 225 255
202 225 255
202 225 255
202 225 255
202 225 255
202 225 255
202 225 255
202 225 255
202 225 255
202 225 255
202 225 255
203 225 255
203 225 255
203 225 255
203 225 255
203 225 255
203 225 255
203 225 255
203 225 255
203 226 255
203 226 255
203 226 255
203 226 255
203 226 255
203 226 255
203 226 255
204 226 255
204 226 255
204 226 255
204 226 255
204 226 255
204 226 255
204 226 255
204 226 255
204 226 255
204 226 255
204 226 255
204 226 255
204 226 255
204 226 255
204 226 255
204 226 255
205 226 255
205 226 255
205 226 255
205 226 255
205 226 255
205 226 255
205 227 255
205 227 255
205 227 255
205 227 255
205 227 255
205 227 255
205 227 255
205 227 255
205 227 255
205 227 255
206 227 255
206 227 255
206 227 255
206 227 255
206 227 255
206 227 255
206 227 255
206 227 255
206 227 255
206 227 255
206 227 255
206 227 255
206 227 255
206 227 255
206 227 255
206 227 255
206 227 255
206 227 255
207 227 255
207 227 255
207 227 255
207 227 255
207 227 255
207 228 255
207 228 255
207 228 255
207 228 255
207 228 255
207 228 255
207 228 255
207 228 255
207 228 255
207 228 255
207 228 255
207 228 255
207 228 255
207 228 255
207 228 255
208 228 255
208 228 255
208 228 255
208 228 255
208 228 255
208 228 255
208 228 255
208 228 255
208 228 255
208 228 255
208 228 255
208 228 255
208 228 255
208 228 255
208 228 255
208 228 255
208 228 255
208 228 255
208 228 255
208 228 255
208 228 255
208 228 255
208 228 255
208 228 255
208 228 255
208 228 255
208 228 255
208 228 255
208 228 255
208 228 255
208 228 255
208 228 255
208 228 255
208 228 255
208 228 255
207 228 255
207 228 255
207 228 255
207 228 255
207 228 255
207 228 255
207 228 255
207 228 255
207 228 255
207 228 255
207 228 255
207 228 255
207 228 255
207 228 255
207 228 255
207 227 255
207 227 255
207 227 255
207 227 255
207 227 255
206 227 255
206 227 255
206 227 255
206 227 255
206 227 255
206 227 255
206 227 255
206 227 255
206 227 255
206 227 255
206 227 255
206 227 255
206 227 255
206 227 255
206 227 255
206 227 255
206 227 255
205 227 255
205 227 255
205 227 255
205 227 255
205 227 255
205 227 255
205 227 255
205 227 255
205 227 255
205 227 255
205 226 255
205 226 255
205 226 255
205 226 255
205 226 255
205 226 255
205 226 255
204 226 255
204 226 255
204 226 255
204 226 255
204 226 255
204 226 255
204 226 255
204 226 255
204 226 255
204 226 255
204 226 255
204 226 255
204 226 255
204 226 255
204 226 255
204 226 255
203 226 255
203 226 255
203 226 255
203 226 255
203 226 255
203 226 255
203 225 255
203 225 255
203 225 255
203 225 255
203 225 255
203 225 255
203 225 255
203 225 255
203 225 255
202 225 255
202 225 255
202 225 255
202 225 255
202 225 255
202 225 255
202 225 255
202 225 255
202 225 255
202 225 255
202 225 255
202 225 255
202 225 255
202 225 255
202 225 255
201 225 255
201 225 255
201 225 255
201 225 255
201 225 255
201 224 255
201 224 255
201 224 255
201 224 255
201 224 255
201 224 255
201 224 255
201 224 255
201 224 255
201 224 255
201 224 255
200 224 255
200 224 255
200 224 255
200 224 255
200 224 255
200 224 255
200 224 255
200 224 255
200 224 255
200 224 255
200 224 255
200 224 255
200 224 255
200 224 255
200 224 255
200 224 255
200 224 255
200 224 255
199 224 255
199 224 255
199 224 255
199 224 255
199 223 255
199 223 255
199 223 255
199 223 255
199 223 255
199 223 255
199 223 255
199 223 255
199 223 255
199 223 255
199 223 255
199 223 255
199 223 255
199 223 255
199 223 255
199 223 255
199 223 255
199 223 255
199 223 255
199 223 255
199 223 255
199 223 255
199 223 255
198 223 255
198 223 255
198 223 255
198 223 255
198 223 255
198 223 255
198 223 255
198 223 255
198 223 255
198 223 255
198 223 255
198 223 255
198 223 255
198 223 255
198 223 255
198 223 255
198 223 255
198 223 255
198 223 255
198 223 255
198 223 255
198 223 255
198 223 255
198 223 255
198 223 255
198 223 255
198 223 255
198 223 255
198 223 255
198 223 255
198 223 255
198 223 255
198 223 255
198 223 255
198 223 255
198 223 255
198 223 255
198 223 255
198 223 255
198 223 255
199 223 255
199 223 255
199 223 255
199 223 255
199 223 255
199 223 255
199 223 255
199 223 255
199 223 255
199 223 255
199 223 255
199 223 255
199 223 255
199 223 255
199 223 255
199 223 255
199 223 255
199 223 255
199 223 255
199 223 255
199 223 255
199 223 255
199 223 255
199 224 255
199 224 255
199 224 255
199 224 255
200 224 255
200 224 255
200 224 255
200 224 255
200 224 255
200 224 255
200 224 255
200 224 255
200 224 255
200 224 255
200 224 255
200 224 255
200 224 255
200 224 255
200 224 255
200 224 255
200 224 255
200 224 255
201 224 255
201 224 255
201 224 255
201 224 255
201 224 255
201 224 255
201 224 255
201 224 255
201 224 255
201 224 255
201 224 255
201 225 255
201 225 255
201 225 255
201 225 255
201 225 255
202 225 255
202 225 255
202 225 255
202 225 255
202 225 255
202 225 255
202 225 255
202 225 255
202 225 255
202 225 255
202 225 255
202 225 255
202 225 255
202 225 255
202 225 255
203 225 255
203 225 255
203 225 255
203 225 255
203 225 255
203 225 255
203 225 255
203 225 255
203 225 255
203 226 255
203 226 255
203 226 255
203 226 255
203 226 255
203 226 255
204 226 255
204 226 255
204 226 255
204 226 255
204 226 255
204 226 255
204 226 255
204 226 255
204 226 255
204 226 255
204 226 255
204 226 255
204 226 255
204 226 255
204 226 255
204 226 255
205 226 255
205 226 255
205 226 255
205 226 255
205 226 255
205 226 255
205 226 255
205 227 255
205 227 255
205 227 255
205 227 255
205 227 255
205 227 255
205 227 255
205 227 255
205 227 255
205 227 255
206 227 255
206 227 255
206 227 255
206 227 255
206 227 255
206 227 255
206 227 255
206 227 255
206 227 255
206 227 255
206 227 255
206 227 255
206 227 255
206 227 255
206 227 255
206 227 255
206 227 255
207 227 255
207 227 255
207 227 255
207 227 255
207 227 255
207 228 255
207 228 255
207 228 255
207 228 255
207 228 255
207 228 255
207 228 255
207 228 255
207 228 255
207 228 255
207 228 255
207 228 255
207 228 255
207 228 255
207 228 255
208 228 255
208 228 255
208 228 255
208 228 255
208 228 255
208 228 255
208 228 255
208 228 255
208 228 255
208 228 255
208 228 255
208 228 255
208 228 255
208 228 255
208 228 255
208 228 255
208 228 255
208 228 255
208 228 255
209 228 255
208 228 255
208 228 255
208 228 255
208 228 255
208 228 255
208 228 255
208 228 255
208 228 255
208 228 255
208 228 255
208 228 255
208 228 255
208 228 255
208 228 255
208 228 255
208 228 255
208 228 255
208 228 255
208 228 255
208 228 255
208 228 255
207 228 255
207 228 255
207 228 255
207 228 255
207 228 255
207 228 255
207 228 255
207 228 255
207 228 255
207 228 255
207 228 255
207 228 255
207 228 255
207 228 255
207 228 255
207 227 255
207 227 255
207 227 255
207 227 255
207 227 255
206 227 255
206 227 255
206 227 255
206 227 255
206 227 255
206 227 255
206 227 255
206 227 255
206 227 255
206 227 255
206 227 255
206 227 255
206 227 255
206 227 255
206 227 255
206 227 255
206 227 255
205 227 255
205 227 255
205 227 255
205 227 255
205 227 255
205 227 255
205 227 255
205 227 255
205 227 255
205 227 255
205 226 255
205 226 255
205 226 255
205 226 255
205 226 255
205 226 255
205 226 255
204 226 255
204 226 255
204 226 255
204 226 255
204 226 255
204 226 255
204 226 255
204 226 255
204 226 255
204 226 255
204 226 255
204 226 255
204 226 255
204 226 255
204 226 255
203 226 255
203 226 255
203 226 255
203 226 255
203 226 255
203 226 255
203 226 255
203 225 255
203 225 255
203 225 255
203 225 255
203 225 255
203 225 255
203 225 255
203 225 255
203 225 255
202 225 255
202 225 255
202 225 255
202 225 255
202 225 255
202 225 255
202 225 255
202 225 255
202 225 255
202 225 255
202 225 255
202 225 255
202 225 255
202 225 255
202 225 255
201 225 255
201 225 255
201 225 255
201 225 255
201 225 255
201 224 255
201 224 255
201 224 255
201 224 255
201 224 255
201 224 255
201 224 255
201 224 255
201 224 255
201 224 255
201 224 255
200 224 255
200 224 255
200 224 255
200 224 255
200 224 255
200 224 255
200 224 255
200 224 255
200 224 255
200 224 255
200 224 255
200 224 255
200 224 255
200 224 255
200 224 255
200 224 255
200 224 255
200 224 255
200 224 255
200 224 255
199 224 255
199 224 255
199 224 255
199 223 255
199 223 255
199 223 255
199 223 255
199 223 255
199 223 255
199 223 255
199 223 255
199 223 255
199 223 255
199 223 255
199 223 255
199 223 255
199 223 255
199 223 255
199 223 255
199 223 255
199 223 255
199 223 255
199 223 255
199 223 255
199 223 255
199 223 255
199 223 255
199 223 255
199 223 255
199 223 255
199 223 255
199 223 255
198 223 255
198 223 255
198 223 255
198 223 255
198 223 255
198 223 255
198 223 255
198 223 255
198 223 255
198 223 255
198 223 255
198 223 255
198 223 255
198 223 255
198 223 255
198 223 255
198 223 255
198 223 255
198 223 255
199 223 255
199 223 255
199 223 255
199 223 255
199 223 255
199 223 255
199 223 255
199 223 255
199 223 255
199 223 255
199 223 255
199 223 255
199 223 255
199 223 255
199 223 255
199 223 255
199 223 255
199 223 255
199 223 255
199 223 255
199 223 255
199 223 255
199 223 255
199 223 255
199 223 255
199 223 255
199 223 255
199 223 255
199 223 255
199 223 255
199 224 255
199 224 255
199 224 255
199 224 255
200 224 255
200 224 255
200 224 255
200 224 255
200 224 255
200 224 255
200 224 255
200 224 255
200 224 255
200 224 255
200 224 255
200 224 255
200 224 255
200 224 255
200 224 255
200 224 255
200 224 255
200 224 255
200 224 255
201 224 255
201 224 255
201 224 255
201 224 255
201 224 255
201 224 255
201 224 255
201 224 255
201 224 255
201 224 255
201 224 255
201 225 255
201 225 255
201 225 255
201 225 255
201 225 255
202 225 255
202 225 255
202 225 255
202 225 255
202 225 255
202 225 255
202 225 255
202 225 255
202 225 255
202 225 255
202 225 255
202 225 255
202 225 255
202 225 255
202 225 255
203 225 255
203 225 255
203 225 255
203 225 255
203 225 255
203 225 255
203 225 255
203 225 255
203 225 255
203 226 255
203 226 255
203 226 255
203 226 255
203 226 255
203 226 255
203 226 255
204 226 255
204 226 255
204 226 255
204 226 255
204 226 255
204 226 255
204 226 255
204 226 255
204 226 255
204 226 255
204 226 255
204 226 255
204 226 255
204 226 255
204 226 255
205 226 255
205 226 255
205 226 255
205 226 255
205 226 255
205 226 255
205 226 255
205 227 255
205 227 255
205 227 255
205 227 255
205 227 255
205 227 255
205 227 255
205 227 255
205 227 255
205 227 255
206 227 255
206 227 255
206 227 255
206 227 255
206 227 255
206 227 255
206 227 255
206 227 255
206 227 255
206 227 255
206 227 255
206 227 255
206 227 255
206 227 255
206 227 255
206 227 255
206 227 255
207 227 255
207 227 255
207 227 255
207 227 255
207 227 255
207 228 255
207 228 255
207 228 255
207 228 255
207 228 255
207 228 255
207 228 255
207 228 255
207 228 255
207 228 255
207 228 255
207 228 255
207 228 255
207 228 255
207 228 255
208 228 255
208 228 255
208 228 255
208 228 255
208 228 255
208 228 255
208 228 255
208 228 255
208 228 255
208 228 255
208 228 255
208 228 255
208 228 255
208 228 255
208 228 255
208 228 255
208 228 255
208 228 255
208 228 255
208 228 255
208 228 255
209 228 255
209 229 255
209 229 255
209 228 255
209 228 255
208 228 255
208 228 255
208 228 255
208 228 255
208 228 255
208 228 255
208 228 255
208 228 255
208 228 255
208 228 255
208 228 255
208 228 255
208 228 255
208 228 255
208 228 255
208 228 255
208 228 255
208 228 255
208 228 255
208 228 255
208 228 255
207 228 255
207 228 255
207 228 255
207 228 255
207 228 255
207 228 255
207 228 255
207 228 255
207 228 255
207 228 255
207 228 255
207 228 255
207 228 255
207 228 255
207 228 255
207 227 255
207 227 255
207 227 255
207 227 255
207 227 255
206 227 255
206 227 255
206 227 255
206 227 255
206 227 255
206 227 255
206 227 255
206 227 255
206 227 255
206 227 255
206 227 255
206 227 255
206 227 255
206 227 255
206 227 255
206 227 255
206 227 255
205 227 255
205 227 255
205 227 255
205 227 255
205 227 255
205 227 255
205 227 255
205 227 255
205 227 255
205 227 255
205 226 255
205 226 255
205 226 255
205 226 255
205 226 255
205 226 255
205 226 255
204 226 255
204 226 255
204 226 255
204 226 255
204 226 255
204 226 255
204 226 255
204 226 255
204 226 255
204 226 255
204 226 255
204 226 255
204 226 255
204 226 255
204 226 255
203 226 255
203 226 255
203 226 255
203 226 255
203 226 255
203 226 255
203 226 255
203 225 255
203 225 255
203 225 255
203 225 255
203 225 255
203 225 255
203 225 255
203 225 255
203 225 255
202 225 255
202 225 255
202 225 255
202 225 255
202 225 255
202 225 255
202 225 255
202 225 255
202 225 255
202 225 255
202 225 255
202 225 255
202 225 255
202 225 255
202 225 255
201 225 255
201 225 255
201 225 255
201 225 255
201 225 255
201 224 255
201 224 255
201 224 255
201 224 255
201 224 255
201 224 255
201 224 255
201 224 255
201 224 255
201 224 255
201 224 255
201 224 255
200 224 255
200 224 255
200 224 255
200 224 255
200 224 255
200 224 255
200 224 255
200 224 255
200 224 255
200 224 255
200 224 255
200 224 255
200 224 255
200 224 255
200 224 255
200 224 255
200 224 255
200 224 255
200 224 255
200 224 255
199 224 255
199 224 255
199 224 255
199 224 255
199 223 255
199 223 255
199 223 255
199 223 255
199 223 255
199 223 255
199 223 255
199 223 255
199 223 255
199 223 255
199 223 255
199 223 255
199 223 255
199 223 255
199 223 255
199 223 255
199 223 255
199 223 255
199 223 255
199 223 255
199 223 255
199 223 255
199 223 255
199 223 255
199 223 255
199 223 255
199 223 255
199 223 255
199 223 255
199 223 255
199 223 255
199 223 255
199 223 255
199 223 255
199 223 255
199 223 255
199 223 255
199 223 255
199 223 255
199 223 255
199 223 255
199 223 255
199 223 255
199 223 255
199 223 255
199 223 255
199 223 255
199 223 255
199 223 255
199 223 255
199 223 255
199 223 255
199 223 255
199 223 255
199 223 255
199 223 255
199 223 255
199 223 255
199 223 255
199 223 255
199 223 255
199 223 255
199 223 255
199 223 255
199 223 255
199 223 255
199 223 255
199 223 255
199 224 255
199 224 255
199 224 255
199 224 255
200 224 255
200 224 255
200 224 255
200 224 255
200 224 255
200 224 255
200 224 255
200 224 255
200 224 255
200 224 255
200 224 255
200 224 255
200 224 255
200 224 255
200 224 255
200 224 255
200 224 255
200 224 255
200 224 255
200 224 255
201 224 255
201 224 255
201 224 255
201 224 255
201 224 255
201 224 255
201 224 255
201 224 255
201 224 255
201 224 255
201 224 255
201 224 255
201 225 255
201 225 255
201 225 255
201 225 255
201 225 255
202 225 255
202 225 255
202 225 255
202 225 255
202 225 255
202 225 255
202 225 255
202 225 255
202 225 255
202 225 255
202 225 255
202 225 255
202 225 255
202 225 255
202 225 255
203 225 255
203 225 255
203 225 255
203 225 255
203 225 255
203 225 255
203 225 255
203 225 255
203 225 255
203 226 255
203 226 255
203 226 255
203 226 255
203 226 255
203 226 255
203 226 255
204 226 255
204 226 255
204 226 255
204 226 255
204 226 255
204 226 255
204 226 255
204 226 255
204 226 255
204 226 255
204 226 255
204 226 255
204 226 255
204 226 255
204 226 255
204 226 255
205 226 255
205 226 255
205 226 255
205 226 255
205 226 255
205 226 255
205 227 255
205 227 255
205 227 255
205 227 255
205 227 255
205 227 255
205 227 255
205 227 255
205 227 255
205 227 255
206 227 255
206 227 255
206 227 255
206 227 255
206 227 255
206 227 255
206 227 255
206 227 255
206 227 255
206 227 255
206 227 255
206 227 255
206 227 255
206 227 255
206 227 255
206 227 255
206 227 255
207 227 255
207 227 255
207 227 255
207 227 255
207 227 255
207 228 255
207 228 255
207 228 255
207 228 255
207 228 255
207 228 255
207 228 255
207 228 255
207 228 255
207 228 255
207 228 255
207 228 255
207 228 255
207 228 255
207 228 255
208 228 255
208 228 255
208 228 255
208 228 255
208 228 255
208 228 255
208 228 255
208 228 255
208 228 255
208 228 255
208 228 255
208 228 255
208 228 255
208 228 255
208 228 255
208 228 255
208 228 255
208 228 255
208 228 255
208 228 255
208 228 255
209 228 255
209 228 255
209 229 255
209 229 255
209 229 255
209 229 255
209 229 255
209 229 255
209 229 255
209 229 255
209 228 255
208 228 255
208 228 255
208 228 255
208 228 255
208 228 255
208 228 255
208 228 255
208 228 255
208 228 255
208 228 255
208 228 255
208 228 255
208 228 255
208 228 255
208 228 255
208 228 255
208 228 255
208 228 255
208 228 255
208 228 255
208 228 255
207 228 255
207 228 255
207 228 255
207 228 255
207 228 255
207 228 255
207 228 255
207 228 255
207 228 255
207 228 255
207 228 255
207 228 255
207 228 255
207 228 255
207 228 255
207 227 255
207 227 255
207 227 255
207 227 255
206 227 255
206 227 255
206 227 255
206 227 255
206 227 255
206 227 255
206 227 255
206 227 255
206 227 255
206 227 255
206 227 255
206 227 255
206 227 255
206 227 255
206 227 255
206 227 255
206 227 255
206 227 255
205 227 255
205 227 255
205 227 255
205 227 255
205 227 255
205 227 255
205 227 255
205 227 255
205 227 255
205 227 255
205 226 255
205 226 255
205 226 255
205 226 255
205 226 255
205 226 255
204 226 255
204 226 255
204 226 255
204 226 255
204 226 255
204 226 255
204 226 255
204 226 255
204 226 255
204 226 255
204 226 255
204 226 255
204 226 255
204 226 255
204 226 255
204 226 255
203 226 255
203 226 255
203 226 255
203 226 255
203 226 255
203 226 255
203 226 255
203 225 255
203 225 255
203 225 255
203 225 255
203 225 255
203 225 255
203 225 255
203 225 255
203 225 255
202 225 255
202 225 255
202 225 255
202 225 255
202 225 255
202 225 255
202 225 255
202 225 255
202 225 255
202 225 255
202 225 255
202 225 255
202 225 255
202 225 255
202 225 255
201 225 255
201 225 255
201 225 255
201 225 255
201 225 255
201 224 255
201 224 255
201 224 255
201 224 255
201 224 255
201 224 255
201 224 255
201 224 255
201 224 255
201 224 255
201 224 255
201 224 255
200 224 255
200 224 255
200 224 255
200 224 255
200 224 255
200 224 255
200 224 255
200 224 255
200 224 255
200 224 255
200 224 255
200 224 255
200 224 255
200 224 255
200 224 255
200 224 255
200 224 255
200 224 255
200 224 255
200 224 255
200 224 255
200 224 255
199 224 255
199 224 255
199 224 255
199 224 255
199 223 255
199 223 255
199 223 255
199 223 255
199 223 255
199 223 255
199 223 255
199 223 255
199 223 255
199 223 255
199 223 255
199 223 255
199 223 255
199 223 255
199 223 255
199 223 255
199 223 255
199 223 255
199 223 255
199 223 255
199 223 255
199 223 255
199 223 255
199 223 255
199 223 255
199 223 255
199 223 255
199 223 255
199 223 255
199 223 255
199 223 255
199 223 255
199 223 255
199 223 255
199 223 255
199 223 255
199 223 255
199 223 255
199 223 255
199 223 255
199 223 255
199 223 255
199 223 255
199 223 255
199 223 255
199 223 255
199 223 255
199 223 255
199 223 255
199 223 255
199 223 255
199 223 255
199 223 255
199 223 255
199 223 255
199 223 255
199 223 255
199 223 255
199 224 255
199 224 255
199 224 255
199 224 255
200 224 255
200 224 255
200 224 255
200 224 255
200 224 255
200 224 255
200 224 255
200 224 255
200 224 255
200 224 255
200 224 255
200 224 255
200 224 255
200 224 255
200 224 255
200 224 255
200 224 255
200 224 255
200 224 255
200 224 255
200 224 255
200 224 255
201 224 255
201 224 255
201 224 255
201 224 255
201 224 255
201 224 255
201 224 255
201 224 255
201 224 255
201 224 255
201 224 255
201 224 255
201 225 255
201 225 255
201 225 255
201 225 255
201 225 255
202 225 255
202 225 255
202 225 255
202 225 255
202 225 255
202 225 255
202 225 255
202 225 255
202 225 255
202 225 255
202 225 255
202 225 255
202 225 255
202 225 255
202 225 255
202 225 255
203 225 255
203 225 255
203 225 255
203 225 255
203 225 255
203 225 255
203 225 255
203 225 255
203 226 255
203 226 255
203 226 255
203 226 255
203 226 255
203 226 255
203 226 255
204 226 255
204 226 255
204 226 255
204 226 255
204 226 255
204 226 255
204 226 255
204 226 255
204 226 255
204 226 255
204 226 255
204 226 255
204 226 255
204 226 255
204 226 255
204 226 255
205 226 255
205 226 255
205 226 255
205 226 255
205 226 255
205 226 255
205 227 255
205 227 255
205 227 255
205 227 255
205 227 255
205 227 255
205 227 255
205 227 255
205 227 255
205 227 255
206 227 255
206 227 255
206 227 255
206 227 255
206 227 255
206 227 255
206 227 255
206 227 255
206 227 255
206 227 255
206 227 255
206 227 255
206 227 255
206 227 255
206 227 255
206 227 255
206 227 255
207 227 255
207 227 255
207 227 255
207 227 255
207 227 255
207 228 255
207 228 255
207 228 255
207 228 255
207 228 255
207 228 255
207 228 255
207 228 255
207 228 255
207 228 255
207 228 255
207 228 255
207 228 255
207 228 255
207 228 255
208 228 255
208 228 255
208 228 255
208 228 255
208 228 255
208 228 255
208 228 255
208 228 255
208 228 255
208 228 255
208 228 255
208 228 255
208 228 255
208 228 255
208 228 255
208 228 255
208 228 255
208 228 255
208 228 255
208 228 255
208 228 255
209 228 255
209 229 255
209 229 255
209 229 255
209 229 255
209 229 255
209 229 255
209 229 255
209 229 255
209 229 255
209 229 255
209 229 255
209 229 255
209 229 255
209 229 255
209 229 255
209 228 255
209 228 255
208 228 255
208 228 255
208 228 255
208 228 255
208 228 255
208 228 255
208 228 255
208 228 255
208 228 255
208 228 255
208 228 255
208 228 255
208 228 255
208 228 255
208 228 255
208 228 255
208 228 255
208 228 255
208 228 255
208 228 255
208 228 255
207 228 255
207 228 255
207 228 255
207 228 255
207 228 255
207 228 255
207 228 255
207 228 255
207 228 255
207 228 255
207 228 255
207 228 255
207 228 255
207 228 255
207 227 255
207 227 255
207 227 255
207 227 255
206 227 255
206 227 255
206 227 255
206 227 255
206 227 255
206 227 255
206 227 255
206 227 255
206 227 255
206 227 255
206 227 255
206 227 255
206 227 255
206 227 255
206 227 255
206 227 255
206 227 255
206 227 255
205 227 255
205 227 255
205 227 255
205 227 255
205 227 255
205 227 255
205 227 255
205 227 255
205 227 255
205 227 255
205 226 255
205 226 255
205 226 255
205 226 255
205 226 255
205 226 255
204 226 255
204 226 255
204 226 255
204 226 255
204 226 255
204 226 255
204 226 255
204 226 255
204 226 255
204 226 255
204 226 255
204 226 255
204 226 255
204 226 255
204 226 255
204 226 255
203 226 255
203 226 255
203 226 255
203 226 255
203 226 255
203 226 255
203 226 255
203 225 255
203 225 255
203 225 255
203 225 255
203 225 255
203 225 255
203 225 255
203 225 255
202 225 255
202 225 255
202 225 255
202 225 255
202 225 255
202 225 255
202 225 255
202 225 255
202 225 255
202 225 255
202 225 255
202 225 255
202 225 255
202 225 255
202 225 255
202 225 255
201 225 255
201 225 255
201 225 255
201 225 255
201 225 255
201 224 255
201 224 255
201 224 255
201 224 255
201 224 255
201 224 255
201 224 255
201 224 255
201 224 255
201 224 255
201 224 255
201 224 255
201 224 255
200 224 255
200 224 255
200 224 255
200 224 255
200 224 255
200 224 255
200 224 255
200 224 255
200 224 255
200 224 255
200 224 255
200 224 255
200 224 255
200 224 255
200 224 255
200 224 255
200 224 255
200 224 255
200 224 255
200 224 255
200 224 255
200 224 255
200 224 255
199 224 255
199 224 255
199 224 255
199 224 255
199 224 255
199 224 255
199 223 255
199 223 255
199 223 255
199 223 255
199 223 255
199 223 255
199 223 255
199 223 255
199 223 255
199 223 255
199 223 255
199 223 255
199 223 255
199 223 255
199 223 255
199 223 255
199 223 255
199 223 255
199 223 255
199 223 255
199 223 255
199 223 255
199 223 255
199 223 255
199 223 255
199 223 255
199 223 255
199 223 255
199 223 255
199 223 255
199 223 255
199 223 255
199 223 255
199 223 255
199 223 255
199 223 255
199 223 255
199 223 255
199 223 255
199 223 255
199 223 255
199 223 255
199 223 255
199 223 255
199 224 255
199 224 255
199 224 255
199 224 255
199 224 255
200 224 255
200 224 255
200 224 255
200 224 255
200 224 255
200 224 255
200 224 255
200 224 255
200 224 255
200 224 255
200 224 255
200 224 255
200 224 255
200 224 255
200 224 255
200 224 255
200 224 255
200 224 255
200 224 255
200 224 255
200 224 255
200 224 255
200 224 255
200 224 255
201 224 255
201 224 255
201 224 255
201 224 255
201 224 255
201 224 255
201 224 255
201 224 255
201 224 255
201 224 255
201 224 255
201 224 255
201 225 255
201 225 255
201 225 255
201 225 255
201 225 255
202 225 255
202 225 255
202 225 255
202 225 255
202 225 255
202 225 255
202 225 255
202 225 255
202 225 255
202 225 255
202 225 255
202 225 255
202 225 255
202 225 255
202 225 255
202 225 255
202 225 255
203 225 255
203 225 255
203 225 255
203 225 255
203 225 255
203 225 255
203 225 255
203 225 255
203 226 255
203 226 255
203 226 255
203 226 255
203 226 255
203 226 255
203 226 255
204 226 255
204 226 255
204 226 255
204 226 255
204 226 255
204 226 255
204 226 255
204 226 255
204 226 255
204 226 255
204 226 255
204 226 255
204 226 255
204 226 255
204 226 255
204 226 255
205 226 255
205 226 255
205 226 255
205 226 255
205 226 255
205 226 255
205 227 255
205 227 255
205 227 255
205 227 255
205 227 255
205 227 255
205 227 255
205 227 255
205 227 255
205 227 255
206 227 255
206 227 255
206 227 255
206 227 255
206 227 255
206 227 255
206 227 255
206 227 255
206 227 255
206 227 255
206 227 255
206 227 255
206 227 255
206 227 255
206 227 255
206 227 255
206 227 255
206 227 255
207 227 255
207 227 255
207 227 255
207 227 255
207 228 255
207 228 255
207 228 255
207 228 255
207 228 255
207 228 255
207 228 255
207 228 255
207 228 255
207 228 255
207 228 255
207 228 255
207 228 255
207 228 255
208 228 255
208 228 255
208 228 255
208 228 255
208 228 255
208 228 255
208 228 255
208 228 255
208 228 255
208 228 255
208 228 255
208 228 255
208 228 255
208 228 255
208 228 255
208 228 255
208 228 255
208 228 255
208 228 255
208 228 255
208 228 255
209 228 255
209 228 255
209 229 255
209 229 255
209 229 255
209 229 255
209 229 255
209 229 255
209 229 255
209 229 255
209 229 255
209 229 255
209 229 255
209 229 255
209 229 255
209 229 255
209 229 255
209 229 255
209 229 255
209 229 255
209 229 255
209 229 255
209 229 255
209 228 255
209 228 255
208 228 255
208 228 255
208 228 255
208 228 255
208 228 255
208 228 255
208 228 255
208 228 255
208 228 255
208 228 255
208 228 255
208 228 255
208 228 255
208 228 255
208 228 255
208 228 255
208 228 255
208 228 255
208 228 255
208 228 255
208 228 255
207 228 255
207 228 255
207 228 255
207 228 255
207 228 255
207 228 255
207 228 255
207 228 255
207 228 255
207 228 255
207 228 255
207 228 255
207 228 255
207 228 255
207 227 255
207 227 255
207 227 255
207 227 255
207 227 255
206 227 255
206 227 255
206 227 255
206 227 255
206 227 255
206 227 255
206 227 255
206 227 255
206 227 255
206 227 255
206 227 255
206 227 255
206 227 255
206 227 255
206 227 255
206 227 255
206 227 255
205 227 255
205 227 255
205 227 255
205 227 255
205 227 255
205 227 255
205 227 255
205 227 255
205 227 255
205 227 255
205 226 255
205 226 255
205 226 255
205 226 255
205 226 255
205 226 255
204 226 255
204 226 255
204 226 255
204 226 255
204 226 255
204 226 255
204 226 255
204 226 255
204 226 255
204 226 255
204 226 255
204 226 255
204 226 255
204 226 255
204 226 255
204 226 255
203 226 255
203 226 255
203 226 255
203 226 255
203 226 255
203 226 255
203 226 255
203 225 255
203 225 255
203 225 255
203 225 255
203 225 255
203 225 255
203 225 255
203 225 255
202 225 255
202 225 255
202 225 255
202 225 255
202 225 255
202 225 255
202 225 255
202 225 255
202 225 255
202 225 255
202 225 255
202 225 255
202 225 255
202 225 255
202 225 255
202 225 255
202 225 255
201 225 255
201 225 255
201 225 255
201 225 255
201 225 255
201 224 255
201 224 255
201 224 255
201 224 255
201 224 255
201 224 255
201 224 255
201 224 255
201 224 255
201 224 255
201 224 255
201 224 255
201 224 255
200 224 255
200 224 255
200 224 255
200 224 255
200 224 255
200 224 255
200 224 255
200 224 255
200 224 255
200 224 255
200 224 255
200 224 255
200 224 255
200 224 255
200 224 255
200 224 255
200 224 255
200 224 255
200 224 255
200 224 255
200 224 255
200 224 255
200 224 255
200 224 255
200 224 255
200 224 255
200 224 255
199 224 255
199 224 255
199 224 255
199 224 255
199 224 255
199 224 255
199 224 255
199 224 255
199 223 255
199 223 255
199 223 255
199 223 255
199 223 255
199 223 255
199 223 255
199 223 255
199 223 255
199 223 255
199 223 255
199 223 255
199 223 255
199 223 255
199 223 255
199 223 255
199 223 255
199 223 255
199 223 255
199 223 255
199 223 255
199 223 255
199 223 255
199 223 255
199 224 255
199 224 255
199 224 255
199 224 255
199 224 255
199 224 255
199 224 255
199 224 255
200 224 255
200 224 255
200 224 255
200 224 255
200 224 255
200 224 255
200 224 255
200 224 255
200 224 255
200 224 255
200 224 255
200 224 255
200 224 255
200 224 255
200 224 255
200 224 255
200 224 255
200 224 255
200 224 255
200 224 255
200 224 255
200 224 255
200 224 255
200 224 255
200 224 255
200 224 255
200 224 255
201 224 255
201 224 255
201 224 255
201 224 255
201 224 255
201 224 255
201 224 255
201 224 255
201 224 255
201 224 255
201 224 255
201 224 255
201 224 255
201 225 255
201 225 255
201 225 255
201 225 255
201 225 255
202 225 255
202 225 255
202 225 255
202 225 255
202 225 255
202 225 255
202 225 255
202 225 255
202 225 255
202 225 255
202 225 255
202 225 255
202 225 255
202 225 255
202 225 255
202 225 255
202 225 255
203 225 255
203 225 255
203 225 255
203 225 255
203 225 255
203 225 255
203 225 255
203 225 255
203 226 255
203 226 255
203 226 255
203 226 255
203 226 255
203 226 255
203 226 255
204 226 255
204 226 255
204 226 255
204 226 255
204 226 255
204 226 255
204 226 255
204 226 255
204 226 255
204 226 255
204 226 255
204 226 255
204 226 255
204 226 255
204 226 255
204 226 255
205 226 255
205 226 255
205 226 255
205 226 255
205 226 255
205 226 255
205 227 255
205 227 255
205 227 255
205 227 255
205 227 255
205 227 255
205 227 255
205 227 255
205 227 255
205 227 255
206 227 255
206 227 255
206 227 255
206 227 255
206 227 255
206 227 255
206 227 255
206 227 255
206 227 255
206 227 255
206 227 255
206 227 255
206 227 255
206 227 255
206 227 255
206 227 255
206 227 255
207 227 255
207 227 255
207 227 255
207 227 255
207 227 255
207 228 255
207 228 255
207 228 255
207 228 255
207 228 255
207 228 255
207 228 255
207 228 255
207 228 255
207 228 255
207 228 255
207 228 255
207 228 255
207 228 255
208 228 255
208 228 255
208 228 255
208 228 255
208 228 255
208 228 255
208 228 255
208 228 255
208 228 255
208 228 255
208 228 255
208 228 255
208 228 255
208 228 255
208 228 255
208 228 255
208 228 255
208 228 255
208 228 255
208 228 255
208 228 255
209 228 255
209 228 255
209 229 255
209 229 255
209 229 255
209 229 255
209 229 255
209 229 255
209 229 255
209 229 255
209 229 255
209 229 255
209 229 255
209 229 255
209 229 255
209 229 255
209 229 255
209 229 255
209 229 255
209 229 255
209 229 255
209 229 255
209 229 255
209 229 255
209 229 255
209 229 255
209 229 255
209 229 255
209 229 255
209 229 255
209 228 255
208 228 255
208 228 255
208 228 255
208 228 255
208 228 255
208 228 255
208 228 255
208 228 255
208 228 255
208 228 255
208 228 255
208 228 255
208 228 255
208 228 255
208 228 255
208 228 255
208 228 255
208 228 255
208 228 255
208 228 255
208 228 255
207 228 255
207 228 255
207 228 255
207 228 255
207 228 255
207 228 255
207 228 255
207 228 255
207 228 255
207 228 255
207 228 255
207 228 255
207 228 255
207 228 255
207 227 255
207 227 255
207 227 255
207 227 255
206 227 255
206 227 255
206 227 255
206 227 255
206 227 255
206 227 255
206 227 255
206 227 255
206 227 255
206 227 255
206 227 255
206 227 255
206 227 255
206 227 255
206 227 255
206 227 255
206 227 255
206 227 255
205 227 255
205 227 255
205 227 255
205 227 255
205 227 255
205 227 255
205 227 255
205 227 255
205 227 255
205 227 255
205 226 255
205 226 255
205 226 255
205 226 255
205 226 255
205 226 255
204 226 255
204 226 255
204 226 255
204 226 255
204 226 255
204 226 255
204 226 255
204 226 255
204 226 255
204 226 255
204 226 255
204 226 255
204 226 255
204 226 255
204 226 255
204 226 255
203 226 255
203 226 255
203 226 255
203 226 255
203 226 255
203 226 255
203 226 255
203 225 255
203 225 255
203 225 255
203 225 255
203 225 255
203 225 255
203 225 255
203 225 255
203 225 255
202 225 255
202 225 255
202 225 255
202 225 255
202 225 255
202 225 255
202 225 255
202 225 255
202 225 255
202 225 255
202 225 255
202 225 255
202 225 255
202 225 255
202 225 255
202 225 255
201 225 255
201 225 255
201 225 255
201 225 255
201 225 255
201 225 255
201 224 255
201 224 255
201 224 255
201 224 255
201 224 255
201 224 255
201 224 255
201 224 255
201 224 255
201 224 255
201 224 255
201 224 255
201 224 255
200 224 255
200 224 255
200 224 255
200 224 255
200 224 255
200 224 255
200 224 255
200 224 255
200 224 255
200 224 255
200 224 255
200 224 255
200 224 255
200 224 255
200 224 255
200 224 255
200 224 255
200 224 255
200 224 255
200 224 255
200 224 255
200 224 255
200 224 255
200 224 255
200 224 255
200 224 255
200 224 255
200 224 255
200 224 255
200 224 255
200 224 255
200 224 255
200 224 255
200 224 255
199 224 255
199 224 255
199 224 255
199 224 255
199 224 255
199 224 255
199 224 255
199 224 255
199 224 255
199 224 255
199 224 255
199 224 255
199 224 255
199 224 255
199 224 255
199 224 255
199 224 255
199 224 255
200 224 255
200 224 255
200 224 255
200 224 255
200 224 255
200 224 255
200 224 255
200 224 255
200 224 255
200 224 255
200 224 255
200 224 255
200 224 255
200 224 255
200 224 255
200 224 255
200 224 255
200 224 255
200 224 255
200 224 255
200 224 255
200 224 255
200 224 255
200 224 255
200 224 255
200 224 255
200 224 255
200 224 255
200 224 255
200 224 255
200 224 255
200 224 255
200 224 255
200 224 255
201 224 255
201 224 255
201 224 255
201 224 255
201 224 255
201 224 255
201 224 255
201 224 255
201 224 255
201 224 255
201 224 255
201 224 255
201 224 255
201 224 255
201 225 255
201 225 255
201 225 255
201 225 255
201 225 255
202 225 255
202 225 255
202 225 255
202 225 255
202 225 255
202 225 255
202 225 255
202 225 255
202 225 255
202 225 255
202 225 255
202 225 255
202 225 255
202 225 255
202 225 255
202 225 255
203 225 255
203 225 255
203 225 255
203 225 255
203 225 255
203 225 255
203 225 255
203 225 255
203 225 255
203 226 255
203 226 255
203 226 255
203 226 255
203 226 255
203 226 255
203 226 255
204 226 255
204 226 255
204 226 255
204 226 255
204 226 255
204 226 255
204 226 255
204 226 255
204 226 255
204 226 255
204 226 255
204 226 255
204 226 255
204 226 255
204 226 255
204 226 255
205 226 255
205 226 255
205 226 255
205 226 255
205 226 255
205 226 255
205 227 255
205 227 255
205 227 255
205 227 255
205 227 255
205 227 255
205 227 255
205 227 255
205 227 255
205 227 255
206 227 255
206 227 255
206 227 255
206 227 255
206 227 255
206 227 255
206 227 255
206 227 255
206 227 255
206 227 255
206 227 255
206 227 255
206 227 255
206 227 255
206 227 255
206 227 255
206 227 255
206 227 255
207 227 255
207 227 255
207 227 255
207 227 255
207 228 255
207 228 255
207 228 255
207 228 255
207 228 255
207 228 255
207 228 255
207 228 255
207 228 255
207 228 255
207 228 255
207 228 255
207 228 255
207 228 255
208 228 255
208 228 255
208 228 255
208 228 255
208 228 255
208 228 255
208 228 255
208 228 255
208 228 255
208 228 255
208 228 255
208 228 255
208 228 255
208 228 255
208 228 255
208 228 255
208 228 255
208 228 255
208 228 255
208 228 255
208 228 255
209 228 255
209 229 255
209 229 255
209 229 255
209 229 255
209 229 255
209 229 255
209 229 255
209 229 255
209 229 255
209 229 255
209 229 255
209 229 255
209 229 255
209 229 255
209 229 255
209 229 255
209 229 255
209 229 255
209 229 255
209 229 255
209 229 255
209 229 255
209 229 255
209 229 255
209 229 255
209 229 255
209 229 255
209 229 255
209 229 255
209 229 255
209 229 255
209 229 255
209 229 255
209 229 255
209 229 255
209 228 255
209 228 255
208 228 255
208 228 255
208 228 255
208 228 255
208 228 255
208 228 255
208 228 255
208 228 255
208 228 255
208 228 255
208 228 255
208 228 255
208 228 255
208 228 255
208 228 255
208 228 255
208 228 255
208 228 255
208 228 255
208 228 255
207 228 255
207 228 255
207 228 255
207 228 255
207 228 255
207 228 255
207 228 255
207 228 255
207 228 255
207 228 255
207 228 255
207 228 255
207 228 255
207 228 255
207 227 255
207 227 255
207 227 255
207 227 255
207 227 255
206 227 255
206 227 255
206 227 255
206 227 255
206 227 255
206 227 255
206 227 255
206 227 255
206 227 255
206 227 255
206 227 255
206 227 255
206 227 255
206 227 255
206 227 255
206 227 255
206 227 255
205 227 255
205 227 255
205 227 255
205 227 255
205 227 255
205 227 255
205 227 255
205 227 255
205 227 255
205 227 255
205 226 255
205 226 255
205 226 255
205 226 255
205 226 255
205 226 255
204 226 255
204 226 255
204 226 255
204 226 255
204 226 255
204 226 255
204 226 255
204 226 255
204 226 255
204 226 255
204 226 255
204 226 255
204 226 255
204 226 255
204 226 255
204 226 255
203 226 255
203 226 255
203 226 255
203 226 255
203 226 255
203 226 255
203 226 255
203 225 255
203 225 255
203 225 255
203 225 255
203 225 255
203 225 255
203 225 255
203 225 255
203 225 255
202 225 255
202 225 255
202 225 255
202 225 255
202 225 255
202 225 255
202 225 255
202 225 255
202 225 255
202 225 255
202 225 255
202 225 255
202 225 255
202 225 255
202 225 255
202 225 255
202 225 255
201 225 255
201 225 255
201 225 255
201 225 255
201 225 255
201 224 255
201 224 255
201 224 255
201 224 255
201 224 255
201 224 255
201 224 255
201 224 255
201 224 255
201 224 255
201 224 255
201 224 255
201 224 255
201 224 255
201 224 255
200 224 255
200 224 255
200 224 255
200 224 255
200 224 255
200 224 255
200 224 255
200 224 255
200 224 255
200 224 255
200 224 255
200 224 255
200 224 255
200 224 255
200 224 255
200 224 255
200 224 255
200 224 255
200 224 255
200 224 255
200 224 255
200 224 255
200 224 255
200 224 255
200 224 255
200 224 255
200 224 255
200 224 255
200 224 255
200 224 255
200 224 255
200 224 255
200 224 255
200 224 255
200 224 255
200 224 255
200 224 255
200 224 255
200 224 255
200 224 255
200 224 255
200 224 255
200 224 255
200 224 255
200 224 255
200 224 255
200 224 255
200 224 255
200 224 255
200 224 255
200 224 255
200 224 255
200 224 255
200 224 255
200 224 255
200 224 255
200 224 255
200 224 255
200 224 255
200 224 255
200 224 255
200 224 255
200 224 255
200 224 255
200 224 255
200 224 255
200 224 255
200 224 255
200 224 255
200 224 255
200 224 255
200 224 255
200 224 255
200 224 255
200 224 255
200 224 255
201 224 255
201 224 255
201 224 255
201 224 255
201 224 255
201 224 255
201 224 255
201 224 255
201 224 255
201 224 255
201 224 255
201 224 255
201 224 255
201 224 255
201 224 255
201 225 255
201 225 255
201 225 255
201 225 255
201 225 255
202 225 255
202 225 255
202 225 255
202 225 255
202 225 255
202 225 255
202 225 255
202 225 255
202 225 255
202 225 255
202 225 255
202 225 255
202 225 255
202 225 255
202 225 255
202 225 255
202 225 255
203 225 255
203 225 255
203 225 255
203 225 255
203 225 255
203 225 255
203 225 255
203 225 255
203 225 255
203 226 255
203 226 255
203 226 255
203 226 255
203 226 255
203 226 255
203 226 255
204 226 255
204 226 255
204 226 255
204 226 255
204 226 255
204 226 255
204 226 255
204 226 255
204 226 255
204 226 255
204 226 255
204 226 255
204 226 255
204 226 255
204 226 255
204 226 255
205 226 255
205 226 255
205 226 255
205 226 255
205 226 255
205 226 255
205 226 255
205 227 255
205 227 255
205 227 255
205 227 255
205 227 255
205 227 255
205 227 255
205 227 255
205 227 255
206 227 255
206 227 255
206 227 255
206 227 255
206 227 255
206 227 255
206 227 255
206 227 255
206 227 255
206 227 255
206 227 255
206 227 255
206 227 255
206 227 255
206 227 255
206 227 255
206 227 255
206 227 255
207 227 255
207 227 255
207 227 255
207 227 255
207 228 255
207 228 255
207 228 255
207 228 255
207 228 255
207 228 255
207 228 255
207 228 255
207 228 255
207 228 255
207 228 255
207 228 255
207 228 255
207 228 255
208 228 255
208 228 255
208 228 255
208 228 255
208 228 255
208 228 255
208 228 255
208 228 255
208 228 255
208 228 255
208 228 255
208 228 255
208 228 255
208 228 255
208 228 255
208 228 255
208 228 255
208 228 255
208 228 255
208 228 255
209 228 255
209 228 255
209 229 255
209 229 255
209 229 255
209 229 255
209 229 255
209 229 255
209 229 255
209 229 255
209 229 255
209 229 255
209 229 255
209 229 255
209 229 255
209 229 255
209 229 255
209 229 255
209 229 255
209 229 255
209 229 255
210 229 255
209 229 255
209 229 255
209 229 255
209 229 255
209 229 255
209 229 255
209 229 255
209 229 255
209 229 255
209 229 255
209 229 255
209 229 255
209 229 255
209 229 255
209 229 255
209 229 255
209 229 255
209 229 255
209 229 255
209 229 255
209 229 255
209 229 255
209 228 255
208 228 255
208 228 255
208 228 255
208 228 255
208 228 255
208 228 255
208 228 255
208 228 255
208 228 255
208 228 255
208 228 255
208 228 255
208 228 255
208 228 255
208 228 255
208 228 255
208 228 255
208 228 255
208 228 255
208 228 255
207 228 255
207 228 255
207 228 255
207 228 255
207 228 255
207 228 255
207 228 255
207 228 255
207 228 255
207 228 255
207 228 255
207 228 255
207 228 255
207 228 255
207 227 255
207 227 255
207 227 255
207 227 255
207 227 255
206 227 255
206 227 255
206 227 255
206 227 255
206 227 255
206 227 255
206 227 255
206 227 255
206 227 255
206 227 255
206 227 255
206 227 255
206 227 255
206 227 255
206 227 255
206 227 255
206 227 255
205 227 255
205 227 255
205 227 255
205 227 255
205 227 255
205 227 255
205 227 255
205 227 255
205 227 255
205 227 255
205 226 255
205 226 255
205 226 255
205 226 255
205 226 255
205 226 255
204 226 255
204 226 255
204 226 255
204 226 255
204 226 255
204 226 255
204 226 255
204 226 255
204 226 255
204 226 255
204 226 255
204 226 255
204 226 255
204 226 255
204 226 255
204 226 255
203 226 255
203 226 255
203 226 255
203 226 255
203 226 255
203 226 255
203 226 255
203 225 255
203 225 255
203 225 255
203 225 255
203 225 255
203 225 255
203 225 255
203 225 255
203 225 255
202 225 255
202 225 255
202 225 255
202 225 255
202 225 255
202 225 255
202 225 255
202 225 255
202 225 255
202 225 255
202 225 255
202 225 255
202 225 255
202 225 255
202 225 255
202 225 255
202 225 255
202 225 255
201 225 255
201 225 255
201 225 255
201 225 255
201 225 255
201 224 255
201 224 255
201 224 255
201 224 255
201 224 255
201 224 255
201 224 255
201 224 255
201 224 255
201 224 255
201 224 255
201 224 255
201 224 255
201 224 255
201 224 255
201 224 255
200 224 255
200 224 255
200 224 255
200 224 255
200 224 255
200 224 255
200 224 255
200 224 255
200 224 255
200 224 255
200 224 255
200 224 255
200 224 255
200 224 255
200 224 255
200 224 255
200 224 255
200 224 255
200 224 255
200 224 255
200 224 255
200 224 255
200 224 255
200 224 255
200 224 255
200 224 255
200 224 255
200 224 255
200 224 255
200 224 255
200 224 255
200 224 255
200 224 255
200 224 255
200 224 255
200 224 255
200 224 255
200 224 255
200 224 255
200 224 255
200 224 255
200 224 255
200 224 255
200 224 255
200 224 255
200 224 255
200 224 255
200 224 255
200 224 255
200 224 255
200 224 255
200 224 255
200 224 255
200 224 255
200 224 255
200 224 255
200 224 255
200 224 255
200 224 255
200 224 255
200 224 255
200 224 255
200 224 255
200 224 255
200 224 255
201 224 255
201 224 255
201 224 255
201 224 255
201 224 255
201 224 255
201 224 255
201 224 255
201 224 255
201 224 255
201 224 255
201 224 255
201 224 255
201 224 255
201 224 255
201 224 255
201 224 255
201 225 255
201 225 255
201 225 255
201 225 255
201 225 255
202 225 255
202 225 255
202 225 255
202 225 255
202 225 255
202 225 255
202 225 255
202 225 255
202 225 255
202 225 255
202 225 255
202 225 255
202 225 255
202 225 255
202 225 255
202 225 255
202 225 255
202 225 255
203 225 255
203 225 255
203 225 255
203 225 255
203 225 255
203 225 255
203 225 255
203 225 255
203 225 255
203 226 255
203 226 255
203 226 255
203 226 255
203 226 255
203 226 255
203 226 255
204 226 255
204 226 255
204 226 255
204 226 255
204 226 255
204 226 255
204 226 255
204 226 255
204 226 255
204 226 255
204 226 255
204 226 255
204 226 255
204 226 255
204 226 255
204 226 255
205 226 255
205 226 255
205 226 255
205 226 255
205 226 255
205 226 255
205 227 255
205 227 255
205 227 255
205 227 255
205 227 255
205 227 255
205 227 255
205 227 255
205 227 255
205 227 255
206 227 255
206 227 255
206 227 255
206 227 255
206 227 255
206 227 255
206 227 255
206 227 255
206 227 255
206 227 255
206 227 255
206 227 255
206 227 255
206 227 255
206 227 255
206 227 255
206 227 255
207 227 255
207 227 255
207 227 255
207 227 255
207 227 255
207 228 255
207 228 255
207 228 255
207 228 255
207 228 255
207 228 255
207 228 255
207 228 255
207 228 255
207 228 255
207 228 255
207 228 255
207 228 255
207 228 255
208 228 255
208 228 255
208 228 255
208 228 255
208 228 255
208 228 255
208 228 255
208 228 255
208 228 255
208 228 255
208 228 255
208 228 255
208 228 255
208 228 255
208 228 255
208 228 255
208 228 255
208 228 255
208 228 255
208 228 255
209 228 255
209 228 255
209 229 255
209 229 255
209 229 255
209 229 255
209 229 255
209 229 255
209 229 255
209 229 255
209 229 255
209 229 255
209 229 255
209 229 255
209 229 255
209 229 255
209 229 255
209 229 255
209 229 255
209 229 255
209 229 255
209 229 255
209 229 255
210 229 255
210 229 255
210 229 255
210 229 255
210 229 255
210 229 255
209 229 255
209 229 255
209 229 255
209 229 255
209 229 255
209 229 255
209 229 255
209 229 255
209 229 255
209 229 255
209 229 255
209 229 255
209 229 255
209 229 255
209 229 255
209 229 255
209 229 255
209 229 255
209 229 255
209 229 255
209 229 255
209 228 255
208 228 255
208 228 255
208 228 255
208 228 255
208 228 255
208 228 255
208 228 255
208 228 255
208 228 255
208 228 255
208 228 255
208 228 255
208 228 255
208 228 255
208 228 255
208 228 255
208 228 255
208 228 255
208 228 255
208 228 255
207 228 255
207 228 255
207 228 255
207 228 255
207 228 255
207 228 255
207 228 255
207 228 255
207 228 255
207 228 255
207 228 255
207 228 255
207 228 255
207 228 255
207 227 255
207 227 255
207 227 255
207 227 255
207 227 255
206 227 255
206 227 255
206 227 255
206 227 255
206 227 255
206 227 255
206 227 255
206 227 255
206 227 255
206 227 255
206 227 255
206 227 255
206 227 255
206 227 255
206 227 255
206 227 255
206 227 255
205 227 255
205 227 255
205 227 255
205 227 255
205 227 255
205 227 255
205 227 255
205 227 255
205 227 255
205 227 255
205 226 255
205 226 255
205 226 255
205 226 255
205 226 255
205 226 255
204 226 255
204 226 255
204 226 255
204 226 255
204 226 255
204 226 255
204 226 255
204 226 255
204 226 255
204 226 255
204 226 255
204 226 255
204 226 255
204 226 255
204 226 255
204 226 255
203 226 255
203 226 255
203 226 255
203 226 255
203 226 255
203 226 255
203 226 255
203 225 255
203 225 255
203 225 255
203 225 255
203 225 255
203 225 255
203 225 255
203 225 255
203 225 255
203 225 255
202 225 255
202 225 255
202 225 255
202 225 255
202 225 255
202 225 255
202 225 255
202 225 255
202 225 255
202 225 255
202 225 255
202 225 255
202 225 255
202 225 255
202 225 255
202 225 255
202 225 255
201 225 255
201 225 255
201 225 255
201 225 255
201 225 255
201 225 255
201 225 255
201 224 255
201 224 255
201 224 255
201 224 255
201 224 255
201 224 255
201 224 255
201 224 255
201 224 255
201 224 255
201 224 255
201 224 255
201 224 255
201 224 255
201 224 255
201 224 255
201 224 255
200 224 255
200 224 255
200 224 255
200 224 255
200 224 255
200 224 255
200 224 255
200 224 255
200 224 255
200 224 255
200 224 255
200 224 255
200 224 255
200 224 255
200 224 255
200 224 255
200 224 255
200 224 255
200 224 255
200 224 255
200 224 255
200 224 255
200 224 255
200 224 255
200 224 255
200 224 255
200 224 255
200 224 255
200 224 255
200 224 255
200 224 255
200 224 255
200 224 255
200 224 255
200 224 255
200 224 255
200 224 255
200 224 255
200 224 255
200 224 255
200 224 255
200 224 255
200 224 255
200 224 255
200 224 255
200 224 255
200 224 255
200 224 255
200 224 255
200 224 255
200 224 255
200 224 255
200 224 255
200 224 255
201 224 255
201 224 255
201 224 255
201 224 255
201 224 255
201 224 255
201 224 255
201 224 255
201 224 255
201 224 255
201 224 255
201 224 255
201 224 255
201 224 255
201 224 255
201 224 255
201 224 255
201 225 255
201 225 255
201 225 255
201 225 255
201 225 255
201 225 255
201 225 255
202 225 255
202 225 255
202 225 255
202 225 255
202 225 255
202 225 255
202 225 255
202 225 255
202 225 255
202 225 255
202 225 255
202 225 255
202 225 255
202 225 255
202 225 255
202 225 255
202 225 255
203 225 255
203 225 255
203 225 255
203 225 255
203 225 255
203 225 255
203 225 255
203 225 255
203 225 255
203 225 255
203 226 255
203 226 255
203 226 255
203 226 255
203 226 255
203 226 255
203 226 255
204 226 255
204 226 255
204 226 255
204 226 255
204 226 255
204 226 255
204 226 255
204 226 255
204 226 255
204 226 255
204 226 255
204 226 255
204 226 255
204 226 255
204 226 255
204 226 255
205 226 255
205 226 255
205 226 255
205 226 255
205 226 255
205 226 255
205 227 255
205 227 255
205 227 255
205 227 255
205 227 255
205 227 255
205 227 255
205 227 255
205 227 255
205 227 255
206 227 255
206 227 255
206 227 255
206 227 255
206 227 255
206 227 255
206 227 255
206 227 255
206 227 255
206 227 255
206 227 255
206 227 255
206 227 255
206 227 255
206 227 255
206 227 255
206 227 255
207 227 255
207 227 255
207 227 255
207 227 255
207 228 255
207 228 255
207 228 255
207 228 255
207 228 255
207 228 255
207 228 255
207 228 255
207 228 255
207 228 255
207 228 255
207 228 255
207 228 255
207 228 255
207 228 255
208 228 255
208 228 255
208 228 255
208 228 255
208 228 255
208 228 255
208 228 255
208 228 255
208 228 255
208 228 255
208 228 255
208 228 255
208 228 255
208 228 255
208 228 255
208 228 255
208 228 255
208 228 255
208 228 255
208 228 255
209 228 255
209 229 255
209 229 255
209 229 255
209 229 255
209 229 255
209 229 255
209 229 255
209 229 255
209 229 255
209 229 255
209 229 255
209 229 255
209 229 255
209 229 255
209 229 255
209 229 255
209 229 255
209 229 255
209 229 255
209 229 255
209 229 255
210 229 255
210 229 255
210 229 255
210 229 255
210 229 255
210 229 255
210 229 255
210 229 255
210 229 255
210 229 255
210 229 255
210 229 255
210 229 255
210 229 255
209 229 255
209 229 255
209 229 255
209 229 255
209 229 255
209 229 255
209 229 255
209 229 255
209 229 255
209 229 255
209 229 255
209 229 255
209 229 255
209 229 255
209 229 255
209 229 255
209 229 255
209 229 255
209 229 255
209 229 255
209 228 255
209 228 255
208 228 255
208 228 255
208 228 255
208 228 255
208 228 255
208 228 255
208 228 255
208 228 255
208 228 255
208 228 255
208 228 255
208 228 255
208 228 255
208 228 255
208 228 255
208 228 255
208 228 255
208 228 255
208 228 255
208 228 255
207 228 255
207 228 255
207 228 255
207 228 255
207 228 255
207 228 255
207 228 255
207 228 255
207 228 255
207 228 255
207 228 255
207 228 255
207 228 255
207 228 255
207 227 255
207 227 255
207 227 255
207 227 255
206 227 255
206 227 255
206 227 255
206 227 255
206 227 255
206 227 255
206 227 255
206 227 255
206 227 255
206 227 255
206 227 255
206 227 255
206 227 255
206 227 255
206 227 255
206 227 255
206 227 255
205 227 255
205 227 255
205 227 255
205 227 255
205 227 255
205 227 255
205 227 255
205 227 255
205 227 255
205 227 255
205 226 255
205 226 255
205 226 255
205 226 255
205 226 255
205 226 255
204 226 255
204 226 255
204 226 255
204 226 255
204 226 255
204 226 255
204 226 255
204 226 255
204 226 255
204 226 255
204 226 255
204 226 255
204 226 255
204 226 255
204 226 255
204 226 255
203 226 255
203 226 255
203 226 255
203 226 255
203 226 255
203 226 255
203 226 255
203 226 255
203 225 255
203 225 255
203 225 255
203 225 255
203 225 255
203 225 255
203 225 255
203 225 255
203 225 255
202 225 255
202 225 255
202 225 255
202 225 255
202 225 255
202 225 255
202 225 255
202 225 255
202 225 255
202 225 255
202 225 255
202 225 255
202 225 255
202 225 255
202 225 255
202 225 255
202 225 255
202 225 255
202 225 255
201 225 255
201 225 255
201 225 255
201 225 255
201 225 255
201 225 255
201 224 255
201 224 255
201 224 255
201 224 255
201 224 255
201 224 255
201 224 255
201 224 255
201 224 255
201 224 255
201 224 255
201 224 255
201 224 255
201 224 255
201 224 255
201 224 255
201 224 255
201 224 255
201 224 255
201 224 255
201 224 255
201 224 255
200 224 255
200 224 255
200 224 255
200 224 255
200 224 255
200 224 255
200 224 255
200 224 255
200 224 255
200 224 255
200 224 255
200 224 255
200 224 255
200 224 255
200 224 255
200 224 255
200 224 255
200 224 255
200 224 255
200 224 255
200 224 255
200 224 255
200 224 255
200 224 255
200 224 255
200 224 255
200 224 255
200 224 255
200 224 255
200 224 255
200 224 255
200 224 255
200 224 255
200 224 255
200 224 255
200 224 255
200 224 255
201 224 255
201 224 255
201 224 255
201 224 255
201 224 255
201 224 255
201 224 255
201 224 255
201 224 255
201 224 255
201 224 255
201 224 255
201 224 255
201 224 255
201 224 255
201 224 255
201 224 255
201 224 255
201 224 255
201 224 255
201 224 255
201 225 255
201 225 255
201 225 255
201 225 255
201 225 255
201 225 255
202 225 255
202 225 255
202 225 255
202 225 255
202 225 255
202 225 255
202 225 255
202 225 255
202 225 255
202 225 255
202 225 255
202 225 255
202 225 255
202 225 255
202 225 255
202 225 255
202 225 255
202 225 255
202 225 255
203 225 255
203 225 255
203 225 255
203 225 255
203 225 255
203 225 255
203 225 255
203 225 255
203 225 255
203 226 255
203 226 255
203 226 255
203 226 255
203 226 255
203 226 255
203 226 255
203 226 255
204 226 255
204 226 255
204 226 255
204 226 255
204 226 255
204 226 255
204 226 255
204 226 255
204 226 255
204 226 255
204 226 255
204 226 255
204 226 255
204 226 255
204 226 255
204 226 255
205 226 255
205 226 255
205 226 255
205 226 255
205 226 255
205 226 255
205 227 255
205 227 255
205 227 255
205 227 255
205 227 255
205 227 255
205 227 255
205 227 255
205 227 255
205 227 255
206 227 255
206 227 255
206 227 255
206 227 255
206 227 255
206 227 255
206 227 255
206 227 255
206 227 255
206 227 255
206 227 255
206 227 255
206 227 255
206 227 255
206 227 255
206 227 255
206 227 255
207 227 255
207 227 255
207 227 255
207 227 255
207 228 255
207 228 255
207 228 255
207 228 255
207 228 255
207 228 255
207 228 255
207 228 255
207 228 255
207 228 255
207 228 255
207 228 255
207 228 255
207 228 255
208 228 255
208 228 255
208 228 255
208 228 255
208 228 255
208 228 255
208 228 255
208 228 255
208 228 255
208 228 255
208 228 255
208 228 255
208 228 255
208 228 255
208 228 255
208 228 255
208 228 255
208 228 255
208 228 255
208 228 255
209 228 255
209 228 255
209 229 255
209 229 255
209 229 255
209 229 255
209 229 255
209 229 255
209 229 255
209 229 255
209 229 255
209 229 255
209 229 255
209 229 255
209 229 255
209 229 255
209 229 255
209 229 255
209 229 255
209 229 255
209 229 255
209 229 255
210 229 255
210 229 255
210 229 255
210 229 255
210 229 255
210 229 255
210 229 255
210 229 255
210 229 255
210 229 255
210 229 255
210 229 255
210 229 255
210 229 255
210 229 255
210 229 255
210 229 255
210 229 255
210 229 255
210 229 255
210 229 255
209 229 255
209 229 255
209 229 255
209 229 255
209 229 255
209 229 255
209 229 255
209 229 255
209 229 255
209 229 255
209 229 255
209 229 255
209 229 255
209 229 255
209 229 255
209 229 255
209 229 255
209 229 255
209 229 255
209 229 255
209 229 255
209 228 255
208 228 255
208 228 255
208 228 255
208 228 255
208 228 255
208 228 255
208 228 255
208 228 255
208 228 255
208 228 255
208 228 255
208 228 255
208 228 255
208 228 255
208 228 255
208 228 255
208 228 255
208 228 255
208 228 255
208 228 255
207 228 255
207 228 255
207 228 255
207 228 255
207 228 255
207 228 255
207 228 255
207 228 255
207 228 255
207 228 255
207 228 255
207 228 255
207 228 255
207 228 255
207 227 255
207 227 255
207 227 255
207 227 255
206 227 255
206 227 255
206 227 255
206 227 255
206 227 255
206 227 255
206 227 255
206 227 255
206 227 255
206 227 255
206 227 255
206 227 255
206 227 255
206 227 255
206 227 255
206 227 255
206 227 255
205 227 255
205 227 255
205 227 255
205 227 255
205 227 255
205 227 255
205 227 255
205 227 255
205 227 255
205 227 255
205 226 255
205 226 255
205 226 255
205 226 255
205 226 255
205 226 255
204 226 255
204 226 255
204 226 255
204 226 255
204 226 255
204 226 255
204 226 255
204 226 255
204 226 255
204 226 255
204 226 255
204 226 255
204 226 255
204 226 255
204 226 255
204 226 255
204 226 255
203 226 255
203 226 255
203 226 255
203 226 255
203 226 255
203 226 255
203 226 255
203 225 255
203 225 255
203 225 255
203 225 255
203 225 255
203 225 255
203 225 255
203 225 255
203 225 255
203 225 255
202 225 255
202 225 255
202 225 255
202 225 255
202 225 255
202 225 255
202 225 255
202 225 255
202 225 255
202 225 255
202 225 255
202 225 255
202 225 255
202 225 255
202 225 255
202 225 255
202 225 255
202 225 255
202 225 255
201 225 255
201 225 255
201 225 255
201 225 255
201 225 255
201 225 255
201 225 255
201 225 255
201 224 255
201 224 255
201 224 255
201 224 255
201 224 255
201 224 255
201 224 255
201 224 255
201 224 255
201 224 255
201 224 255
201 224 255
201 224 255
201 224 255
201 224 255
201 224 255
201 224 255
201 224 255
201 224 255
201 224 255
201 224 255
201 224 255
201 224 255
201 224 255
201 224 255
201 224 255
201 224 255
201 224 255
201 224 255
201 224 255
201 224 255
201 224 255
201 224 255
201 224 255
201 224 255
201 224 255
201 224 255
201 224 255
201 224 255
201 224 255
201 224 255
201 224 255
201 224 255
201 224 255
201 224 255
201 224 255
201 224 255
201 224 255
201 224 255
201 224 255
201 224 255
201 224 255
201 224 255
201 224 255
201 224 255
201 224 255
201 224 255
201 224 255
201 224 255
201 224 255
201 224 255
201 224 255
201 224 255
201 224 255
201 224 255
201 224 255
201 224 255
201 224 255
201 225 255
201 225 255
201 225 255
201 225 255
201 225 255
201 225 255
201 225 255
202 225 255
202 225 255
202 225 255
202 225 255
202 225 255
202 225 255
202 225 255
202 225 255
202 225 255
202 225 255
202 225 255
202 225 255
202 225 255
202 225 255
202 225 255
202 225 255
202 225 255
202 225 255
202 225 255
202 225 255
203 225 255
203 225 255
203 225 255
203 225 255
203 225 255
203 225 255
203 225 255
203 225 255
203 225 255
203 225 255
203 226 255
203 226 255
203 226 255
203 226 255
203 226 255
203 226 255
203 226 255
204 226 255
204 226 255
204 226 255
204 226 255
204 226 255
204 226 255
204 226 255
204 226 255
204 226 255
204 226 255
204 226 255
204 226 255
204 226 255
204 226 255
204 226 255
204 226 255
204 226 255
205 226 255
205 226 255
205 226 255
205 226 255
205 226 255
205 226 255
205 227 255
205 227 255
205 227 255
205 227 255
205 227 255
205 227 255
205 227 255
205 227 255
205 227 255
205 227 255
206 227 255
206 227 255
206 227 255
206 227 255
206 227 255
206 227 255
206 227 255
206 227 255
206 227 255
206 227 255
206 227 255
206 227 255
206 227 255
206 227 255
206 227 255
206 227 255
206 227 255
207 227 255
207 227 255
207 227 255
207 227 255
207 228 255
207 228 255
207 228 255
207 228 255
207 228 255
207 228 255
207 228 255
207 228 255
207 228 255
207 228 255
207 228 255
207 228 255
207 228 255
207 228 255
208 228 255
208 228 255
208 228 255
208 228 255
208 228 255
208 228 255
208 228 255
208 228 255
208 228 255
208 228 255
208 228 255
208 228 255
208 228 255
208 228 255
208 228 255
208 228 255
208 228 255
208 228 255
208 228 255
208 228 255
209 228 255
209 229 255
209 229 255
209 229 255
209 229 255
209 229 255
209 229 255
209 229 255
209 229 255
209 229 255
209 229 255
209 229 255
209 229 255
209 229 255
209 229 255
209 229 255
209 229 255
209 229 255
209 229 255
209 229 255
209 229 255
209 229 255
210 229 255
210 229 255
210 229 255
210 229 255
210 229 255
210 229 255
210 229 255
210 229 255
210 229 255
210 229 255
210 229 255
210 229 255
210 229 255
210 229 255
210 229 255
210 229 255
210 229 255
210 229 255
210 229 255
210 229 255
210 229 255
210 229 255
210 229 255
210 229 255
210 229 255
210 229 255
210 229 255
210 229 255
209 229 255
209 229 255
209 229 255
209 229 255
209 229 255
209 229 255
209 229 255
209 229 255
209 229 255
209 229 255
209 229 255
209 229 255
209 229 255
209 229 255
209 229 255
209 229 255
209 229 255
209 229 255
209 229 255
209 229 255
209 228 255
209 228 255
208 228 255
208 228 255
208 228 255
208 228 255
208 228 255
208 228 255
208 228 255
208 228 255
208 228 255
208 228 255
208 228 255
208 228 255
208 228 255
208 228 255
208 228 255
208 228 255
208 228 255
208 228 255
208 228 255
207 228 255
207 228 255
207 228 255
207 228 255
207 228 255
207 228 255
207 228 255
207 228 255
207 228 255
207 228 255
207 228 255
207 228 255
207 228 255
207 228 255
207 227 255
207 227 255
207 227 255
207 227 255
206 227 255
206 227 255
206 227 255
206 227 255
206 227 255
206 227 255
206 227 255
206 227 255
206 227 255
206 227 255
206 227 255
206 227 255
206 227 255
206 227 255
206 227 255
206 227 255
206 227 255
205 227 255
205 227 255
205 227 255
205 227 255
205 227 255
205 227 255
205 227 255
205 227 255
205 227 255
205 227 255
205 226 255
205 226 255
205 226 255
205 226 255
205 226 255
205 226 255
205 226 255
204 226 255
204 226 255
204 226 255
204 226 255
204 226 255
204 226 255
204 226 255
204 226 255
204 226 255
204 226 255
204 226 255
204 226 255
204 226 255
204 226 255
204 226 255
204 226 255
203 226 255
203 226 255
203 226 255
203 226 255
203 226 255
203 226 255
203 226 255
203 226 255
203 225 255
203 225 255
203 225 255
203 225 255
203 225 255
203 225 255
203 225 255
203 225 255
203 225 255
203 225 255
202 225 255
202 225 255
202 225 255
202 225 255
202 225 255
202 225 255
202 225 255
202 225 255
202 225 255
202 225 255
202 225 255
202 225 255
202 225 255
202 225 255
202 225 255
202 225 255
202 225 255
202 225 255
202 225 255
202 225 255
202 225 255
201 225 255
201 225 255
201 225 255
201 225 255
201 225 255
201 225 255
201 225 255
201 225 255
201 224 255
201 224 255
201 224 255
201 224 255
201 224 255
201 224 255
201 224 255
201 224 255
201 224 255
201 224 255
201 224 255
201 224 255
201 224 255
201 224 255
201 224 255
201 224 255
201 224 255
201 224 255
201 224 255
201 224 255
201 224 255
201 224 255
201 224 255
201 224 255
201 224 255
201 224 255
201 224 255
201 224 255
201 224 255
201 224 255
201 224 255
201 224 255
201 224 255
201 224 255
201 224 255
201 224 255
201 224 255
201 224 255
201 224 255
201 224 255
201 224 255
201 224 255
201 224 255
201 224 255
201 224 255
201 224 255
201 224 255
201 224 255
201 224 255
201 224 255
201 224 255
201 224 255
201 224 255
201 224 255
201 224 255
201 224 255
201 225 255
201 225 255
201 225 255
201 225 255
201 225 255
201 225 255
201 225 255
201 225 255
201 225 255
202 225 255
202 225 255
202 225 255
202 225 255
202 225 255
202 225 255
202 225 255
202 225 255
202 225 255
202 225 255
202 225 255
202 225 255
202 225 255
202 225 255
202 225 255
202 225 255
202 225 255
202 225 255
202 225 255
202 225 255
203 225 255
203 225 255
203 225 255
203 225 255
203 225 255
203 225 255
203 225 255
203 225 255
203 225 255
203 225 255
203 226 255
203 226 255
203 226 255
203 226 255
203 226 255
203 226 255
203 226 255
203 226 255
204 226 255
204 226 255
204 226 255
204 226 255
204 226 255
204 226 255
204 226 255
204 226 255
204 226 255
204 226 255
204 226 255
204 226 255
204 226 255
204 226 255
204 226 255
204 226 255
205 226 255
205 226 255
205 226 255
205 226 255
205 226 255
205 226 255
205 226 255
205 227 255
205 227 255
205 227 255
205 227 255
205 227 255
205 227 255
205 227 255
205 227 255
205 227 255
206 227 255
206 227 255
206 227 255
206 227 255
206 227 255
206 227 255
206 227 255
206 227 255
206 227 255
206 227 255
206 227 255
206 227 255
206 227 255
206 227 255
206 227 255
206 227 255
206 227 255
206 227 255
207 227 255
207 227 255
207 227 255
207 227 255
207 228 255
207 228 255
207 228 255
207 228 255
207 228 255
207 228 255
207 228 255
207 228 255
207 228 255
207 228 255
207 228 255
207 228 255
207 228 255
207 228 255
208 228 255
208 228 255
208 228 255
208 228 255
208 228 255
208 228 255
208 228 255
208 228 255
208 228 255
208 228 255
208 228 255
208 228 255
208 228 255
208 228 255
208 228 255
208 228 255
208 228 255
208 228 255
208 228 255
209 228 255
209 228 255
209 229 255
209 229 255
209 229 255
209 229 255
209 229 255
209 229 255
209 229 255
209 229 255
209 229 255
209 229 255
209 229 255
209 229 255
209 229 255
209 229 255
209 229 255
209 229 255
209 229 255
209 229 255
209 229 255
209 229 255
210 229 255
210 229 255
210 229 255
210 229 255
210 229 255
210 229 255
210 229 255
210 229 255
210 229 255
210 229 255
210 229 255
210 229 255
210 229 255
210 229 255
210 229 255
210 229 255
210 229 255
210 229 255
210 229 255
210 229 255
210 229 255
210 229 255
210 229 255
210 229 255
210 229 255
210 229 255
210 229 255
210 229 255
210 229 255
210 229 255
210 229 255
210 229 255
210 229 255
210 229 255
210 229 255
209 229 255
209 229 255
209 229 255
209 229 255
209 229 255
209 229 255
209 229 255
209 229 255
209 229 255
209 229 255
209 229 255
209 229 255
209 229 255
209 229 255
209 229 255
209 229 255
209 229 255
209 229 255
209 229 255
209 229 255
209 229 255
209 228 255
208 228 255
208 228 255
208 228 255
208 228 255
208 228 255
208 228 255
208 228 255
208 228 255
208 228 255
208 228 255
208 228 255
208 228 255
208 228 255
208 228 255
208 228 255
208 228 255
208 228 255
208 228 255
208 228 255
208 228 255
207 228 255
207 228 255
207 228 255
207 228 255
207 228 255
207 228 255
207 228 255
207 228 255
207 228 255
207 228 255
207 228 255
207 228 255
207 228 255
207 227 255
207 227 255
207 227 255
207 227 255
207 227 255
206 227 255
206 227 255
206 227 255
206 227 255
206 227 255
206 227 255
206 227 255
206 227 255
206 227 255
206 227 255
206 227 255
206 227 255
206 227 255
206 227 255
206 227 255
206 227 255
206 227 255
205 227 255
205 227 255
205 227 255
205 227 255
205 227 255
205 227 255
205 227 255
205 227 255
205 227 255
205 226 255
205 226 255
205 226 255
205 226 255
205 226 255
205 226 255
205 226 255
204 226 255
204 226 255
204 226 255
204 226 255
204 226 255
204 226 255
204 226 255
204 226 255
204 226 255
204 226 255
204 226 255
204 226 255
204 226 255
204 226 255
204 226 255
204 226 255
204 226 255
203 226 255
203 226 255
203 226 255
203 226 255
203 226 255
203 226 255
203 226 255
203 225 255
203 225 255
203 225 255
203 225 255
203 225 255
203 225 255
203 225 255
203 225 255
203 225 255
203 225 255
203 225 255
202 225 255
202 225 255
202 225 255
202 225 255
202 225 255
202 225 255
202 225 255
202 225 255
202 225 255
202 225 255
202 225 255
202 225 255
202 225 255
202 225 255
202 225 255
202 225 255
202 225 255
202 225 255
202 225 255
202 225 255
202 225 255
202 225 255
202 225 255
201 225 255
201 225 255
201 225 255
201 225 255
201 225 255
201 225 255
201 225 255
201 225 255
201 225 255
201 225 255
201 224 255
201 224 255
201 224 255
201 224 255
201 224 255
201 224 255
201 224 255
201 224 255
201 224 255
201 224 255
201 224 255
201 224 255
201 224 255
201 224 255
201 224 255
201 224 255
201 224 255
201 224 255
201 224 255
201 224 255
201 224 255
201 224 255
201 224 255
201 224 255
201 224 255
201 224 255
201 224 255
201 224 255
201 224 255
201 224 255
201 224 255
201 224 255
201 224 255
201 224 255
201 224 255
201 224 255
201 224 255
201 224 255
201 224 255
201 224 255
201 225 255
201 225 255
201 225 255
201 225 255
201 225 255
201 225 255
201 225 255
201 225 255
201 225 255
201 225 255
202 225 255
202 225 255
202 225 255
202 225 255
202 225 255
202 225 255
202 225 255
202 225 255
202 225 255
202 225 255
202 225 255
202 225 255
202 225 255
202 225 255
202 225 255
202 225 255
202 225 255
202 225 255
202 225 255
202 225 255
202 225 255
202 225 255
202 225 255
203 225 255
203 225 255
203 225 255
203 225 255
203 225 255
203 225 255
203 225 255
203 225 255
203 225 255
203 225 255
203 226 255
203 226 255
203 226 255
203 226 255
203 226 255
203 226 255
203 226 255
203 226 255
204 226 255
204 226 255
204 226 255
204 226 255
204 226 255
204 226 255
204 226 255
204 226 255
204 226 255
204 226 255
204 226 255
204 226 255
204 226 255
204 226 255
204 226 255
204 226 255
204 226 255
205 226 255
205 226 255
205 226 255
205 226 255
205 226 255
205 226 255
205 226 255
205 227 255
205 227 255
205 227 255
205 227 255
205 227 255
205 227 255
205 227 255
205 227 255
205 227 255
206 227 255
206 227 255
206 227 255
206 227 255
206 227 255
206 227 255
206 227 255
206 227 255
206 227 255
206 227 255
206 227 255
206 227 255
206 227 255
206 227 255
206 227 255
206 227 255
206 227 255
207 227 255
207 227 255
207 227 255
207 227 255
207 227 255
207 228 255
207 228 255
207 228 255
207 228 255
207 228 255
207 228 255
207 228 255
207 228 255
207 228 255
207 228 255
207 228 255
207 228 255
207 228 255
208 228 255
208 228 255
208 228 255
208 228 255
208 228 255
208 228 255
208 228 255
208 228 255
208 228 255
208 228 255
208 228 255
208 228 255
208 228 255
208 228 255
208 228 255
208 228 255
208 228 255
208 228 255
208 228 255
208 228 255
209 228 255
209 229 255
209 229 255
209 229 255
209 229 255
209 229 255
209 229 255
209 229 255
209 229 255
209 229 255
209 229 255
209 229 255
209 229 255
209 229 255
209 229 255
209 229 255
209 229 255
209 229 255
209 229 255
209 229 255
209 229 255
209 229 255
210 229 255
210 229 255
210 229 255
210 229 255
210 229 255
210 229 255
210 229 255
210 229 255
210 229 255
210 229 255
210 229 255
210 229 255
210 229 255
210 229 255
210 229 255
210 229 255
210 229 255
210 229 255
210 229 255
210 230 255
210 229 255
210 229 255
210 229 255
210 229 255
210 229 255
210 229 255
210 229 255
210 229 255
210 229 255
210 229 255
210 229 255
210 229 255
210 229 255
210 229 255
210 229 255
210 229 255
210 229 255
210 229 255
210 229 255
210 229 255
210 229 255
210 229 255
209 229 255
209 229 255
209 229 255
209 229 255
209 229 255
209 229 255
209 229 255
209 229 255
209 229 255
209 229 255
209 229 255
209 229 255
209 229 255
209 229 255
209 229 255
209 229 255
209 229 255
209 229 255
209 229 255
209 229 255
209 228 255
209 228 255
208 228 255
208 228 255
208 228 255
208 228 255
208 228 255
208 228 255
208 228 255
208 228 255
208 228 255
208 228 255
208 228 255
208 228 255
208 228 255
208 228 255
208 228 255
208 228 255
208 228 255
208 228 255
208 228 255
207 228 255
207 228 255
207 228 255
207 228 255
207 228 255
207 228 255
207 228 255
207 228 255
207 228 255
207 228 255
207 228 255
207 228 255
207 228 255
207 228 255
207 227 255
207 227 255
207 227 255
207 227 255
206 227 255
206 227 255
206 227 255
206 227 255
206 227 255
206 227 255
206 227 255
206 227 255
206 227 255
206 227 255
206 227 255
206 227 255
206 227 255
206 227 255
206 227 255
206 227 255
206 227 255
205 227 255
205 227 255
205 227 255
205 227 255
205 227 255
205 227 255
205 227 255
205 227 255
205 227 255
205 227 255
205 226 255
205 226 255
205 226 255
205 226 255
205 226 255
205 226 255
204 226 255
204 226 255
204 226 255
204 226 255
204 226 255
204 226 255
204 226 255
204 226 255
204 226 255
204 226 255
204 226 255
204 226 255
204 226 255
204 226 255
204 226 255
204 226 255
204 226 255
203 226 255
203 226 255
203 226 255
203 226 255
203 226 255
203 226 255
203 226 255
203 226 255
203 225 255
203 225 255
203 225 255
203 225 255
203 225 255
203 225 255
203 225 255
203 225 255
203 225 255
203 225 255
203 225 255
202 225 255
202 225 255
202 225 255
202 225 255
202 225 255
202 225 255
202 225 255
202 225 255
202 225 255
202 225 255
202 225 255
202 225 255
202 225 255
202 225 255
202 225 255
202 225 255
202 225 255
202 225 255
202 225 255
202 225 255
202 225 255
202 225 255
202 225 255
202 225 255
202 225 255
202 225 255
201 225 255
201 225 255
201 225 255
201 225 255
201 225 255
201 225 255
201 225 255
201 225 255
201 225 255
201 225 255
201 225 255
201 225 255
201 225 255
201 225 255
201 225 255
201 225 255
201 225 255
201 224 255
201 224 255
201 224 255
201 224 255
201 224 255
201 224 255
201 224 255
201 224 255
201 224 255
201 224 255
201 224 255
201 224 255
201 225 255
201 225 255
201 225 255
201 225 255
201 225 255
201 225 255
201 225 255
201 225 255
201 225 255
201 225 255
201 225 255
201 225 255
201 225 255
201 225 255
201 225 255
201 225 255
201 225 255
202 225 255
202 225 255
202 225 255
202 225 255
202 225 255
202 225 255
202 225 255
202 225 255
202 225 255
202 225 255
202 225 255
202 225 255
202 225 255
202 225 255
202 225 255
202 225 255
202 225 255
202 225 255
202 225 255
202 225 255
202 225 255
202 225 255
202 225 255
202 225 255
202 225 255
202 225 255
203 225 255
203 225 255
203 225 255
203 225 255
203 225 255
203 225 255
203 225 255
203 225 255
203 225 255
203 225 255
203 225 255
203 226 255
203 226 255
203 226 255
203 226 255
203 226 255
203 226 255
203 226 255
203 226 255
204 226 255
204 226 255
204 226 255
204 226 255
204 226 255
204 226 255
204 226 255
204 226 255
204 226 255
204 226 255
204 226 255
204 226 255
204 226 255
204 226 255
204 226 255
204 226 255
204 226 255
205 226 255
205 226 255
205 226 255
205 226 255
205 226 255
205 226 255
205 227 255
205 227 255
205 227 255
205 227 255
205 227 255
205 227 255
205 227 255
205 227 255
205 227 255
205 227 255
206 227 255
206 227 255
206 227 255
206 227 255
206 227 255
206 227 255
206 227 255
206 227 255
206 227 255
206 227 255
206 227 255
206 227 255
206 227 255
206 227 255
206 227 255
206 227 255
206 227 255
207 227 255
207 227 255
207 227 255
207 227 255
207 228 255
207 228 255
207 228 255
207 228 255
207 228 255
207 228 255
207 228 255
207 228 255
207 228 255
207 228 255
207 228 255
207 228 255
207 228 255
207 228 255
208 228 255
208 228 255
208 228 255
208 228 255
208 228 255
208 228 255
208 228 255
208 228 255
208 228 255
208 228 255
208 228 255
208 228 255
208 228 255
208 228 255
208 228 255
208 228 255
208 228 255
208 228 255
208 228 255
208 228 255
209 228 255
209 229 255
209 229 255
209 229 255
209 229 255
209 229 255
209 229 255
209 229 255
209 229 255
209 229 255
209 229 255
209 229 255
209 229 255
209 229 255
209 229 255
209 229 255
209 229 255
209 229 255
209 229 255
209 229 255
209 229 255
210 229 255
210 229 255
210 229 255
210 229 255
210 229 255
210 229 255
210 229 255
210 229 255
210 229 255
210 229 255
210 229 255
210 229 255
210 229 255
210 229 255
210 229 255
210 229 255
210 229 255
210 229 255
210 229 255
210 229 255
210 229 255
210 229 255
210 230 255
211 230 255
211 230 255
210 230 255
210 230 255
210 230 255
210 229 255
210 229 255
210 229 255
210 229 255
210 229 255
210 229 255
210 229 255
210 229 255
210 229 255
210 229 255
210 229 255
210 229 255
210 229 255
210 229 255
210 229 255
210 229 255
210 229 255
210 229 255
210 229 255
210 229 255
210 229 255
210 229 255
209 229 255
209 229 255
209 229 255
209 229 255
209 229 255
209 229 255
209 229 255
209 229 255
209 229 255
209 229 255
209 229 255
209 229 255
209 229 255
209 229 255
209 229 255
209 229 255
209 229 255
209 229 255
209 229 255
209 229 255
209 228 255
208 228 255
208 228 255
208 228 255
208 228 255
208 228 255
208 228 255
208 228 255
208 228 255
208 228 255
208 228 255
208 228 255
208 228 255
208 228 255
208 228 255
208 228 255
208 228 255
208 228 255
208 228 255
208 228 255
207 228 255
207 228 255
207 228 255
207 228 255
207 228 255
207 228 255
207 228 255
207 228 255
207 228 255
207 228 255
207 228 255
207 228 255
207 228 255
207 228 255
207 227 255
207 227 255
207 227 255
207 227 255
206 227 255
206 227 255
206 227 255
206 227 255
206 227 255
206 227 255
206 227 255
206 227 255
206 227 255
206 227 255
206 227 255
206 227 255
206 227 255
206 227 255
206 227 255
206 227 255
206 227 255
205 227 255
205 227 255
205 227 255
205 227 255
205 227 255
205 227 255
205 227 255
205 227 255
205 227 255
205 227 255
205 226 255
205 226 255
205 226 255
205 226 255
205 226 255
205 226 255
205 226 255
204 226 255
204 226 255
204 226 255
204 226 255
204 226 255
204 226 255
204 226 255
204 226 255
204 226 255
204 226 255
204 226 255
204 226 255
204 226 255
204 226 255
204 226 255
204 226 255
204 226 255
203 226 255
203 226 255
203 226 255
203 226 255
203 226 255
203 226 255
203 226 255
203 226 255
203 225 255
203 225 255
203 225 255
203 225 255
203 225 255
203 225 255
203 225 255
203 225 255
203 225 255
203 225 255
203 225 255
203 225 255
202 225 255
202 225 255
202 225 255
202 225 255
202 225 255
202 225 255
202 225 255
202 225 255
202 225 255
202 225 255
202 225 255
202 225 255
202 225 255
202 225 255
202 225 255
202 225 255
202 225 255
202 225 255
202 225 255
202 225 255
202 225 255
202 225 255
202 225 255
202 225 255
202 225 255
202 225 255
202 225 255
202 225 255
202 225 255
202 225 255
202 225 255
201 225 255
201 225 255
201 225 255
201 225 255
201 225 255
201 225 255
201 225 255
201 225 255
201 225 255
201 225 255
201 225 255
201 225 255
201 225 255
201 225 255
201 225 255
201 225 255
201 225 255
201 225 255
201 225 255
201 225 255
201 225 255
201 225 255
201 225 255
201 225 255
201 225 255
201 225 255
202 225 255
202 225 255
202 225 255
202 225 255
202 225 255
202 225 255
202 225 255
202 225 255
202 225 255
202 225 255
202 225 255
202 225 255
202 225 255
202 225 255
202 225 255
202 225 255
202 225 255
202 225 255
202 225 255
202 225 255
202 225 255
202 225 255
202 225 255
202 225 255
202 225 255
202 225 255
202 225 255
202 225 255
202 225 255
202 225 255
202 225 255
203 225 255
203 225 255
203 225 255
203 225 255
203 225 255
203 225 255
203 225 255
203 225 255
203 225 255
203 225 255
203 225 255
203 225 255
203 226 255
203 226 255
203 226 255
203 226 255
203 226 255
203 226 255
203 226 255
203 226 255
204 226 255
204 226 255
204 226 255
204 226 255
204 226 255
204 226 255
204 226 255
204 226 255
204 226 255
204 226 255
204 226 255
204 226 255
204 226 255
204 226 255
204 226 255
204 226 255
204 226 255
205 226 255
205 226 255
205 226 255
205 226 255
205 226 255
205 226 255
205 226 255
205 227 255
205 227 255
205 227 255
205 227 255
205 227 255
205 227 255
205 227 255
205 227 255
205 227 255
205 227 255
206 227 255
206 227 255
206 227 255
206 227 255
206 227 255
206 227 255
206 227 255
206 227 255
206 227 255
206 227 255
206 227 255
206 227 255
206 227 255
206 227 255
206 227 255
206 227 255
206 227 255
207 227 255
207 227 255
207 227 255
207 227 255
207 228 255
207 228 255
207 228 255
207 228 255
207 228 255
207 228 255
207 228 255
207 228 255
207 228 255
207 228 255
207 228 255
207 228 255
207 228 255
207 228 255
208 228 255
208 228 255
208 228 255
208 228 255
208 228 255
208 228 255
208 228 255
208 228 255
208 228 255
208 228 255
208 228 255
208 228 255
208 228 255
208 228 255
208 228 255
208 228 255
208 228 255
208 228 255
208 228 255
209 228 255
209 228 255
209 229 255
209 229 255
209 229 255
209 229 255
209 229 255
209 229 255
209 229 255
209 229 255
209 229 255
209 229 255
209 229 255
209 229 255
209 229 255
209 229 255
209 229 255
209 229 255
209 229 255
209 229 255
209 229 255
210 229 255
210 229 255
210 229 255
210 229 255
210 229 255
210 229 255
210 229 255
210 229 255
210 229 255
210 229 255
210 229 255
210 229 255
210 229 255
210 229 255
210 229 255
210 229 255
210 229 255
210 229 255
210 229 255
210 229 255
210 229 255
210 229 255
210 230 255
210 230 255
210 230 255
211 230 255
211 230 255
211 230 255
211 230 255
211 230 255
211 230 255
211 230 255
211 230 255
210 230 255
210 230 255
210 230 255
210 229 255
210 229 255
210 229 255
210 229 255
210 229 255
210 229 255
210 229 255
210 229 255
210 229 255
210 229 255
210 229 255
210 229 255
210 229 255
210 229 255
210 229 255
210 229 255
210 229 255
210 229 255
210 229 255
210 229 255
210 229 255
209 229 255
209 229 255
209 229 255
209 229 255
209 229 255
209 229 255
209 229 255
209 229 255
209 229 255
209 229 255
209 229 255
209 229 255
209 229 255
209 229 255
209 229 255
209 229 255
209 229 255
209 229 255
209 229 255
209 229 255
209 228 255
209 228 255
208 228 255
208 228 255
208 228 255
208 228 255
208 228 255
208 228 255
208 228 255
208 228 255
208 228 255
208 228 255
208 228 255
208 228 255
208 228 255
208 228 255
208 228 255
208 228 255
208 228 255
208 228 255
208 228 255
207 228 255
207 228 255
207 228 255
207 228 255
207 228 255
207 228 255
207 228 255
207 228 255
207 228 255
207 228 255
207 228 255
207 228 255
207 228 255
207 228 255
207 227 255
207 227 255
207 227 255
207 227 255
206 227 255
206 227 255
206 227 255
206 227 255
206 227 255
206 227 255
206 227 255
206 227 255
206 227 255
206 227 255
206 227 255
206 227 255
206 227 255
206 227 255
206 227 255
206 227 255
206 227 255
205 227 255
205 227 255
205 227 255
205 227 255
205 227 255
205 227 255
205 227 255
205 227 255
205 227 255
205 227 255
205 226 255
205 226 255
205 226 255
205 226 255
205 226 255
205 226 255
205 226 255
204 226 255
204 226 255
204 226 255
204 226 255
204 226 255
204 226 255
204 226 255
204 226 255
204 226 255
204 226 255
204 226 255
204 226 255
204 226 255
204 226 255
204 226 255
204 226 255
204 226 255
203 226 255
203 226 255
203 226 255
203 226 255
203 226 255
203 226 255
203 226 255
203 226 255
203 226 255
203 225 255
203 225 255
203 225 255
203 225 255
203 225 255
203 225 255
203 225 255
203 225 255
203 225 255
203 225 255
203 225 255
203 225 255
202 225 255
202 225 255
202 225 255
202 225 255
202 225 255
202 225 255
202 225 255
202 225 255
202 225 255
202 225 255
202 225 255
202 225 255
202 225 255
202 225 255
202 225 255
202 225 255
202 225 255
202 225 255
202 225 255
202 225 255
202 225 255
202 225 255
202 225 255
202 225 255
202 225 255
202 225 255
202 225 255
202 225 255
202 225 255
202 225 255
202 225 255
202 225 255
202 225 255
202 225 255
202 225 255
202 225 255
202 225 255
202 225 255
202 225 255
202 225 255
202 225 255
202 225 255
202 225 255
202 225 255
202 225 255
202 225 255
202 225 255
202 225 255
202 225 255
202 225 255
202 225 255
202 225 255
202 225 255
202 225 255
202 225 255
202 225 255
202 225 255
202 225 255
202 225 255
202 225 255
202 225 255
202 225 255
202 225 255
202 225 255
202 225 255
202 225 255
202 225 255
202 225 255
202 225 255
202 225 255
202 225 255
202 225 255
202 225 255
202 225 255
202 225 255
202 225 255
202 225 255
202 225 255
203 225 255
203 225 255
203 225 255
203 225 255
203 225 255
203 225 255
203 225 255
203 225 255
203 225 255
203 225 255
203 225 255
203 225 255
203 226 255
203 226 255
203 226 255
203 226 255
203 226 255
203 226 255
203 226 255
203 226 255
203 226 255
204 226 255
204 226 255
204 226 255
204 226 255
204 226 255
204 226 255
204 226 255
204 226 255
204 226 255
204 226 255
204 226 255
204 226 255
204 226 255
204 226 255
204 226 255
204 226 255
204 226 255
205 226 255
205 226 255
205 226 255
205 226 255
205 226 255
205 226 255
205 226 255
205 227 255
205 227 255
205 227 255
205 227 255
205 227 255
205 227 255
205 227 255
205 227 255
205 227 255
205 227 255
206 227 255
206 227 255
206 227 255
206 227 255
206 227 255
206 227 255
206 227 255
206 227 255
206 227 255
206 227 255
206 227 255
206 227 255
206 227 255
206 227 255
206 227 255
206 227 255
206 227 255
207 227 255
207 227 255
207 227 255
207 227 255
207 227 255
207 228 255
207 228 255
207 228 255
207 228 255
207 228 255
207 228 255
207 228 255
207 228 255
207 228 255
207 228 255
207 228 255
207 228 255
207 228 255
208 228 255
208 228 255
208 228 255
208 228 255
208 228 255
208 228 255
208 228 255
208 228 255
208 228 255
208 228 255
208 228 255
208 228 255
208 228 255
208 228 255
208 228 255
208 228 255
208 228 255
208 228 255
208 228 255
208 228 255
209 228 255
209 229 255
209 229 255
209 229 255
209 229 255
209 229 255
209 229 255
209 229 255
209 229 255
209 229 255
209 229 255
209 229 255
209 229 255
209 229 255
209 229 255
209 229 255
209 229 255
209 229 255
209 229 255
209 229 255
209 229 255
210 229 255
210 229 255
210 229 255
210 229 255
210 229 255
210 229 255
210 229 255
210 229 255
210 229 255
210 229 255
210 229 255
210 229 255
210 229 255
210 229 255
210 229 255
210 229 255
210 229 255
210 229 255
210 229 255
210 229 255
210 229 255
210 230 255
210 230 255
210 230 255
211 230 255
211 230 255
211 230 255
211 230 255
211 230 255
211 230 255
211 230 255
211 230 255
211 230 255
211 230 255
211 230 255
211 230 255
211 230 255
211 230 255
211 230 255
211 230 255
210 230 255
210 230 255
210 230 255
210 229 255
210 229 255
210 229 255
210 229 255
210 229 255
210 229 255
210 229 255
210 229 255
210 229 255
210 229 255
210 229 255
210 229 255
210 229 255
210 229 255
210 229 255
210 229 255
210 229 255
210 229 255
210 229 255
210 229 255
210 229 255
209 229 255
209 229 255
209 229 255
209 229 255
208 228 252
207 227 248
204 224 234
197 217 211
199 219 215
197 217 206
199 220 212
196 217 201
193 213 184
198 218 206
192 213 188
192 213 181
195 216 189
194 215 188
195 216 196
193 215 184
197 217 201
198 219 212
200 220 214
201 221 221
199 220 217
201 222 226
206 226 245
207 227 252
208 228 255
208 228 255
208 228 255
208 228 255
208 228 255
208 228 255
208 228 255
208 228 255
208 228 255
208 228 255
208 228 255
208 228 255
207 228 255
207 228 255
207 228 255
207 228 255
207 228 255
207 228 255
207 228 255
207 228 255
207 228 255
207 228 255
207 228 255
207 228 255
207 228 255
207 228 255
207 227 255
207 227 255
207 227 255
207 227 255
206 227 255
206 227 255
206 227 255
206 227 255
206 227 255
206 227 255
206 227 255
206 227 255
206 227 255
206 227 255
206 227 255
206 227 255
206 227 255
206 227 255
206 227 255
206 227 255
206 227 255
205 227 255
205 227 255
205 227 255
205 227 255
205 227 255
205 227 255
205 227 255
205 227 255
205 227 255
205 227 255
205 226 255
205 226 255
205 226 255
205 226 255
205 226 255
205 226 255
205 226 255
204 226 255
204 226 255
204 226 255
204 226 255
204 226 255
204 226 255
204 226 255
204 226 255
204 226 255
204 226 255
204 226 255
204 226 255
204 226 255
204 226 255
204 226 255
204 226 255
204 226 255
204 226 255
203 226 255
203 226 255
203 226 255
203 226 255
203 226 255
203 226 255
203 226 255
203 226 255
203 226 255
203 226 255
203 225 255
203 225 255
203 225 255
203 225 255
203 225 255
203 225 255
203 225 255
203 225 255
203 225 255
203 225 255
203 225 255
203 225 255
203 225 255
202 225 255
202 225 255
202 225 255
202 225 255
202 225 255
202 225 255
202 225 255
202 225 255
202 225 255
202 225 255
202 225 255
202 225 255
202 225 255
202 225 255
202 225 255
202 225 255
202 225 255
202 225 255
202 225 255
202 225 255
202 225 255
202 225 255
202 225 255
202 225 255
202 225 255
202 225 255
202 225 255
202 225 255
202 225 255
202 225 255
202 225 255
202 225 255
202 225 255
202 225 255
202 225 255
202 225 255
202 225 255
202 225 255
202 225 255
202 225 255
202 225 255
202 225 255
202 225 255
202 225 255
202 225 255
202 225 255
202 225 255
202 225 255
202 225 255
202 225 255
202 225 255
202 225 255
202 225 255
202 225 255
202 225 255
202 225 255
202 225 255
202 225 255
202 225 255
202 225 255
202 225 255
202 225 255
202 225 255
202 225 255
202 225 255
202 225 255
203 225 255
203 225 255
203 225 255
203 225 255
203 225 255
203 225 255
203 225 255
203 225 255
203 225 255
203 225 255
203 225 255
203 225 255
203 225 255
203 225 255
203 226 255
203 226 255
203 226 255
203 226 255
203 226 255
203 226 255
203 226 255
203 226 255
203 226 255
204 226 255
204 226 255
204 226 255
204 226 255
204 226 255
204 226 255
204 226 255
204 226 255
204 226 255
204 226 255
204 226 255
204 226 255
204 226 255
204 226 255
204 226 255
204 226 255
204 226 255
204 226 255
205 226 255
205 226 255
205 226 255
205 226 255
205 226 255
205 226 255
205 226 255
205 227 255
205 227 255
205 227 255
205 227 255
205 227 255
205 227 255
205 227 255
205 227 255
205 227 255
205 227 255
206 227 255
206 227 255
206 227 255
206 227 255
206 227 255
206 227 255
206 227 255
206 227 255
206 227 255
206 227 255
206 227 255
206 227 255
206 227 255
206 227 255
206 227 255
206 227 255
206 227 255
207 227 255
207 227 255
207 227 255
207 227 255
207 228 255
207 228 255
207 228 255
207 228 255
207 228 255
207 228 255
207 228 255
207 228 255
207 228 255
207 228 255
207 228 255
207 228 255
207 228 255
207 228 255
208 228 255
208 228 255
208 228 255
208 228 255
208 228 255
208 228 255
208 228 255
208 228 255
208 228 255
208 228 255
208 228 255
208 228 255
208 228 254
206 224 247
207 226 250
202 219 236
205 222 242
204 221 240
202 219 236
203 218 234
199 214 225
201 216 229
201 216 230
201 215 226
204 220 237
201 215 227
202 218 233
200 214 225
205 222 242
204 220 237
203 220 236
205 222 242
205 221 240
207 226 249
208 226 250
209 228 254
209 229 255
209 229 255
209 229 255
209 229 255
210 229 255
210 229 255
210 229 255
210 229 255
210 229 255
210 229 255
210 229 255
210 229 255
210 229 255
210 229 255
210 229 255
210 229 255
210 229 255
210 229 255
210 229 255
210 229 255
210 229 255
210 229 255
210 229 255
210 229 255
210 229 255
210 230 255
210 230 255
210 230 255
211 230 255
211 230 255
211 230 255
211 230 255
211 230 255
211 230 255
211 230 255
211 230 255
211 230 255
211 230 255
211 230 255
211 230 255
211 230 255
211 230 255
211 230 255
211 230 255
211 230 255
211 230 255
211 230 255
211 230 255
211 230 255
211 230 255
211 230 255
211 230 255
210 230 255
210 230 255
210 230 255
210 229 255
210 229 255
210 229 255
210 229 255
210 229 255
210 229 255
210 229 255
210 229 255
210 229 255
210 229 255
210 229 255
210 229 255
209 228 252
204 223 228
199 220 214
196 217 206
187 208 147
187 208 149
180 202 117
180 202 111
172 196 51
174 197 36
175 197 0
172 195 0
175 198 0
174 197 0
170 194 0
172 195 0
172 195 0
172 195 0
174 197 0
173 196 0
171 194 0
171 194 0
173 196 0
174 198 0
173 196 0
173 197 0
176 198 0
173 195 0
172 196 0
174 197 0
174 197 0
173 196 0
173 197 0
176 199 72
182 204 125
180 202 108
186 208 142
190 211 173
196 216 193
197 218 215
201 222 231
207 227 250
208 228 255
208 228 255
208 228 255
208 228 255
208 228 255
208 228 255
208 228 255
207 228 255
207 228 255
207 228 255
207 228 255
207 228 255
207 228 255
207 228 255
207 228 255
207 228 255
207 228 255
207 228 255
207 228 255
207 228 255
207 227 255
207 227 255
207 227 255
207 227 255
207 227 255
206 227 255
206 227 255
206 227 255
206 227 255
206 227 255
206 227 255
206 227 255
206 227 255
206 227 255
206 227 255
206 227 255
206 227 255
206 227 255
206 227 255
206 227 255
206 227 255
206 227 255
205 227 255
205 227 255
205 227 255
205 227 255
205 227 255
205 227 255
205 227 255
205 227 255
205 227 255
205 227 255
205 226 255
205 226 255
205 226 255
205 226 255
205 226 255
205 226 255
205 226 255
204 226 255
204 226 255
204 226 255
204 226 255
204 226 255
204 226 255
204 226 255
204 226 255
204 226 255
204 226 255
204 226 255
204 226 255
204 226 255
204 226 255
204 226 255
204 226 255
204 226 255
204 226 255
204 226 255
203 226 255
203 226 255
203 226 255
203 226 255
203 226 255
203 226 255
203 226 255
203 226 255
203 226 255
203 225 255
203 225 255
203 225 255
203 225 255
203 225 255
203 225 255
203 225 255
203 225 255
203 225 255
203 225 255
203 225 255
203 225 255
203 225 255
203 225 255
203 225 255
203 225 255
202 225 255
202 225 255
202 225 255
202 225 255
202 225 255
202 225 255
202 225 255
202 225 255
202 225 255
202 225 255
202 225 255
202 225 255
202 225 255
202 225 255
202 225 255
202 225 255
202 225 255
202 225 255
202 225 255
202 225 255
202 225 255
202 225 255
202 225 255
202 225 255
202 225 255
202 225 255
202 225 255
202 225 255
202 225 255
202 225 255
202 225 255
202 225 255
202 225 255
202 225 255
202 225 255
202 225 255
202 225 255
202 225 255
202 225 255
202 225 255
202 225 255
202 225 255
202 225 255
202 225 255
202 225 255
202 225 255
202 225 255
202 225 255
202 225 255
202 225 255
202 225 255
202 225 255
203 225 255
203 225 255
203 225 255
203 225 255
203 225 255
203 225 255
203 225 255
203 225 255
203 225 255
203 225 255
203 225 255
203 225 255
203 225 255
203 225 255
203 225 255
203 226 255
203 226 255
203 226 255
203 226 255
203 226 255
203 226 255
203 226 255
203 226 255
203 226 255
203 226 255
204 226 255
204 226 255
204 226 255
204 226 255
204 226 255
204 226 255
204 226 255
204 226 255
204 226 255
204 226 255
204 226 255
204 226 255
204 226 255
204 226 255
204 226 255
204 226 255
204 226 255
204 226 255
204 226 255
205 226 255
205 226 255
205 226 255
205 226 255
205 226 255
205 226 255
205 226 255
205 227 255
205 227 255
205 227 255
205 227 255
205 227 255
205 227 255
205 227 255
205 227 255
205 227 255
205 227 255
205 227 255
206 227 255
206 227 255
206 227 255
206 227 255
206 227 255
206 227 255
206 227 255
206 227 255
206 227 255
206 227 255
206 227 255
206 227 255
206 227 255
206 227 255
206 227 255
206 227 255
206 227 255
207 227 255
207 227 255
207 227 255
207 227 255
207 228 255
207 228 255
207 228 255
207 228 255
207 228 255
207 228 255
207 228 255
207 228 255
207 228 255
207 228 255
207 228 255
207 228 255
207 228 255
208 228 255
208 228 255
208 228 255
208 228 255
208 228 255
208 228 255
208 228 255
207 227 252
205 224 246
203 219 236
202 219 236
201 216 230
197 209 214
192 202 199
192 202 198
194 205 206
191 200 194
188 195 183
188 196 184
189 197 186
190 197 187
189 197 186
189 196 184
187 192 174
189 197 187
189 197 186
191 201 195
191 200 193
191 198 187
192 202 197
192 201 195
187 194 179
192 201 195
191 198 188
190 197 187
192 200 192
192 200 192
192 200 191
191 199 189
189 196 184
190 197 187
193 200 192
194 205 203
197 207 208
203 217 230
204 219 234
205 222 240
207 225 246
209 228 252
210 229 255
210 229 255
210 229 255
210 229 255
210 229 255
210 229 255
210 229 255
210 229 255
210 229 255
210 229 255
210 229 255
210 229 255
210 230 255
210 230 255
210 230 255
211 230 255
211 230 255
211 230 255
211 230 255
211 230 255
211 230 255
211 230 255
211 230 255
211 230 255
211 230 255
211 230 255
211 230 255
211 230 255
211 230 255
211 230 255
211 230 255
211 230 255
211 230 255
211 230 255
211 230 255
211 230 255
211 230 255
211 230 255
211 230 255
211 230 255
211 230 255
211 230 255
211 230 255
211 230 255
211 230 255
211 230 255
211 230 255
210 230 255
210 230 255
210 230 255
210 229 255
210 229 255
209 229 252
201 221 215
195 216 193
185 206 147
183 205 128
176 199 80
171 195 0
173 196 0
170 193 0
171 195 0
173 197 0
174 198 0
173 196 0
173 196 0
175 198 0
175 197 0
174 197 0
172 196 0
173 197 0
173 196 0
175 198 0
175 198 0
173 196 0
174 198 0
174 197 0
173 196 0
173 196 0
172 196 0
171 195 0
174 197 0
172 196 0
176 199 0
174 197 0
173 196 0
173 196 0
174 196 0
172 195 0
174 197 0
172 196 0
174 197 0
174 197 0
173 196 0
173 197 0
175 198 0
174 196 0
174 197 0
174 196 0
176 198 0
179 201 76
182 203 114
190 211 179
195 217 196
199 220 215
206 226 246
208 228 255
208 228 255
208 228 255
208 228 255
207 228 255
207 228 255
207 228 255
207 228 255
207 228 255
207 228 255
207 228 255
207 228 255
207 228 255
207 228 255
207 228 255
207 228 255
207 228 255
207 228 255
207 227 255
207 227 255
207 227 255
207 227 255
206 227 255
206 227 255
206 227 255
206 227 255
206 227 255
206 227 255
206 227 255
206 227 255
206 227 255
206 227 255
206 227 255
206 227 255
206 227 255
206 227 255
206 227 255
206 227 255
206 227 255
205 227 255
205 227 255
205 227 255
205 227 255
205 227 255
205 227 255
205 227 255
205 227 255
205 227 255
205 227 255
205 227 255
205 226 255
205 226 255
205 226 255
205 226 255
205 226 255
205 226 255
205 226 255
204 226 255
204 226 255
204 226 255
204 226 255
204 226 255
204 226 255
204 226 255
204 226 255
204 226 255
204 226 255
204 226 255
204 226 255
204 226 255
204 226 255
204 226 255
204 226 255
204 226 255
204 226 255
204 226 255
204 226 255
203 226 255
203 226 255
203 226 255
203 226 255
203 226 255
203 226 255
203 226 255
203 226 255
203 226 255
203 226 255
203 225 255
203 225 255
203 225 255
203 225 255
203 225 255
203 225 255
203 225 255
203 225 255
203 225 255
203 225 255
203 225 255
203 225 255
203 225 255
203 225 255
203 225 255
203 225 255
203 225 255
203 225 255
203 225 255
203 225 255
202 225 255
202 225 255
202 225 255
202 225 255
202 225 255
202 225 255
202 225 255
202 225 255
202 225 255
202 225 255
202 225 255
202 225 255
202 225 255
202 225 255
202 225 255
202 225 255
202 225 255
202 225 255
202 225 255
202 225 255
202 225 255
202 225 255
202 225 255
202 225 255
202 225 255
202 225 255
202 225 255
202 225 255
202 225 255
202 225 255
202 225 255
202 225 255
203 225 255
203 225 255
203 225 255
203 225 255
203 225 255
203 225 255
203 225 255
203 225 255
203 225 255
203 225 255
203 225 255
203 225 255
203 225 255
203 225 255
203 225 255
203 225 255
203 225 255
203 225 255
203 225 255
203 225 255
203 226 255
203 226 255
203 226 255
203 226 255
203 226 255
203 226 255
203 226 255
203 226 255
203 226 255
203 226 255
204 226 255
204 226 255
204 226 255
204 226 255
204 226 255
204 226 255
204 226 255
204 226 255
204 226 255
204 226 255
204 226 255
204 226 255
204 226 255
204 226 255
204 226 255
204 226 255
204 226 255
204 226 255
204 226 255
204 226 255
205 226 255
205 226 255
205 226 255
205 226 255
205 226 255
205 226 255
205 226 255
205 227 255
205 227 255
205 227 255
205 227 255
205 227 255
205 227 255
205 227 255
205 227 255
205 227 255
205 227 255
205 227 255
206 227 255
206 227 255
206 227 255
206 227 255
206 227 255
206 227 255
206 227 255
206 227 255
206 227 255
206 227 255
206 227 255
206 227 255
206 227 255
206 227 255
206 227 255
206 227 255
206 227 255
207 227 255
207 227 255
207 227 255
207 227 255
207 228 255
207 228 255
207 228 255
207 228 255
207 228 255
207 228 255
207 228 255
207 228 255
207 228 255
207 228 255
207 228 255
207 228 255
207 228 255
207 228 255
208 228 255
208 228 255
208 228 255
208 228 255
207 227 252
202 218 235
201 217 233
200 216 231
193 204 203
190 200 195
188 196 184
188 195 181
188 195 183
189 197 186
189 196 183
191 201 198
189 196 184
184 190 169
186 194 180
189 197 187
183 188 166
187 193 177
187 195 181
185 192 174
185 191 172
188 196 186
191 198 188
187 194 179
188 197 187
190 197 185
186 192 175
191 199 190
188 194 179
189 197 186
191 199 191
191 199 191
190 196 183
189 196 184
188 195 181
188 196 184
191 197 184
188 196 184
192 201 195
188 194 178
190 197 186
190 197 184
193 201 192
186 191 170
192 201 193
190 196 183
193 200 192
192 199 188
194 203 199
197 207 208
199 211 216
202 215 226
208 225 246
209 227 250
210 229 255
210 229 255
210 230 255
210 230 255
210 230 255
211 230 255
211 230 255
211 230 255
211 230 255
211 230 255
211 230 255
211 230 255
211 230 255
211 230 255
211 230 255
211 230 255
211 230 255
211 230 255
211 230 255
211 230 255
211 230 255
211 230 255
211 230 255
211 230 255
211 230 255
211 230 255
211 230 255
211 230 255
211 230 255
211 230 255
211 230 255
211 230 255
211 230 255
211 230 255
211 230 255
211 230 255
211 230 255
211 230 255
211 230 255
211 230 255
211 230 255
208 227 244
200 220 215
191 212 179
185 207 142
175 197 76
172 195 0
171 194 0
173 196 0
170 194 0
174 197 0
172 195 0
170 193 0
174 197 0
175 198 0
173 197 0
175 198 0
172 196 0
174 197 0
175 198 0
173 197 0
174 198 0
173 197 0
175 198 0
174 197 0
175 198 0
174 196 0
173 196 0
173 197 0
174 197 0
173 197 0
174 197 0
172 195 0
171 194 0
175 198 0
173 196 0
172 196 0
173 196 0
171 195 0
173 197 0
175 198 0
175 197 0
174 198 0
173 197 0
172 196 0
173 195 0
173 196 0
173 197 0
174 198 0
172 196 0
175 198 0
175 198 0
171 195 0
173 196 0
171 194 0
175 198 0
173 196 0
175 198 0
172 195 0
172 195 0
178 200 88
187 208 159
195 217 196
199 220 215
205 226 245
208 228 255
208 228 255
208 228 255
207 228 255
207 228 255
207 228 255
207 228 255
207 228 255
207 228 255
207 228 255
207 228 255
207 228 255
207 228 255
207 228 255
207 228 255
207 228 255
207 228 255
207 227 255
207 227 255
207 227 255
207 227 255
206 227 255
206 227 255
206 227 255
206 227 255
206 227 255
206 227 255
206 227 255
206 227 255
206 227 255
206 227 255
206 227 255
206 227 255
206 227 255
206 227 255
206 227 255
206 227 255
206 227 255
205 227 255
205 227 255
205 227 255
205 227 255
205 227 255
205 227 255
205 227 255
205 227 255
205 227 255
205 227 255
205 227 255
205 226 255
205 226 255
205 226 255
205 226 255
205 226 255
205 226 255
205 226 255
204 226 255
204 226 255
204 226 255
204 226 255
204 226 255
204 226 255
204 226 255
204 226 255
204 226 255
204 226 255
204 226 255
204 226 255
204 226 255
204 226 255
204 226 255
204 226 255
204 226 255
204 226 255
204 226 255
204 226 255
204 226 255
203 226 255
203 226 255
203 226 255
203 226 255
203 226 255
203 226 255
203 226 255
203 226 255
203 226 255
203 226 255
203 226 255
203 226 255
203 225 255
203 225 255
203 225 255
203 225 255
203 225 255
203 225 255
203 225 255
203 225 255
203 225 255
203 225 255
203 225 255
203 225 255
203 225 255
203 225 255
203 225 255
203 225 255
203 225 255
203 225 255
203 225 255
203 225 255
203 225 255
203 225 255
203 225 255
203 225 255
203 225 255
203 225 255
203 225 255
203 225 255
203 225 255
203 225 255
203 225 255
203 225 255
203 225 255
203 225 255
203 225 255
203 225 255
203 225 255
203 225 255
203 225 255
203 225 255
203 225 255
203 225 255
203 225 255
203 225 255
203 225 255
203 225 255
203 225 255
203 225 255
203 225 255
203 225 255
203 225 255
203 225 255
203 225 255
203 225 255
203 225 255
203 225 255
203 225 255
203 225 255
203 226 255
203 226 255
203 226 255
203 226 255
203 226 255
203 226 255
203 226 255
203 226 255
203 226 255
203 226 255
203 226 255
203 226 255
204 226 255
204 226 255
204 226 255
204 226 255
204 226 255
204 226 255
204 226 255
204 226 255
204 226 255
204 226 255
204 226 255
204 226 255
204 226 255
204 226 255
204 226 255
204 226 255
204 226 255
204 226 255
204 226 255
204 226 255
204 226 255
205 226 255
205 226 255
205 226 255
205 226 255
205 226 255
205 226 255
205 226 255
205 227 255
205 227 255
205 227 255
205 227 255
205 227 255
205 227 255
205 227 255
205 227 255
205 227 255
205 227 255
205 227 255
206 227 255
206 227 255
206 227 255
206 227 255
206 227 255
206 227 255
206 227 255
206 227 255
206 227 255
206 227 255
206 227 255
206 227 255
206 227 255
206 227 255
206 227 255
206 227 255
206 227 255
207 227 255
207 227 255
207 227 255
207 227 255
207 227 255
207 228 255
207 228 255
207 228 255
207 228 255
207 228 255
207 228 255
207 228 255
207 228 255
207 228 255
207 228 255
207 228 255
207 228 255
207 228 255
208 228 255
208 228 255
208 228 255
206 226 250
202 219 236
198 212 221
194 206 208
192 202 199
192 203 203
191 202 198
190 199 192
184 191 174
189 198 191
187 195 181
187 193 178
189 197 187
191 200 195
187 193 177
187 196 186
186 193 177
187 195 181
188 196 186
187 194 180
189 198 191
186 192 175
185 191 172
187 194 178
188 196 184
190 198 190
189 196 183
187 193 177
189 196 182
191 199 191
188 195 181
186 191 170
189 197 185
187 196 184
189 196 184
188 196 186
188 193 175
192 200 192
187 193 175
188 194 177
184 190 170
192 200 191
191 198 187
187 193 175
190 196 183
189 197 185
186 191 172
190 197 185
188 195 182
191 198 188
191 198 187
193 201 192
190 197 183
192 199 189
190 197 185
190 197 182
188 194 177
193 200 192
191 197 183
197 207 207
197 208 209
202 216 227
204 219 232
208 225 247
211 230 255
211 230 255
211 230 255
211 230 255
211 230 255
211 230 255
211 230 255
211 230 255
211 230 255
211 230 255
211 230 255
211 230 255
211 230 255
211 230 255
211 230 255
211 230 255
211 230 255
211 230 255
211 230 255
211 230 255
211 230 255
211 230 255
211 230 255
211 230 255
211 230 255
211 230 255
211 230 255
211 230 255
211 230 255
211 230 255
211 230 255
211 230 255
205 224 237
196 216 188
188 209 159
175 198 80
176 198 0
174 197 0
171 194 0
172 195 0
175 198 0
173 197 0
173 197 0
174 197 0
172 195 0
173 197 0
173 197 0
170 194 0
171 194 0
174 197 0
171 195 0
172 195 0
173 196 0
174 197 0
172 195 0
173 196 0
171 195 0
173 197 0
173 197 0
174 197 0
175 198 0
172 196 0
174 197 0
173 197 0
173 196 0
174 197 0
172 196 0
173 196 0
173 197 0
173 197 0
174 198 0
173 196 0
173 197 0
175 198 0
173 196 0
173 197 0
173 197 0
174 197 0
172 196 0
173 197 0
173 197 0
173 196 0
175 198 0
174 197 0
174 197 0
173 196 0
170 194 0
174 197 0
172 196 0
171 195 0
176 199 0
176 198 0
174 197 0
173 197 0
175 198 0
176 198 0
175 198 0
172 195 0
174 197 0
175 198 0
178 200 72
186 208 153
193 215 188
203 224 237
208 228 255
208 228 255
207 228 255
207 228 255
207 228 255
207 228 255
207 228 255
207 228 255
207 228 255
207 228 255
207 228 255
207 228 255
207 228 255
207 228 255
207 228 255
207 228 255
207 227 255
207 227 255
207 227 255
207 227 255
207 227 255
206 227 255
206 227 255
206 227 255
206 227 255
206 227 255
206 227 255
206 227 255
206 227 255
206 227 255
206 227 255
206 227 255
206 227 255
206 227 255
206 227 255
206 227 255
206 227 255
206 227 255
205 227 255
205 227 255
205 227 255
205 227 255
205 227 255
205 227 255
205 227 255
205 227 255
205 227 255
205 227 255
205 227 255
205 226 255
205 226 255
205 226 255
205 226 255
205 226 255
205 226 255
205 226 255
205 226 255
204 226 255
204 226 255
204 226 255
204 226 255
204 226 255
204 226 255
204 226 255
204 226 255
204 226 255
204 226 255
204 226 255
204 226 255
204 226 255
204 226 255
204 226 255
204 226 255
204 226 255
204 226 255
204 226 255
204 226 255
204 226 255
204 226 255
204 226 255
203 226 255
203 226 255
203 226 255
203 226 255
203 226 255
203 226 255
203 226 255
203 226 255
203 226 255
203 226 255
203 226 255
203 226 255
203 226 255
203 226 255
203 225 255
203 225 255
203 225 255
203 225 255
203 225 255
203 225 255
203 225 255
203 225 255
203 225 255
203 225 255
203 225 255
203 225 255
203 225 255
203 225 255
203 225 255
203 225 255
203 225 255
203 225 255
203 225 255
203 225 255
203 225 255
203 225 255
203 225 255
203 225 255
203 225 255
203 225 255
203 225 255
203 225 255
203 225 255
203 225 255
203 225 255
203 225 255
203 225 255
203 225 255
203 225 255
203 225 255
203 225 255
203 225 255
203 225 255
203 225 255
203 226 255
203 226 255
203 226 255
203 226 255
203 226 255
203 226 255
203 226 255
203 226 255
203 226 255
203 226 255
203 226 255
203 226 255
203 226 255
203 226 255
203 226 255
204 226 255
204 226 255
204 226 255
204 226 255
204 226 255
204 226 255
204 226 255
204 226 255
204 226 255
204 226 255
204 226 255
204 226 255
204 226 255
204 226 255
204 226 255
204 226 255
204 226 255
204 226 255
204 226 255
204 226 255
204 226 255
204 226 255
205 226 255
205 226 255
205 226 255
205 226 255
205 226 255
205 226 255
205 226 255
205 226 255
205 227 255
205 227 255
205 227 255
205 227 255
205 227 255
205 227 255
205 227 255
205 227 255
205 227 255
205 227 255
205 227 255
206 227 255
206 227 255
206 227 255
206 227 255
206 227 255
206 227 255
206 227 255
206 227 255
206 227 255
206 227 255
206 227 255
206 227 255
206 227 255
206 227 255
206 227 255
206 227 255
206 227 255
206 227 255
207 227 255
207 227 255
207 227 255
207 227 255
207 228 255
207 228 255
207 228 255
207 228 255
207 228 255
207 228 255
207 228 255
207 228 255
207 228 255
207 228 255
207 228 255
207 228 255
207 228 255
208 228 255
208 228 255
207 227 254
205 224 248
200 216 231
200 215 228
195 207 211
189 197 188
186 194 180
192 203 202
191 202 199
187 194 180
190 199 192
189 199 191
187 195 183
186 193 180
189 196 186
187 195 183
190 201 196
189 197 188
184 189 168
185 192 175
189 196 186
185 191 171
190 199 191
187 194 180
188 195 183
186 194 180
187 194 180
187 195 181
185 193 178
188 196 184
185 191 170
189 197 187
183 187 160
188 196 184
187 194 178
186 190 169
186 192 175
184 188 165
187 193 174
189 197 185
186 191 172
184 189 168
187 194 179
189 197 187
185 190 167
186 191 170
188 196 184
187 193 175
188 194 178
187 193 175
191 198 187
185 190 166
189 195 181
192 200 193
187 192 174
190 197 186
190 197 186
191 198 187
189 194 176
190 196 181
191 197 185
192 199 188
194 202 195
193 200 189
190 198 187
192 198 187
192 198 186
194 202 193
193 198 186
198 208 208
199 211 216
204 218 230
207 224 243
211 230 255
211 230 255
211 230 255
211 230 255
211 230 255
211 230 255
211 230 255
211 230 255
211 230 255
211 230 255
211 230 255
211 230 255
211 230 255
211 230 255
212 230 255
212 230 255
212 230 255
212 230 255
211 230 255
211 230 255
211 230 255
211 230 255
211 230 255
211 230 255
209 228 245
198 218 206
188 210 159
176 198 88
170 193 0
173 196 0
174 196 0
172 196 0
173 196 0
173 196 0
171 195 0
172 196 0
173 196 0
174 197 0
172 195 0
170 194 0
171 194 0
172 196 0
172 196 0
173 196 0
174 197 0
172 196 0
173 196 0
173 196 0
174 198 0
173 196 0
173 197 0
175 198 0
173 197 0
174 197 0
172 195 0
174 197 0
172 196 0
174 198 0
175 198 0
174 197 0
172 196 0
173 196 0
173 197 0
174 197 0
173 197 0
174 198 0
173 196 0
175 198 0
176 198 0
173 197 0
175 197 0
173 196 0
172 196 0
175 198 0
174 198 0
172 196 0
175 198 0
175 198 0
175 198 0
175 198 0
171 194 0
174 198 0
174 198 0
174 198 0
174 198 0
173 197 0
170 194 0
174 198 0
172 196 0
175 197 0
173 196 0
176 198 0
176 198 0
172 195 0
175 198 0
175 197 0
173 196 0
176 199 0
173 197 0
175 198 0
180 202 92
187 209 151
198 219 206
204 225 242
208 228 255
208 228 255
207 228 255
207 228 255
207 228 255
207 228 255
207 228 255
207 228 255
207 228 255
207 228 255
207 228 255
207 228 255
207 228 255
207 228 255
207 228 255
207 228 255
207 227 255
207 227 255
207 227 255
207 227 255
206 227 255
206 227 255
206 227 255
206 227 255
206 227 255
206 227 255
206 227 255
206 227 255
206 227 255
206 227 255
206 227 255
206 227 255
206 227 255
206 227 255
206 227 255
206 227 255
206 227 255
206 227 255
205 227 255
205 227 255
205 227 255
205 227 255
205 227 255
205 227 255
205 227 255
205 227 255
205 227 255
205 227 255
205 227 255
205 226 255
205 226 255
205 226 255
205 226 255
205 226 255
205 226 255
205 226 255
205 226 255
204 226 255
204 226 255
204 226 255
204 226 255
204 226 255
204 226 255
204 226 255
204 226 255
204 226 255
204 226 255
204 226 255
204 226 255
204 226 255
204 226 255
204 226 255
204 226 255
204 226 255
204 226 255
204 226 255
204 226 255
204 226 255
204 226 255
204 226 255
204 226 255
204 226 255
204 226 255
203 226 255
203 226 255
203 226 255
203 226 255
203 226 255
203 226 255
203 226 255
203 226 255
203 226 255
203 226 255
203 226 255
203 226 255
203 226 255
203 226 255
203 226 255
203 226 255
203 226 255
203 226 255
203 226 255
203 226 255
203 226 255
203 226 255
203 226 255
203 226 255
203 226 255
203 226 255
203 226 255
203 226 255
203 226 255
203 226 255
203 226 255
203 226 255
203 226 255
203 226 255
203 226 255
203 226 255
203 226 255
203 226 255
203 226 255
203 226 255
203 226 255
203 226 255
203 226 255
203 226 255
203 226 255
203 226 255
203 226 255
203 226 255
203 226 255
203 226 255
203 226 255
203 226 255
203 226 255
203 226 255
204 226 255
204 226 255
204 226 255
204 226 255
204 226 255
204 226 255
204 226 255
204 226 255
204 226 255
204 226 255
204 226 255
204 226 255
204 226 255
204 226 255
204 226 255
204 226 255
204 226 255
204 226 255
204 226 255
204 226 255
204 226 255
204 226 255
204 226 255
204 226 255
204 226 255
205 226 255
205 226 255
205 226 255
205 226 255
205 226 255
205 226 255
205 226 255
205 226 255
205 226 255
205 227 255
205 227 255
205 227 255
205 227 255
205 227 255
205 227 255
205 227 255
205 227 255
205 227 255
205 227 255
205 227 255
206 227 255
206 227 255
206 227 255
206 227 255
206 227 255
206 227 255
206 227 255
206 227 255
206 227 255
206 227 255
206 227 255
206 227 255
206 227 255
206 227 255
206 227 255
206 227 255
206 227 255
206 227 255
207 227 255
207 227 255
207 227 255
207 227 255
207 228 255
207 228 255
207 228 255
207 228 255
207 228 255
207 228 255
207 228 255
207 228 255
207 228 255
207 228 255
207 228 255
207 228 255
207 228 255
207 228 255
208 228 255
208 228 255
205 223 246
202 219 237
199 214 225
193 204 204
188 197 187
186 193 178
186 193 178
186 193 178
187 196 186
187 195 183
187 195 183
186 194 181
185 192 175
186 192 174
185 193 178
182 188 165
183 190 171
184 192 175
184 191 174
183 189 169
185 191 172
187 195 181
185 192 175
189 197 187
187 195 181
185 191 171
186 193 177
183 188 165
188 196 184
184 190 169
186 193 177
185 191 172
188 194 180
183 188 164
185 191 172
187 193 177
187 193 176
185 190 169
189 195 181
188 193 175
183 187 161
187 193 177
186 192 175
189 196 181
187 191 170
184 188 163
191 198 188
186 192 173
185 189 166
187 193 175
185 189 166
189 197 186
189 197 186
187 192 174
184 187 160
186 191 172
189 196 182
187 193 174
189 193 174
186 189 164
191 199 189
188 194 176
187 191 170
192 200 193
192 202 196
187 193 175
193 201 192
193 200 192
192 200 192
189 194 177
192 201 194
191 197 182
190 196 181
193 199 188
192 198 186
194 201 193
196 206 205
198 211 216
206 222 240
209 225 246
211 230 255
211 230 255
211 230 255
211 230 255
211 230 255
211 230 255
212 230 255
212 230 255
212 230 255
212 230 255
212 230 255
212 230 255
212 230 255
212 230 255
212 230 255
212 230 255
212 230 255
202 222 217
193 213 191
180 202 102
172 196 25
172 196 0
175 198 0
176 199 0
174 197 0
171 195 0
171 195 0
175 197 0
172 196 0
174 197 0
173 196 0
173 197 0
174 197 0
172 196 0
173 196 0
173 196 0
175 198 0
172 195 0
173 197 0
173 196 0
175 198 0
174 197 0
175 198 0
173 197 0
174 198 0
171 195 0
173 196 0
173 196 0
174 197 0
173 197 0
174 197 0
171 195 0
174 197 0
172 195 0
174 197 0
175 198 0
172 196 0
174 197 0
173 197 0
173 196 0
172 195 0
172 196 0
174 197 0
174 197 0
173 197 0
174 197 0
174 197 0
175 198 0
173 197 0
174 198 0
173 197 0
173 196 0
172 195 0
173 197 0
174 197 0
176 198 0
177 199 0
173 197 0
174 197 0
172 195 0
174 197 0
173 196 0
175 198 0
172 195 0
172 196 0
174 198 0
173 196 0
173 197 0
174 197 0
174 197 0
172 195 0
172 195 0
172 195 0
172 195 0
172 196 0
175 198 0
175 198 0
174 197 0
174 197 0
175 198 0
181 203 105
191 212 175
201 222 230
208 228 255
208 228 255
208 228 255
207 228 255
207 228 255
207 228 255
207 228 255
207 228 255
207 228 255
207 228 255
207 228 255
207 228 255
207 228 255
207 228 255
207 228 255
207 228 255
207 228 255
207 227 255
207 227 255
207 227 255
207 227 255
206 227 255
206 227 255
206 227 255
206 227 255
206 227 255
206 227 255
206 227 255
206 227 255
206 227 255
206 227 255
206 227 255
206 227 255
206 227 255
206 227 255
206 227 255
206 227 255
206 227 255
206 227 255
206 227 255
205 227 255
205 227 255
205 227 255
205 227 255
205 227 255
205 227 255
205 227 255
205 227 255
205 227 255
205 227 255
205 227 255
205 226 255
205 226 255
205 226 255
205 226 255
205 226 255
205 226 255
205 226 255
205 226 255
205 226 255
204 226 255
204 226 255
204 226 255
204 226 255
204 226 255
204 226 255
204 226 255
204 226 255
204 226 255
204 226 255
204 226 255
204 226 255
204 226 255
204 226 255
204 226 255
204 226 255
204 226 255
204 226 255
204 226 255
204 226 255
204 226 255
204 226 255
204 226 255
204 226 255
204 226 255
204 226 255
204 226 255
204 226 255
204 226 255
203 226 255
203 226 255
203 226 255
203 226 255
203 226 255
203 226 255
203 226 255
203 226 255
203 226 255
203 226 255
203 226 255
203 226 255
203 226 255
203 226 255
203 226 255
203 226 255
203 226 255
203 226 255
203 226 255
203 226 255
203 226 255
203 226 255
203 226 255
203 226 255
203 226 255
203 226 255
203 226 255
203 226 255
203 226 255
203 226 255
203 226 255
203 226 255
203 226 255
203 226 255
203 226 255
204 226 255
204 226 255
204 226 255
204 226 255
204 226 255
204 226 255
204 226 255
204 226 255
204 226 255
204 226 255
204 226 255
204 226 255
204 226 255
204 226 255
204 226 255
204 226 255
204 226 255
204 226 255
204 226 255
204 226 255
204 226 255
204 226 255
204 226 255
204 226 255
204 226 255
204 226 255
204 226 255
204 226 255
204 226 255
204 226 255
205 226 255
205 226 255
205 226 255
205 226 255
205 226 255
205 226 255
205 226 255
205 226 255
205 226 255
205 227 255
205 227 255
205 227 255
205 227 255
205 227 255
205 227 255
205 227 255
205 227 255
205 227 255
205 227 255
205 227 255
205 227 255
206 227 255
206 227 255
206 227 255
206 227 255
206 227 255
206 227 255
206 227 255
206 227 255
206 227 255
206 227 255
206 227 255
206 227 255
206 227 255
206 227 255
206 227 255
206 227 255
206 227 255
206 227 255
207 227 255
207 227 255
207 227 255
207 227 255
207 228 255
207 228 255
207 228 255
207 228 255
207 228 255
207 228 255
207 228 255
207 228 255
207 228 255
207 228 255
207 228 255
207 228 255
207 228 255
207 228 255
208 228 255
208 228 255
208 228 255
204 223 245
200 215 227
194 207 211
191 201 196
188 197 187
184 192 177
190 200 195
187 194 180
185 192 175
188 196 186
184 190 171
187 196 187
183 190 171
181 187 165
188 197 187
183 189 169
185 192 177
182 189 168
186 193 177
185 191 172
184 191 172
186 195 183
185 192 174
186 193 178
188 196 184
184 190 169
183 189 168
182 187 163
182 186 160
185 192 174
183 188 165
183 189 168
182 187 163
182 186 160
183 189 166
185 188 163
183 188 165
187 193 176
185 192 175
186 192 175
186 192 174
184 190 169
185 190 169
187 192 174
185 190 167
186 191 171
186 194 179
184 188 163
185 189 164
185 189 165
188 194 178
184 189 168
188 195 180
190 198 187
186 192 174
187 192 172
186 191 172
185 189 166
186 190 169
188 193 174
187 192 171
190 197 187
190 196 182
188 194 177
192 199 188
189 195 179
188 193 174
191 199 187
191 199 189
189 196 182
189 194 175
189 194 177
191 197 184
191 198 187
189 193 174
188 193 174
191 197 182
190 195 178
188 194 175
194 202 194
189 194 176
192 199 187
193 201 193
199 210 211
205 219 232
207 223 240
212 230 255
212 230 255
212 230 255
212 230 255
212 230 255
212 230 255
212 230 255
212 230 255
212 230 255
212 230 255
212 230 255
205 225 231
189 209 155
176 199 84
171 194 0
171 195 0
175 198 0
175 197 0
172 195 0
173 196 0
170 194 0
174 197 0
174 198 0
173 197 0
171 195 0
175 198 0
174 197 0
173 197 0
172 195 0
171 195 0
173 196 0
175 198 0
173 196 0
175 198 0
174 197 0
169 193 0
175 198 0
173 197 0
174 197 0
172 196 0
173 197 0
172 196 0
174 197 0
175 197 0
174 197 0
175 198 0
173 196 0
174 197 0
174 197 0
175 197 0
175 198 0
172 195 0
174 197 0
175 197 0
175 197 0
171 195 0
173 197 0
173 196 0
173 197 0
174 197 0
174 198 0
174 197 0
170 194 0
177 199 0
176 199 0
174 197 0
174 197 0
176 199 0
175 198 0
173 196 0
173 196 0
171 195 0
172 196 0
175 198 0
175 198 0
174 197 0
175 198 0
173 196 0
172 196 0
174 197 0
174 197 0
172 196 0
175 198 0
174 198 0
172 196 0
173 196 0
174 198 0
174 198 0
173 197 0
176 199 0
173 197 0
175 198 0
175 197 0
170 195 0
174 198 0
175 198 0
175 198 0
174 196 0
175 198 0
175 198 0
179 201 67
192 213 177
200 221 224
207 228 254
208 228 255
208 228 255
208 228 255
207 228 255
207 228 255
207 228 255
207 228 255
207 228 255
207 228 255
207 228 255
207 228 255
207 228 255
207 228 255
207 228 255
207 228 255
207 228 255
207 228 255
207 227 255
207 227 255
207 227 255
207 227 255
206 227 255
206 227 255
206 227 255
206 227 255
206 227 255
206 227 255
206 227 255
206 227 255
206 227 255
206 227 255
206 227 255
206 227 255
206 227 255
206 227 255
206 227 255
206 227 255
206 227 255
206 227 255
206 227 255
205 227 255
205 227 255
205 227 255
205 227 255
205 227 255
205 227 255
205 227 255
205 227 255
205 227 255
205 227 255
205 227 255
205 227 255
205 226 255
205 226 255
205 226 255
205 226 255
205 226 255
205 226 255
205 226 255
205 226 255
205 226 255
204 226 255
204 226 255
204 226 255
204 226 255
204 226 255
204 226 255
204 226 255
204 226 255
204 226 255
204 226 255
204 226 255
204 226 255
204 226 255
204 226 255
204 226 255
204 226 255
204 226 255
204 226 255
204 226 255
204 226 255
204 226 255
204 226 255
204 226 255
204 226 255
204 226 255
204 226 255
204 226 255
204 226 255
204 226 255
204 226 255
204 226 255
204 226 255
204 226 255
204 226 255
204 226 255
204 226 255
204 226 255
204 226 255
204 226 255
204 226 255
204 226 255
204 226 255
204 226 255
204 226 255
204 226 255
204 226 255
204 226 255
204 226 255
204 226 255
204 226 255
204 226 255
204 226 255
204 226 255
204 226 255
204 226 255
204 226 255
204 226 255
204 226 255
204 226 255
204 226 255
204 226 255
204 226 255
204 226 255
204 226 255
204 226 255
204 226 255
204 226 255
204 226 255
204 226 255
204 226 255
204 226 255
204 226 255
204 226 255
204 226 255
204 226 255
204 226 255
204 226 255
204 226 255
204 226 255
204 226 255
204 226 255
204 226 255
204 226 255
204 226 255
205 226 255
205 226 255
205 226 255
205 226 255
205 226 255
205 226 255
205 226 255
205 226 255
205 226 255
205 227 255
205 227 255
205 227 255
205 227 255
205 227 255
205 227 255
205 227 255
205 227 255
205 227 255
205 227 255
205 227 255
205 227 255
206 227 255
206 227 255
206 227 255
206 227 255
206 227 255
206 227 255
206 227 255
206 227 255
206 227 255
206 227 255
206 227 255
206 227 255
206 227 255
206 227 255
206 227 255
206 227 255
206 227 255
206 227 255
206 227 255
207 227 255
207 227 255
207 227 255
207 227 255
207 228 255
207 228 255
207 228 255
207 228 255
207 228 255
207 228 255
207 228 255
207 228 255
207 228 255
207 228 255
207 228 255
207 228 255
207 228 255
207 228 255
208 228 255
208 228 255
208 228 255
208 228 255
206 225 248
200 215 227
195 206 208
188 196 186
187 195 184
190 199 191
188 196 186
187 195 184
183 189 168
187 194 180
184 189 169
183 190 172
183 189 169
183 191 174
187 194 180
188 195 183
182 188 165
183 190 172
186 193 178
182 187 161
186 193 178
183 189 169
184 189 169
183 188 165
183 188 165
183 189 168
187 195 183
187 195 181
182 188 166
181 187 163
183 190 171
181 186 161
186 192 175
183 188 165
180 184 155
181 184 155
183 188 165
185 191 172
182 187 163
183 187 163
183 188 165
180 183 151
184 188 163
183 188 164
187 192 174
184 189 168
188 194 177
184 190 169
182 186 160
186 190 169
185 191 172
186 190 168
185 191 172
188 193 175
188 196 184
187 192 172
190 197 185
184 185 153
186 191 170
185 190 169
188 194 177
185 191 171
189 195 179
186 189 164
186 191 168
185 189 163
184 187 159
187 191 169
189 195 179
183 188 163
191 197 182
190 194 175
193 200 190
187 193 176
189 195 178
192 198 185
189 195 179
189 192 168
189 193 172
191 197 183
193 200 192
188 193 174
190 195 176
193 200 189
194 201 191
190 194 173
189 194 176
192 199 187
194 202 196
193 200 189
202 215 222
209 225 244
211 230 254
212 230 255
212 230 255
212 230 255
212 230 255
207 226 236
191 212 177
176 199 88
175 197 0
170 193 0
174 197 0
175 198 0
172 195 0
173 196 0
171 194 0
173 197 0
174 197 0
175 198 0
173 196 0
171 194 0
174 197 0
174 197 0
172 196 0
171 195 0
174 197 0
173 197 0
173 196 0
174 197 0
173 196 0
175 198 0
175 198 0
174 197 0
173 196 0
173 197 0
175 198 0
173 196 0
172 196 0
172 195 0
175 198 0
174 198 0
171 195 0
174 197 0
174 197 0
175 198 0
174 198 0
172 195 0
174 198 0
174 197 0
173 197 0
174 197 0
174 197 0
175 198 0
174 198 0
174 197 0
173 197 0
172 195 0
174 197 0
172 195 0
173 197 0
173 196 0
174 197 0
174 197 0
174 197 0
173 197 0
173 197 0
172 195 0
173 196 0
174 198 0
173 197 0
173 196 0
173 197 0
173 197 0
175 198 0
173 197 0
174 198 0
176 198 0
175 197 0
173 197 0
173 197 0
175 198 0
173 197 0
174 197 0
174 197 0
173 196 0
174 197 0
172 196 0
175 198 0
173 196 0
175 198 0
173 196 0
171 195 0
173 196 0
173 196 0
174 197 0
173 197 0
168 192 0
172 196 0
176 199 0
174 197 0
175 198 0
176 199 72
188 209 151
203 223 233
208 228 255
208 228 255
208 228 255
208 228 255
208 228 255
207 228 255
207 228 255
207 228 255
207 228 255
207 228 255
207 228 255
207 228 255
207 228 255
207 228 255
207 228 255
207 228 255
207 228 255
207 228 255
207 228 255
207 227 255
207 227 255
207 227 255
207 227 255
206 227 255
206 227 255
206 227 255
206 227 255
206 227 255
206 227 255
206 227 255
206 227 255
206 227 255
206 227 255
206 227 255
206 227 255
206 227 255
206 227 255
206 227 255
206 227 255
206 227 255
206 227 255
206 227 255
206 227 255
205 227 255
205 227 255
205 227 255
205 227 255
205 227 255
205 227 255
205 227 255
205 227 255
205 227 255
205 227 255
205 227 255
205 227 255
205 226 255
205 226 255
205 226 255
205 226 255
205 226 255
205 226 255
205 226 255
205 226 255
205 226 255
205 226 255
204 226 255
204 226 255
204 226 255
204 226 255
204 226 255
204 226 255
204 226 255
204 226 255
204 226 255
204 226 255
204 226 255
204 226 255
204 226 255
204 226 255
204 226 255
204 226 255
204 226 255
204 226 255
204 226 255
204 226 255
204 226 255
204 226 255
204 226 255
204 226 255
204 226 255
204 226 255
204 226 255
204 226 255
204 226 255
204 226 255
204 226 255
204 226 255
204 226 255
204 226 255
204 226 255
204 226 255
204 226 255
204 226 255
204 226 255
204 226 255
204 226 255
204 226 255
204 226 255
204 226 255
204 226 255
204 226 255
204 226 255
204 226 255
204 226 255
204 226 255
204 226 255
204 226 255
204 226 255
204 226 255
204 226 255
204 226 255
204 226 255
204 226 255
204 226 255
204 226 255
204 226 255
204 226 255
204 226 255
204 226 255
204 226 255
204 226 255
204 226 255
204 226 255
204 226 255
204 226 255
204 226 255
204 226 255
205 226 255
205 226 255
205 226 255
205 226 255
205 226 255
205 226 255
205 226 255
205 226 255
205 226 255
205 226 255
205 227 255
205 227 255
205 227 255
205 227 255
205 227 255
205 227 255
205 227 255
205 227 255
205 227 255
205 227 255
205 227 255
205 227 255
205 227 255
206 227 255
206 227 255
206 227 255
206 227 255
206 227 255
206 227 255
206 227 255
206 227 255
206 227 255
206 227 255
206 227 255
206 227 255
206 227 255
206 227 255
206 227 255
206 227 255
206 227 255
206 227 255
206 227 255
207 227 255
207 227 255
207 227 255
207 227 255
207 228 255
207 228 255
207 228 255
207 228 255
207 228 255
207 228 255
207 228 255
207 228 255
207 228 255
207 228 255
207 228 255
207 228 255
207 228 255
207 228 255
208 228 255
208 228 255
208 228 255
208 228 255
208 228 255
206 225 249
200 215 228
190 200 194
189 197 187
187 196 186
189 197 188
185 192 177
186 194 181
187 194 181
185 191 171
185 192 175
185 193 178
186 193 178
185 192 177
188 196 186
185 193 180
185 192 174
185 192 175
180 184 156
182 188 166
184 189 168
183 189 168
181 187 163
185 191 172
184 190 169
186 191 172
184 190 171
183 189 168
184 189 168
184 190 169
180 184 155
184 188 163
180 184 156
186 192 175
181 185 156
184 190 169
186 192 174
184 190 169
182 186 160
185 192 174
187 194 178
187 194 180
182 186 158
185 190 169
185 191 172
185 191 172
182 186 158
185 190 168
184 188 163
183 188 165
187 193 177
187 192 174
183 187 161
184 188 161
185 191 172
186 191 172
184 188 165
183 187 160
187 191 170
188 195 181
184 188 163
186 191 169
186 192 174
187 191 169
188 191 169
187 192 172
188 193 175
189 195 180
183 186 157
188 192 170
192 199 188
186 191 171
187 191 170
188 193 174
190 194 174
188 193 175
188 194 177
187 191 170
188 192 172
189 194 175
188 194 176
188 195 180
192 200 191
189 194 175
188 192 172
190 197 185
191 197 184
194 200 189
189 196 182
190 196 181
190 196 179
190 193 172
189 195 177
193 198 182
192 199 186
196 206 203
206 219 232
208 224 243
212 230 255
179 202 108
169 191 0
169 193 0
169 192 0
171 194 0
169 193 0
172 195 0
171 194 0
173 197 0
175 197 0
170 194 0
174 197 0
172 196 0
172 196 0
172 196 0
174 198 0
173 197 0
172 196 0
173 195 0
175 198 0
175 198 0
173 197 0
173 197 0
173 196 0
173 197 0
172 196 0
174 197 0
171 195 0
171 195 0
174 197 0
173 197 0
174 197 0
174 198 0
173 197 0
174 197 0
175 197 0
176 199 0
175 198 0
172 196 0
174 198 0
174 197 0
172 195 0
172 196 0
171 195 0
174 197 0
173 197 0
173 196 0
175 198 0
174 197 0
173 196 0
174 197 0
173 197 0
173 196 0
174 197 0
172 196 0
175 198 0
173 197 0
174 197 0
173 197 0
172 195 0
175 198 0
173 196 0
172 196 0
173 197 0
174 198 0
174 198 0
175 198 0
173 197 0
174 198 0
176 199 0
172 196 0
175 198 0
173 196 0
173 197 0
173 197 0
174 197 0
173 197 0
172 196 0
173 197 0
174 198 0
174 197 0
173 197 0
174 198 0
175 198 0
173 197 0
174 197 0
173 197 0
174 197 0
174 198 0
173 197 0
174 198 0
174 198 0
174 197 0
174 197 0
174 197 0
175 198 0
174 196 0
175 198 0
175 198 0
179 202 102
197 218 207
206 226 249
208 228 255
208 228 255
208 228 255
208 228 255
208 228 255
208 228 255
207 228 255
207 228 255
207 228 255
207 228 255
207 228 255
207 228 255
207 228 255
207 228 255
207 228 255
207 228 255
207 228 255
207 228 255
207 228 255
207 228 255
207 227 255
207 227 255
207 227 255
207 227 255
207 227 255
206 227 255
206 227 255
206 227 255
206 227 255
206 227 255
206 227 255
206 227 255
206 227 255
206 227 255
206 227 255
206 227 255
206 227 255
206 227 255
206 227 255
206 227 255
206 227 255
206 227 255
206 227 255
206 227 255
206 227 255
205 227 255
205 227 255
205 227 255
205 227 255
205 227 255
205 227 255
205 227 255
205 227 255
205 227 255
205 227 255
205 227 255
205 227 255
205 227 255
205 226 255
205 226 255
205 226 255
205 226 255
205 226 255
205 226 255
205 226 255
205 226 255
205 226 255
205 226 255
205 226 255
205 226 255
204 226 255
204 226 255
204 226 255
204 226 255
204 226 255
204 226 255
204 226 255
204 226 255
204 226 255
204 226 255
204 226 255
204 226 255
204 226 255
204 226 255
204 226 255
204 226 255
204 226 255
204 226 255
204 226 255
204 226 255
204 226 255
204 226 255
204 226 255
204 226 255
204 226 255
204 226 255
204 226 255
204 226 255
204 226 255
204 226 255
204 226 255
204 226 255
204 226 255
204 226 255
204 226 255
204 226 255
204 226 255
204 226 255
204 226 255
204 226 255
204 226 255
204 226 255
204 226 255
204 226 255
204 226 255
204 226 255
204 226 255
204 226 255
204 226 255
204 226 255
204 226 255
204 226 255
204 226 255
204 226 255
204 226 255
204 226 255
205 226 255
205 226 255
205 226 255
205 226 255
205 226 255
205 226 255
205 226 255
205 226 255
205 226 255
205 226 255
205 226 255
205 226 255
205 227 255
205 227 255
205 227 255
205 227 255
205 227 255
205 227 255
205 227 255
205 227 255
205 227 255
205 227 255
205 227 255
205 227 255
205 227 255
205 227 255
206 227 255
206 227 255
206 227 255
206 227 255
206 227 255
206 227 255
206 227 255
206 227 255
206 227 255
206 227 255
206 227 255
206 227 255
206 227 255
206 227 255
206 227 255
206 227 255
206 227 255
206 227 255
206 227 255
207 227 255
207 227 255
207 227 255
207 227 255
207 227 255
207 228 255
207 228 255
207 228 255
207 228 255
207 228 255
207 228 255
207 228 255
207 228 255
207 228 255
207 228 255
207 228 255
207 228 255
207 228 255
207 228 255
208 228 255
208 228 255
208 228 255
208 228 255
208 228 255
208 228 255
206 226 251
203 220 237
195 208 212
189 198 190
187 196 186
189 197 188
185 192 177
185 192 175
185 192 175
188 196 184
188 196 186
186 194 181
182 188 166
180 185 160
183 190 171
185 193 178
185 193 178
182 187 165
181 186 160
185 191 174
185 191 172
181 185 160
181 187 163
182 186 161
179 183 153
183 190 172
183 189 169
182 188 166
181 186 160
185 192 175
181 186 161
183 187 161
184 190 169
183 188 165
185 191 172
182 187 161
181 185 158
181 185 158
182 188 166
182 186 158
186 192 175
182 187 163
181 183 151
182 186 158
186 191 170
183 188 163
183 188 164
186 192 173
184 188 163
183 186 158
186 191 170
183 186 157
188 193 175
181 183 148
187 192 172
184 187 161
184 186 158
186 191 171
187 192 174
185 188 161
189 194 176
186 193 175
186 190 166
183 187 162
187 191 169
182 183 151
187 191 170
185 188 163
185 189 166
189 193 175
188 193 173
186 189 163
186 191 171
184 188 162
188 193 175
186 190 167
189 193 170
190 194 175
184 186 154
186 189 164
185 191 170
190 196 182
190 196 180
188 192 170
191 195 178
192 200 191
190 196 180
191 197 182
190 196 181
188 194 176
189 192 171
193 200 189
192 199 187
191 197 183
193 199 185
193 200 190
192 198 185
195 203 195
193 199 187
193 201 191
194 199 186
200 212 216
173 196 0
170 194 0
171 195 0
173 197 0
173 196 0
170 193 0
171 195 0
174 197 0
175 198 0
170 194 0
172 196 0
175 198 0
174 197 0
172 196 0
173 196 0
174 197 0
173 196 0
174 198 0
173 197 0
175 198 0
173 197 0
173 196 0
173 197 0
172 196 0
175 198 0
173 197 0
174 197 0
175 198 0
174 197 0
176 198 0
174 197 0
174 197 0
173 196 0
172 196 0
174 197 0
174 197 0
176 199 0
173 196 0
175 198 0
171 195 0
173 197 0
172 196 0
175 198 0
173 197 0
173 197 0
175 197 0
173 197 0
173 197 0
175 198 0
174 197 0
176 198 0
172 196 0
173 197 0
176 198 0
173 196 0
172 196 0
174 197 0
171 195 0
173 196 0
173 197 0
172 196 0
172 196 0
174 198 0
173 197 0
175 198 0
174 197 0
174 197 0
172 196 0
176 198 0
175 198 0
174 197 0
175 198 0
175 198 0
174 198 0
176 199 0
173 196 0
173 197 0
174 197 0
175 198 0
174 198 0
175 198 0
173 197 0
173 196 0
173 196 0
173 197 0
174 197 0
175 198 0
172 196 0
176 198 0
174 198 0
175 198 0
175 198 0
175 198 0
175 198 0
172 196 0
173 197 0
174 197 0
175 198 0
175 198 0
173 197 0
172 195 0
176 199 51
190 212 169
200 221 221
208 228 255
208 228 255
208 228 255
208 228 255
208 228 255
208 228 255
208 228 255
208 228 255
207 228 255
207 228 255
207 228 255
207 228 255
207 228 255
207 228 255
207 228 255
207 228 255
207 228 255
207 228 255
207 228 255
207 228 255
207 228 255
207 228 255
207 228 255
207 227 255
207 227 255
207 227 255
207 227 255
206 227 255
206 227 255
206 227 255
206 227 255
206 227 255
206 227 255
206 227 255
206 227 255
206 227 255
206 227 255
206 227 255
206 227 255
206 227 255
206 227 255
206 227 255
206 227 255
206 227 255
206 227 255
206 227 255
206 227 255
206 227 255
205 227 255
205 227 255
205 227 255
205 227 255
205 227 255
205 227 255
205 227 255
205 227 255
205 227 255
205 227 255
205 227 255
205 227 255
205 227 255
205 227 255
205 227 255
205 226 255
205 226 255
205 226 255
205 226 255
205 226 255
205 226 255
205 226 255
205 226 255
205 226 255
205 226 255
205 226 255
205 226 255
205 226 255
205 226 255
205 226 255
205 226 255
204 226 255
204 226 255
204 226 255
204 226 255
204 226 255
204 226 255
204 226 255
204 226 255
204 226 255
204 226 255
204 226 255
204 226 255
204 226 255
204 226 255
204 226 255
204 226 255
204 226 255
204 226 255
204 226 255
204 226 255
204 226 255
204 226 255
204 226 255
204 226 255
204 226 255
204 226 255
204 226 255
204 226 255
204 226 255
204 226 255
204 226 255
204 226 255
204 226 255
204 226 255
204 226 255
205 226 255
205 226 255
205 226 255
205 226 255
205 226 255
205 226 255
205 226 255
205 226 255
205 226 255
205 226 255
205 226 255
205 226 255
205 226 255
205 226 255
205 226 255
205 227 255
205 227 255
205 227 255
205 227 255
205 227 255
205 227 255
205 227 255
205 227 255
205 227 255
205 227 255
205 227 255
205 227 255
205 227 255
205 227 255
205 227 255
206 227 255
206 227 255
206 227 255
206 227 255
206 227 255
206 227 255
206 227 255
206 227 255
206 227 255
206 227 255
206 227 255
206 227 255
206 227 255
206 227 255
206 227 255
206 227 255
206 227 255
206 227 255
206 227 255
206 227 255
206 227 255
207 227 255
207 227 255
207 227 255
207 227 255
207 228 255
207 228 255
207 228 255
207 228 255
207 228 255
207 228 255
207 228 255
207 228 255
207 228 255
207 228 255
207 228 255
207 228 255
207 228 255
207 228 255
207 228 255
208 228 255
208 228 255
208 228 255
208 228 255
208 228 255
208 228 255
208 228 255
208 228 255
205 224 247
197 210 218
189 198 188
190 199 191
187 195 184
189 197 186
187 195 181
185 193 177
184 189 168
188 197 187
183 189 168
182 188 166
182 186 161
187 196 187
183 190 172
185 192 177
183 188 166
183 190 171
183 189 169
182 188 166
182 188 168
184 191 174
180 185 160
181 185 158
182 187 163
184 190 169
182 188 165
181 187 163
184 191 172
181 185 158
184 190 171
179 182 150
183 187 163
187 195 181
183 188 163
182 187 161
180 184 155
180 184 155
182 185 156
184 189 168
183 187 161
183 189 166
184 188 161
184 189 168
183 188 165
184 188 165
184 187 159
185 191 171
185 189 165
184 188 164
185 188 163
182 186 160
183 188 163
180 184 155
184 189 166
185 188 163
182 184 151
183 187 161
183 186 158
183 188 162
183 186 156
188 193 175
184 188 163
190 196 181
182 183 149
186 190 167
183 185 154
186 189 164
183 185 155
186 191 169
187 190 167
185 189 166
186 189 162
187 191 169
189 194 175
185 189 166
189 194 175
189 194 175
190 194 175
188 194 175
185 189 163
187 190 166
189 194 177
185 191 170
189 195 179
188 192 169
186 189 164
183 187 160
189 194 175
193 200 191
190 195 177
191 196 178
190 196 180
192 198 185
191 196 180
190 195 177
190 194 174
193 200 188
194 201 192
187 190 165
192 199 187
189 193 174
193 199 187
194 201 191
172 195 0
172 196 0
173 196 0
174 197 0
170 194 0
172 195 0
171 195 0
173 196 0
172 195 0
174 197 0
173 195 0
173 197 0
173 197 0
173 196 0
173 196 0
173 196 0
174 197 0
174 197 0
176 198 0
171 195 0
174 197 0
175 198 0
174 198 0
171 195 0
173 196 0
171 193 0
175 198 0
172 196 0
175 198 0
174 198 0
174 198 0
172 196 0
175 198 0
175 198 0
173 197 0
173 197 0
174 198 0
174 197 0
173 197 0
175 198 0
174 197 0
171 195 0
173 196 0
173 197 0
173 197 0
176 199 0
174 198 0
175 198 0
171 194 0
173 197 0
174 197 0
171 194 0
174 197 0
173 197 0
174 197 0
173 196 0
172 196 0
175 198 0
173 197 0
173 197 0
173 197 0
175 198 0
174 197 0
175 198 0
174 197 0
175 198 0
172 196 0
175 198 0
173 196 0
174 197 0
175 198 0
173 196 0
173 196 0
176 198 0
174 197 0
176 198 0
173 196 0
175 198 0
172 197 0
174 198 0
173 197 0
175 198 0
173 196 0
175 198 0
172 195 0
173 197 0
174 197 0
173 196 0
173 196 0
174 197 0
172 195 0
175 198 0
174 197 0
174 197 0
171 196 0
174 196 0
175 198 0
174 197 0
173 196 0
173 196 0
174 198 0
175 198 0
174 197 0
176 199 0
179 202 95
197 218 207
208 228 254
208 228 255
208 228 255
208 228 255
208 228 255
208 228 255
208 228 255
208 228 255
208 228 255
208 228 255
207 228 255
207 228 255
207 228 255
207 228 255
207 228 255
207 228 255
207 228 255
207 228 255
207 228 255
207 228 255
207 228 255
207 228 255
207 228 255
207 228 255
207 228 255
207 227 255
207 227 255
207 227 255
207 227 255
207 227 255
206 227 255
206 227 255
206 227 255
206 227 255
206 227 255
206 227 255
206 227 255
206 227 255
206 227 255
206 227 255
206 227 255
206 227 255
206 227 255
206 227 255
206 227 255
206 227 255
206 227 255
206 227 255
206 227 255
206 227 255
206 227 255
206 227 255
205 227 255
205 227 255
205 227 255
205 227 255
205 227 255
205 227 255
205 227 255
205 227 255
205 227 255
205 227 255
205 227 255
205 227 255
205 227 255
205 227 255
205 227 255
205 227 255
205 227 255
205 227 255
205 226 255
205 226 255
205 226 255
205 226 255
205 226 255
205 226 255
205 226 255
205 226 255
205 226 255
205 226 255
205 226 255
205 226 255
205 226 255
205 226 255
205 226 255
205 226 255
205 226 255
205 226 255
205 226 255
205 226 255
205 226 255
205 226 255
205 226 255
205 226 255
205 226 255
205 226 255
205 226 255
205 226 255
205 226 255
205 226 255
205 226 255
205 226 255
205 226 255
205 226 255
205 226 255
205 226 255
205 226 255
205 226 255
205 226 255
205 226 255
205 226 255
205 226 255
205 226 255
205 226 255
205 226 255
205 226 255
205 226 255
205 226 255
205 227 255
205 227 255
205 227 255
205 227 255
205 227 255
205 227 255
205 227 255
205 227 255
205 227 255
205 227 255
205 227 255
205 227 255
205 227 255
205 227 255
205 227 255
205 227 255
205 227 255
205 227 255
206 227 255
206 227 255
206 227 255
206 227 255
206 227 255
206 227 255
206 227 255
206 227 255
206 227 255
206 227 255
206 227 255
206 227 255
206 227 255
206 227 255
206 227 255
206 227 255
206 227 255
206 227 255
206 227 255
206 227 255
206 227 255
206 227 255
207 227 255
207 227 255
207 227 255
207 227 255
207 227 255
207 228 255
207 228 255
207 228 255
207 228 255
207 228 255
207 228 255
207 228 255
207 228 255
207 228 255
207 228 255
207 228 255
207 228 255
207 228 255
207 228 255
207 228 255
208 228 255
208 228 255
208 228 255
208 228 255
208 228 255
208 228 255
208 228 255
208 228 255
208 228 255
208 228 254
203 220 239
194 206 207
185 192 175
190 200 194
185 191 172
192 203 200
188 196 186
185 192 175
182 187 165
185 192 177
186 193 178
187 195 184
183 189 169
184 191 172
185 191 174
187 194 180
185 191 174
182 187 165
182 189 169
183 189 168
182 187 165
178 181 146
182 188 165
183 188 165
186 192 175
179 183 155
183 188 166
182 187 165
181 184 155
185 191 172
184 187 161
183 188 165
181 185 158
181 188 166
184 189 168
181 185 156
179 183 151
184 188 161
182 187 163
182 187 163
183 186 158
184 189 166
182 185 156
186 193 177
183 187 160
183 188 163
184 189 167
184 189 167
182 185 156
184 190 171
187 192 172
184 188 163
184 189 165
181 184 153
184 188 163
185 190 169
182 185 155
183 187 161
187 192 172
183 187 161
186 190 167
187 193 177
184 187 161
186 190 169
186 191 169
187 192 174
183 188 162
185 189 165
181 183 150
182 185 156
186 190 167
187 192 170
188 192 170
189 193 174
186 191 170
186 189 163
185 188 163
188 192 171
188 192 170
188 191 167
188 194 178
185 188 162
186 189 163
187 190 164
187 190 163
191 196 181
185 188 161
186 189 161
189 193 175
187 190 165
189 193 171
190 195 178
191 196 181
188 194 178
189 194 175
193 199 187
186 190 166
191 197 182
192 197 182
193 198 185
187 191 170
193 198 182
190 195 178
193 200 190
193 199 187
190 196 181
172 195 0
172 196 0
175 198 0
176 198 0
174 197 0
175 198 0
175 198 0
175 198 0
173 197 0
173 196 0
173 196 0
172 196 0
174 197 0
173 196 0
171 195 0
174 198 0
173 197 0
176 198 0
173 197 0
171 195 0
173 196 0
175 198 0
175 198 0
172 196 0
172 195 0
172 195 0
175 198 0
174 197 0
173 197 0
173 197 0
174 198 0
172 196 0
175 197 0
173 197 0
172 196 0
175 198 0
174 198 0
172 196 0
172 196 0
171 195 0
176 198 0
175 198 0
174 197 0
174 198 0
173 197 0
174 197 0
174 197 0
173 197 0
172 196 0
175 198 0
172 196 0
176 199 0
174 197 0
173 197 0
173 196 0
173 197 0
175 198 0
174 197 0
174 197 0
172 196 0
173 196 0
176 199 0
174 197 0
173 197 0
175 198 0
175 198 0
172 197 0
173 197 0
174 198 0
174 197 0
174 197 0
174 198 0
173 196 0
175 198 0
175 198 0
175 198 0
174 197 0
173 196 0
173 197 0
174 198 0
173 197 0
174 197 0
174 197 0
171 194 0
173 197 0
173 197 0
172 196 0
174 198 0
173 197 0
172 196 0
173 196 0
175 198 0
173 197 0
172 196 0
173 196 0
174 196 0
173 197 0
173 197 0
172 196 0
172 196 0
175 198 0
172 196 0
174 197 0
173 196 0
174 197 0
175 198 0
178 200 84
195 216 193
207 227 249
208 228 255
208 228 255
208 228 255
208 228 255
208 228 255
208 228 255
208 228 255
208 228 255
208 228 255
208 228 255
208 228 255
208 228 255
207 228 255
207 228 255
207 228 255
207 228 255
207 228 255
207 228 255
207 228 255
207 228 255
207 228 255
207 228 255
207 228 255
207 228 255
207 228 255
207 228 255
207 227 255
207 227 255
207 227 255
207 227 255
207 227 255
207 227 255
206 227 255
206 227 255
206 227 255
206 227 255
206 227 255
206 227 255
206 227 255
206 227 255
206 227 255
206 227 255
206 227 255
206 227 255
206 227 255
206 227 255
206 227 255
206 227 255
206 227 255
206 227 255
206 227 255
206 227 255
206 227 255
206 227 255
206 227 255
206 227 255
205 227 255
205 227 255
205 227 255
205 227 255
205 227 255
205 227 255
205 227 255
205 227 255
205 227 255
205 227 255
205 227 255
205 227 255
205 227 255
205 227 255
205 227 255
205 227 255
205 227 255
205 227 255
205 227 255
205 227 255
205 227 255
205 227 255
205 227 255
205 227 255
205 227 255
205 226 255
205 226 255
205 226 255
205 226 255
205 226 255
205 226 255
205 226 255
205 226 255
205 226 255
205 226 255
205 226 255
205 226 255
205 226 255
205 226 255
205 226 255
205 226 255
205 226 255
205 226 255
205 226 255
205 226 255
205 226 255
205 227 255
205 227 255
205 227 255
205 227 255
205 227 255
205 227 255
205 227 255
205 227 255
205 227 255
205 227 255
205 227 255
205 227 255
205 227 255
205 227 255
205 227 255
205 227 255
205 227 255
205 227 255
205 227 255
205 227 255
205 227 255
205 227 255
205 227 255
205 227 255
206 227 255
206 227 255
206 227 255
206 227 255
206 227 255
206 227 255
206 227 255
206 227 255
206 227 255
206 227 255
206 227 255
206 227 255
206 227 255
206 227 255
206 227 255
206 227 255
206 227 255
206 227 255
206 227 255
206 227 255
206 227 255
206 227 255
206 227 255
206 227 255
207 227 255
207 227 255
207 227 255
207 227 255
207 227 255
207 227 255
207 228 255
207 228 255
207 228 255
207 228 255
207 228 255
207 228 255
207 228 255
207 228 255
207 228 255
207 228 255
207 228 255
207 228 255
207 228 255
207 228 255
208 228 255
208 228 255
208 228 255
208 228 255
208 228 255
208 228 255
208 228 255
208 228 255
208 228 255
208 228 255
208 228 255
208 228 255
208 228 254
200 216 228
192 202 198
187 194 178
189 197 190
186 194 181
187 195 183
185 193 180
185 192 177
188 196 184
182 187 163
187 194 178
183 190 172
186 195 183
184 192 177
179 184 156
186 193 178
184 191 174
181 186 161
184 191 174
179 183 153
182 187 165
183 189 168
183 187 163
183 188 166
183 187 163
187 193 177
181 185 158
183 187 163
182 187 161
182 186 158
181 184 153
180 184 155
184 190 169
185 192 174
181 185 156
180 184 155
181 184 153
182 188 165
182 185 155
186 192 174
181 184 151
180 183 151
183 187 163
182 185 156
185 188 161
183 189 166
182 185 155
183 186 156
185 190 168
184 188 165
183 187 160
181 184 154
183 185 155
182 186 158
181 184 155
181 183 151
182 186 159
184 187 159
181 183 149
182 184 152
186 191 172
186 191 169
181 185 158
182 185 158
184 187 161
185 187 156
183 186 159
186 189 165
184 187 157
183 186 159
187 193 176
185 190 169
186 188 161
182 185 155
186 189 164
186 189 162
186 189 164
186 188 159
187 188 160
187 190 167
183 185 154
189 194 175
189 193 172
184 185 153
191 197 183
185 190 167
190 194 175
188 194 177
187 191 169
187 190 166
188 191 167
189 195 177
187 193 173
191 196 181
190 194 174
192 199 188
188 190 165
192 196 179
191 195 176
190 195 176
192 199 187
190 196 181
191 196 180
191 197 184
191 197 182
188 192 169
191 197 183
193 198 183
173 197 0
172 196 0
174 197 0
171 195 0
174 197 0
173 196 0
174 197 0
171 194 0
173 197 0
173 197 0
174 198 0
174 197 0
173 197 0
174 197 0
174 198 0
174 197 0
172 196 0
174 197 0
171 195 0
174 197 0
171 195 0
173 197 0
172 196 0
175 198 0
173 197 0
172 196 0
174 197 0
174 197 0
171 195 0
172 196 0
174 198 0
174 198 0
172 196 0
172 197 0
175 198 0
172 196 0
175 198 0
173 196 0
173 197 0
172 196 0
177 199 0
173 196 0
174 198 0
175 198 0
175 198 0
176 198 0
173 197 0
174 197 0
174 197 0
173 196 0
173 197 0
174 197 0
175 198 0
175 198 0
175 198 0
173 196 0
174 197 0
175 197 0
173 197 0
174 197 0
174 197 0
174 197 0
175 198 0
173 197 0
174 197 0
173 197 0
173 197 0
174 197 0
173 197 0
173 196 0
174 198 0
174 197 0
173 197 0
174 197 0
174 198 0
174 197 0
173 197 0
174 198 0
176 199 0
174 197 0
172 197 0
174 198 0
174 198 0
175 198 0
174 197 0
173 197 0
174 197 0
173 197 0
175 198 0
177 199 0
173 196 0
174 197 0
172 196 0
173 197 0
173 197 0
174 197 0
173 197 0
175 198 0
175 198 0
173 196 0
176 198 0
172 196 0
175 198 0
174 198 0
175 198 0
174 198 0
174 197 0
174 197 0
178 201 76
193 214 186
207 227 249
208 228 255
208 228 255
208 228 255
208 228 255
208 228 255
208 228 255
208 228 255
208 228 255
208 228 255
208 228 255
208 228 255
208 228 255
208 228 255
208 228 255
207 228 255
207 228 255
207 228 255
207 228 255
207 228 255
207 228 255
207 228 255
207 228 255
207 228 255
207 228 255
207 228 255
207 228 255
207 228 255
207 228 255
207 228 255
207 228 255
207 227 255
207 227 255
207 227 255
207 227 255
207 227 255
206 227 255
206 227 255
206 227 255
206 227 255
206 227 255
206 227 255
206 227 255
206 227 255
206 227 255
206 227 255
206 227 255
206 227 255
206 227 255
206 227 255
206 227 255
206 227 255
206 227 255
206 227 255
206 227 255
206 227 255
206 227 255
206 227 255
206 227 255
206 227 255
206 227 255
206 227 255
206 227 255
205 227 255
205 227 255
205 227 255
205 227 255
205 227 255
205 227 255
205 227 255
205 227 255
205 227 255
205 227 255
205 227 255
205 227 255
205 227 255
205 227 255
205 227 255
205 227 255
205 227 255
205 227 255
205 227 255
205 227 255
205 227 255
205 227 255
205 227 255
205 227 255
204 226 255
202 224 254
199 221 252
201 223 253
199 221 252
205 227 255
205 227 255
205 227 255
205 227 255
205 227 255
205 227 255
205 227 255
205 227 255
205 227 255
205 227 255
205 227 255
205 227 255
205 227 255
205 227 255
205 227 255
205 227 255
205 227 255
205 227 255
205 227 255
205 227 255
205 227 255
205 227 255
205 227 255
205 227 255
205 227 255
206 227 255
206 227 255
206 227 255
206 227 255
206 227 255
206 227 255
206 227 255
206 227 255
206 227 255
206 227 255
206 227 255
206 227 255
206 227 255
206 227 255
206 227 255
206 227 255
206 227 255
206 227 255
206 227 255
206 227 255
206 227 255
206 227 255
206 227 255
206 227 255
206 227 255
206 227 255
206 227 255
207 227 255
207 227 255
207 227 255
207 227 255
207 227 255
207 228 255
207 228 255
207 228 255
207 228 255
207 228 255
207 228 255
207 228 255
207 228 255
207 228 255
207 228 255
207 228 255
207 228 255
207 228 255
207 228 255
207 228 255
207 228 255
208 228 255
208 228 255
208 228 255
208 228 255
208 228 255
208 228 255
208 228 255
208 228 255
208 228 255
208 228 255
208 228 255
208 228 255
208 228 255
208 228 255
208 227 253
199 214 225
193 203 202
189 197 188
188 195 183
190 200 195
183 190 174
185 191 172
185 191 174
183 189 168
187 194 181
186 193 178
183 188 166
184 190 171
182 187 165
184 191 174
185 191 174
186 194 181
177 181 149
185 192 174
183 189 168
180 184 159
181 186 160
182 186 160
182 189 169
184 190 171
180 184 155
182 188 166
183 187 161
181 185 156
179 182 150
183 188 165
183 189 168
183 189 168
182 185 156
180 184 155
183 188 163
181 184 155
180 183 153
183 187 161
180 184 155
181 184 155
182 185 156
178 180 142
182 186 158
182 184 151
184 187 160
184 189 166
178 180 144
184 188 163
180 181 146
181 184 155
184 186 158
180 184 154
182 187 161
180 183 151
185 189 165
183 185 154
189 194 175
185 188 163
183 185 153
181 184 155
183 187 160
182 186 158
185 188 162
182 186 157
183 187 160
184 186 157
185 189 166
183 185 154
182 184 151
181 183 149
187 193 175
185 189 166
185 189 164
186 190 165
185 188 161
189 195 178
189 193 172
183 185 154
185 188 161
188 194 177
182 183 147
181 183 148
187 190 167
185 191 170
187 191 167
186 191 169
187 191 169
186 191 169
186 189 162
183 186 156
186 189 162
186 188 161
190 196 179
189 191 166
191 196 180
191 196 179
188 192 170
190 196 180
186 189 164
187 190 166
189 193 171
196 203 195
190 194 175
188 192 172
194 201 191
191 197 183
188 190 163
191 196 178
191 197 180
172 195 0
175 198 0
173 196 0
174 197 0
176 199 0
172 196 0
172 195 0
174 197 0
173 197 0
172 195 0
174 197 0
174 196 0
172 196 0
172 196 0
175 198 0
174 198 0
174 197 0
172 196 0
173 196 0
174 197 0
173 197 0
175 198 0
174 197 0
172 196 0
173 196 0
174 197 0
172 196 0
171 195 0
175 198 0
172 197 0
173 197 0
172 196 0
174 197 0
172 196 0
173 197 0
172 196 0
175 198 0
174 198 0
173 197 0
173 197 0
174 198 0
174 198 0
174 198 0
174 197 0
175 198 0
174 197 0
173 197 0
173 197 0
173 197 0
175 198 0
175 198 0
174 198 0
174 198 0
173 197 0
175 198 0
174 198 0
173 196 0
174 197 0
173 197 0
175 198 0
173 197 0
174 198 0
174 197 0
175 198 0
176 198 0
174 197 0
175 198 0
174 198 0
174 198 0
174 197 0
174 197 0
174 197 0
175 198 0
173 197 0
173 196 0
172 196 0
173 196 0
173 197 0
173 197 0
174 198 0
172 197 0
175 198 0
174 198 0
173 196 0
172 196 0
174 197 0
173 197 0
174 198 0
175 198 0
174 198 0
174 197 0
174 197 0
174 197 0
173 197 0
171 196 0
172 196 0
172 196 0
175 198 0
174 196 0
174 198 0
173 197 0
172 196 0
174 197 0
172 196 0
174 198 0
174 197 0
174 197 0
173 197 0
175 198 0
174 197 0
178 201 67
195 216 194
208 228 253
208 228 255
208 228 255
208 228 255
208 228 255
208 228 255
208 228 255
208 228 255
208 228 255
208 228 255
208 228 255
208 228 255
208 228 255
208 228 255
208 228 255
208 228 255
208 228 255
208 228 255
207 228 255
207 228 255
207 228 255
207 228 255
207 228 255
207 228 255
207 228 255
207 228 255
207 228 255
207 228 255
207 228 255
207 228 255
207 228 255
207 228 255
207 228 255
207 228 255
207 227 255
207 227 255
207 227 255
207 227 255
207 227 255
207 227 255
206 227 255
206 227 255
206 227 255
206 227 255
206 227 255
206 227 255
206 227 255
206 227 255
206 227 255
206 227 255
206 227 255
206 227 255
206 227 255
206 227 255
206 227 255
206 227 255
206 227 255
206 227 255
206 227 255
206 227 255
206 227 255
206 227 255
206 227 255
206 227 255
206 227 255
206 227 255
206 227 255
206 227 255
206 227 255
206 227 255
206 227 255
206 227 255
206 227 255
206 227 255
205 227 255
205 227 255
205 227 255
203 224 254
187 209 243
160 183 225
142 166 214
136 160 212
102 130 194
100 128 192
68 103 181
63 99 179
61 98 173
63 100 180
62 99 179
62 99 175
65 101 177
78 111 183
85 116 181
100 128 194
135 160 208
149 173 218
166 189 230
195 216 248
204 226 255
205 227 255
205 227 255
205 227 255
206 227 255
206 227 255
206 227 255
206 227 255
206 227 255
206 227 255
206 227 255
206 227 255
206 227 255
206 227 255
206 227 255
206 227 255
206 227 255
206 227 255
206 227 255
206 227 255
206 227 255
206 227 255
206 227 255
206 227 255
206 227 255
206 227 255
206 227 255
206 227 255
206 227 255
206 227 255
206 227 255
206 227 255
206 227 255
206 227 255
206 227 255
206 227 255
206 227 255
206 227 255
207 227 255
207 227 255
207 227 255
207 227 255
207 227 255
207 227 255
207 228 255
207 228 255
207 228 255
207 228 255
207 228 255
207 228 255
207 228 255
207 228 255
207 228 255
207 228 255
207 228 255
207 228 255
207 228 255
207 228 255
207 228 255
207 228 255
208 228 255
208 228 255
208 228 255
208 228 255
208 228 255
208 228 255
208 228 255
208 228 255
208 228 255
208 228 255
208 228 255
208 228 255
208 228 255
208 228 255
208 228 255
208 228 255
208 228 255
207 227 252
201 217 231
191 201 195
188 195 183
191 200 195
190 198 188
185 192 176
184 190 169
186 193 178
185 193 181
183 190 171
183 190 172
183 189 169
185 191 172
182 189 168
183 189 168
184 190 172
187 195 183
182 188 166
182 187 161
182 188 168
182 187 163
183 186 160
179 183 151
184 190 169
182 187 163
179 182 151
180 184 156
180 185 158
183 188 165
182 186 158
183 188 165
182 185 158
183 189 166
181 185 158
179 182 148
180 182 150
182 187 161
180 182 148
184 187 161
183 187 163
180 181 144
184 188 163
185 190 167
183 187 160
184 187 161
181 183 151
182 187 161
184 186 158
182 184 151
185 188 163
184 187 161
181 183 151
183 186 156
182 183 148
183 187 160
184 186 155
187 192 172
184 186 155
183 185 156
183 185 154
181 181 143
183 187 161
184 187 161
179 181 145
185 188 161
183 186 158
182 185 155
183 185 154
184 185 154
183 184 149
184 188 161
185 188 163
185 187 159
186 190 165
185 188 161
183 185 154
181 183 148
186 191 169
185 188 163
186 189 163
187 192 171
185 188 162
187 190 165
188 191 166
186 189 163
187 190 164
184 187 159
184 187 160
189 194 174
188 192 171
184 185 152
187 190 165
189 191 167
186 189 161
189 193 172
188 193 174
192 199 187
186 187 156
187 189 161
186 189 161
190 195 178
187 191 167
189 192 168
190 195 178
186 188 160
190 195 177
184 183 146
187 191 169
194 198 182
191 195 174
188 192 170
187 191 166
174 197 0
173 197 0
174 197 0
172 196 0
173 197 0
171 195 0
173 197 0
171 195 0
174 197 0
175 198 0
172 197 0
173 196 0
174 197 0
173 196 0
172 196 0
176 198 0
174 198 0
175 197 0
173 197 0
173 196 0
175 197 0
173 197 0
173 197 0
173 196 0
173 197 0
175 198 0
173 197 0
175 198 0
173 195 0
173 197 0
174 197 0
173 197 0
174 197 0
175 198 0
174 197 0
175 198 0
175 198 0
173 196 0
172 196 0
175 198 0
171 195 0
173 197 0
173 197 0
173 197 0
175 198 0
173 197 0
174 198 0
174 197 0
174 198 0
174 198 0
176 198 0
173 197 0
172 196 0
175 197 0
173 197 0
174 197 0
174 197 0
173 197 0
176 198 0
172 196 0
174 197 0
174 197 0
173 197 0
173 197 0
176 199 0
175 198 0
173 197 0
173 196 0
173 197 0
174 197 0
171 195 0
175 198 0
175 198 0
175 198 0
173 197 0
173 197 0
175 198 0
174 198 0
175 198 0
174 198 0
174 196 0
174 197 0
173 196 0
175 198 0
174 198 0
175 198 0
173 197 0
175 198 0
174 197 0
174 197 0
175 198 0
175 197 0
174 197 0
172 196 0
173 197 0
173 197 0
176 199 0
176 199 0
172 197 0
173 197 0
175 198 0
176 198 0
174 197 0
174 197 0
174 198 0
170 194 0
172 196 0
175 198 0
174 198 0
174 198 0
174 198 0
175 198 0
178 200 62
197 218 211
208 228 253
208 228 255
208 228 255
208 228 255
208 228 255
208 228 255
208 228 255
208 228 255
208 228 255
208 228 255
208 228 255
208 228 255
208 228 255
208 228 255
208 228 255
208 228 255
208 228 255
208 228 255
208 228 255
208 228 255
208 228 255
207 228 255
207 228 255
207 228 255
207 228 255
207 228 255
207 228 255
207 228 255
207 228 255
207 228 255
207 228 255
207 228 255
207 228 255
207 228 255
207 228 255
207 228 255
207 228 255
207 228 255
207 227 255
207 227 255
207 227 255
207 227 255
207 227 255
207 227 255
206 227 255
206 227 255
206 227 255
206 227 255
206 227 255
206 227 255
206 227 255
206 227 255
206 227 255
206 227 255
206 227 255
206 227 255
206 227 255
206 227 255
206 227 255
206 227 255
206 227 255
206 227 255
206 227 255
206 227 255
206 227 255
206 227 255
206 227 255
206 227 255
206 227 255
206 227 255
206 227 255
203 224 254
178 200 237
137 162 211
111 138 194
73 107 179
62 98 174
61 98 169
62 99 174
62 99 178
62 99 174
62 99 174
62 99 175
62 99 175
63 100 178
62 99 176
62 99 173
63 100 179
62 98 173
62 99 175
62 99 173
62 98 173
62 99 178
62 99 178
62 99 176
62 99 175
70 105 181
111 138 199
153 176 219
179 201 238
202 223 253
206 227 255
206 227 255
206 227 255
206 227 255
206 227 255
206 227 255
206 227 255
206 227 255
206 227 255
206 227 255
206 227 255
206 227 255
206 227 255
206 227 255
206 227 255
206 227 255
206 227 255
206 227 255
206 227 255
206 227 255
206 227 255
206 227 255
206 227 255
206 227 255
206 227 255
206 227 255
207 227 255
207 227 255
207 227 255
207 227 255
207 227 255
207 227 255
207 227 255
207 228 255
207 228 255
207 228 255
207 228 255
207 228 255
207 228 255
207 228 255
207 228 255
207 228 255
207 228 255
207 228 255
207 228 255
207 228 255
207 228 255
207 228 255
207 228 255
207 228 255
208 228 255
208 228 255
208 228 255
208 228 255
208 228 255
208 228 255
208 228 255
208 228 255
208 228 255
208 228 255
208 228 255
208 228 255
208 228 255
208 228 255
208 228 255
208 228 255
208 228 255
208 228 255
208 228 255
208 228 255
208 228 254
204 221 240
195 206 207
188 196 184
185 192 177
188 196 187
184 192 178
184 191 174
186 191 172
185 191 172
183 189 169
182 188 168
183 189 170
182 187 163
185 192 175
182 187 163
184 189 168
182 189 169
181 186 160
184 189 168
184 190 171
179 183 155
182 187 163
181 186 161
179 184 158
182 186 161
182 186 160
180 183 151
182 185 156
181 185 158
182 185 155
182 186 161
179 183 153
180 182 148
180 183 150
182 185 156
180 182 148
183 187 161
181 186 161
180 183 153
185 191 171
185 190 169
182 186 158
182 185 156
185 190 169
180 182 148
185 190 169
183 186 158
177 178 136
183 186 157
183 187 162
185 188 163
182 184 151
180 181 146
184 187 160
183 187 160
179 183 151
182 183 150
183 186 159
183 186 158
183 185 156
184 187 158
186 189 164
183 186 156
184 187 158
184 186 157
182 184 151
182 185 154
179 181 146
182 184 151
180 182 147
183 185 151
182 184 152
182 184 150
183 185 154
182 184 152
185 188 160
185 187 159
185 187 157
184 185 152
183 187 159
184 187 160
184 186 154
187 190 164
184 186 155
184 186 155
185 189 163
184 188 163
184 188 161
187 191 170
188 191 168
186 190 165
183 185 153
186 189 163
185 188 162
189 191 165
188 192 170
186 190 166
187 191 168
188 191 166
186 189 162
187 190 163
189 192 171
186 189 162
186 190 165
187 190 165
189 193 173
187 189 161
189 194 176
190 193 171
191 194 175
191 196 181
191 194 174
192 197 183
186 187 156
173 197 0
173 197 0
174 198 0
173 196 0
173 197 0
173 197 0
173 197 0
173 196 0
173 197 0
174 197 0
174 198 0
175 198 0
173 197 0
172 196 0
174 198 0
175 198 0
174 198 0
173 196 0
173 196 0
174 198 0
172 196 0
173 196 0
175 198 0
175 198 0
175 198 0
174 198 0
174 198 0
172 196 0
174 197 0
175 198 0
175 198 0
173 197 0
175 198 0
174 197 0
173 197 0
175 198 0
173 197 0
174 197 0
176 198 0
172 195 0
175 198 0
173 197 0
172 196 0
174 198 0
172 196 0
174 198 0
174 198 0
174 198 0
175 198 0
173 197 0
173 197 0
174 197 0
175 198 0
175 198 0
174 197 0
173 197 0
174 197 0
173 197 0
174 197 0
174 198 0
174 198 0
174 197 0
174 198 0
174 198 0
175 198 0
173 196 0
173 196 0
174 197 0
173 197 0
175 198 0
173 197 0
176 198 0
174 197 0
174 198 0
174 197 0
174 197 0
174 198 0
173 197 0
174 197 0
175 198 0
173 197 0
173 196 0
175 198 0
175 198 0
174 197 0
173 197 0
175 198 0
172 196 0
174 197 0
176 198 0
173 197 0
174 197 0
173 196 0
174 198 0
174 197 0
173 197 0
175 198 0
174 197 0
175 198 0
175 198 0
175 198 0
175 198 0
175 198 0
173 197 0
174 197 0
174 197 0
173 196 0
172 196 0
172 196 0
175 198 0
176 198 0
173 197 0
175 198 0
174 197 0
179 202 84
200 220 212
209 229 255
209 229 255
209 228 255
209 228 255
208 228 255
208 228 255
208 228 255
208 228 255
208 228 255
208 228 255
208 228 255
208 228 255
208 228 255
208 228 255
208 228 255
208 228 255
208 228 255
208 228 255
208 228 255
208 228 255
208 228 255
208 228 255
208 228 255
208 228 255
207 228 255
207 228 255
207 228 255
207 228 255
207 228 255
207 228 255
207 228 255
207 228 255
207 228 255
207 228 255
207 228 255
207 228 255
207 228 255
207 228 255
207 228 255
207 228 255
207 228 255
207 228 255
207 228 255
207 227 255
207 227 255
207 227 255
207 227 255
207 227 255
207 227 255
207 227 255
206 227 255
206 227 255
206 227 255
206 227 255
206 227 255
206 227 255
206 227 255
206 227 255
206 227 255
206 227 255
206 227 255
206 227 255
206 227 255
206 227 255
206 227 255
206 227 255
201 222 252
172 194 233
140 164 211
65 101 174
62 99 177
62 99 175
62 99 177
62 99 174
61 98 175
62 99 178
62 99 176
61 98 174
63 99 174
63 100 179
62 98 171
62 99 175
62 98 172
62 99 177
62 99 177
62 98 176
62 99 177
63 99 177
62 99 177
62 99 174
62 99 175
62 98 175
62 99 178
62 99 175
63 100 179
62 99 172
62 99 178
61 98 175
76 109 179
122 148 202
178 200 236
202 223 253
206 227 255
206 227 255
206 227 255
206 227 255
206 227 255
206 227 255
206 227 255
206 227 255
206 227 255
206 227 255
206 227 255
206 227 255
206 227 255
206 227 255
206 227 255
206 227 255
207 227 255
207 227 255
207 227 255
207 227 255
207 227 255
207 227 255
207 227 255
207 228 255
207 228 255
207 228 255
207 228 255
207 228 255
207 228 255
207 228 255
207 228 255
207 228 255
207 228 255
207 228 255
207 228 255
207 228 255
207 228 255
207 228 255
207 228 255
207 228 255
207 228 255
208 228 255
208 228 255
208 228 255
208 228 255
208 228 255
208 228 255
208 228 255
208 228 255
208 228 255
208 228 255
208 228 255
208 228 255
208 228 255
208 228 255
208 228 255
208 228 255
208 228 255
208 228 255
208 228 255
208 228 255
208 228 255
209 228 255
209 228 255
209 229 255
209 229 255
205 222 241
190 196 183
190 199 190
190 198 190
188 195 184
184 189 166
184 189 168
186 191 172
185 191 175
181 188 170
183 190 174
179 184 156
183 189 169
186 193 179
183 190 174
179 183 155
184 190 172
183 190 172
183 189 168
184 190 171
183 187 163
180 185 158
177 180 146
182 188 168
184 188 163
182 185 158
178 182 153
179 181 146
179 182 153
180 184 155
181 184 153
182 186 158
178 180 144
179 181 146
181 184 156
183 186 158
181 185 156
185 190 168
180 184 155
182 187 161
181 182 148
183 186 158
179 180 144
185 190 168
181 183 150
184 189 165
180 182 148
179 180 144
182 183 150
178 180 144
181 184 153
182 185 154
179 181 145
181 183 151
181 183 151
183 185 155
187 192 172
179 180 142
182 184 151
181 183 151
180 182 148
182 183 150
180 183 150
187 191 170
183 186 156
184 187 158
183 185 154
183 185 154
183 185 152
185 188 162
182 185 155
181 183 150
184 187 159
184 186 154
185 188 161
184 185 152
181 182 147
186 190 166
184 186 157
182 183 149
185 188 162
185 186 156
183 184 150
184 185 152
185 185 150
186 189 165
187 190 164
185 187 158
185 188 161
184 186 153
189 193 174
184 187 158
186 189 162
186 189 164
185 186 156
188 192 170
190 193 173
187 188 159
186 188 160
186 189 162
187 190 165
188 192 170
187 190 165
191 195 175
186 191 168
188 191 166
186 189 163
188 193 173
189 193 171
188 189 159
190 193 170
187 192 171
192 198 184
190 194 172
191 194 174
188 192 169
172 196 0
172 196 0
174 197 0
173 197 0
175 198 0
174 197 0
172 196 0
174 197 0
174 198 0
175 198 0
175 198 0
174 198 0
174 197 0
173 197 0
174 198 0
174 197 0
175 198 0
172 196 0
173 197 0
173 196 0
175 198 0
174 198 0
173 197 0
174 197 0
175 198 0
174 197 0
175 198 0
175 198 0
174 198 0
173 196 0
174 197 0
173 197 0
173 197 0
173 197 0
174 197 0
172 196 0
175 198 0
176 198 0
174 197 0
173 197 0
176 199 0
173 197 0
174 197 0
174 197 0
175 198 0
174 197 0
173 197 0
174 198 0
173 197 0
176 199 0
174 198 0
174 198 0
173 197 0
174 198 0
175 198 0
174 198 0
174 197 0
174 198 0
174 197 0
174 198 0
174 198 0
174 197 0
175 198 0
174 197 0
174 197 0
175 198 0
172 196 0
174 198 0
173 197 0
172 197 0
174 198 0
175 198 0
173 197 0
174 198 0
174 198 0
175 198 0
174 197 0
173 197 0
173 197 0
174 197 0
175 198 0
175 198 0
175 198 0
175 198 0
175 198 0
173 197 0
175 198 0
173 196 0
174 197 0
175 198 0
172 196 0
175 198 0
173 196 0
172 196 0
173 197 0
173 197 0
175 198 0
175 198 0
173 197 0
175 198 0
172 196 0
172 196 0
173 197 0
171 195 0
175 198 0
173 196 0
174 198 0
171 195 0
173 197 0
174 197 0
174 197 0
173 196 0
174 198 0
174 197 0
174 197 0
176 199 0
183 206 133
205 225 236
209 229 255
209 229 255
209 229 255
209 229 255
209 229 255
209 228 255
209 228 255
208 228 255
208 228 255
208 228 255
208 228 255
208 228 255
208 228 255
208 228 255
208 228 255
208 228 255
208 228 255
208 228 255
208 228 255
208 228 255
208 228 255
208 228 255
208 228 255
208 228 255
208 228 255
208 228 255
208 228 255
208 228 255
208 228 255
207 228 255
207 228 255
207 228 255
207 228 255
207 228 255
207 228 255
207 228 255
207 228 255
207 228 255
207 228 255
207 228 255
207 228 255
207 228 255
207 228 255
207 228 255
207 228 255
207 228 255
207 228 255
207 228 255
207 227 255
207 227 255
207 227 255
207 227 255
207 227 255
207 227 255
207 227 255
207 227 255
207 227 255
206 227 255
206 227 255
206 227 255
206 227 255
206 227 255
186 207 242
140 164 207
73 106 172
62 98 171
62 98 173
63 99 178
61 98 174
62 99 172
62 99 173
62 98 171
62 99 175
63 100 175
61 98 168
62 99 171
62 99 176
62 99 176
62 99 172
62 99 177
62 99 173
62 99 174
62 99 174
62 99 171
63 100 180
62 99 174
61 98 172
62 99 175
62 99 175
62 98 172
62 98 169
62 98 167
61 98 170
62 99 178
62 98 172
62 99 175
62 99 172
63 99 175
62 98 172
68 103 179
127 152 203
185 206 240
206 227 255
206 227 255
206 227 255
206 227 255
207 227 255
207 227 255
207 227 255
207 227 255
207 227 255
207 227 255
207 227 255
207 227 255
207 227 255
207 227 255
207 228 255
207 228 255
207 228 255
207 228 255
207 228 255
207 228 255
207 228 255
207 228 255
207 228 255
207 228 255
207 228 255
207 228 255
207 228 255
207 228 255
207 228 255
207 228 255
207 228 255
207 228 255
207 228 255
208 228 255
208 228 255
208 228 255
208 228 255
208 228 255
208 228 255
208 228 255
208 228 255
208 228 255
208 228 255
208 228 255
208 228 255
208 228 255
208 228 255
208 228 255
208 228 255
208 228 255
208 228 255
208 228 255
208 228 255
208 228 255
208 228 255
208 228 255
209 228 255
209 229 255
209 229 255
209 229 255
209 229 255
209 229 255
208 226 250
196 208 213
192 202 198
188 196 185
188 197 189
184 191 176
184 190 172
185 191 174
185 192 175
184 190 171
185 191 172
182 188 169
179 184 159
183 187 164
181 185 158
184 190 169
182 188 170
183 188 166
180 182 148
182 186 161
183 189 171
178 182 154
184 189 168
180 184 156
180 183 153
183 187 164
181 185 158
180 183 153
180 183 155
181 185 158
180 184 155
181 185 159
177 179 140
180 182 150
182 184 153
182 185 156
181 184 155
181 184 153
181 183 151
181 184 153
182 185 155
183 188 165
178 179 141
181 182 146
183 186 156
179 179 139
179 180 144
179 180 142
183 185 155
186 190 166
185 188 163
180 181 142
181 182 148
181 180 141
181 183 149
181 183 150
183 186 158
182 184 153
182 185 154
184 186 158
181 184 151
183 186 156
180 182 146
186 188 161
184 185 153
184 186 157
181 181 144
184 189 165
185 187 160
185 187 157
180 181 144
185 188 160
184 188 163
184 186 156
185 188 162
188 192 172
185 188 159
185 188 162
181 181 142
187 190 164
184 186 155
186 189 162
185 189 165
184 184 149
187 190 166
182 182 143
183 186 155
184 187 158
187 188 158
185 187 159
182 185 152
185 187 156
184 184 149
185 189 163
187 191 169
189 192 169
186 191 169
184 186 156
186 188 160
185 189 163
188 191 167
186 187 156
187 190 165
186 187 157
186 189 161
192 196 179
185 187 156
190 192 167
190 194 175
191 197 182
190 195 175
190 193 170
186 187 154
187 190 165
189 193 172
188 191 166
189 193 171
191 195 175
169 193 0
175 198 0
172 196 0
176 199 0
174 197 0
174 197 0
175 198 0
175 198 0
176 199 0
175 198 0
174 197 0
172 196 0
174 197 0
175 197 0
173 197 0
174 198 0
173 196 0
175 198 0
172 196 0
174 198 0
175 198 0
174 197 0
176 199 0
173 197 0
176 199 0
175 198 0
172 196 0
174 197 0
176 199 0
175 198 0
175 198 0
174 197 0
175 198 0
173 196 0
175 198 0
173 197 0
175 198 0
175 198 0
172 196 0
176 198 0
173 197 0
174 198 0
174 198 0
174 197 0
174 198 0
175 198 0
174 197 0
174 197 0
175 198 0
175 198 0
175 198 0
174 197 0
175 198 0
176 198 0
173 197 0
173 197 0
175 198 0
174 198 0
174 198 0
174 197 0
174 198 0
174 198 0
175 198 0
175 198 0
172 196 0
175 198 0
176 199 0
175 198 0
174 197 0
174 197 0
173 196 0
174 198 0
171 194 0
175 198 0
175 198 0
172 196 0
173 197 0
174 197 0
175 198 0
174 198 0
174 197 0
174 198 0
174 197 0
174 197 0
173 196 0
174 198 0
175 198 0
173 196 0
173 197 0
174 198 0
175 198 0
175 198 0
174 197 0
173 197 0
174 197 0
174 197 0
174 198 0
175 198 0
174 198 0
171 195 0
174 197 0
173 197 0
175 198 0
172 196 0
173 196 0
172 196 0
173 197 0
175 198 0
174 197 0
175 198 0
174 197 0
173 196 0
174 198 0
173 196 0
173 196 0
175 198 0
174 197 0
179 201 57
192 213 179
209 228 254
209 229 255
209 229 255
209 229 255
209 229 255
209 229 255
209 229 255
209 229 255
209 229 255
209 228 255
209 228 255
208 228 255
208 228 255
208 228 255
208 228 255
208 228 255
208 228 255
208 228 255
208 228 255
208 228 255
208 228 255
208 228 255
208 228 255
208 228 255
208 228 255
208 228 255
208 228 255
208 228 255
208 228 255
208 228 255
208 228 255
208 228 255
208 228 255
207 228 255
207 228 255
207 228 255
207 228 255
207 228 255
207 228 255
207 228 255
207 228 255
207 228 255
207 228 255
207 228 255
207 228 255
207 228 255
207 228 255
207 228 255
207 228 255
207 228 255
207 228 255
207 228 255
207 228 255
207 228 255
207 228 255
207 228 255
207 228 255
207 227 255
205 226 254
173 194 231
120 145 198
62 99 177
62 99 169
62 99 173
62 99 168
62 99 174
62 99 169
63 100 177
62 98 170
62 98 170
62 99 171
63 99 176
63 99 170
62 99 171
62 99 169
62 98 170
62 99 173
62 99 176
62 99 178
62 99 176
62 99 175
63 99 174
62 99 172
62 99 171
62 99 174
62 99 170
62 98 170
61 98 167
62 99 175
62 99 177
62 98 171
62 99 169
62 98 167
62 99 170
63 99 175
62 99 173
62 99 177
62 99 177
63 99 172
62 98 177
62 99 180
94 123 185
172 193 231
207 227 255
207 228 255
207 228 255
207 228 255
207 228 255
207 228 255
207 228 255
207 228 255
207 228 255
207 228 255
207 228 255
207 228 255
207 228 255
207 228 255
207 228 255
207 228 255
207 228 255
207 228 255
207 228 255
207 228 255
207 228 255
207 228 255
207 228 255
207 228 255
207 228 255
208 228 255
208 228 255
208 228 255
208 228 255
208 228 255
208 228 255
208 228 255
208 228 255
208 228 255
208 228 255
208 228 255
208 228 255
208 228 255
208 228 255
208 228 255
208 228 255
208 228 255
208 228 255
208 228 255
208 228 255
208 228 255
208 228 255
208 228 255
209 228 255
209 228 255
209 229 255
209 229 255
209 229 255
209 229 255
209 229 255
209 229 255
209 229 255
209 229 255
209 229 255
201 215 227
190 198 189
185 193 179
191 200 192
186 193 178
187 193 178
187 193 177
184 190 171
182 186 164
183 189 170
181 187 166
183 188 165
183 190 174
184 189 168
183 190 171
182 187 161
181 187 164
185 191 174
180 184 159
181 185 160
180 184 158
182 187 166
181 186 164
180 184 155
181 185 158
177 180 149
181 185 156
182 186 161
180 183 153
179 182 151
179 183 153
177 181 149
185 190 169
182 186 160
180 184 153
181 182 148
184 187 160
181 182 149
182 187 163
182 183 150
183 186 158
183 185 155
181 184 151
182 184 153
179 180 142
180 182 148
182 185 156
179 181 146
181 183 150
180 181 144
183 187 161
181 183 150
180 182 148
184 186 154
182 185 156
183 184 148
180 182 146
181 182 146
186 188 161
183 185 155
181 182 147
184 186 157
184 186 156
183 186 156
180 181 145
181 182 146
180 181 144
181 181 141
182 184 150
184 186 154
184 186 156
179 179 139
183 185 152
182 184 149
186 187 158
184 185 151
183 183 146
182 182 144
183 184 149
184 188 161
185 187 157
184 184 149
180 178 131
185 188 162
186 187 156
190 193 171
183 184 149
186 189 164
186 188 160
185 186 155
186 187 158
185 189 163
190 191 163
185 187 159
187 190 167
186 187 156
189 192 169
185 188 160
184 184 147
183 184 150
186 188 159
187 191 168
184 185 152
186 189 161
185 188 160
187 190 163
191 195 175
189 193 172
189 191 165
184 184 149
187 190 163
190 194 173
188 191 166
186 188 159
188 191 166
188 191 167
189 193 171
191 196 177
189 193 173
176 199 0
173 196 0
174 197 0
174 198 0
174 197 0
172 196 0
175 197 0
175 198 0
175 198 0
173 197 0
174 197 0
175 198 0
173 196 0
174 197 0
173 196 0
173 197 0
174 197 0
173 197 0
176 199 0
173 197 0
174 197 0
173 197 0
174 198 0
174 197 0
174 197 0
175 198 0
173 197 0
175 198 0
173 196 0
174 197 0
174 198 0
174 198 0
175 198 0
174 197 0
174 197 0
172 197 0
176 198 0
173 197 0
175 198 0
173 196 0
174 198 0
174 197 0
173 197 0
173 197 0
175 198 0
174 197 0
176 198 0
174 198 0
173 197 0
175 198 0
173 197 0
175 198 0
174 197 0
171 196 0
173 197 0
175 198 0
174 197 0
174 197 0
175 198 0
174 198 0
173 197 0
175 198 0
174 198 0
174 197 0
173 197 0
176 199 0
173 197 0
173 196 0
173 197 0
174 198 0
173 197 0
174 198 0
174 198 0
175 198 0
176 198 0
174 197 0
175 198 0
175 198 0
173 197 0
174 197 0
174 197 0
175 198 0
175 198 0
174 198 0
173 197 0
173 197 0
176 198 0
174 198 0
175 198 0
174 198 0
172 196 0
176 199 0
174 198 0
173 197 0
174 198 0
172 196 0
172 196 0
173 196 0
174 198 0
175 198 0
175 198 0
173 196 0
174 198 0
175 198 0
175 198 0
173 197 0
173 196 0
174 197 0
174 197 0
171 196 0
175 198 0
174 197 0
174 197 0
173 196 0
173 197 0
174 197 0
175 198 0
173 196 0
175 198 0
182 204 114
204 224 231
209 229 255
209 229 255
209 229 255
209 229 255
209 229 255
209 229 255
209 229 255
209 229 255
209 229 255
209 229 255
209 229 255
209 229 255
209 229 255
209 228 255
208 228 255
208 228 255
208 228 255
208 228 255
208 228 255
208 228 255
208 228 255
208 228 255
208 228 255
208 228 255
208 228 255
208 228 255
208 228 255
208 228 255
208 228 255
208 228 255
208 228 255
208 228 255
208 228 255
208 228 255
208 228 255
208 228 255
208 228 255
208 228 255
208 228 255
207 228 255
207 228 255
207 228 255
207 228 255
207 228 255
207 228 255
207 228 255
207 228 255
207 228 255
207 228 255
207 228 255
207 228 255
207 228 255
207 228 255
207 228 255
206 227 255
166 188 226
96 124 187
63 99 176
62 99 174
62 98 170
61 98 168
62 99 170
63 99 173
62 98 168
62 98 170
62 98 170
62 99 174
62 98 169
63 99 173
62 99 174
62 99 171
62 99 170
62 99 175
62 99 169
62 99 174
63 100 176
62 99 175
62 98 170
62 99 173
62 98 171
61 98 169
62 99 173
63 99 170
61 97 165
61 98 166
62 98 166
62 99 166
62 98 167
62 98 172
61 98 171
62 99 171
62 98 174
62 98 169
62 98 168
62 99 173
63 99 173
61 97 168
61 98 170
62 98 170
62 99 175
62 99 177
88 118 183
166 188 227
206 227 255
207 228 255
207 228 255
207 228 255
207 228 255
207 228 255
207 228 255
207 228 255
207 228 255
207 228 255
207 228 255
207 228 255
207 228 255
207 228 255
207 228 255
207 228 255
208 228 255
208 228 255
208 228 255
208 228 255
208 228 255
208 228 255
208 228 255
208 228 255
208 228 255
208 228 255
208 228 255
208 228 255
208 228 255
208 228 255
208 228 255
208 228 255
208 228 255
208 228 255
208 228 255
208 228 255
208 228 255
208 228 255
208 228 255
208 228 255
208 228 255
209 228 255
209 229 255
209 229 255
209 229 255
209 229 255
209 229 255
209 229 255
209 229 255
209 229 255
209 229 255
209 229 255
209 229 255
209 229 255
209 229 255
207 225 248
192 202 200
189 194 178
189 195 181
187 192 175
184 189 169
182 187 164
185 192 176
182 190 175
185 192 176
183 190 172
176 180 152
184 190 172
179 183 154
181 187 165
181 186 160
180 183 153
180 184 158
178 181 151
180 185 159
179 183 156
183 190 174
179 182 151
176 178 142
180 184 155
184 188 163
180 184 156
181 185 160
180 182 148
181 182 148
180 183 153
182 186 160
181 185 158
181 184 153
179 180 142
181 184 151
182 184 153
177 177 133
179 181 144
176 177 135
179 181 146
184 190 169
181 184 156
180 181 144
182 185 156
180 183 150
180 182 145
183 185 153
178 177 132
182 182 146
179 180 142
185 189 164
182 183 150
182 186 157
180 181 144
180 181 146
181 183 148
181 182 146
181 182 145
185 186 156
181 182 146
183 184 151
180 181 145
184 185 152
181 183 148
184 184 147
182 183 148
183 183 145
180 180 139
187 191 170
181 182 145
181 181 142
182 182 145
184 186 156
181 183 150
182 182 142
182 183 147
188 188 158
183 184 149
186 187 158
184 185 151
187 188 158
185 188 159
183 184 150
185 186 155
183 183 147
182 182 143
186 187 157
185 185 151
184 184 147
186 188 157
183 185 154
187 191 168
186 188 159
185 187 155
184 185 153
182 182 144
184 185 152
187 187 154
185 186 156
185 186 153
188 190 162
186 186 153
191 195 174
184 185 151
190 196 180
189 192 169
188 190 165
188 191 166
186 187 157
187 190 165
186 188 159
186 190 165
187 190 166
185 186 154
190 191 163
189 191 165
192 196 179
192 197 181
190 195 175
188 192 168
172 196 0
174 197 0
173 197 0
174 197 0
173 197 0
174 198 0
175 198 0
174 197 0
173 197 0
174 197 0
175 198 0
176 198 0
173 197 0
173 197 0
174 197 0
172 196 0
174 198 0
172 197 0
174 198 0
175 198 0
174 197 0
174 198 0
173 197 0
172 196 0
172 196 0
174 198 0
172 196 0
174 197 0
173 197 0
176 198 0
173 197 0
174 197 0
173 197 0
172 196 0
173 197 0
174 198 0
172 196 0
176 199 0
174 198 0
175 198 0
175 198 0
174 197 0
174 197 0
175 198 0
175 198 0
173 196 0
174 198 0
173 197 0
175 198 0
175 198 0
172 197 0
173 196 0
173 197 0
173 197 0
175 198 0
175 198 0
175 198 0
175 198 0
174 197 0
175 198 0
173 197 0
175 198 0
174 198 0
176 199 0
174 198 0
177 199 0
175 198 0
175 198 0
175 198 0
175 198 0
175 198 0
175 198 0
173 197 0
173 197 0
174 198 0
174 198 0
175 198 0
174 197 0
174 198 0
174 198 0
172 196 0
174 197 0
175 198 0
174 197 0
175 198 0
174 197 0
175 198 0
175 198 0
172 196 0
174 197 0
173 197 0
173 197 0
174 198 0
175 198 0
172 196 0
175 198 0
173 197 0
174 198 0
174 198 0
173 197 0
176 199 0
174 197 0
174 197 0
175 198 0
175 198 0
173 197 0
172 197 0
176 198 0
174 197 0
174 197 0
174 197 0
174 197 0
174 198 0
176 199 0
174 198 0
174 198 0
174 198 0
173 197 0
175 198 0
174 197 0
175 198 25
193 214 184
209 228 253
209 229 255
209 229 255
209 229 255
209 229 255
209 229 255
209 229 255
209 229 255
209 229 255
209 229 255
209 229 255
209 229 255
209 229 255
209 229 255
209 229 255
209 229 255
209 229 255
209 228 255
209 228 255
208 228 255
208 228 255
208 228 255
208 228 255
208 228 255
208 228 255
208 228 255
208 228 255
208 228 255
208 228 255
208 228 255
208 228 255
208 228 255
208 228 255
208 228 255
208 228 255
208 228 255
208 228 255
208 228 255
208 228 255
208 228 255
208 228 255
208 228 255
208 228 255
208 228 255
208 228 255
208 228 255
208 228 255
207 228 255
207 228 255
207 228 255
207 228 255
207 228 255
166 188 226
99 127 188
61 98 166
62 98 166
62 99 172
62 98 169
62 98 169
62 99 171
61 98 166
62 98 169
61 98 167
62 99 169
62 99 168
63 99 169
62 98 170
61 98 167
62 98 167
63 99 176
61 97 162
62 99 169
62 98 170
62 99 172
62 99 171
62 98 169
61 97 163
62 98 169
62 99 170
62 99 170
62 99 168
61 98 168
62 98 166
61 98 167
62 98 166
62 98 170
61 98 170
62 99 169
62 98 167
62 98 168
62 98 171
62 99 173
62 98 167
62 98 169
63 99 170
62 98 169
62 98 169
62 99 173
62 98 169
62 98 171
61 97 167
61 97 168
92 121 186
174 196 232
207 228 255
207 228 255
207 228 255
207 228 255
207 228 255
207 228 255
208 228 255
208 228 255
208 228 255
208 228 255
208 228 255
208 228 255
208 228 255
208 228 255
208 228 255
208 228 255
208 228 255
208 228 255
208 228 255
208 228 255
208 228 255
208 228 255
208 228 255
208 228 255
208 228 255
208 228 255
208 228 255
208 228 255
208 228 255
208 228 255
208 228 255
208 228 255
208 228 255
209 228 255
209 228 255
209 229 255
209 229 255
209 229 255
209 229 255
209 229 255
209 229 255
209 229 255
209 229 255
209 229 255
209 229 255
209 229 255
209 229 255
209 229 255
209 229 255
209 229 255
209 229 255
208 227 252
199 213 221
188 194 178
187 194 179
189 197 187
186 194 183
185 191 176
186 192 172
183 186 160
182 187 166
180 186 164
178 182 154
183 189 169
183 189 170
180 184 158
180 185 164
178 182 157
181 185 159
178 181 151
181 184 155
179 182 152
180 185 162
182 185 156
178 182 156
182 186 163
183 188 167
178 181 146
181 186 161
178 181 148
177 180 147
176 179 146
179 183 156
180 182 147
184 189 165
181 184 156
177 178 140
180 181 144
181 182 146
180 181 144
181 181 142
181 182 148
182 183 150
180 183 150
182 185 156
179 181 144
180 181 144
181 184 151
177 179 140
181 182 147
179 182 149
181 183 151
182 181 142
181 181 144
182 182 146
183 185 156
182 183 148
182 182 146
180 181 144
182 183 148
183 185 153
183 185 155
181 183 149
183 185 152
182 182 146
183 182 144
184 188 161
179 178 135
182 183 149
181 181 141
181 178 133
182 182 142
179 179 140
179 179 137
182 182 143
180 181 143
182 184 149
186 188 161
186 187 155
184 186 156
182 182 144
183 184 149
187 189 162
181 181 142
184 185 154
181 181 146
182 182 144
185 184 148
185 184 147
185 186 154
185 188 159
184 185 151
181 182 143
187 188 157
182 181 138
183 186 154
179 177 130
185 186 153
183 185 152
186 188 159
186 186 152
185 187 155
183 185 154
185 187 156
188 191 165
186 189 162
187 190 163
184 184 149
186 188 159
187 190 165
184 185 150
185 188 159
188 191 166
190 195 175
186 186 152
186 188 157
191 195 175
183 186 156
188 190 165
191 195 176
187 189 163
191 195 176
184 184 148
189 192 167
174 198 0
175 198 0
173 197 0
174 197 0
174 197 0
173 196 0
174 197 0
173 196 0
173 197 0
176 198 0
175 198 0
174 197 0
173 196 0
173 196 0
173 197 0
174 198 0
175 198 0
173 197 0
174 198 0
172 196 0
172 197 0
174 197 0
173 197 0
175 198 0
173 197 0
173 196 0
173 197 0
173 197 0
174 197 0
174 198 0
174 197 0
175 198 0
174 198 0
172 195 0
174 197 0
176 199 0
173 197 0
176 198 0
174 198 0
176 198 0
174 198 0
173 196 0
171 195 0
174 198 0
175 198 0
176 199 0
174 198 0
174 197 0
176 198 0
175 198 0
174 197 0
174 197 0
175 198 0
175 198 0
173 197 0
172 196 0
175 198 0
174 197 0
174 197 0
175 198 0
173 197 0
175 198 0
175 198 0
175 198 0
174 198 0
172 195 0
175 198 0
174 197 0
176 199 0
174 197 0
175 198 0
175 198 0
175 198 0
177 199 0
175 198 0
173 196 0
175 198 0
174 198 0
173 197 0
175 198 0
173 197 0
175 198 0
174 197 0
174 197 0
175 198 0
173 197 0
174 197 0
175 198 0
173 197 0
174 198 0
174 198 0
173 197 0
171 196 0
173 197 0
175 198 0
174 198 0
175 198 0
174 198 0
174 198 0
173 197 0
174 197 0
174 197 0
173 197 0
176 199 0
173 197 0
174 198 0
173 197 0
172 196 0
173 197 0
173 197 0
173 197 0
174 198 0
173 197 0
174 197 0
177 199 0
175 198 0
173 197 0
175 197 0
177 199 0
175 198 0
173 197 0
174 197 0
182 205 120
206 226 241
209 229 255
209 229 255
209 229 255
209 229 255
209 229 255
209 229 255
209 229 255
209 229 255
209 229 255
209 229 255
209 229 255
209 229 255
209 229 255
209 229 255
209 229 255
209 229 255
209 229 255
209 229 255
209 229 255
209 229 255
209 229 255
209 228 255
209 228 255
208 228 255
208 228 255
208 228 255
208 228 255
208 228 255
208 228 255
208 228 255
208 228 255
208 228 255
208 228 255
208 228 255
208 228 255
208 228 255
208 228 255
208 228 255
208 228 255
208 228 255
208 228 255
208 228 255
208 228 255
208 228 255
208 228 255
208 228 255
208 228 255
208 228 255
188 209 241
111 137 193
62 98 164
62 99 168
61 98 169
62 98 169
63 99 173
62 98 170
61 98 170
62 99 170
61 97 164
62 99 171
62 98 168
63 99 171
62 99 172
63 99 171
62 99 172
62 98 162
62 99 174
62 98 166
62 99 169
62 98 163
62 99 167
62 99 168
62 98 166
61 98 162
62 98 166
63 99 164
62 99 170
62 98 167
61 98 164
62 98 165
63 99 169
61 97 159
63 100 173
62 99 171
61 98 166
62 98 166
62 99 171
62 98 166
62 99 174
62 98 170
63 99 174
62 98 167
61 97 165
62 99 173
63 99 171
62 98 170
62 98 166
62 98 170
62 98 174
61 97 167
63 99 174
62 99 174
128 152 201
198 219 249
208 228 255
208 228 255
208 228 255
208 228 255
208 228 255
208 228 255
208 228 255
208 228 255
208 228 255
208 228 255
208 228 255
208 228 255
208 228 255
208 228 255
208 228 255
208 228 255
208 228 255
208 228 255
208 228 255
208 228 255
208 228 255
208 228 255
208 228 255
208 228 255
208 228 255
209 228 255
209 229 255
209 229 255
209 229 255
209 229 255
209 229 255
209 229 255
209 229 255
209 229 255
209 229 255
209 229 255
209 229 255
209 229 255
209 229 255
209 229 255
209 229 255
209 229 255
209 229 255
209 229 255
209 229 255
209 229 255
209 229 255
209 229 255
208 226 250
194 205 206
191 200 194
186 192 177
188 194 179
187 194 181
189 197 186
185 192 181
185 191 175
183 188 166
183 189 170
186 193 179
178 182 153
182 187 163
183 188 165
179 183 154
179 185 162
183 189 173
182 187 165
178 179 142
181 186 162
178 182 154
181 185 159
180 185 162
181 185 158
180 184 156
179 181 148
179 182 151
180 182 149
181 184 155
179 181 151
179 181 146
177 178 140
182 185 156
179 181 144
180 185 162
183 186 158
178 180 142
179 181 144
177 179 142
181 182 146
181 183 151
179 181 144
181 183 149
181 183 150
180 181 142
177 176 129
181 182 144
181 181 142
179 179 136
185 187 158
179 181 144
183 184 152
184 185 153
179 180 141
180 180 141
181 181 143
183 184 149
179 179 135
180 180 141
183 185 153
183 185 153
181 183 149
181 181 142
183 185 152
186 189 162
183 184 151
181 180 137
183 184 151
180 181 142
184 186 155
184 186 157
182 183 148
185 187 156
184 184 146
182 183 148
182 181 142
184 186 154
183 182 144
183 184 152
184 185 151
180 178 131
182 184 151
182 183 147
180 179 137
181 182 143
186 187 156
185 185 150
187 189 161
181 181 141
182 181 142
185 185 149
184 183 144
186 187 155
183 185 152
186 189 163
182 182 142
188 189 160
183 181 138
185 187 159
181 181 142
187 187 155
184 186 153
187 188 160
188 191 166
185 186 154
182 184 151
181 182 143
189 192 168
187 190 164
187 191 166
186 190 164
185 188 159
187 187 154
184 184 148
187 190 164
188 188 156
186 186 150
188 190 162
188 189 161
190 194 174
189 192 167
189 193 172
183 183 146
172 196 0
173 196 0
174 198 0
174 197 0
173 197 0
175 197 0
174 197 0
174 197 0
173 197 0
174 197 0
174 197 0
172 196 0
173 196 0
174 197 0
174 197 0
172 197 0
171 195 0
172 196 0
174 198 0
175 198 0
173 197 0
175 198 0
175 198 0
174 198 0
175 198 0
175 198 0
174 197 0
173 197 0
173 197 0
174 198 0
172 196 0
173 197 0
175 198 0
174 197 0
173 197 0
174 197 0
173 197 0
174 198 0
176 199 0
174 198 0
173 197 0
173 197 0
173 197 0
171 195 0
175 198 0
174 197 0
173 197 0
173 197 0
173 197 0
175 198 0
175 198 0
175 198 0
173 197 0
173 197 0
174 197 0
174 198 0
174 197 0
173 197 0
174 197 0
173 197 0
173 197 0
174 197 0
175 198 0
173 197 0
172 197 0
175 198 0
173 197 0
173 197 0
175 198 0
174 198 0
173 197 0
173 197 0
173 197 0
174 198 0
174 198 0
174 198 0
173 196 0
176 199 0
172 196 0
173 197 0
173 196 0
174 197 0
172 196 0
173 197 0
173 197 0
173 196 0
174 198 0
174 197 0
175 198 0
173 197 0
174 197 0
175 198 0
173 197 0
175 198 0
174 198 0
174 198 0
176 198 0
173 196 0
173 197 0
173 196 0
176 198 0
174 197 0
174 197 0
176 198 0
174 198 0
174 198 0
175 198 0
174 197 0
174 198 0
174 197 0
175 198 0
174 198 0
173 196 0
175 198 0
175 198 0
175 198 0
175 198 0
174 197 0
173 197 0
173 197 0
175 198 0
174 198 0
170 194 0
177 200 51
198 218 209
210 229 255
210 229 255
210 229 255
210 229 255
210 229 255
209 229 255
209 229 255
209 229 255
209 229 255
209 229 255
209 229 255
209 229 255
209 229 255
209 229 255
209 229 255
209 229 255
209 229 255
209 229 255
209 229 255
209 229 255
209 229 255
209 229 255
209 229 255
209 229 255
209 229 255
209 229 255
209 229 255
209 228 255
209 228 255
209 228 255
208 228 255
208 228 255
208 228 255
208 228 255
208 228 255
208 228 255
208 228 255
208 228 255
208 228 255
208 228 255
208 228 255
208 228 255
208 228 255
208 228 255
208 228 255
205 225 254
153 176 219
73 106 177
62 99 171
61 98 166
62 99 171
63 99 174
62 98 162
63 99 173
62 99 170
62 98 169
62 99 168
61 98 168
61 98 161
62 98 163
61 98 166
61 98 164
62 98 167
63 99 165
62 98 164
62 98 170
62 98 164
62 99 172
61 98 164
62 98 161
63 99 170
62 99 170
61 98 164
62 98 162
62 98 166
61 98 164
61 98 164
63 99 170
62 98 168
62 98 170
62 98 167
62 99 168
62 98 170
62 99 167
61 98 169
62 98 164
62 98 166
62 99 169
62 98 169
62 98 166
62 98 167
62 98 165
61 98 167
63 99 170
62 99 170
62 98 170
62 98 168
61 98 168
62 98 167
62 97 167
62 98 173
62 97 170
65 101 174
156 178 218
207 227 255
208 228 255
208 228 255
208 228 255
208 228 255
208 228 255
208 228 255
208 228 255
208 228 255
208 228 255
208 228 255
208 228 255
208 228 255
208 228 255
208 228 255
208 228 255
208 228 255
209 228 255
209 229 255
209 229 255
209 229 255
209 229 255
209 229 255
209 229 255
209 229 255
209 229 255
209 229 255
209 229 255
209 229 255
209 229 255
209 229 255
209 229 255
209 229 255
209 229 255
209 229 255
209 229 255
209 229 255
209 229 255
209 229 255
209 229 255
209 229 255
210 229 255
210 229 255
210 229 255
210 229 255
210 229 255
202 216 227
192 199 191
187 196 185
189 196 186
186 192 175
183 191 177
186 193 181
183 190 173
180 184 159
184 192 176
185 192 175
181 186 164
181 187 171
178 183 159
184 191 177
180 184 159
177 181 152
176 179 147
183 185 155
177 181 151
176 181 153
183 188 169
179 183 156
178 181 152
181 182 148
184 188 163
175 178 147
179 182 150
182 185 158
176 178 142
180 182 151
178 178 138
180 183 154
176 177 138
179 181 146
174 174 131
182 184 153
179 179 137
183 186 158
181 183 149
177 178 139
181 184 153
180 181 144
182 182 146
181 183 151
181 181 144
181 182 144
183 185 153
181 180 140
182 182 146
180 181 142
178 179 138
180 182 146
180 180 140
182 183 149
180 181 145
183 184 150
181 181 142
183 183 147
184 186 156
181 181 144
185 184 146
183 183 146
181 182 146
180 178 134
178 177 133
180 180 138
178 179 138
183 184 149
185 188 159
182 182 143
180 180 139
185 187 156
182 181 139
182 181 141
183 183 148
180 180 138
183 185 151
182 183 145
183 184 149
182 184 150
181 182 143
184 185 150
186 186 153
179 180 140
181 182 146
185 187 158
184 186 156
184 183 146
179 180 140
185 187 155
184 187 157
185 184 148
185 187 158
184 184 148
187 187 155
183 183 147
187 190 164
187 188 157
188 191 167
185 186 154
188 190 165
186 186 152
186 188 157
184 185 152
183 184 150
183 186 155
181 179 133
184 186 154
185 187 155
186 188 158
182 183 147
185 186 151
186 189 160
186 189 160
185 188 161
184 185 149
191 194 173
189 192 170
187 188 160
187 190 163
184 186 155
186 188 157
188 191 165
185 188 161
174 198 0
175 198 0
174 197 0
173 197 0
175 198 0
174 197 0
175 198 0
174 198 0
174 197 0
176 199 0
175 198 0
172 196 0
175 198 0
173 197 0
174 197 0
174 198 0
173 197 0
174 197 0
173 197 0
175 198 0
174 197 0
172 196 0
173 197 0
175 198 0
175 198 0
176 198 0
173 196 0
176 199 0
173 197 0
174 198 0
174 198 0
175 198 0
172 196 0
174 198 0
173 197 0
175 198 0
172 196 0
175 198 0
173 196 0
175 198 0
175 198 0
173 197 0
173 197 0
174 198 0
174 198 0
173 196 0
174 198 0
174 198 0
173 197 0
174 197 0
176 198 0
174 198 0
175 198 0
175 198 0
174 197 0
174 198 0
175 198 0
174 198 0
176 198 0
174 198 0
174 197 0
174 198 0
173 197 0
175 198 0
172 196 0
175 198 0
175 198 0
174 198 0
172 196 0
173 196 0
174 198 0
176 199 0
174 198 0
173 197 0
173 197 0
172 197 0
174 197 0
174 198 0
176 198 0
173 197 0
175 198 0
174 197 0
175 198 0
174 197 0
171 196 0
175 198 0
173 197 0
177 199 0
173 197 0
176 198 0
174 198 0
174 198 0
174 197 0
176 198 0
175 198 0
174 198 0
175 198 0
176 198 0
174 197 0
172 196 0
175 198 0
174 197 0
174 197 0
175 198 0
173 197 0
174 197 0
175 198 0
174 197 0
175 198 0
173 197 0
173 196 0
174 197 0
174 198 0
175 197 0
174 197 0
176 199 0
174 197 0
174 197 0
173 196 0
174 197 0
174 197 0
172 196 0
174 197 0
175 198 0
175 198 0
190 211 161
209 228 252
210 229 255
210 229 255
210 229 255
210 229 255
210 229 255
210 229 255
210 229 255
210 229 255
210 229 255
209 229 255
209 229 255
209 229 255
209 229 255
209 229 255
209 229 255
209 229 255
209 229 255
209 229 255
209 229 255
209 229 255
209 229 255
209 229 255
209 229 255
209 229 255
209 229 255
209 229 255
209 229 255
209 229 255
209 229 255
209 229 255
209 229 255
209 229 255
209 229 255
209 228 255
209 228 255
209 228 255
208 228 255
208 228 255
208 228 255
208 228 255
208 228 255
208 228 255
192 213 244
114 140 194
62 98 169
61 98 164
62 98 166
61 98 167
62 98 165
62 98 161
63 99 171
62 99 174
61 98 164
63 99 171
61 98 165
63 99 164
61 97 160
62 98 162
61 98 166
62 99 167
62 99 170
63 99 165
62 99 172
61 98 163
62 98 166
61 97 153
62 98 166
62 99 167
61 98 164
63 99 163
63 99 173
62 98 166
62 99 169
62 98 167
62 99 169
62 98 164
62 98 165
63 99 170
61 97 161
63 99 170
63 99 172
62 99 169
64 100 168
62 98 167
61 98 167
62 98 163
62 98 167
61 98 172
62 99 168
62 98 162
63 99 168
63 99 173
63 99 171
61 97 165
63 98 167
62 99 170
62 98 166
60 96 166
61 96 163
63 99 172
62 98 171
62 98 169
120 145 197
201 221 250
208 228 255
208 228 255
208 228 255
208 228 255
208 228 255
208 228 255
208 228 255
209 228 255
209 228 255
209 229 255
209 229 255
209 229 255
209 229 255
209 229 255
209 229 255
209 229 255
209 229 255
209 229 255
209 229 255
209 229 255
209 229 255
209 229 255
209 229 255
209 229 255
209 229 255
209 229 255
209 229 255
209 229 255
209 229 255
209 229 255
209 229 255
209 229 255
209 229 255
209 229 255
210 229 255
210 229 255
210 229 255
210 229 255
210 229 255
210 229 255
210 229 255
210 229 255
210 229 254
197 210 215
188 195 181
187 193 176
188 197 189
184 190 171
185 190 173
187 195 185
183 190 173
180 184 157
182 187 166
180 184 158
177 180 150
182 188 170
180 184 156
174 178 151
183 187 163
178 182 154
180 185 163
177 182 155
175 180 153
179 184 160
180 185 165
173 176 143
179 183 154
178 182 157
177 180 147
179 180 144
175 176 136
180 183 154
177 180 146
177 176 132
180 183 151
181 184 153
175 175 134
181 183 151
179 182 151
184 188 161
182 184 153
179 181 147
177 177 133
181 182 146
179 182 149
182 182 144
181 183 150
184 188 161
179 180 144
180 180 139
181 182 146
182 183 149
181 180 140
179 180 143
179 177 133
180 180 141
182 183 147
179 177 131
179 179 136
180 180 140
179 179 137
180 180 140
181 181 143
183 184 149
183 183 147
183 184 152
182 182 145
183 183 147
180 178 132
183 183 146
182 183 146
182 181 142
180 178 133
180 178 131
182 183 147
183 183 144
183 186 157
180 179 135
182 183 146
179 180 141
185 186 152
182 182 145
184 183 146
179 177 130
183 185 153
182 181 139
183 184 147
183 184 152
182 183 145
179 177 131
182 182 144
182 182 142
185 187 158
183 185 153
184 184 148
184 185 150
186 186 153
183 183 147
183 184 151
186 186 154
183 184 148
186 189 163
185 184 145
181 182 143
185 186 152
185 187 156
182 182 144
186 187 158
183 186 157
183 183 143
188 191 167
184 183 145
188 192 170
183 184 150
183 184 148
185 185 148
187 189 161
186 189 163
186 188 157
187 191 168
188 190 163
189 191 165
186 187 156
187 189 161
188 190 162
188 191 167
187 188 159
187 187 156
187 188 158
175 198 0
173 197 0
174 197 0
173 197 0
174 197 0
174 198 0
175 198 0
174 197 0
175 198 0
173 197 0
175 198 0
174 197 0
174 198 0
174 198 0
175 198 0
173 197 0
174 198 0
175 198 0
175 198 0
174 197 0
174 198 0
174 197 0
174 197 0
172 196 0
174 198 0
174 197 0
175 198 0
173 197 0
173 197 0
174 198 0
174 197 0
173 196 0
175 198 0
172 196 0
174 198 0
175 198 0
175 198 0
173 197 0
176 199 0
174 198 0
174 198 0
174 197 0
174 198 0
174 197 0
175 198 0
174 197 0
174 198 0
172 197 0
175 198 0
174 198 0
175 198 0
175 198 0
174 198 0
174 198 0
173 196 0
173 197 0
174 197 0
176 199 0
176 198 0
175 198 0
176 198 0
175 198 0
176 199 0
175 198 0
174 197 0
171 196 0
175 198 0
175 198 0
173 197 0
174 197 0
175 198 0
173 196 0
172 196 0
176 199 0
175 198 0
173 197 0
173 197 0
173 197 0
174 197 0
173 197 0
174 198 0
174 198 0
174 197 0
174 197 0
175 198 0
175 198 0
173 197 0
175 198 0
174 197 0
176 199 0
172 196 0
175 198 0
174 197 0
173 197 0
173 197 0
175 198 0
174 198 0
175 198 0
175 198 0
174 197 0
174 197 0
175 198 0
174 197 0
175 198 0
174 197 0
175 197 0
173 197 0
175 198 0
173 197 0
176 199 0
175 198 0
175 198 0
173 197 0
173 197 0
174 198 0
173 197 0
170 195 0
174 197 0
173 196 0
173 197 0
173 196 0
173 197 0
172 196 0
175 198 0
174 197 0
173 197 0
184 206 120
207 226 241
210 229 255
210 229 255
210 229 255
210 229 255
210 229 255
210 229 255
210 229 255
210 229 255
210 229 255
210 229 255
210 229 255
210 229 255
210 229 255
210 229 255
209 229 255
209 229 255
209 229 255
209 229 255
209 229 255
209 229 255
209 229 255
209 229 255
209 229 255
209 229 255
209 229 255
209 229 255
209 229 255
209 229 255
209 229 255
209 229 255
209 229 255
209 229 255
209 229 255
209 229 255
209 229 255
209 229 255
209 229 255
209 229 255
209 229 255
209 229 255
172 193 229
76 108 177
61 97 163
62 98 162
62 98 165
61 97 164
63 99 166
62 99 170
62 98 166
62 98 168
62 99 170
61 97 167
62 98 166
62 98 166
63 99 172
62 98 166
62 98 168
62 98 167
62 98 161
62 98 164
62 98 170
62 98 164
62 98 167
61 98 163
62 98 166
62 98 165
62 99 170
62 98 162
61 98 167
62 98 168
63 99 169
62 98 166
62 98 167
61 97 158
62 98 170
62 98 167
62 98 166
61 98 168
62 99 172
62 99 169
62 98 166
62 98 162
61 97 163
62 99 165
62 99 170
62 98 165
62 98 170
62 99 168
63 99 167
62 98 167
61 98 170
62 98 169
63 99 170
62 97 160
62 98 162
62 97 165
62 98 168
62 97 165
61 97 168
62 98 170
62 98 169
62 97 172
78 109 176
176 197 232
209 229 255
209 229 255
209 229 255
209 229 255
209 229 255
209 229 255
209 229 255
209 229 255
209 229 255
209 229 255
209 229 255
209 229 255
209 229 255
209 229 255
209 229 255
209 229 255
209 229 255
209 229 255
209 229 255
209 229 255
209 229 255
209 229 255
209 229 255
209 229 255
209 229 255
209 229 255
210 229 255
210 229 255
210 229 255
210 229 255
210 229 255
210 229 255
210 229 255
210 229 255
210 229 255
210 229 255
210 229 255
210 229 255
210 229 255
210 229 255
207 224 245
189 196 184
189 195 182
184 190 172
186 194 183
183 188 170
182 186 161
182 189 174
181 188 173
184 191 177
180 184 160
177 183 163
180 184 159
177 182 161
181 187 167
180 183 155
178 183 157
178 181 153
178 181 149
177 180 152
178 181 153
177 180 152
174 176 139
178 179 140
175 178 146
177 178 139
177 180 149
173 175 138
177 178 141
178 181 149
182 185 156
179 182 154
177 180 146
180 183 151
179 180 142
178 179 145
179 180 142
177 179 145
178 180 147
178 180 142
177 178 139
178 179 144
180 179 137
181 182 147
178 179 139
185 187 159
180 180 139
181 181 141
180 182 147
179 179 139
180 177 130
180 180 141
179 179 140
179 179 138
182 183 149
178 176 125
180 181 146
183 183 148
180 179 134
182 183 147
181 181 140
182 181 139
183 184 148
181 180 138
181 181 142
181 181 143
181 181 142
182 183 147
181 181 141
184 184 148
180 178 130
181 181 142
187 188 160
177 176 129
183 184 150
182 182 146
184 184 149
179 178 133
184 184 148
180 181 141
180 180 136
184 182 142
184 182 142
183 181 138
183 184 149
182 182 142
184 188 163
181 182 143
186 185 151
185 187 156
183 184 150
184 184 147
184 185 150
185 186 154
184 185 152
187 188 159
185 186 154
183 183 147
183 182 142
181 180 138
183 184 148
183 183 145
183 181 138
186 186 151
186 188 158
183 182 141
185 185 148
181 183 147
184 185 151
187 188 159
188 188 156
184 186 153
189 193 171
188 190 162
190 195 178
185 186 154
185 186 151
187 188 156
189 192 166
190 194 173
183 184 150
190 192 167
189 192 167
188 191 167
184 184 149
188 193 172
184 186 156
189 189 159
173 197 0
174 197 0
175 198 0
174 197 0
175 198 0
173 197 0
177 199 0
173 196 0
174 197 0
174 197 0
173 196 0
175 198 0
176 199 0
174 197 0
174 197 0
174 198 0
173 197 0
173 197 0
173 197 0
175 198 0
174 198 0
176 199 0
174 197 0
174 198 0
174 197 0
174 197 0
174 198 0
174 198 0
176 198 0
173 197 0
173 197 0
176 199 0
175 198 0
173 197 0
174 197 0
173 197 0
174 198 0
174 198 0
174 198 0
174 198 0
174 197 0
174 198 0
175 198 0
174 197 0
176 199 0
176 198 0
175 198 0
174 198 0
174 197 0
174 197 0
175 198 0
175 198 0
175 198 0
173 197 0
173 197 0
174 198 0
175 198 0
174 197 0
173 197 0
173 197 0
175 198 0
174 197 0
173 197 0
174 198 0
173 196 0
174 197 0
173 197 0
175 198 0
173 197 0
174 197 0
175 198 0
175 198 0
174 197 0
175 198 0
173 196 0
174 198 0
173 197 0
176 199 0
173 197 0
174 198 0
173 197 0
174 198 0
175 198 0
173 197 0
175 198 0
175 198 0
174 197 0
174 198 0
176 199 0
173 197 0
175 198 0
173 197 0
174 197 0
174 198 0
175 198 0
173 197 0
175 198 0
173 196 0
176 198 0
173 197 0
176 199 0
175 198 0
174 198 0
175 198 0
174 198 0
174 197 0
175 198 0
174 197 0
175 198 0
174 198 0
174 198 0
173 197 0
174 198 0
174 198 0
175 198 0
175 198 0
174 198 0
173 197 0
174 198 0
174 197 0
175 198 0
174 197 0
174 197 0
174 198 0
175 198 0
174 197 0
175 198 0
178 200 72
204 224 230
210 229 255
210 229 255
210 229 255
210 229 255
210 229 255
210 229 255
210 229 255
210 229 255
210 229 255
210 229 255
210 229 255
210 229 255
210 229 255
210 229 255
210 229 255
210 229 255
210 229 255
210 229 255
210 229 255
210 229 255
209 229 255
209 229 255
209 229 255
209 229 255
209 229 255
209 229 255
209 229 255
209 229 255
209 229 255
209 229 255
209 229 255
209 229 255
209 229 255
209 229 255
209 229 255
209 229 255
209 229 255
209 229 255
146 169 211
62 98 161
62 98 167
62 98 168
61 97 162
63 100 172
62 99 167
61 97 153
61 97 157
61 97 161
62 98 166
62 99 171
63 99 166
62 98 166
62 98 157
62 98 166
61 98 164
61 98 167
62 98 164
61 97 156
61 98 164
62 98 168
62 98 163
62 98 162
63 99 170
62 98 166
62 99 165
62 99 169
62 98 163
62 98 164
62 98 164
62 98 158
62 98 169
62 98 167
62 98 169
62 98 160
63 99 168
63 99 166
62 98 167
62 98 165
62 98 169
62 98 161
62 98 166
62 98 164
63 99 169
61 97 163
62 98 161
62 98 171
62 98 169
62 98 170
62 98 164
61 97 162
62 98 166
62 98 168
62 98 168
62 98 169
61 96 162
63 99 173
62 99 170
62 98 170
62 98 168
62 98 168
62 98 172
62 97 170
64 99 170
160 182 222
207 227 254
209 229 255
209 229 255
209 229 255
209 229 255
209 229 255
209 229 255
209 229 255
209 229 255
209 229 255
209 229 255
209 229 255
209 229 255
209 229 255
209 229 255
209 229 255
209 229 255
209 229 255
210 229 255
210 229 255
210 229 255
210 229 255
210 229 255
210 229 255
210 229 255
210 229 255
210 229 255
210 229 255
210 229 255
210 229 255
210 229 255
210 229 255
210 229 255
210 229 255
210 229 255
210 229 255
210 229 255
210 229 255
208 225 245
194 204 201
190 198 187
189 195 181
186 192 177
184 190 171
188 196 186
184 190 173
176 180 154
181 187 167
183 189 170
184 189 167
180 185 166
176 181 155
175 182 165
181 185 161
182 188 170
176 180 153
178 182 156
176 178 145
176 179 148
180 185 163
180 183 152
175 178 143
177 180 152
180 184 155
173 176 145
180 182 147
175 176 141
177 179 147
171 173 136
174 174 134
180 182 149
179 181 146
181 182 148
181 183 151
178 180 145
177 179 141
181 183 150
177 178 139
180 182 149
179 178 137
178 179 141
183 186 159
179 178 133
181 183 151
180 181 142
177 180 146
180 181 143
180 179 135
178 177 133
180 178 134
181 181 144
180 180 139
180 179 137
182 181 141
183 182 142
181 182 147
181 181 142
181 180 137
180 179 136
181 179 135
184 183 147
180 179 135
180 179 135
182 182 145
184 185 153
181 182 143
181 178 131
183 181 139
182 182 144
183 183 144
182 183 147
182 182 143
177 176 127
182 183 147
184 183 146
180 181 142
183 184 148
186 186 152
183 181 137
181 179 136
182 182 145
184 184 150
179 177 131
184 184 148
184 184 148
181 179 136
184 186 154
182 182 143
183 181 138
184 185 150
181 182 145
187 190 164
180 180 139
182 183 145
183 182 142
187 185 147
190 193 170
188 189 159
184 185 149
185 185 150
183 183 146
183 184 148
186 186 152
182 181 141
180 180 136
189 191 163
184 183 144
185 187 156
186 187 154
185 186 153
183 182 143
182 183 145
185 187 156
184 185 151
185 187 155
185 186 154
187 189 160
187 188 159
185 186 154
190 194 171
185 183 142
189 191 163
187 188 158
186 186 154
190 192 165
188 191 164
186 187 155
175 198 0
174 198 0
175 198 0
174 197 0
174 197 0
175 198 0
173 197 0
175 198 0
173 197 0
175 198 0
174 198 0
176 198 0
173 197 0
175 198 0
174 198 0
175 198 0
172 196 0
176 199 0
174 197 0
173 197 0
174 198 0
173 197 0
174 198 0
174 198 0
175 198 0
175 198 0
172 197 0
175 198 0
175 198 0
174 197 0
175 198 0
174 198 0
175 198 0
175 198 0
174 197 0
175 198 0
175 198 0
175 198 0
174 197 0
174 197 0
174 198 0
175 198 0
174 198 0
173 197 0
175 198 0
175 198 0
173 197 0
176 198 0
174 197 0
174 198 0
174 198 0
174 197 0
175 198 0
175 198 0
174 197 0
173 196 0
175 198 0
175 198 0
174 198 0
173 197 0
175 198 0
174 198 0
172 197 0
174 197 0
176 198 0
174 198 0
175 198 0
174 197 0
173 196 0
173 197 0
175 198 0
175 198 0
173 197 0
174 198 0
175 198 0
175 198 0
173 197 0
174 198 0
172 197 0
173 197 0
177 199 0
174 198 0
174 197 0
174 198 0
173 196 0
175 198 0
173 197 0
174 197 0
173 196 0
173 197 0
175 198 0
175 198 0
175 198 0
172 197 0
174 197 0
173 197 0
173 197 0
174 197 0
173 197 0
173 197 0
174 197 0
174 198 0
172 196 0
173 197 0
175 198 0
173 197 0
174 198 0
174 198 0
174 197 0
172 196 0
174 197 0
172 196 0
174 197 0
176 198 0
175 198 0
176 198 0
176 198 0
175 198 0
175 198 0
174 197 0
174 198 0
175 198 0
173 197 0
174 197 0
174 197 0
174 198 0
175 198 0
173 197 0
177 199 51
195 216 191
210 230 255
210 230 255
210 230 255
210 229 255
210 229 255
210 229 255
210 229 255
210 229 255
210 229 255
210 229 255
210 229 255
210 229 255
210 229 255
210 229 255
210 229 255
210 229 255
210 229 255
210 229 255
210 229 255
210 229 255
210 229 255
210 229 255
210 229 255
210 229 255
210 229 255
210 229 255
210 229 255
210 229 255
209 229 255
209 229 255
209 229 255
209 229 255
209 229 255
209 229 255
209 229 255
206 226 252
124 148 198
61 97 158
61 97 153
62 98 167
62 98 162
61 97 151
61 97 158
62 98 164
62 98 164
61 98 158
62 99 171
61 97 159
62 98 162
62 98 162
61 97 158
62 98 167
62 98 164
62 99 165
62 99 169
62 99 169
63 99 169
62 99 168
62 98 164
62 98 165
63 99 169
62 98 162
61 97 160
62 98 166
62 99 169
62 98 160
61 97 162
62 99 166
62 98 166
62 98 162
62 99 166
63 99 169
63 99 168
62 98 165
63 99 173
61 97 160
63 99 165
62 99 172
61 97 160
62 97 154
62 99 170
62 98 166
61 97 161
62 98 166
62 98 167
62 98 163
62 98 166
63 99 169
62 98 169
61 98 172
63 99 172
61 97 164
62 98 170
62 98 162
62 99 174
61 97 164
62 98 164
62 98 162
62 98 169
62 98 163
61 96 163
62 98 170
61 96 161
122 146 197
204 224 252
209 229 255
209 229 255
209 229 255
209 229 255
209 229 255
209 229 255
209 229 255
210 229 255
210 229 255
210 229 255
210 229 255
210 229 255
210 229 255
210 229 255
210 229 255
210 229 255
210 229 255
210 229 255
210 229 255
210 229 255
210 229 255
210 229 255
210 229 255
210 229 255
210 229 255
210 229 255
210 229 255
210 229 255
210 229 255
210 229 255
210 229 255
210 229 255
210 230 255
210 230 255
210 230 255
205 220 236
187 194 179
189 196 184
186 193 182
186 192 177
181 187 168
180 187 172
184 191 181
183 189 174
178 181 155
178 183 161
181 185 164
181 185 162
177 181 154
176 180 155
178 181 150
176 179 150
176 177 142
177 179 147
175 178 146
172 177 153
178 182 155
175 178 149
178 183 160
178 180 143
175 178 142
176 178 140
177 178 141
174 176 140
177 179 142
180 182 149
176 176 138
179 181 147
176 176 136
178 180 142
177 177 139
180 183 154
177 177 135
177 176 131
176 177 140
178 178 140
179 179 140
180 181 145
178 179 145
178 177 133
178 178 135
178 177 134
180 180 141
180 181 144
182 182 144
180 181 144
178 176 128
179 178 134
182 182 144
182 180 138
178 179 138
179 180 142
181 181 141
181 180 141
179 180 139
181 180 140
181 181 141
179 177 131
179 178 134
179 180 140
180 177 129
177 175 126
182 183 146
178 176 130
179 178 135
182 182 143
180 178 131
180 180 140
181 179 135
179 177 131
182 181 142
180 180 138
182 180 138
182 181 141
183 182 144
183 185 153
181 179 135
176 176 132
178 176 127
183 183 147
184 183 144
182 181 141
182 182 142
183 184 149
182 182 142
182 182 144
181 182 143
182 183 146
186 189 160
180 179 134
183 183 146
185 185 149
181 181 140
186 186 151
183 182 144
182 183 147
184 186 154
180 179 134
186 185 147
184 185 153
183 182 141
184 186 154
184 182 140
188 189 160
184 187 156
182 181 140
185 186 154
182 181 140
188 189 159
188 190 165
186 188 159
185 185 151
182 184 151
184 184 147
187 187 155
185 183 144
188 189 159
186 187 154
187 188 156
189 191 163
184 183 143
185 187 154
185 186 152
193 196 176
189 189 159
176 198 0
172 197 0
172 196 0
174 197 0
175 198 0
173 197 0
174 198 0
172 196 0
174 197 0
172 195 0
174 197 0
174 197 0
173 197 0
175 198 0
173 197 0
173 197 0
174 198 0
176 199 0
175 198 0
175 198 0
173 196 0
175 198 0
173 197 0
175 198 0
173 197 0
174 197 0
174 197 0
175 198 0
176 198 0
174 197 0
173 197 0
175 198 0
174 198 0
174 198 0
172 197 0
175 198 0
176 199 0
174 198 0
174 198 0
175 198 0
175 198 0
174 198 0
173 197 0
173 197 0
174 198 0
174 198 0
172 197 0
174 198 0
175 198 0
174 197 0
175 198 0
174 197 0
175 198 0
176 199 0
174 198 0
175 198 0
176 199 0
175 198 0
174 198 0
173 197 0
173 197 0
174 197 0
172 196 0
173 197 0
173 197 0
175 198 0
174 198 0
173 197 0
175 198 0
173 196 0
174 198 0
175 198 0
176 198 0
175 198 0
174 197 0
174 198 0
174 197 0
173 196 0
175 198 0
174 198 0
175 198 0
172 197 0
175 198 0
174 197 0
175 198 0
174 198 0
174 198 0
174 198 0
173 197 0
175 198 0
172 196 0
174 198 0
174 197 0
174 198 0
176 199 0
175 198 0
174 198 0
175 198 0
174 198 0
175 198 0
173 197 0
174 198 0
174 198 0
174 198 0
173 197 0
174 197 0
174 198 0
171 195 0
174 198 0
174 197 0
174 197 0
174 198 0
174 197 0
173 197 0
174 197 0
175 198 0
175 198 0
175 197 0
174 197 0
175 198 0
174 198 0
175 198 0
172 195 0
172 196 0
173 197 0
173 197 0
174 197 0
173 197 0
174 197 0
177 199 25
194 215 184
211 230 255
211 230 255
211 230 255
211 230 255
211 230 255
211 230 255
210 230 255
210 230 255
210 230 255
210 229 255
210 229 255
210 229 255
210 229 255
210 229 255
210 229 255
210 229 255
210 229 255
210 229 255
210 229 255
210 229 255
210 229 255
210 229 255
210 229 255
210 229 255
210 229 255
210 229 255
210 229 255
210 229 255
210 229 255
210 229 255
210 229 255
210 229 255
210 229 255
200 219 248
103 130 181
61 97 164
62 98 169
60 97 159
61 97 160
61 97 160
61 97 156
62 98 163
61 97 158
61 97 155
62 99 168
62 99 171
61 97 158
61 98 163
61 98 164
63 99 169
62 98 166
61 98 160
62 98 163
63 99 169
61 96 155
62 99 171
62 98 162
62 99 169
61 97 158
62 98 167
63 99 167
62 98 168
62 98 163
62 98 166
63 98 163
62 99 164
62 99 166
61 97 158
61 97 160
62 98 161
62 98 163
61 97 160
62 98 163
61 98 165
62 99 166
61 97 161
61 97 158
62 98 167
62 97 162
62 99 164
62 98 163
61 97 156
63 99 173
62 98 166
61 98 164
62 98 162
62 99 169
62 97 159
62 98 164
63 98 166
62 98 170
62 97 164
62 97 161
62 97 166
63 99 168
62 98 165
62 98 167
63 99 170
62 97 162
61 96 162
60 95 158
61 96 162
62 98 167
107 132 185
203 222 248
210 229 255
210 229 255
210 229 255
210 229 255
210 229 255
210 229 255
210 229 255
210 229 255
210 229 255
210 229 255
210 229 255
210 229 255
210 229 255
210 229 255
210 229 255
210 229 255
210 229 255
210 229 255
210 229 255
210 229 255
210 229 255
210 229 255
210 229 255
210 229 255
210 230 255
210 230 255
210 230 255
211 230 255
211 230 255
211 230 255
211 230 255
211 230 255
211 230 255
204 219 234
188 197 190
185 191 175
183 189 172
184 191 178
184 189 169
179 186 171
180 186 168
180 185 163
179 184 166
180 186 171
177 183 166
180 186 163
180 186 166
178 181 156
179 183 157
180 183 157
171 176 156
175 178 145
174 177 146
177 179 145
177 180 147
175 178 148
172 174 138
178 181 151
173 174 135
176 177 142
175 177 141
178 179 144
179 181 148
176 178 146
174 174 128
179 180 144
178 180 145
174 174 132
177 178 143
178 177 133
178 178 138
178 179 141
176 174 125
180 179 136
177 177 136
175 176 139
178 177 133
178 178 138
177 178 137
179 179 136
179 179 139
183 184 149
177 176 134
179 181 143
178 176 127
183 181 140
179 178 136
180 178 131
180 180 141
180 179 134
178 176 126
177 176 130
181 181 142
180 179 134
179 178 133
183 182 142
179 177 131
183 183 145
182 182 146
178 176 127
179 177 131
181 179 135
182 182 142
182 180 136
178 176 129
181 179 135
179 177 129
181 181 142
176 173 116
181 178 131
184 183 144
183 182 143
182 181 140
186 187 156
179 178 134
179 178 133
185 185 152
180 178 131
181 179 132
183 181 137
181 179 134
181 179 133
184 185 150
186 188 160
182 180 134
179 175 123
185 186 154
185 185 151
182 181 141
184 183 143
183 183 144
188 190 161
185 184 145
185 186 153
181 178 132
185 185 149
183 182 141
187 186 151
181 182 144
184 184 146
182 183 146
186 186 150
187 187 153
187 187 152
183 183 144
183 182 143
183 182 142
183 182 142
188 188 156
188 190 163
186 186 151
187 188 158
184 186 152
188 189 157
187 187 153
189 192 170
186 187 153
184 183 142
188 189 160
186 189 163
182 180 135
189 190 164
188 189 158
186 187 154
174 197 0
173 197 0
175 198 0
174 197 0
175 198 0
174 197 0
175 198 0
174 197 0
174 198 0
174 198 0
174 198 0
174 198 0
173 197 0
174 198 0
173 197 0
174 198 0
174 197 0
174 198 0
174 197 0
174 198 0
174 197 0
175 198 0
174 197 0
176 199 0
175 198 0
174 197 0
173 197 0
175 198 0
173 197 0
173 197 0
176 199 0
172 196 0
174 197 0
174 198 0
175 198 0
174 198 0
175 198 0
174 198 0
175 198 0
174 198 0
173 197 0
175 198 0
173 197 0
174 197 0
174 198 0
174 198 0
176 198 0
176 198 0
174 198 0
174 197 0
174 198 0
174 197 0
175 198 0
175 198 0
175 198 0
172 196 0
173 197 0
173 197 0
176 199 0
175 198 0
175 198 0
176 198 0
174 198 0
173 197 0
174 198 0
174 198 0
174 198 0
173 197 0
173 196 0
176 199 0
173 196 0
174 198 0
174 198 0
174 197 0
176 199 0
174 198 0
172 197 0
174 197 0
173 197 0
174 198 0
174 198 0
176 199 0
174 198 0
175 198 0
174 198 0
176 198 0
172 196 0
173 197 0
173 197 0
174 198 0
174 198 0
174 197 0
175 198 0
173 197 0
175 198 0
174 197 0
173 197 0
173 196 0
175 198 0
173 197 0
174 197 0
173 197 0
175 198 0
174 198 0
174 197 0
174 197 0
174 198 0
174 198 0
174 198 0
174 197 0
174 197 0
173 197 0
174 197 0
174 198 0
174 197 0
173 197 0
174 198 0
174 198 0
174 198 0
173 197 0
175 198 0
174 198 0
173 197 0
175 198 0
174 198 0
174 198 0
175 198 0
174 197 0
174 197 0
175 198 0
176 199 0
193 214 177
211 230 255
211 230 255
211 230 255
211 230 255
211 230 255
211 230 255
211 230 255
211 230 255
211 230 255
211 230 255
211 230 255
211 230 255
210 230 255
210 230 255
210 230 255
210 229 255
210 229 255
210 229 255
210 229 255
210 229 255
210 229 255
210 229 255
210 229 255
210 229 255
210 229 255
210 229 255
210 229 255
210 229 255
210 229 255
210 229 255
210 229 255
203 222 250
108 134 179
60 96 153
62 98 164
61 97 158
61 98 159
61 98 161
61 98 162
63 99 165
60 96 156
62 98 165
62 98 161
62 98 166
62 98 167
61 98 163
62 98 166
63 99 168
61 98 167
62 98 161
61 97 159
62 98 161
62 98 164
62 98 164
62 99 167
61 97 161
62 98 163
61 97 158
62 98 159
62 99 166
62 98 164
62 98 159
61 97 159
63 99 168
62 98 163
61 97 158
62 98 164
62 98 161
62 98 165
62 98 164
61 97 157
62 98 161
62 98 159
62 97 158
61 97 158
62 98 161
61 97 159
61 97 161
62 99 172
62 98 166
61 97 157
62 98 165
62 97 159
63 99 166
62 98 160
62 99 168
62 98 166
62 98 165
61 97 164
62 97 164
62 98 168
61 97 157
62 98 166
61 96 156
61 97 160
61 97 161
62 98 168
61 97 162
61 97 159
61 97 157
62 97 167
60 96 165
61 96 163
99 126 179
196 215 244
210 229 255
210 229 255
210 229 255
210 229 255
210 229 255
210 229 255
210 229 255
210 229 255
210 229 255
210 229 255
210 229 255
210 229 255
210 229 255
210 229 255
210 229 255
210 230 255
210 230 255
210 230 255
211 230 255
211 230 255
211 230 255
211 230 255
211 230 255
211 230 255
211 230 255
211 230 255
211 230 255
211 230 255
211 230 255
211 230 255
211 230 255
203 216 225
188 193 176
187 194 180
185 191 177
179 186 170
177 181 159
184 190 176
181 187 169
177 185 171
181 187 169
171 176 152
178 183 162
179 185 166
175 180 156
175 179 151
174 180 162
177 182 161
174 178 153
170 174 148
181 185 161
178 181 152
179 184 164
175 176 138
176 179 147
174 175 136
176 177 137
179 183 159
175 179 149
178 179 143
176 180 150
179 182 152
176 177 136
177 177 135
174 174 131
177 177 141
176 176 132
179 180 145
179 181 144
178 178 141
180 181 145
181 182 147
179 178 136
178 179 144
180 181 143
177 174 123
176 176 134
179 177 131
179 179 140
178 177 130
180 182 148
178 177 135
180 179 135
175 172 116
182 181 140
180 179 135
176 177 135
184 183 146
178 176 128
180 178 133
179 179 138
178 176 127
180 177 126
178 176 127
178 176 126
180 177 129
180 180 139
178 176 129
180 178 133
182 182 142
177 176 129
179 176 125
183 183 147
180 179 137
181 180 135
181 180 136
179 177 128
182 182 143
180 179 135
183 183 144
178 176 128
182 179 132
181 179 131
182 180 137
179 177 128
185 185 151
185 185 149
184 183 143
187 187 153
184 183 142
183 180 134
180 179 133
180 177 125
180 179 135
182 181 140
184 184 148
180 179 135
181 179 135
178 177 129
182 181 140
184 186 154
178 176 127
181 180 139
183 183 144
186 187 156
183 183 144
182 183 146
186 186 152
183 184 149
183 182 142
183 183 143
187 188 159
184 185 150
183 182 143
187 189 160
183 183 146
185 185 151
184 186 153
183 184 147
186 187 157
186 188 156
188 193 170
185 183 141
186 183 141
189 191 165
185 184 143
184 184 147
186 186 150
180 180 137
185 185 151
185 187 155
184 185 151
192 195 174
174 198 0
174 198 0
175 198 0
174 197 0
174 197 0
175 198 0
174 197 0
173 197 0
173 197 0
175 197 0
174 197 0
174 197 0
174 198 0
173 196 0
174 197 0
175 198 0
174 197 0
174 198 0
174 197 0
175 198 0
174 197 0
174 198 0
173 197 0
173 197 0
175 198 0
173 197 0
173 197 0
174 198 0
175 198 0
175 198 0
173 197 0
174 197 0
175 198 0
173 197 0
174 197 0
173 197 0
174 198 0
174 197 0
174 198 0
174 198 0
174 198 0
173 197 0
173 197 0
174 197 0
174 198 0
172 196 0
174 198 0
177 199 0
174 197 0
175 198 0
176 199 0
174 197 0
175 198 0
173 197 0
174 198 0
177 199 0
173 197 0
176 198 0
175 198 0
175 198 0
173 197 0
174 197 0
174 198 0
173 197 0
172 197 0
175 197 0
175 198 0
175 198 0
174 197 0
174 198 0
173 197 0
174 198 0
172 196 0
175 198 0
175 198 0
173 197 0
175 198 0
176 198 0
174 197 0
174 197 0
173 197 0
174 197 0
174 198 0
175 198 0
173 197 0
174 198 0
174 197 0
175 198 0
174 197 0
175 198 0
175 198 0
173 197 0
175 198 0
175 198 0
174 198 0
174 198 0
173 196 0
174 198 0
173 197 0
175 198 0
173 197 0
175 198 0
173 197 0
174 198 0
174 198 0
175 198 0
175 198 0
175 198 0
174 198 0
175 198 0
173 197 0
174 197 0
173 197 0
173 197 0
175 198 0
172 197 0
174 198 0
172 196 0
175 198 0
174 198 0
175 198 0
175 198 0
175 198 0
174 198 0
174 197 0
172 195 0
173 197 0
174 197 0
174 198 0
171 196 0
174 197 0
174 197 0
190 211 167
211 230 255
211 230 255
211 230 255
211 230 255
211 230 255
211 230 255
211 230 255
211 230 255
211 230 255
211 230 255
211 230 255
211 230 255
211 230 255
211 230 255
211 230 255
211 230 255
211 230 255
211 230 255
211 230 255
210 230 255
210 230 255
210 230 255
210 229 255
210 229 255
210 229 255
210 229 255
210 229 255
210 229 255
210 229 255
201 221 246
97 125 180
61 97 159
61 97 155
61 97 159
61 97 166
62 98 163
61 98 163
62 98 160
62 98 162
61 97 156
61 97 154
62 98 159
62 98 163
62 98 163
62 98 162
62 98 167
61 98 162
61 98 164
61 97 157
61 97 157
62 98 160
62 99 166
62 98 161
62 98 159
62 98 162
62 99 167
62 98 160
62 98 165
63 98 159
62 98 162
61 97 156
61 97 156
61 97 161
62 98 159
61 97 159
61 97 155
63 99 166
63 99 167
62 98 164
61 98 170
62 98 165
61 97 159
62 98 161
62 98 164
62 97 159
62 98 162
62 98 164
61 98 167
62 98 160
62 98 169
62 98 165
62 98 161
62 98 163
62 99 167
62 99 169
62 98 164
62 98 164
62 97 161
63 98 167
62 97 161
61 96 156
62 97 163
61 97 159
61 97 165
61 97 162
62 98 167
62 98 168
62 98 165
60 95 158
62 97 168
62 97 163
60 95 158
61 96 162
96 122 175
203 223 250
210 229 255
210 229 255
210 229 255
210 229 255
210 229 255
210 229 255
210 230 255
210 230 255
210 230 255
210 230 255
211 230 255
211 230 255
211 230 255
211 230 255
211 230 255
211 230 255
211 230 255
211 230 255
211 230 255
211 230 255
211 230 255
211 230 255
211 230 255
211 230 255
211 230 255
211 230 255
211 230 255
211 230 255
211 230 255
197 209 214
188 195 184
188 195 186
183 189 177
182 190 179
179 184 165
179 185 170
174 179 156
180 187 173
176 182 166
173 181 170
174 178 153
177 181 153
177 182 162
174 176 144
177 181 156
176 180 154
170 174 146
175 179 154
176 179 149
170 172 137
177 180 150
178 181 152
179 181 150
180 183 154
177 179 146
174 175 138
175 176 142
179 182 151
173 173 132
170 172 134
178 179 143
178 178 142
180 180 143
174 176 139
177 178 144
176 174 125
176 176 136
175 175 137
179 180 142
173 172 125
181 182 147
181 180 140
178 176 127
176 175 131
179 180 144
178 177 131
181 179 134
182 182 145
180 180 141
180 179 135
177 175 128
179 176 130
179 176 125
178 177 133
175 173 121
177 175 125
181 179 134
180 180 141
180 179 136
179 179 138
181 179 134
180 179 135
179 177 128
180 177 129
181 178 130
181 180 136
180 179 134
179 178 133
182 180 137
180 178 133
183 182 142
181 177 126
179 177 129
179 175 121
179 178 133
181 182 143
182 181 139
182 180 134
182 182 143
181 180 139
180 180 138
183 183 145
180 179 133
181 178 127
184 182 141
184 184 147
184 183 142
181 180 135
180 178 132
180 179 135
181 180 138
182 182 142
179 177 129
184 182 140
179 178 131
183 183 143
183 182 142
183 183 146
182 181 140
183 181 140
184 181 135
182 180 134
184 182 142
183 184 147
181 181 140
184 183 144
185 183 143
184 183 145
182 182 142
186 188 157
182 181 139
183 185 151
183 181 138
187 189 159
185 183 143
182 180 135
183 181 138
186 186 149
188 190 161
188 188 156
187 189 161
185 187 155
184 185 148
187 191 166
189 192 167
191 193 169
188 189 161
184 184 148
186 187 154
186 187 154
189 189 159
186 189 161
175 198 0
174 198 0
174 198 0
175 198 0
173 197 0
173 197 0
174 198 0
172 197 0
175 198 0
174 197 0
175 198 0
176 199 0
172 196 0
175 198 0
173 197 0
173 197 0
175 198 0
173 197 0
176 199 0
174 197 0
174 198 0
175 198 0
174 197 0
175 198 0
175 198 0
173 197 0
173 197 0
175 198 0
174 198 0
172 197 0
173 197 0
173 197 0
173 197 0
174 197 0
173 197 0
175 198 0
173 197 0
175 198 0
176 199 0
175 198 0
175 198 0
174 197 0
175 198 0
174 198 0
174 198 0
175 198 0
174 197 0
174 197 0
175 198 0
174 197 0
174 197 0
175 198 0
175 198 0
173 197 0
175 198 0
173 197 0
173 197 0
173 197 0
174 198 0
175 198 0
175 198 0
176 198 0
174 197 0
174 198 0
174 198 0
174 198 0
173 197 0
175 197 0
174 198 0
175 198 0
175 198 0
174 197 0
175 198 0
174 197 0
175 198 0
175 198 0
173 196 0
173 197 0
175 198 0
175 198 0
175 198 0
176 198 0
174 198 0
174 197 0
174 198 0
176 198 0
174 197 0
174 198 0
173 196 0
175 198 0
173 197 0
175 198 0
173 197 0
173 197 0
175 198 0
173 197 0
175 198 0
174 198 0
174 198 0
173 197 0
174 198 0
174 197 0
173 197 0
177 199 0
175 198 0
173 197 0
176 199 0
174 198 0
175 198 0
174 197 0
172 196 0
175 198 0
173 196 0
174 197 0
174 198 0
174 198 0
176 198 0
175 198 0
173 197 0
173 197 0
173 197 0
174 198 0
173 197 0
174 197 0
174 198 0
173 197 0
174 198 0
175 198 0
175 198 0
174 197 0
173 197 0
175 198 0
173 196 0
190 211 155
211 230 255
211 230 255
211 230 255
211 230 255
211 230 255
211 230 255
211 230 255
211 230 255
211 230 255
211 230 255
211 230 255
211 230 255
211 230 255
211 230 255
211 230 255
211 230 255
211 230 255
211 230 255
211 230 255
211 230 255
211 230 255
211 230 255
211 230 255
211 230 255
211 230 255
211 230 255
211 230 255
206 225 250
112 137 182
60 96 154
61 97 159
61 98 164
60 96 157
61 97 158
61 98 163
62 98 163
62 98 162
61 96 152
61 97 161
62 98 164
61 97 157
62 98 161
62 98 164
62 98 160
61 97 155
62 98 157
62 98 162
63 99 164
62 98 163
62 98 165
62 98 163
62 97 162
62 97 154
61 97 158
61 97 157
62 98 161
62 98 164
61 97 154
62 98 160
62 98 164
62 98 157
61 97 163
62 98 162
61 98 160
62 98 164
62 99 167
63 99 167
61 97 158
62 97 155
63 99 165
62 98 158
62 98 160
62 98 163
62 98 156
62 97 159
62 98 160
62 98 163
63 99 163
62 98 162
62 98 162
62 98 159
61 98 160
61 97 158
62 98 166
63 99 170
61 97 159
62 98 168
60 96 154
62 98 160
62 97 162
62 98 161
61 97 158
60 96 154
61 96 157
61 97 160
61 96 155
62 97 168
62 97 157
61 97 164
61 97 164
62 97 159
62 97 166
62 96 162
97 124 181
205 224 252
211 230 255
211 230 255
211 230 255
211 230 255
211 230 255
211 230 255
211 230 255
211 230 255
211 230 255
211 230 255
211 230 255
211 230 255
211 230 255
211 230 255
211 230 255
211 230 255
211 230 255
211 230 255
211 230 255
211 230 255
211 230 255
211 230 255
211 230 255
211 230 255
211 230 255
211 230 255
211 230 255
200 213 221
188 195 183
184 188 167
181 187 170
181 186 168
177 181 159
178 184 167
176 181 159
174 179 157
177 184 170
167 173 152
170 174 149
171 176 153
175 180 157
170 174 146
173 177 150
165 171 149
170 172 136
171 174 141
176 180 155
171 174 143
173 175 142
170 173 143
173 175 143
171 172 133
176 178 148
173 176 143
174 177 142
174 174 133
174 175 137
175 177 144
170 169 121
177 176 135
173 173 130
178 179 141
179 179 142
177 177 142
178 178 144
178 177 137
173 174 132
177 175 130
175 174 127
177 176 133
174 173 128
177 175 126
179 178 134
178 177 135
181 181 142
179 176 129
182 182 145
179 178 136
179 178 136
180 179 139
181 183 148
180 178 130
177 175 128
179 176 130
181 179 132
179 176 125
178 176 125
183 183 146
179 178 132
180 178 131
179 177 130
180 177 129
180 177 127
181 178 131
178 175 124
178 174 120
179 177 130
183 181 140
181 179 134
177 176 129
179 179 136
182 179 133
178 175 123
178 174 117
182 180 134
182 180 134
183 182 142
183 181 137
182 179 133
185 183 142
180 177 128
182 181 140
183 184 147
181 179 134
182 181 139
181 181 139
180 179 136
182 181 137
180 176 121
183 182 142
182 182 143
185 186 154
183 179 131
182 181 138
183 181 139
181 180 138
183 183 144
182 181 140
184 184 147
187 187 156
182 182 144
182 181 140
180 179 134
183 181 138
179 179 138
182 181 140
184 183 144
184 185 149
181 180 138
188 188 155
183 185 151
186 185 149
184 184 146
183 184 147
185 184 145
182 181 138
183 181 137
185 185 147
182 182 141
185 184 145
183 182 140
184 183 143
182 181 139
184 185 151
186 187 153
186 186 151
189 191 162
186 188 158
184 184 146
185 187 154
183 182 140
175 198 0
174 197 0
174 198 0
175 198 0
174 198 0
175 198 0
174 197 0
174 198 0
175 198 0
172 197 0
173 197 0
174 198 0
174 197 0
173 197 0
175 198 0
175 198 0
172 196 0
175 198 0
173 197 0
176 198 0
173 197 0
175 198 0
173 197 0
174 197 0
176 198 0
175 198 0
174 196 0
175 198 0
176 199 0
176 198 0
177 199 0
175 198 0
176 199 0
173 197 0
175 198 0
172 197 0
175 198 0
173 197 0
173 197 0
175 198 0
175 198 0
175 198 0
173 197 0
173 197 0
174 198 0
175 198 0
175 198 0
174 198 0
176 199 0
173 197 0
176 198 0
173 197 0
174 198 0
174 198 0
173 197 0
174 198 0
175 198 0
174 197 0
175 198 0
175 198 0
173 197 0
175 198 0
175 198 0
175 198 0
175 198 0
175 198 0
175 198 0
173 197 0
175 198 0
174 198 0
174 198 0
174 197 0
174 197 0
175 198 0
174 198 0
173 197 0
174 197 0
174 198 0
173 197 0
174 198 0
174 198 0
174 198 0
174 198 0
174 198 0
173 196 0
174 197 0
173 197 0
173 197 0
175 198 0
175 198 0
173 197 0
175 198 0
174 197 0
173 197 0
174 198 0
175 198 0
173 197 0
175 198 0
174 198 0
176 199 0
173 197 0
173 197 0
174 198 0
173 197 0
175 198 0
174 198 0
174 198 0
174 198 0
172 196 0
175 198 0
173 197 0
172 197 0
174 197 0
173 197 0
176 199 0
173 196 0
176 199 0
175 198 0
175 198 0
174 197 0
176 198 0
175 198 0
174 197 0
175 198 0
173 197 0
175 198 0
173 197 0
174 197 0
174 197 0
173 197 0
173 197 0
174 198 0
176 199 0
174 197 0
194 214 179
212 230 255
212 230 255
212 230 255
212 230 255
211 230 255
211 230 255
211 230 255
211 230 255
211 230 255
211 230 255
211 230 255
211 230 255
211 230 255
211 230 255
211 230 255
211 230 255
211 230 255
211 230 255
211 230 255
211 230 255
211 230 255
211 230 255
211 230 255
211 230 255
211 230 255
207 226 252
99 126 176
61 98 164
61 97 158
61 97 157
61 97 158
61 97 155
61 97 160
61 97 156
61 97 157
62 98 158
61 97 154
62 98 157
62 98 161
62 98 159
61 97 152
62 98 161
62 99 167
63 99 164
61 98 163
62 98 159
62 98 158
62 98 162
62 98 158
62 98 157
63 99 165
61 97 162
62 98 159
61 97 160
62 98 164
61 98 162
61 98 164
62 98 164
62 98 160
62 98 166
62 98 161
62 98 160
61 98 161
62 98 162
62 98 160
61 97 154
62 98 160
61 97 156
62 98 161
62 98 164
61 97 154
62 98 157
62 98 163
62 99 164
62 98 162
61 96 156
63 98 165
61 96 152
62 97 155
62 99 165
61 97 154
63 99 166
62 98 164
61 96 156
61 97 156
61 97 156
63 99 169
61 96 156
61 96 155
62 98 162
61 97 163
62 98 164
61 96 158
62 97 158
61 97 159
62 98 163
61 96 156
61 96 156
62 98 165
62 98 165
62 97 167
61 95 161
61 96 163
116 141 195
208 227 252
211 230 255
211 230 255
211 230 255
211 230 255
211 230 255
211 230 255
211 230 255
211 230 255
211 230 255
211 230 255
211 230 255
211 230 255
211 230 255
211 230 255
211 230 255
211 230 255
211 230 255
211 230 255
211 230 255
211 230 255
211 230 255
212 230 255
212 230 255
212 230 255
212 230 255
199 212 221
191 199 192
180 185 168
186 193 182
176 181 164
177 182 162
178 183 162
176 182 165
177 180 155
176 182 167
177 183 162
176 181 163
169 174 149
171 176 154
176 180 155
174 178 154
176 179 149
167 172 145
171 174 143
169 173 147
172 175 146
171 174 146
170 171 132
166 168 130
172 174 138
178 180 149
181 183 155
171 173 139
175 177 145
173 173 133
174 175 140
174 175 138
171 170 123
177 179 148
177 176 135
176 177 140
170 169 123
179 179 143
177 176 135
179 179 139
179 178 138
179 179 140
176 176 136
177 177 134
180 180 140
176 173 122
183 183 146
174 173 126
177 177 134
180 178 134
178 177 131
179 178 134
180 178 135
178 176 129
180 177 129
180 176 125
181 178 130
179 177 129
180 178 130
179 177 132
180 179 138
179 176 126
180 178 129
182 180 135
179 178 134
178 176 126
177 176 128
179 176 122
179 176 125
180 178 131
180 177 125
180 176 125
180 177 127
182 178 126
179 177 131
182 179 133
183 182 142
180 179 135
181 180 137
181 180 135
181 179 132
183 181 135
178 176 124
179 176 126
181 178 131
179 179 135
182 180 134
184 182 139
181 179 132
180 178 132
180 179 135
185 185 149
181 181 139
183 181 137
184 182 141
182 182 143
184 182 139
181 179 134
182 179 133
181 179 134
181 180 138
181 180 136
181 180 136
182 181 141
182 179 132
185 186 154
182 181 138
184 185 152
182 181 140
184 183 144
184 181 138
183 182 142
184 182 140
182 181 140
187 190 165
185 185 149
186 186 151
183 181 138
186 187 154
182 180 138
186 185 147
184 182 141
188 188 156
186 186 151
186 188 157
182 181 140
187 188 156
187 188 156
186 188 155
188 188 154
184 186 153
184 183 143
186 187 153
192 195 175
187 186 150
175 198 0
175 198 0
175 198 0
175 198 0
175 198 0
175 198 0
176 199 0
174 198 0
175 198 0
174 198 0
174 197 0
173 197 0
174 197 0
173 197 0
176 199 0
175 198 0
174 197 0
173 197 0
174 198 0
173 197 0
175 198 0
173 197 0
174 197 0
174 198 0
174 198 0
176 198 0
173 197 0
174 198 0
175 198 0
175 198 0
173 197 0
175 198 0
175 198 0
175 198 0
174 197 0
174 198 0
173 197 0
173 197 0
175 198 0
175 198 0
174 197 0
175 198 0
174 197 0
174 198 0
175 198 0
173 196 0
174 198 0
174 197 0
174 198 0
175 198 0
176 198 0
173 197 0
173 197 0
174 197 0
174 197 0
175 198 0
175 198 0
174 198 0
175 198 0
174 197 0
174 198 0
174 197 0
174 198 0
174 198 0
175 198 0
172 196 0
173 197 0
173 197 0
174 198 0
173 197 0
176 198 0
175 198 0
175 198 0
173 197 0
173 197 0
176 199 0
174 197 0
175 198 0
174 198 0
173 197 0
173 197 0
173 197 0
175 198 0
175 198 0
173 197 0
175 198 0
174 197 0
175 198 0
174 197 0
175 198 0
174 197 0
174 197 0
175 198 0
173 197 0
175 198 0
175 198 0
173 197 0
174 198 0
174 198 0
175 198 0
175 198 0
175 198 0
175 198 0
175 198 0
173 197 0
174 197 0
173 197 0
173 197 0
175 198 0
174 198 0
173 197 0
173 197 0
174 198 0
175 198 0
175 198 0
173 197 0
175 198 0
176 198 0
175 198 0
175 198 0
174 197 0
174 198 0
175 198 0
174 198 0
173 197 0
174 197 0
174 198 0
174 197 0
174 197 0
174 197 0
174 197 0
174 197 0
175 197 0
175 198 0
175 198 0
197 217 194
212 230 255
212 230 255
212 230 255
212 230 255
212 230 255
212 230 255
212 230 255
212 230 255
212 230 255
212 230 255
212 230 255
212 230 255
211 230 255
211 230 255
211 230 255
211 230 255
211 230 255
211 230 255
211 230 255
211 230 255
211 230 255
211 230 255
211 230 255
211 230 255
134 156 192
61 97 154
61 97 158
62 97 153
61 97 159
61 97 153
61 97 155
62 98 164
62 98 164
62 99 166
62 98 163
61 97 157
61 97 156
61 96 149
62 97 155
62 98 154
60 96 156
62 98 161
62 99 168
61 96 152
62 98 157
62 98 156
63 98 156
62 98 157
61 97 154
61 98 159
62 98 160
61 97 160
61 97 151
62 98 160
62 98 159
62 98 157
61 97 157
62 97 154
62 98 159
62 98 162
61 97 159
61 97 162
62 98 160
63 99 166
62 98 157
62 97 150
61 97 151
63 99 167
62 97 156
62 99 164
62 98 162
61 97 160
62 98 160
62 98 160
61 98 159
62 98 159
62 98 161
62 97 155
62 98 162
62 98 161
61 97 161
61 97 157
62 97 162
61 97 159
61 97 161
62 97 161
61 97 154
62 97 161
63 98 165
61 97 162
60 96 149
61 96 156
61 97 162
61 97 156
62 98 166
61 96 156
60 94 155
61 96 159
62 98 164
61 96 164
61 95 158
59 94 159
61 95 163
135 156 193
211 230 255
211 230 255
211 230 255
211 230 255
211 230 255
211 230 255
211 230 255
211 230 255
211 230 255
211 230 255
211 230 255
211 230 255
211 230 255
212 230 255
212 230 255
212 230 255
212 230 255
212 230 255
212 230 255
212 230 255
212 230 255
212 230 255
212 230 255
212 230 255
203 216 226
188 193 179
182 189 180
183 191 180
178 184 170
179 185 168
172 179 165
177 181 162
179 185 169
170 175 155
172 178 156
177 183 165
177 182 161
169 173 148
172 175 145
173 177 149
175 178 148
167 170 139
170 172 140
172 174 141
169 172 141
173 176 147
166 166 127
171 173 146
169 170 132
168 170 138
173 176 146
172 171 131
169 172 144
177 179 146
169 170 130
174 175 144
176 176 135
173 175 141
174 173 131
175 174 132
178 179 140
174 174 132
177 176 133
173 171 127
174 174 128
180 181 144
173 173 132
175 175 129
176 174 128
181 181 142
178 177 135
176 174 126
178 175 126
179 177 131
176 175 132
177 177 138
178 174 121
183 182 143
178 176 130
181 180 137
180 180 138
179 177 131
176 173 120
180 180 142
180 177 131
179 175 121
177 174 120
181 177 127
179 179 134
183 180 135
180 179 134
179 177 128
181 178 130
183 180 132
181 179 134
180 176 123
181 177 126
182 178 129
183 182 142
180 178 131
180 179 134
181 178 127
180 178 130
178 175 121
178 175 123
180 177 125
181 180 136
181 180 136
184 183 142
182 178 128
182 181 141
184 184 148
181 178 127
182 180 134
181 180 137
184 182 141
179 175 121
183 183 146
182 180 137
182 178 129
181 180 135
184 183 142
182 179 131
185 184 145
179 176 123
187 186 150
183 180 135
182 180 136
181 179 133
184 183 144
183 180 133
185 183 142
182 179 133
182 181 138
181 180 135
185 185 148
181 179 134
186 186 152
185 184 146
185 185 149
184 183 144
187 184 144
184 183 144
184 183 144
182 182 140
188 189 160
184 183 143
185 186 154
188 189 160
184 184 145
185 185 151
187 188 156
182 184 147
186 184 144
184 182 140
187 188 158
189 189 159
180 179 133
188 189 161
188 189 159
172 196 0
174 198 0
174 197 0
173 197 0
174 197 0
174 198 0
174 198 0
174 198 0
176 199 0
175 198 0
173 197 0
174 197 0
173 197 0
173 197 0
174 198 0
174 198 0
175 198 0
175 198 0
174 198 0
174 198 0
174 197 0
173 197 0
175 198 0
175 198 0
174 197 0
175 198 0
176 199 0
175 198 0
175 198 0
175 198 0
174 198 0
175 198 0
175 198 0
174 198 0
174 198 0
175 198 0
174 197 0
174 198 0
175 198 0
175 198 0
175 198 0
176 199 0
175 198 0
174 198 0
174 197 0
173 197 0
173 197 0
174 197 0
173 197 0
173 197 0
173 197 0
174 198 0
173 197 0
175 198 0
175 198 0
173 197 0
175 198 0
173 197 0
174 198 0
176 199 0
174 197 0
173 197 0
174 198 0
176 199 0
174 198 0
175 198 0
173 197 0
175 198 0
175 198 0
173 197 0
174 197 0
175 198 0
175 198 0
174 198 0
175 198 0
174 198 0
174 198 0
176 199 0
174 198 0
173 197 0
173 197 0
174 198 0
174 198 0
176 199 0
175 198 0
173 197 0
174 198 0
173 197 0
175 198 0
176 198 0
174 197 0
174 197 0
175 198 0
173 197 0
176 199 0
175 198 0
175 198 0
175 198 0
175 198 0
174 197 0
174 198 0
173 197 0
176 198 0
174 198 0
174 197 0
174 198 0
173 197 0
174 198 0
173 197 0
175 198 0
175 198 0
173 197 0
176 199 0
174 198 0
173 197 0
174 198 0
175 198 0
173 197 0
174 197 0
174 198 0
177 199 0
175 198 0
175 197 0
175 198 0
173 197 0
174 198 0
175 198 0
173 196 0
173 197 0
175 198 0
174 198 0
173 196 0
175 198 0
173 196 0
174 198 0
173 197 0
202 222 215
212 230 255
212 230 255
212 230 255
212 230 255
212 230 255
212 230 255
212 230 255
212 230 255
212 230 255
212 230 255
212 230 255
212 230 255
212 230 255
212 230 255
212 230 255
212 230 255
212 230 255
212 230 255
212 230 255
212 230 255
211 230 255
211 230 255
155 176 211
60 95 144
61 97 157
61 97 154
61 97 156
61 98 161
62 98 161
61 97 158
61 97 157
61 97 160
62 97 157
61 97 156
62 97 152
62 98 163
61 97 152
62 98 161
60 96 144
62 98 156
62 98 161
62 98 161
61 97 156
61 97 163
62 98 161
61 97 155
62 98 158
62 98 161
62 98 161
62 97 154
61 98 159
62 98 157
62 98 160
62 98 163
62 98 162
60 96 151
61 97 160
62 98 160
62 98 163
61 97 156
62 98 161
60 96 148
61 96 150
61 97 153
62 98 156
61 97 158
62 98 161
62 98 163
62 97 156
62 99 164
62 98 157
61 97 152
62 98 160
62 98 159
62 97 161
61 97 157
62 98 156
62 98 164
62 97 159
62 97 158
62 98 164
63 99 164
61 96 156
62 97 163
62 98 159
62 98 162
63 99 166
61 97 162
62 98 166
60 96 148
61 97 163
62 97 157
61 96 158
61 96 152
62 97 161
62 98 163
62 97 164
62 98 165
61 96 155
61 95 154
61 96 159
61 95 162
60 94 160
169 189 224
211 230 255
211 230 255
212 230 255
212 230 255
212 230 255
212 230 255
212 230 255
212 230 255
212 230 255
212 230 255
212 230 255
212 230 255
212 230 255
212 230 255
212 230 255
212 230 255
212 230 255
212 230 255
212 230 255
212 230 255
212 230 255
212 230 255
203 216 228
191 198 190
185 192 182
180 184 165
185 192 182
175 180 161
180 186 169
180 185 164
174 181 167
176 179 155
175 181 161
178 183 165
169 173 147
177 180 152
169 174 156
167 173 151
161 166 140
171 174 143
167 170 139
172 175 144
172 174 136
171 174 143
174 175 141
171 173 140
174 176 143
172 174 138
173 173 135
174 177 146
171 171 128
171 172 132
169 167 121
172 172 128
177 176 134
169 171 138
176 177 139
175 177 143
177 177 135
176 177 139
176 176 134
173 172 125
176 174 126
173 173 129
179 179 139
172 171 120
173 170 118
176 174 131
175 173 125
177 174 125
182 181 141
179 177 130
177 174 121
177 176 130
178 177 132
179 178 133
177 173 120
179 177 132
178 177 134
178 174 123
179 176 127
181 178 128
177 174 120
181 177 123
179 175 121
179 175 123
178 175 125
177 174 121
179 177 131
181 182 144
178 175 124
179 176 125
181 181 140
178 176 128
180 177 124
181 179 132
180 177 129
177 174 117
180 176 124
180 178 129
180 177 126
179 177 129
180 178 131
180 178 133
180 180 136
180 178 129
183 180 134
182 180 135
181 179 131
179 176 125
180 178 129
182 180 135
179 177 127
181 177 126
184 183 143
182 182 141
179 179 134
182 179 132
181 177 126
184 182 139
179 178 133
183 180 136
182 181 139
180 178 129
183 180 135
181 179 131
180 179 132
181 179 134
183 180 134
181 179 134
186 185 147
187 186 151
179 178 132
179 177 125
185 185 148
182 180 134
185 185 150
183 182 140
183 183 145
184 180 132
184 184 144
188 189 160
186 188 156
187 186 149
187 187 153
185 186 153
182 182 141
186 186 151
185 184 144
184 184 147
185 186 151
183 182 140
184 183 143
184 185 148
189 190 160
186 186 150
186 185 147
189 190 160
187 189 158
176 199 0
175 198 0
173 197 0
173 197 0
175 198 0
174 198 0
175 198 0
175 198 0
175 198 0
174 197 0
175 198 0
173 197 0
175 198 0
175 198 0
176 199 0
175 198 0
175 198 0
174 198 0
176 199 0
174 198 0
174 198 0
174 198 0
175 198 0
175 198 0
175 198 0
173 197 0
174 198 0
175 198 0
175 198 0
174 198 0
174 198 0
174 198 0
175 198 0
174 197 0
174 197 0
176 199 0
175 198 0
174 198 0
174 198 0
174 198 0
174 198 0
174 198 0
174 197 0
175 198 0
174 197 0
173 197 0
173 197 0
172 196 0
175 198 0
174 198 0
175 198 0
175 198 0
175 198 0
175 198 0
175 198 0
173 197 0
176 199 0
175 198 0
174 198 0
175 198 0
175 198 0
174 198 0
175 198 0
174 198 0
175 198 0
175 198 0
175 198 0
174 198 0
174 197 0
174 198 0
175 198 0
176 198 0
174 198 0
175 198 0
175 198 0
173 197 0
176 199 0
173 197 0
174 197 0
176 198 0
174 198 0
175 198 0
175 198 0
175 198 0
175 198 0
175 198 0
175 198 0
175 198 0
174 198 0
175 198 0
175 198 0
174 198 0
173 197 0
177 199 0
175 198 0
175 198 0
173 197 0
174 197 0
173 197 0
174 198 0
174 197 0
173 197 0
174 198 0
174 198 0
174 198 0
174 198 0
175 198 0
174 197 0
176 199 0
174 197 0
174 197 0
173 197 0
175 198 0
173 197 0
175 198 0
175 198 0
173 197 0
175 198 0
174 198 0
172 196 0
176 198 0
176 199 0
173 197 0
174 198 0
175 198 0
173 196 0
174 198 0
174 198 0
174 198 0
174 198 0
173 197 0
172 197 0
174 197 0
173 197 0
173 196 0
174 197 0
175 198 36
203 222 220
212 231 255
212 231 255
212 231 255
212 231 255
212 231 255
212 230 255
212 230 255
212 230 255
212 230 255
212 230 255
212 230 255
212 230 255
212 230 255
212 230 255
212 230 255
212 230 255
212 230 255
212 230 255
212 230 255
212 230 255
191 210 238
70 103 156
60 96 149
61 97 162
61 97 160
61 96 148
61 97 152
61 97 156
61 97 156
62 98 158
61 97 154
62 98 160
62 98 159
62 98 160
61 97 150
61 97 153
61 97 154
62 98 156
62 98 158
62 98 161
61 96 150
61 97 158
62 98 159
61 97 151
61 97 152
62 97 159
61 97 154
61 97 156
63 99 159
62 98 160
62 98 162
62 98 162
63 99 163
62 98 155
61 97 157
62 97 158
62 97 162
61 96 148
62 98 158
61 97 157
61 97 156
61 97 158
62 98 160
61 97 160
62 98 159
61 98 162
61 96 153
60 96 153
62 97 155
62 98 163
62 97 159
61 97 154
61 97 157
62 98 165
62 98 158
61 97 156
61 96 154
62 98 158
62 98 164
62 97 157
62 97 160
61 97 154
62 97 150
61 96 152
61 96 154
62 98 162
62 98 163
62 98 163
61 97 157
61 97 160
62 97 160
62 97 159
62 97 164
61 96 160
61 96 155
62 97 165
60 96 159
62 97 164
61 95 153
62 97 162
62 96 157
61 95 155
66 98 158
186 205 236
212 230 255
212 230 255
212 230 255
212 230 255
212 230 255
212 230 255
212 230 255
212 230 255
212 230 255
212 230 255
212 230 255
212 230 255
212 230 255
212 230 255
212 230 255
212 231 255
212 231 255
212 231 255
212 231 255
212 231 255
208 224 244
192 198 187
190 197 186
185 193 184
181 188 176
175 182 171
174 181 167
174 180 164
171 175 151
171 177 159
169 175 157
162 167 145
171 174 140
163 168 148
166 171 151
166 169 141
171 175 150
171 173 141
165 168 140
171 175 154
166 168 133
170 171 135
166 167 130
169 171 138
173 176 144
173 174 138
166 167 130
173 173 134
166 167 131
169 171 138
174 173 132
172 173 134
174 174 137
178 178 143
175 177 144
169 167 119
168 169 133
175 173 128
173 172 128
171 170 125
176 176 135
179 179 139
176 176 135
172 171 127
175 173 124
176 174 122
176 174 124
178 177 133
177 174 122
176 173 124
174 172 120
176 174 128
178 175 127
180 177 131
179 176 128
178 176 128
182 182 142
178 173 115
180 179 134
179 176 125
182 180 138
179 176 123
175 174 130
177 176 127
178 174 118
177 175 126
178 175 123
181 178 129
177 174 120
179 175 120
179 176 122
179 174 116
179 175 118
183 181 136
182 179 129
180 175 117
179 177 126
178 176 124
181 179 134
177 177 130
177 175 122
183 181 136
182 180 136
182 179 128
180 178 129
180 177 125
180 178 132
178 176 125
181 179 133
182 179 133
179 176 125
182 179 132
185 184 144
180 179 135
182 180 135
181 178 127
184 183 143
183 183 143
181 179 132
185 183 142
180 179 135
182 180 134
181 182 143
180 180 137
185 185 149
182 183 143
180 178 130
184 183 142
183 182 142
184 183 143
184 183 142
187 186 148
179 177 126
182 181 136
182 181 138
182 180 134
182 180 133
182 178 129
184 183 143
182 181 136
185 183 143
186 186 152
184 183 145
187 187 153
185 186 151
187 186 151
184 184 148
186 186 152
184 185 151
185 184 147
184 184 144
188 188 157
182 181 138
187 187 152
183 182 142
182 181 136
185 188 156
186 187 155
176 198 0
174 197 0
175 198 0
175 198 0
173 197 0
174 198 0
174 197 0
173 197 0
174 198 0
174 197 0
173 197 0
175 198 0
173 197 0
175 198 0
175 198 0
174 198 0
173 196 0
175 198 0
174 198 0
174 197 0
175 198 0
174 197 0
173 197 0
173 197 0
175 198 0
175 198 0
173 197 0
175 198 0
174 198 0
175 198 0
173 197 0
174 198 0
175 198 0
174 198 0
175 198 0
175 198 0
173 197 0
174 198 0
174 197 0
174 197 0
175 198 0
174 198 0
174 197 0
175 198 0
176 199 0
173 197 0
174 198 0
175 198 0
174 198 0
175 198 0
176 199 0
174 198 0
174 198 0
174 198 0
175 198 0
174 197 0
172 196 0
175 198 0
176 198 0
174 197 0
174 198 0
175 198 0
174 197 0
173 197 0
175 198 0
173 197 0
175 198 0
175 198 0
174 197 0
174 198 0
174 198 0
174 197 0
173 197 0
174 198 0
174 198 0
174 197 0
174 198 0
174 198 0
173 197 0
173 197 0
173 197 0
173 197 0
175 198 0
175 198 0
174 197 0
175 198 0
173 197 0
175 198 0
174 198 0
175 198 0
176 199 0
174 197 0
176 199 0
173 197 0
175 198 0
174 198 0
173 197 0
176 199 0
175 198 0
175 198 0
174 198 0
174 198 0
173 197 0
174 197 0
172 197 0
175 198 0
174 198 0
175 198 0
176 199 0
173 197 0
172 197 0
174 198 0
174 197 0
175 198 0
175 198 0
174 198 0
175 198 0
176 198 0
174 198 0
175 198 0
174 197 0
174 198 0
174 198 0
175 198 0
174 197 0
175 198 0
176 199 0
172 196 0
174 197 0
175 198 0
173 197 0
173 196 0
173 197 0
173 196 0
175 198 0
173 197 0
172 196 0
180 202 88
207 226 237
213 231 255
213 231 255
213 231 255
213 231 255
212 231 255
212 231 255
212 231 255
212 231 255
212 231 255
212 231 255
212 231 255
212 231 255
212 231 255
212 231 255
212 230 255
212 230 255
212 230 255
212 230 255
205 224 249
87 116 171
60 96 152
62 98 158
61 97 154
61 96 150
61 97 155
62 98 159
61 97 156
61 97 157
61 97 153
62 98 157
62 98 160
62 98 158
62 98 160
62 98 158
61 97 157
62 97 156
62 98 160
62 98 162
61 97 156
62 98 158
61 97 150
61 97 155
62 98 160
61 97 156
61 97 152
61 97 155
61 97 150
62 99 166
61 97 155
62 98 157
62 97 153
61 97 153
62 98 156
62 98 158
62 98 160
63 98 160
61 97 157
61 97 155
62 97 156
61 97 152
63 98 157
62 97 154
62 98 158
62 98 159
61 97 154
61 97 153
61 96 151
63 99 166
61 97 152
62 98 160
62 99 164
62 97 159
62 98 161
62 97 156
60 96 151
61 97 159
63 98 164
62 97 159
62 97 159
62 98 159
62 98 164
62 98 161
61 97 155
61 97 156
61 97 156
62 97 161
60 95 150
61 97 160
62 98 161
61 97 155
61 96 146
61 97 162
61 96 151
62 96 155
61 96 159
62 97 161
62 97 163
60 94 156
60 95 153
60 95 157
60 94 154
60 94 156
98 124 175
207 226 252
212 230 255
212 230 255
212 230 255
212 230 255
212 230 255
212 231 255
212 231 255
212 231 255
212 231 255
212 231 255
212 231 255
212 231 255
212 231 255
212 231 255
212 231 255
213 231 255
213 231 255
213 231 255
211 227 249
191 199 192
186 194 183
179 185 174
180 185 167
175 181 164
178 184 167
177 183 166
169 174 157
162 166 140
166 172 154
166 170 146
168 173 155
164 169 150
170 174 151
166 170 144
172 177 156
171 174 146
170 173 144
169 171 139
174 178 152
162 167 141
164 165 124
172 175 146
163 167 139
165 167 133
170 172 138
164 165 124
171 172 136
165 166 129
174 175 136
171 171 131
171 172 137
167 168 124
173 174 137
167 167 126
175 174 132
174 174 130
174 173 127
173 173 133
176 174 127
175 174 129
175 175 133
176 174 126
176 175 129
170 169 119
172 169 114
177 176 134
179 177 133
178 175 123
177 175 124
177 175 129
174 173 126
177 175 129
176 173 123
175 173 121
179 175 121
177 174 123
178 173 117
179 175 120
180 180 139
180 176 120
178 175 122
180 177 127
179 176 125
183 179 130
179 175 122
180 178 129
180 178 131
182 179 130
179 177 128
178 174 118
178 176 125
178 175 120
179 175 119
180 177 127
177 175 122
178 175 121
180 177 124
180 175 120
181 178 130
182 178 130
180 176 123
179 177 127
180 177 126
180 178 130
182 180 134
183 180 134
184 181 137
179 176 124
182 180 134
179 177 129
179 175 121
183 184 147
180 176 123
181 179 134
181 176 120
179 174 118
181 179 132
180 178 131
184 183 143
178 175 122
179 176 121
181 180 134
183 180 135
180 178 130
181 179 133
182 181 137
187 186 148
181 177 124
180 176 123
183 182 140
185 184 146
183 183 142
186 186 150
185 181 134
181 180 134
184 184 147
183 183 143
183 182 142
185 184 145
182 181 136
182 179 129
185 184 145
184 185 150
182 180 136
182 182 142
185 184 147
184 184 147
186 184 143
185 183 143
185 187 155
187 188 155
183 181 139
184 185 150
186 186 151
187 186 148
187 188 154
188 190 160
174 197 0
176 198 0
175 198 0
175 198 0
175 198 0
173 197 0
174 198 0
174 197 0
175 198 0
173 197 0
175 198 0
174 197 0
174 198 0
175 198 0
173 197 0
173 197 0
173 197 0
175 198 0
175 198 0
173 197 0
173 197 0
174 197 0
174 198 0
175 198 0
173 197 0
174 197 0
174 197 0
174 197 0
174 197 0
172 197 0
175 198 0
174 197 0
174 197 0
174 198 0
173 196 0
173 196 0
175 198 0
175 198 0
176 198 0
175 198 0
174 197 0
175 198 0
174 197 0
174 198 0
174 197 0
174 198 0
175 198 0
176 199 0
174 198 0
175 198 0
174 198 0
174 198 0
174 198 0
175 198 0
174 198 0
174 198 0
175 198 0
175 198 0
174 198 0
176 198 0
173 197 0
173 197 0
174 198 0
175 198 0
174 198 0
175 198 0
173 197 0
175 198 0
174 197 0
174 197 0
173 197 0
173 197 0
175 198 0
173 197 0
175 198 0
175 198 0
175 198 0
174 198 0
175 198 0
173 197 0
173 197 0
175 198 0
176 198 0
175 198 0
172 196 0
174 197 0
175 198 0
176 198 0
174 198 0
173 197 0
174 198 0
174 198 0
175 198 0
173 197 0
175 198 0
174 198 0
175 198 0
175 198 0
173 197 0
175 198 0
174 198 0
173 197 0
174 197 0
174 198 0
176 199 0
174 197 0
174 198 0
176 198 0
174 198 0
175 198 0
174 198 0
174 198 0
175 198 0
175 198 0
172 197 0
174 197 0
174 197 0
174 197 0
174 198 0
174 197 0
175 198 0
174 198 0
174 197 0
175 198 0
173 197 0
174 198 0
173 197 0
175 198 0
175 198 0
174 197 0
173 196 0
174 198 0
174 197 0
174 197 0
174 198 0
173 197 0
174 198 0
173 197 0
182 205 117
212 231 254
213 231 255
213 231 255
213 231 255
213 231 255
213 231 255
213 231 255
213 231 255
213 231 255
213 231 255
213 231 255
213 231 255
213 231 255
212 231 255
212 231 255
212 231 255
212 231 255
212 231 255
137 159 190
61 97 156
60 96 145
61 97 151
61 97 151
61 96 145
62 97 157
61 97 149
61 97 152
60 96 145
62 99 167
61 96 144
61 97 155
62 98 157
61 97 153
61 96 149
62 98 157
62 98 160
61 97 154
61 97 156
60 96 150
62 98 160
62 98 161
61 97 154
62 99 162
61 98 161
61 97 153
62 98 159
62 98 158
62 98 155
60 96 147
61 97 152
62 97 152
61 97 158
62 97 154
61 97 146
61 97 154
62 98 158
61 97 155
61 96 154
61 97 152
60 96 153
61 97 154
61 97 153
62 97 157
61 96 154
62 98 161
62 98 164
62 98 159
62 98 160
62 98 161
62 97 157
61 97 155
61 96 154
61 97 154
61 97 151
61 96 155
61 97 157
62 98 160
61 97 151
62 97 155
62 98 161
60 96 154
61 97 154
61 98 162
61 97 157
61 97 153
62 98 161
61 97 155
63 98 158
61 96 157
62 97 155
61 97 153
61 96 154
60 95 152
62 97 159
61 97 161
61 96 159
61 95 148
60 95 157
61 95 153
60 94 154
61 96 160
61 95 158
60 93 157
138 159 196
212 231 255
212 231 255
212 231 255
212 231 255
212 231 255
213 231 255
213 231 255
213 231 255
213 231 255
213 231 255
213 231 255
213 231 255
213 231 255
213 231 255
213 231 255
213 231 255
213 231 255
213 230 254
198 209 213
183 189 176
177 184 169
177 183 168
179 185 175
168 174 155
173 179 162
169 175 156
170 178 169
170 176 159
160 165 145
174 178 155
170 175 154
163 167 140
171 177 158
166 171 150
168 172 146
171 174 147
165 167 138
169 173 148
162 167 145
169 172 144
166 168 136
164 168 138
171 174 142
161 163 123
171 172 134
163 163 124
170 173 142
172 173 137
173 174 136
170 171 134
173 173 130
171 171 134
171 169 118
175 173 129
170 169 125
169 169 126
171 169 123
172 170 119
172 171 128
172 171 126
173 172 128
174 174 129
171 169 118
173 171 119
174 171 116
174 173 127
174 172 122
178 176 130
172 170 119
176 172 117
176 172 116
179 176 128
180 177 125
177 174 123
180 178 130
180 175 121
181 178 128
180 177 128
181 177 127
182 177 125
177 172 113
178 174 121
180 177 126
179 175 118
181 177 127
179 176 122
179 176 126
179 176 124
182 179 132
178 176 126
178 176 125
181 178 130
182 179 131
179 176 124
179 176 121
179 175 121
181 178 130
180 179 134
180 176 124
178 174 121
177 175 121
179 176 121
179 174 118
180 177 126
179 174 118
179 175 120
180 176 122
180 177 128
182 179 132
181 178 126
179 176 124
180 178 133
183 181 135
183 181 139
183 180 134
179 175 118
182 179 131
183 181 136
183 180 134
182 178 129
184 183 141
183 180 134
180 177 126
186 184 144
183 182 140
182 180 132
183 182 139
184 183 141
183 179 128
183 181 135
182 180 135
183 181 139
182 183 143
178 174 117
179 175 120
183 181 138
182 182 142
179 177 126
179 177 126
187 184 142
185 185 149
184 182 142
187 186 151
182 180 132
186 185 147
183 183 144
182 181 137
183 183 143
185 184 143
187 188 158
186 186 150
188 187 153
188 188 157
185 184 147
186 187 154
185 185 147
186 187 153
174 198 0
173 197 0
174 198 0
175 198 0
174 197 0
176 198 0
174 197 0
175 198 0
174 198 0
175 198 0
175 198 0
174 198 0
176 199 0
176 199 0
175 198 0
174 198 0
173 197 0
174 198 0
175 198 0
175 198 0
174 198 0
174 197 0
174 198 0
175 198 0
175 198 0
173 197 0
173 197 0
175 198 0
175 198 0
176 199 0
176 198 0
175 198 0
176 198 0
174 198 0
173 197 0
176 198 0
174 198 0
175 198 0
175 198 0
174 198 0
173 197 0
175 198 0
176 199 0
175 198 0
173 197 0
174 197 0
174 198 0
174 197 0
174 198 0
174 197 0
174 198 0
174 197 0
174 198 0
174 197 0
176 198 0
174 198 0
175 198 0
173 197 0
174 198 0
174 198 0
175 198 0
176 199 0
176 199 0
174 198 0
174 197 0
174 197 0
174 197 0
174 197 0
175 198 0
173 197 0
175 198 0
175 198 0
176 199 0
174 198 0
173 197 0
176 199 0
174 198 0
173 197 0
174 198 0
174 198 0
176 199 0
175 198 0
176 199 0
174 197 0
175 198 0
173 197 0
175 198 0
174 197 0
174 197 0
173 197 0
176 199 0
175 198 0
174 198 0
174 198 0
176 199 0
176 198 0
174 198 0
175 198 0
173 197 0
174 198 0
173 197 0
175 198 0
174 197 0
173 197 0
175 198 0
174 198 0
175 198 0
174 198 0
175 198 0
176 198 0
174 197 0
174 198 0
174 198 0
173 197 0
175 198 0
175 198 0
175 198 0
173 197 0
174 198 0
176 199 0
174 197 0
173 197 0
174 197 0
174 198 0
173 196 0
174 198 0
174 198 0
173 197 0
175 198 0
175 198 0
173 197 0
174 198 0
174 197 0
173 197 0
174 197 0
174 198 0
173 197 0
174 197 0
172 195 0
194 214 175
213 231 255
213 231 255
213 231 255
213 231 255
213 231 255
213 231 255
213 231 255
213 231 255
213 231 255
213 231 255
213 231 255
213 231 255
213 231 255
213 231 255
213 231 255
213 231 255
175 194 220
64 99 158
60 96 148
60 96 154
61 97 152
62 97 157
60 95 147
60 96 149
61 97 157
61 97 152
60 95 140
61 97 151
61 97 153
62 98 159
61 97 155
61 97 156
61 96 143
62 98 154
61 97 153
60 95 153
63 99 162
61 97 156
61 97 155
62 97 147
61 97 151
63 99 163
63 99 166
61 97 153
62 98 159
63 99 164
62 97 151
62 98 159
60 96 150
61 97 154
60 96 151
62 98 158
61 97 149
62 97 155
61 97 156
62 98 155
62 98 161
62 98 155
61 97 155
62 98 157
62 98 159
63 99 161
63 98 161
62 97 159
63 98 158
62 97 151
62 98 164
62 97 153
62 98 158
61 97 156
62 98 160
63 98 163
61 96 150
61 97 159
62 98 163
61 97 155
62 97 156
61 96 151
62 97 152
61 97 154
61 97 154
62 98 163
61 97 154
62 97 155
61 97 157
62 98 159
61 96 152
62 97 157
62 98 162
61 96 155
61 96 152
60 95 147
61 95 155
61 96 158
62 97 158
60 95 154
61 95 154
61 95 157
61 95 156
59 93 145
60 94 155
60 93 149
60 93 152
189 207 236
213 231 255
213 231 255
213 231 255
213 231 255
213 231 255
213 231 255
213 231 255
213 231 255
213 231 255
213 231 255
213 231 255
213 231 255
213 231 255
213 231 255
213 231 255
213 231 255
201 214 222
187 195 188
183 190 178
180 186 171
178 184 172
167 174 160
180 185 169
170 177 161
165 172 155
167 173 154
163 170 150
156 160 134
160 165 143
164 168 144
161 164 139
163 169 152
169 174 150
166 168 140
163 167 140
170 171 139
168 172 144
167 170 143
167 170 148
163 165 130
173 174 142
160 162 122
167 169 136
170 172 141
166 165 119
165 166 124
173 174 139
166 165 125
169 168 123
171 171 133
176 177 146
168 166 119
173 174 134
170 170 132
173 171 127
172 170 124
173 170 120
175 174 135
179 177 133
174 173 131
172 169 116
171 169 120
171 169 119
176 174 125
176 173 118
175 174 129
178 175 123
172 170 123
178 176 128
175 171 114
173 170 117
178 177 131
174 171 119
177 174 121
175 173 118
180 176 125
179 177 128
181 176 123
178 175 122
180 177 128
176 171 108
178 174 119
178 176 126
180 176 124
176 174 122
182 178 129
180 176 125
179 176 128
178 176 124
179 176 126
178 173 114
177 174 118
181 177 127
181 177 124
182 180 133
181 177 125
180 176 120
178 175 120
181 178 126
180 177 127
180 178 129
178 176 126
181 178 127
181 178 130
181 177 127
181 177 123
180 175 117
181 178 127
181 177 124
179 178 130
183 180 135
182 179 130
179 177 129
184 180 133
179 177 130
180 178 129
184 182 139
180 178 130
183 180 134
182 181 139
183 182 142
180 177 124
181 181 137
182 178 126
184 181 133
178 176 123
179 178 131
183 181 135
182 181 138
182 182 141
184 183 142
183 183 143
182 181 140
185 184 143
182 181 139
180 177 124
185 185 148
183 180 135
185 181 135
184 181 135
183 184 147
184 184 146
184 184 147
183 182 142
185 184 144
184 185 151
180 178 129
185 185 146
185 184 143
182 181 139
186 187 153
181 179 132
182 181 138
185 184 144
186 186 151
188 189 157
173 197 0
174 197 0
175 198 0
175 198 0
173 197 0
175 198 0
176 198 0
174 198 0
175 198 0
174 198 0
175 198 0
175 198 0
173 197 0
175 198 0
175 198 0
174 198 0
176 199 0
175 198 0
174 198 0
174 197 0
174 198 0
175 198 0
174 198 0
176 199 0
175 198 0
175 198 0
173 197 0
176 199 0
175 198 0
174 197 0
176 199 0
174 197 0
174 198 0
174 197 0
175 198 0
174 198 0
175 198 0
174 198 0
174 198 0
175 198 0
174 197 0
174 198 0
173 197 0
175 198 0
175 198 0
174 198 0
174 198 0
176 199 0
174 197 0
174 198 0
175 198 0
175 198 0
175 198 0
173 197 0
173 197 0
175 198 0
173 197 0
175 198 0
173 197 0
174 198 0
174 197 0
174 197 0
175 198 0
174 198 0
174 198 0
175 198 0
174 197 0
175 198 0
174 198 0
176 199 0
175 198 0
173 197 0
175 198 0
175 198 0
175 198 0
173 197 0
175 198 0
174 198 0
175 198 0
174 198 0
175 198 0
174 198 0
174 198 0
175 198 0
176 199 0
174 198 0
174 197 0
175 198 0
175 198 0
173 197 0
176 198 0
174 197 0
175 198 0
174 198 0
175 198 0
174 198 0
174 197 0
176 199 0
173 197 0
175 198 0
174 197 0
175 198 0
175 198 0
173 197 0
173 197 0
175 198 0
175 198 0
176 199 0
174 197 0
176 199 0
174 198 0
174 197 0
175 198 0
175 198 0
175 198 0
176 199 0
173 197 0
173 197 0
176 199 0
173 197 0
174 197 0
173 197 0
175 198 0
175 198 0
174 198 0
173 197 0
174 197 0
174 198 0
173 197 0
176 199 0
174 197 0
174 197 0
175 198 0
175 198 0
174 197 0
174 197 0
175 198 0
173 197 0
174 197 0
174 198 0
203 222 221
213 231 255
213 231 255
213 231 255
213 231 255
213 231 255
213 231 255
213 231 255
213 231 255
213 231 255
213 231 255
213 231 255
213 231 255
213 231 255
213 231 255
211 229 253
83 113 155
61 97 156
60 96 148
61 96 149
61 97 152
61 97 149
61 97 153
61 96 153
60 96 148
62 98 158
61 97 153
61 96 145
61 96 145
61 97 155
61 96 150
61 97 150
61 96 141
62 98 156
61 96 154
62 97 157
61 97 151
61 97 158
62 97 153
61 97 153
62 97 155
62 98 155
61 97 151
61 97 152
61 97 150
62 98 156
61 97 152
61 96 152
62 98 160
62 98 161
61 97 161
62 98 160
62 98 155
62 98 154
61 97 159
60 95 141
62 98 160
61 97 154
62 98 159
60 96 150
63 98 159
61 97 155
61 97 151
62 98 157
63 99 167
61 97 148
61 96 150
61 97 149
61 97 163
62 98 157
62 97 155
62 98 159
61 97 160
61 96 151
62 98 163
61 97 154
62 97 154
62 97 155
61 96 155
62 98 163
62 97 159
62 97 159
62 97 160
61 97 156
62 98 160
61 96 150
62 97 153
61 96 154
62 98 162
61 96 160
61 96 154
61 95 150
60 95 147
61 96 156
61 95 149
61 96 159
62 97 161
62 97 160
60 94 151
61 95 155
60 94 149
60 94 153
59 93 156
92 118 174
208 226 251
213 231 255
213 231 255
213 231 255
213 231 255
213 231 255
213 231 255
213 231 255
213 231 255
213 231 255
213 231 255
213 231 255
213 231 255
213 231 255
213 231 255
206 221 236
188 194 180
182 188 175
173 180 170
173 178 162
173 177 150
169 174 158
177 183 170
162 169 157
158 165 152
164 170 155
163 167 141
164 169 146
162 167 147
163 167 139
159 163 135
158 162 135
163 167 142
162 166 141
169 172 145
169 173 148
157 159 126
175 178 151
169 171 141
159 161 127
158 160 127
161 163 132
168 171 139
160 162 126
165 165 123
166 166 125
167 166 123
171 170 130
166 166 130
167 167 128
168 167 123
169 168 123
174 173 131
170 168 121
170 170 125
169 166 115
170 168 119
178 178 139
173 172 124
174 173 127
170 169 119
171 169 119
174 172 127
170 167 112
174 173 126
175 173 120
175 173 122
175 172 120
177 174 124
172 169 116
175 173 125
179 176 125
175 172 120
175 172 119
178 174 121
177 173 118
175 174 123
178 175 125
176 173 118
178 175 121
179 175 120
176 174 118
178 175 126
176 173 119
178 176 126
180 174 114
180 177 125
182 178 125
178 173 114
181 178 128
180 178 130
181 178 131
177 175 123
183 179 129
180 176 122
177 175 123
183 179 130
180 178 128
178 174 118
179 176 127
175 172 114
180 176 122
179 176 125
179 177 130
178 175 122
181 178 127
179 176 124
181 178 129
179 176 121
184 182 139
182 179 130
177 175 122
178 174 115
181 178 126
184 183 142
181 177 124
182 179 132
180 180 135
182 180 132
180 178 130
181 178 127
180 177 125
182 179 133
178 175 119
182 179 131
181 179 130
181 177 126
186 184 143
179 176 125
180 178 132
181 178 127
184 182 138
184 185 150
185 184 145
182 180 136
178 175 121
183 182 140
182 181 140
181 179 132
186 185 146
180 178 130
185 185 148
187 188 154
183 181 135
180 177 125
180 178 128
183 181 138
183 181 136
182 182 141
190 193 170
183 182 141
184 182 139
184 186 151
188 188 154
185 184 144
188 190 160
174 198 0
174 197 0
174 197 0
174 198 0
174 197 0
174 198 0
174 197 0
175 198 0
174 198 0
176 199 0
175 198 0
174 198 0
173 197 0
176 198 0
173 197 0
173 197 0
173 197 0
175 198 0
175 198 0
172 196 0
175 198 0
175 198 0
173 197 0
175 198 0
175 198 0
175 198 0
176 198 0
177 199 0
174 198 0
174 198 0
174 197 0
174 197 0
175 198 0
176 198 0
172 197 0
174 198 0
175 198 0
175 198 0
175 198 0
174 197 0
174 198 0
174 198 0
176 198 0
175 198 0
175 198 0
175 198 0
174 197 0
175 198 0
174 198 0
174 198 0
175 198 0
175 198 0
174 198 0
175 198 0
174 198 0
174 198 0
174 198 0
174 198 0
175 198 0
173 197 0
174 197 0
173 197 0
174 197 0
172 196 0
176 198 0
175 198 0
175 198 0
174 197 0
174 198 0
175 198 0
175 198 0
176 199 0
174 198 0
174 197 0
176 198 0
174 197 0
174 197 0
173 197 0
174 198 0
173 197 0
176 198 0
174 197 0
173 197 0
174 197 0
174 198 0
174 198 0
174 198 0
174 198 0
173 197 0
174 197 0
175 198 0
176 199 0
176 199 0
176 199 0
174 198 0
175 198 0
174 198 0
173 197 0
174 197 0
175 198 0
175 198 0
175 198 0
174 198 0
176 199 0
174 197 0
173 197 0
174 198 0
175 198 0
176 199 0
175 198 0
176 199 0
175 198 0
175 198 0
176 199 0
174 198 0
174 198 0
174 198 0
175 198 0
174 197 0
175 198 0
175 198 0
174 197 0
175 198 0
175 198 0
175 198 0
174 198 0
173 197 0
175 198 0
176 199 0
174 197 0
176 199 0
173 197 0
174 198 0
175 198 0
173 197 0
174 197 0
174 197 0
175 198 0
173 197 0
174 197 0
181 203 114
211 229 246
214 231 255
214 231 255
214 231 255
214 231 255
214 231 255
214 231 255
213 231 255
213 231 255
213 231 255
213 231 255
213 231 255
213 231 255
213 231 255
149 170 200
61 97 149
60 96 149
61 96 148
61 97 150
61 96 144
60 96 143
62 97 151
61 97 150
61 96 147
61 97 157
62 98 157
61 97 149
61 97 154
61 97 148
63 99 160
62 98 158
61 97 152
61 97 155
62 98 156
61 97 147
62 98 154
61 97 153
62 97 154
62 98 163
62 97 155
62 98 157
61 97 152
62 98 155
62 98 157
62 98 162
62 97 157
61 97 153
62 98 156
61 97 157
61 96 151
61 97 158
62 97 151
61 96 152
62 98 156
61 97 150
61 96 151
61 96 142
63 98 156
62 97 154
60 96 150
62 98 155
61 97 152
61 97 160
61 96 146
62 98 161
62 98 155
62 97 152
62 97 149
62 97 152
62 98 158
62 97 160
62 97 153
61 97 158
62 97 158
60 95 146
62 97 160
63 98 157
61 97 158
61 96 154
62 98 159
61 97 158
62 97 156
62 97 156
61 95 146
62 97 156
61 96 157
61 96 152
61 96 153
60 95 154
62 97 158
61 95 150
61 96 154
61 96 157
61 96 154
60 94 144
60 94 152
60 94 150
60 94 155
62 96 156
59 92 142
59 91 144
60 93 153
59 93 150
151 171 205
213 231 255
213 231 255
213 231 255
213 231 255
213 231 255
213 231 255
213 231 255
213 231 255
214 231 255
214 231 255
214 231 255
214 231 255
214 231 255
213 231 254
189 197 193
187 193 183
185 192 184
172 180 172
170 178 170
175 183 172
170 175 156
163 167 142
170 177 164
166 171 151
151 158 140
160 167 153
158 163 138
159 162 135
151 155 129
158 163 137
163 168 148
163 167 142
161 165 144
164 166 134
161 165 142
162 165 136
165 168 139
172 175 150
163 164 123
164 166 135
159 161 130
159 161 130
164 165 127
160 161 123
168 168 131
173 174 138
167 166 117
172 171 126
173 171 119
167 168 125
170 169 121
169 169 130
170 170 130
173 172 123
169 168 117
177 176 133
169 167 118
170 169 126
171 168 110
165 164 115
171 168 118
175 172 121
173 171 119
171 169 120
171 169 116
176 174 127
174 171 120
173 171 118
175 171 111
173 169 112
175 171 113
177 173 117
176 172 114
176 173 124
179 175 122
177 173 117
178 175 128
176 173 120
177 173 119
176 172 117
175 171 111
179 175 122
173 170 110
175 171 111
178 174 116
179 176 123
181 178 128
176 172 113
177 174 118
180 176 123
178 173 115
179 175 123
182 177 124
181 176 118
179 176 122
180 177 126
179 175 121
180 177 127
178 175 124
181 179 131
178 174 115
180 175 116
179 175 118
180 175 120
179 174 116
183 179 130
181 176 123
181 176 122
179 176 124
179 175 120
180 177 127
178 175 120
180 178 131
181 178 127
181 177 123
175 172 112
178 175 123
182 178 125
181 178 124
182 181 138
180 176 119
181 176 122
184 183 141
182 179 129
182 179 132
184 182 140
182 181 136
180 177 128
179 178 130
180 177 124
181 179 133
184 183 143
183 181 135
181 180 135
183 181 135
181 178 125
182 181 135
187 188 156
182 180 134
184 185 149
183 180 133
183 182 140
181 180 136
187 187 151
184 183 141
185 184 143
184 184 146
184 183 141
184 184 145
185 183 140
189 190 161
185 187 154
185 184 146
189 189 157
185 183 140
174 198 0
175 197 0
174 198 0
174 197 0
174 198 0
174 197 0
176 198 0
172 197 0
174 197 0
175 198 0
175 198 0
175 198 0
175 198 0
173 197 0
175 198 0
173 197 0
174 197 0
174 197 0
174 197 0
175 198 0
174 198 0
175 198 0
173 197 0
175 198 0
173 197 0
177 199 0
176 199 0
174 198 0
174 197 0
173 197 0
175 198 0
175 198 0
173 197 0
173 197 0
175 198 0
174 198 0
174 198 0
174 198 0
174 198 0
172 197 0
174 198 0
175 198 0
175 198 0
175 198 0
175 198 0
175 198 0
174 198 0
174 198 0
175 198 0
174 198 0
175 198 0
174 197 0
175 198 0
174 198 0
175 198 0
173 197 0
175 198 0
175 198 0
176 198 0
175 198 0
174 198 0
175 198 0
173 197 0
174 197 0
173 197 0
176 199 0
174 198 0
174 198 0
174 198 0
174 198 0
174 198 0
175 198 0
174 198 0
174 198 0
173 197 0
176 199 0
175 198 0
174 197 0
175 198 0
174 198 0
176 199 0
174 198 0
174 198 0
175 198 0
174 197 0
174 197 0
174 197 0
175 198 0
175 198 0
175 198 0
175 198 0
175 198 0
174 198 0
174 197 0
175 198 0
174 197 0
173 197 0
175 198 0
175 198 0
174 197 0
176 199 0
174 198 0
174 198 0
175 198 0
175 198 0
176 198 0
172 197 0
174 197 0
175 198 0
175 198 0
175 198 0
174 198 0
174 197 0
175 198 0
175 198 0
174 197 0
174 198 0
174 198 0
174 197 0
174 198 0
174 197 0
175 198 0
173 197 0
175 198 0
175 198 0
176 199 0
175 197 0
175 198 0
175 198 0
174 198 0
173 197 0
174 198 0
174 198 0
175 198 0
174 197 0
174 198 0
173 197 0
175 198 0
174 197 0
174 198 0
173 197 0
190 211 167
214 231 255
214 231 255
214 231 255
214 231 255
214 231 255
214 231 255
214 231 255
214 231 255
214 231 255
214 231 255
214 231 255
214 231 255
202 220 245
75 107 152
59 95 140
60 95 147
61 97 152
60 95 142
60 96 145
60 95 143
61 96 149
61 96 145
62 98 155
61 96 151
62 98 158
61 97 153
61 97 154
60 96 140
62 98 156
62 98 153
60 96 148
62 97 157
63 99 161
61 97 145
61 97 152
62 97 154
62 97 152
61 97 153
63 98 159
62 98 157
60 96 143
61 97 151
62 97 145
62 98 155
62 98 157
62 98 156
62 98 154
60 95 147
62 97 155
61 97 147
61 97 155
61 97 159
61 96 149
61 96 152
61 97 150
62 97 154
62 98 155
62 98 161
61 97 159
61 96 149
61 97 156
62 98 162
61 97 147
62 97 152
62 98 155
63 99 161
62 98 156
61 96 151
62 97 158
61 97 151
62 98 160
62 97 151
61 96 152
62 97 155
62 97 154
61 97 159
62 97 147
62 97 150
62 98 159
61 97 153
61 96 147
61 97 158
62 97 156
62 97 154
62 97 153
62 97 158
61 95 151
61 96 153
61 96 148
61 96 151
62 97 159
61 95 150
60 95 152
60 95 151
59 94 148
61 95 155
61 94 147
61 95 156
59 93 143
59 92 144
60 94 154
60 93 150
83 110 161
200 218 245
214 231 255
214 231 255
214 231 255
214 231 255
214 231 255
214 231 255
214 231 255
214 231 255
214 231 255
214 231 255
214 231 255
214 231 255
199 210 216
182 189 180
178 184 175
167 174 161
173 179 164
162 168 151
168 176 166
166 172 155
167 175 166
159 164 145
157 164 151
159 163 141
157 163 145
161 166 145
160 166 148
155 162 143
159 164 145
154 159 132
160 166 146
156 160 130
161 163 130
166 167 135
159 162 132
167 169 136
160 161 125
166 170 144
168 168 131
161 163 127
163 163 123
165 167 138
169 167 123
165 166 133
164 163 116
166 166 123
167 166 120
170 171 132
176 177 142
165 164 113
168 166 120
169 166 118
169 168 124
174 173 131
167 165 119
175 173 121
176 175 128
171 170 123
171 170 120
173 171 121
178 175 125
172 168 106
178 177 134
176 172 118
177 174 125
176 172 117
175 171 117
178 174 118
178 175 121
177 173 118
171 168 113
179 175 125
174 171 119
179 176 122
176 171 108
178 174 117
180 178 131
180 177 128
174 170 112
180 179 135
180 176 123
177 173 116
176 172 115
178 174 117
179 175 118
177 174 120
180 176 124
176 173 116
180 177 127
181 177 124
178 174 117
179 175 120
176 172 111
182 180 134
179 174 115
180 176 123
176 171 108
177 173 115
179 175 120
176 173 117
181 179 130
180 177 124
179 174 116
177 174 120
177 174 117
181 176 121
181 178 125
182 180 133
184 181 138
180 175 118
181 180 137
182 179 130
179 176 121
181 178 125
180 178 127
179 176 126
180 176 122
182 181 136
183 179 129
181 178 129
184 182 137
185 181 133
182 180 134
181 179 130
182 178 125
181 179 129
180 179 134
182 180 134
183 184 147
183 180 133
183 179 127
182 180 132
185 184 144
182 179 131
183 180 133
185 183 139
180 177 123
187 186 149
182 180 132
182 179 128
182 181 138
184 183 145
183 181 138
181 179 130
186 185 146
186 186 149
182 182 143
186 186 149
185 185 149
184 184 144
185 186 151
183 182 138
186 186 149
184 183 143
173 197 0
173 197 0
174 197 0
174 197 0
175 198 0
173 197 0
175 198 0
173 197 0
174 197 0
173 196 0
174 198 0
174 197 0
175 198 0
172 197 0
176 198 0
175 198 0
175 198 0
174 198 0
175 198 0
172 196 0
175 198 0
175 198 0
176 199 0
174 198 0
173 197 0
174 198 0
174 198 0
174 198 0
175 198 0
173 197 0
174 198 0
176 199 0
174 197 0
174 198 0
175 198 0
175 198 0
175 198 0
176 199 0
174 198 0
174 198 0
175 198 0
173 197 0
174 198 0
175 198 0
175 198 0
175 198 0
176 199 0
174 198 0
176 199 0
174 198 0
173 197 0
175 198 0
176 198 0
173 197 0
175 198 0
175 198 0
174 198 0
175 198 0
175 198 0
174 198 0
175 198 0
175 198 0
173 197 0
175 198 0
174 197 0
175 198 0
174 198 0
174 198 0
174 198 0
174 197 0
175 198 0
175 198 0
175 198 0
174 197 0
175 198 0
174 198 0
175 198 0
174 198 0
175 198 0
174 197 0
175 198 0
175 198 0
175 198 0
175 198 0
175 198 0
174 197 0
175 198 0
176 199 0
175 198 0
174 197 0
176 199 0
174 198 0
173 197 0
174 197 0
174 198 0
174 198 0
175 198 0
176 199 0
174 198 0
173 197 0
173 197 0
174 198 0
175 198 0
175 198 0
174 198 0
176 199 0
175 198 0
174 197 0
174 198 0
175 198 0
174 198 0
174 197 0
175 198 0
175 198 0
173 197 0
175 198 0
175 198 0
174 198 0
175 198 0
173 197 0
173 197 0
175 198 0
174 198 0
174 198 0
174 197 0
175 198 0
173 197 0
173 196 0
175 198 0
173 197 0
173 197 0
175 198 0
173 197 0
173 197 0
173 197 0
174 198 0
174 197 0
173 197 0
173 197 0
173 197 0
173 197 0
171 194 25
204 222 226
214 232 255
214 232 255
214 232 255
214 232 255
214 232 255
214 232 255
214 232 255
214 231 255
214 231 255
214 231 255
214 231 255
133 155 188
60 95 139
60 96 144
60 96 140
60 96 145
60 96 147
62 98 156
59 95 141
61 96 147
60 95 139
61 96 148
61 96 145
62 98 154
61 97 147
61 97 153
61 97 150
62 98 159
61 97 154
61 97 157
60 96 144
61 96 149
61 97 152
61 97 154
62 98 165
61 96 154
61 96 154
61 97 150
61 96 151
62 98 163
62 97 155
62 98 158
62 97 158
62 98 155
61 97 152
62 97 158
61 97 154
61 96 150
62 98 157
62 98 157
62 97 156
62 98 158
62 98 162
60 96 148
61 96 149
62 98 156
61 97 153
62 98 160
61 97 153
61 97 159
62 97 153
61 97 152
62 98 156
62 97 148
61 96 152
62 97 151
61 96 148
61 97 153
62 97 151
62 97 157
61 96 151
62 98 158
61 96 153
62 97 149
61 95 151
61 96 154
60 95 147
61 96 148
62 97 158
61 96 153
61 96 157
61 96 151
61 96 150
62 97 159
61 96 154
61 95 149
62 97 155
62 96 153
61 96 151
61 96 151
62 97 158
62 97 159
61 96 156
60 95 148
59 93 151
59 93 147
61 96 160
61 96 156
61 95 151
60 93 148
61 94 150
61 94 153
141 162 199
214 231 255
214 231 255
214 231 255
214 231 255
214 232 255
214 232 255
214 232 255
214 232 255
214 232 255
214 232 255
214 232 255
210 226 245
186 193 182
178 185 177
173 180 170
180 188 183
167 173 158
156 164 156
157 164 155
166 172 155
166 172 158
153 159 142
155 161 146
161 166 145
155 159 134
165 170 151
155 160 138
156 162 145
150 155 131
155 159 135
161 163 130
154 155 120
151 155 124
155 159 138
166 169 138
161 164 136
162 164 131
161 163 129
161 161 118
162 162 122
164 163 125
165 166 127
157 158 111
160 160 118
162 161 116
167 167 122
168 167 124
171 170 126
171 170 130
171 169 127
169 168 124
169 166 113
166 164 116
172 168 115
174 172 126
177 176 130
171 169 120
174 170 113
173 170 118
172 170 123
175 172 117
174 171 119
176 173 120
177 172 115
174 170 110
172 169 116
176 173 117
173 169 111
177 175 126
176 173 117
177 172 116
174 171 116
174 171 113
177 174 120
176 172 117
176 172 116
179 175 120
178 174 117
177 174 123
177 175 124
175 172 115
175 172 112
177 174 118
178 174 120
175 170 107
179 175 119
179 174 117
179 174 115
179 173 114
179 174 117
179 174 114
179 174 116
176 172 112
176 172 110
177 173 116
181 178 128
181 176 120
179 175 118
177 172 111
177 174 119
181 177 126
182 179 132
181 178 128
180 175 119
181 177 124
179 176 122
175 171 110
179 177 127
179 175 119
179 176 124
180 177 124
184 181 137
184 183 142
177 175 123
181 179 133
184 185 149
183 179 128
180 175 118
180 175 116
180 178 130
178 174 118
182 179 129
181 179 131
178 175 121
179 175 120
178 175 121
183 183 143
184 183 141
184 183 142
185 183 141
182 179 130
185 183 141
183 182 141
181 178 130
180 177 126
184 181 135
182 182 143
186 186 149
185 183 139
184 183 143
184 183 142
181 178 129
183 181 138
184 183 141
182 181 139
182 180 135
184 182 139
184 183 144
189 189 155
184 185 147
185 186 151
186 187 153
186 184 145
187 190 161
174 197 0
176 199 0
174 197 0
174 197 0
174 197 0
175 198 0
175 198 0
173 197 0
174 198 0
175 198 0
173 197 0
173 197 0
175 198 0
174 197 0
175 198 0
175 198 0
175 198 0
174 197 0
174 198 0
174 198 0
176 199 0
176 199 0
174 198 0
174 198 0
174 198 0
174 198 0
175 198 0
177 199 0
176 199 0
174 197 0
173 197 0
175 198 0
175 198 0
175 198 0
175 198 0
174 198 0
173 197 0
176 198 0
176 199 0
176 199 0
175 198 0
176 199 0
176 199 0
175 198 0
175 198 0
176 199 0
173 197 0
175 198 0
175 198 0
175 198 0
174 198 0
174 198 0
174 198 0
175 198 0
174 198 0
173 197 0
176 198 0
176 199 0
175 198 0
176 199 0
173 197 0
175 198 0
175 198 0
175 198 0
176 199 0
176 198 0
173 197 0
174 198 0
175 198 0
174 198 0
175 198 0
173 197 0
175 198 0
174 198 0
174 198 0
175 198 0
175 198 0
174 197 0
174 198 0
175 198 0
173 197 0
174 197 0
175 198 0
175 198 0
173 197 0
176 198 0
175 198 0
174 198 0
175 198 0
174 198 0
173 197 0
175 198 0
174 198 0
173 197 0
174 198 0
175 198 0
174 198 0
174 198 0
174 198 0
173 197 0
175 198 0
175 198 0
175 198 0
175 198 0
175 198 0
173 197 0
175 198 0
175 198 0
175 198 0
174 198 0
174 198 0
177 199 0
174 197 0
174 197 0
175 198 0
174 197 0
175 198 0
175 198 0
175 198 0
175 198 0
175 198 0
175 198 0
175 198 0
174 197 0
173 197 0
175 198 0
173 196 0
174 198 0
174 198 0
173 197 0
174 198 0
176 199 0
175 198 0
173 197 0
175 198 0
175 198 0
175 198 0
175 198 0
173 197 0
176 198 0
172 196 0
174 197 0
183 204 135
214 232 255
214 232 255
214 232 255
214 232 255
214 232 255
214 232 255
214 232 255
214 232 255
214 232 255
214 232 255
199 217 242
60 95 140
60 95 141
61 96 148
60 95 139
61 96 144
61 96 148
59 94 128
61 96 144
61 96 147
61 97 152
61 97 154
60 95 139
61 97 148
62 97 149
61 96 153
60 96 141
62 97 154
61 97 154
63 99 165
62 97 153
62 97 156
61 96 147
62 98 153
60 96 147
62 97 150
61 97 154
62 97 149
62 98 154
62 98 153
61 97 155
61 97 151
62 98 153
61 97 150
62 97 152
61 97 149
62 97 155
61 97 151
61 97 149
63 98 157
62 98 156
60 95 145
62 97 153
61 97 154
61 96 151
62 97 154
61 97 153
61 96 154
62 97 153
61 96 144
61 96 149
61 97 155
61 97 150
61 96 150
61 97 154
62 98 157
62 98 160
61 97 156
62 97 149
61 97 149
62 97 153
60 96 145
61 96 147
63 98 153
62 97 153
61 97 154
62 98 154
61 97 159
61 97 157
60 95 144
62 98 159
61 97 154
61 96 151
60 94 138
62 97 155
62 98 157
60 95 147
60 95 151
60 95 152
60 95 149
60 95 154
60 94 144
60 94 152
60 93 144
60 95 155
61 95 149
60 94 149
62 97 158
59 92 137
59 92 140
60 94 156
59 91 146
58 90 144
201 219 245
214 232 255
214 232 255
214 232 255
214 232 255
214 232 255
214 232 255
214 232 255
214 232 255
214 232 255
214 232 255
190 199 197
178 186 179
167 175 167
175 184 180
171 177 162
162 170 163
154 163 156
164 172 164
159 166 152
165 171 154
161 168 152
155 162 149
168 174 159
161 166 146
155 160 141
153 158 136
167 173 154
160 164 137
157 161 137
157 161 135
153 156 129
160 162 131
164 169 145
149 149 106
157 160 130
162 165 135
167 167 130
164 165 132
156 158 121
158 159 117
159 159 120
160 160 119
161 159 106
170 168 122
159 158 116
170 167 115
165 163 114
170 168 118
166 165 122
169 167 117
178 176 134
163 161 109
169 168 122
171 168 114
172 169 119
167 165 117
172 168 108
168 165 108
170 167 108
168 165 113
175 171 115
171 167 108
166 163 103
174 170 112
174 171 114
175 172 117
175 171 111
171 168 110
175 170 112
176 172 115
180 176 121
176 173 118
177 174 125
181 177 125
177 173 117
179 175 122
181 176 121
172 168 108
178 174 120
176 172 111
180 175 120
177 173 114
180 176 124
180 176 123
176 171 109
179 173 113
177 173 115
177 172 112
181 175 117
178 172 109
180 176 121
179 173 111
183 179 126
179 174 113
177 174 118
180 177 126
177 173 115
181 177 125
182 179 132
178 175 120
178 174 115
178 174 117
179 175 118
182 177 122
178 175 119
182 177 123
181 178 125
179 177 128
182 180 133
179 174 115
181 176 120
182 179 132
180 177 126
180 177 126
183 180 130
177 172 108
180 177 124
185 182 135
182 178 126
183 181 136
183 178 126
180 178 131
181 177 122
181 177 126
179 176 121
179 177 125
177 174 122
180 177 126
180 177 126
184 182 139
183 183 144
185 183 142
182 179 127
182 181 139
178 175 122
186 183 139
182 180 134
185 183 141
181 181 136
187 186 149
182 182 142
186 184 146
184 180 132
183 181 137
187 187 151
182 182 139
183 180 132
178 175 122
188 189 158
187 187 153
184 180 130
184 182 136
188 187 154
174 197 0
174 198 0
173 197 0
175 198 0
175 198 0
175 198 0
174 197 0
174 198 0
173 197 0
175 198 0
174 198 0
173 197 0
176 198 0
174 198 0
175 198 0
174 198 0
174 198 0
174 197 0
173 197 0
175 198 0
175 198 0
174 198 0
175 198 0
175 198 0
174 198 0
175 198 0
174 198 0
174 198 0
174 198 0
174 197 0
174 197 0
174 198 0
175 198 0
174 198 0
175 198 0
175 198 0
173 197 0
175 198 0
175 198 0
174 198 0
174 198 0
177 199 0
173 197 0
174 198 0
174 198 0
173 197 0
174 198 0
175 198 0
176 198 0
175 198 0
176 199 0
174 198 0
175 198 0
175 198 0
176 198 0
174 197 0
175 198 0
175 198 0
174 198 0
173 197 0
174 198 0
175 198 0
174 198 0
175 198 0
175 198 0
176 198 0
172 197 0
175 198 0
175 198 0
175 198 0
174 198 0
176 199 0
174 198 0
176 198 0
174 198 0
172 197 0
175 198 0
176 199 0
174 198 0
175 198 0
174 198 0
174 198 0
174 198 0
175 198 0
173 197 0
175 198 0
174 198 0
175 198 0
175 198 0
175 198 0
173 197 0
174 198 0
175 198 0
173 197 0
173 197 0
174 197 0
174 198 0
174 197 0
174 197 0
176 199 0
176 199 0
175 198 0
174 197 0
174 197 0
174 198 0
176 198 0
175 198 0
176 198 0
174 198 0
173 197 0
173 197 0
173 197 0
176 198 0
175 198 0
175 198 0
175 198 0
175 198 0
173 197 0
174 198 0
174 198 0
173 197 0
175 198 0
175 198 0
175 198 0
173 197 0
175 198 0
174 198 0
174 198 0
173 197 0
173 197 0
174 198 0
174 198 0
176 199 0
174 198 0
175 198 0
174 198 0
176 199 0
174 197 0
175 198 0
174 197 0
172 196 0
173 196 0
174 197 0
198 218 196
215 232 255
215 232 255
215 232 255
215 232 255
215 232 255
215 232 255
215 232 255
215 232 255
215 232 255
138 159 183
59 94 130
61 97 145
60 95 147
60 96 139
61 96 148
60 96 145
61 97 151
61 96 145
60 96 143
62 98 157
61 97 150
60 96 151
61 96 142
59 94 133
61 96 151
62 98 154
61 96 149
62 97 147
61 96 141
61 96 143
61 96 150
61 97 154
62 97 151
61 96 149
60 96 151
60 95 143
62 97 153
62 98 158
61 95 137
60 95 142
61 97 156
62 97 153
62 98 155
61 97 151
62 98 159
60 96 147
62 98 159
60 96 149
61 97 156
62 98 161
61 97 150
62 97 158
62 97 149
62 98 162
62 97 151
61 97 154
62 97 153
61 96 145
62 97 150
63 98 161
61 97 147
61 96 147
62 98 158
62 98 158
63 98 158
62 97 157
60 95 150
62 97 151
62 98 157
61 96 150
63 98 162
61 97 154
61 96 147
61 96 152
62 97 158
62 96 145
61 96 151
61 96 155
62 97 150
61 97 155
62 97 156
62 97 146
63 98 158
61 97 158
61 95 146
62 97 156
61 96 156
62 96 156
61 96 149
60 95 144
60 95 155
60 94 146
60 95 153
61 95 148
60 93 144
59 92 146
60 93 144
61 95 155
58 91 144
59 91 141
58 91 145
59 91 144
141 161 195
215 232 255
215 232 255
215 232 255
215 232 255
215 232 255
215 232 255
215 232 255
215 232 255
215 232 255
207 221 234
182 189 181
181 189 182
172 179 171
165 172 158
159 165 153
164 171 158
152 162 160
163 170 157
167 174 157
154 159 141
161 167 153
153 161 151
162 166 144
156 160 134
153 159 141
152 156 129
157 162 139
149 153 128
153 157 134
164 167 140
158 161 133
167 170 142
154 156 121
158 160 130
163 164 126
168 169 136
160 163 133
159 161 130
153 153 110
161 161 121
165 167 129
164 162 116
161 161 121
163 161 110
165 163 110
165 165 121
163 162 119
166 163 110
166 165 117
169 166 117
170 166 115
166 163 103
171 168 118
168 165 111
172 168 114
171 169 114
167 166 118
171 168 117
172 168 114
170 167 113
172 167 110
172 169 113
172 170 119
175 172 117
168 165 105
176 173 120
170 167 109
176 172 118
171 167 111
178 174 116
177 172 114
174 171 115
174 169 107
179 176 122
178 174 116
178 174 120
181 177 121
176 172 112
177 172 114
179 174 113
179 175 118
175 171 107
180 174 115
177 172 110
180 174 118
175 172 114
181 175 117
178 174 117
177 172 109
181 178 127
179 176 122
178 173 112
182 179 129
176 171 109
180 176 123
180 176 121
180 177 124
178 173 111
179 174 116
180 176 124
180 176 120
178 173 115
181 177 124
180 175 118
178 175 122
177 172 110
179 176 126
181 177 122
182 180 134
179 173 110
179 175 120
177 173 111
178 175 122
180 177 125
180 178 128
179 176 126
184 182 137
177 173 113
183 181 137
180 178 127
181 177 122
187 185 144
181 179 130
182 181 139
178 175 120
180 177 126
182 182 139
178 174 118
181 180 135
181 178 126
182 180 132
179 177 123
182 180 134
177 176 124
180 177 125
184 182 139
183 182 140
184 182 137
187 185 146
184 183 142
181 181 138
182 181 138
186 186 149
182 179 127
186 184 142
184 182 138
183 182 140
188 188 154
185 184 145
184 183 142
184 182 137
191 193 167
185 185 150
175 198 0
176 199 0
174 198 0
175 198 0
174 198 0
174 197 0
173 197 0
173 197 0
173 197 0
174 198 0
175 198 0
174 197 0
173 197 0
174 198 0
174 197 0
174 198 0
175 198 0
174 198 0
175 198 0
175 198 0
173 197 0
175 198 0
175 198 0
174 198 0
174 198 0
175 198 0
175 198 0
174 197 0
176 199 0
175 198 0
175 198 0
174 198 0
175 198 0
174 198 0
176 199 0
173 197 0
176 199 51
184 205 105
185 205 99
189 208 125
191 210 137
192 212 149
197 215 163
196 215 161
198 216 173
203 220 188
205 222 193
210 225 209
208 224 201
208 224 203
211 226 211
212 227 214
218 232 233
214 228 221
218 232 234
215 229 223
218 232 234
217 231 231
219 232 234
221 234 242
221 234 244
220 234 240
220 233 238
219 233 237
221 234 241
218 232 234
220 234 240
218 232 233
219 232 236
217 231 231
216 230 228
214 229 221
216 230 227
211 227 212
203 220 188
208 224 201
209 224 204
207 223 199
203 220 182
198 216 165
197 215 159
192 211 140
193 212 144
186 206 108
181 203 88
176 200 57
176 198 0
175 198 0
174 198 0
174 198 0
174 198 0
175 198 0
173 197 0
175 198 0
174 198 0
176 199 0
174 198 0
174 198 0
174 197 0
174 198 0
174 197 0
174 197 0
174 198 0
175 198 0
175 198 0
175 198 0
175 198 0
174 198 0
173 197 0
175 198 0
175 198 0
175 198 0
174 198 0
175 198 0
175 198 0
174 198 0
175 198 0
175 198 0
175 198 0
175 198 0
172 197 0
175 198 0
173 197 0
175 198 0
174 198 0
174 197 0
173 197 0
175 198 0
173 197 0
174 198 0
174 197 0
173 197 0
174 197 0
176 199 0
174 198 0
176 199 0
173 197 0
174 198 0
173 197 0
175 198 0
175 198 0
173 197 0
173 196 0
179 201 99
214 231 253
215 232 255
215 232 255
215 232 255
215 232 255
215 232 255
215 232 255
215 232 255
207 224 246
63 97 133
59 95 140
60 95 139
60 95 141
60 95 143
60 95 134
61 97 144
60 95 145
61 97 147
60 96 147
61 97 153
61 96 144
61 97 152
61 96 150
63 98 157
61 96 142
61 97 152
62 97 149
62 97 153
60 95 142
62 97 151
61 96 147
61 97 150
61 96 144
61 96 144
62 98 157
61 96 141
61 96 144
61 96 156
61 97 156
61 96 144
62 97 153
61 96 150
61 97 148
63 98 153
61 97 149
61 97 150
61 97 149
60 95 147
61 96 148
61 96 141
62 97 149
61 97 150
61 97 150
61 95 143
62 97 152
61 97 151
62 98 159
62 98 156
61 96 149
62 98 158
61 97 144
61 96 146
62 98 155
62 97 154
61 97 155
62 98 159
62 97 148
61 96 148
61 97 154
62 98 155
62 98 156
61 96 145
63 98 162
61 96 148
61 97 149
61 96 147
60 95 150
62 98 157
61 97 152
61 96 150
60 95 143
61 96 151
62 97 163
61 96 152
62 97 156
60 95 150
61 96 149
60 94 142
61 96 149
61 96 153
61 96 158
60 95 146
60 94 147
60 93 142
59 94 139
60 94 150
60 94 148
60 94 145
60 94 151
60 93 148
60 93 151
57 88 133
61 92 148
204 221 248
215 232 255
215 232 255
215 232 255
215 232 255
215 232 255
215 232 255
215 232 255
215 232 254
191 200 199
172 180 172
173 179 168
176 185 177
168 175 163
165 173 166
167 173 162
145 153 144
146 152 138
161 167 152
162 170 164
149 155 137
154 160 144
158 163 139
158 163 139
155 162 150
147 152 131
152 156 130
160 163 136
155 159 134
153 157 130
163 165 135
163 166 142
161 164 138
151 151 111
155 157 124
161 160 116
156 157 119
167 168 125
162 164 129
164 166 125
160 160 123
162 159 114
167 165 119
167 167 126
166 165 115
171 170 125
163 161 113
167 166 119
167 164 112
175 173 130
167 165 115
167 164 105
168 167 122
171 169 123
167 163 106
172 168 114
169 167 115
167 164 107
168 164 106
171 168 110
177 173 116
176 173 121
173 167 104
171 167 112
176 171 111
175 170 114
177 172 115
175 169 109
171 167 108
174 170 113
179 175 123
177 172 111
173 170 112
177 172 112
172 169 108
180 175 120
176 172 112
174 170 108
177 171 105
177 173 112
178 174 119
178 174 118
178 174 116
176 171 107
178 173 112
180 176 126
179 174 118
176 173 115
177 173 113
175 171 109
177 174 121
179 174 112
177 172 109
180 175 120
180 175 122
180 177 124
176 173 114
180 176 119
177 171 104
177 173 115
179 175 120
176 171 107
177 173 115
179 177 124
177 174 120
179 176 121
180 176 121
178 173 112
180 177 127
177 174 122
177 174 119
179 175 115
182 179 130
182 178 126
179 175 119
180 177 124
178 174 116
183 179 130
182 180 134
179 176 122
180 177 126
178 175 118
180 179 132
184 181 135
179 177 125
177 175 121
182 180 135
182 178 125
184 181 137
187 184 142
180 177 124
185 183 142
182 178 126
181 178 128
185 183 141
181 178 125
184 182 137
181 178 127
180 176 124
180 178 127
184 183 142
184 181 136
183 181 134
184 182 140
187 187 152
182 178 127
182 182 142
184 183 143
184 183 143
186 186 148
184 183 142
188 187 151
183 182 139
172 197 0
173 197 0
175 198 0
175 198 0
175 198 0
175 198 0
174 198 0
176 199 0
173 197 0
175 198 0
175 198 0
174 198 0
173 197 0
175 198 0
175 198 0
175 198 0
175 198 0
174 198 0
173 197 0
175 198 0
176 198 0
175 198 36
178 200 62
186 207 114
192 211 142
196 214 155
197 216 167
198 216 171
208 224 203
206 222 194
208 224 204
216 230 227
217 231 230
218 232 236
221 234 242
225 237 254
225 238 255
225 238 255
225 238 255
225 238 255
225 238 255
225 238 255
225 238 255
225 238 255
225 238 255
225 238 255
225 238 255
225 238 255
225 238 255
225 238 255
225 238 255
225 238 255
225 238 255
225 238 255
225 238 255
225 238 255
225 238 255
225 238 255
225 238 255
225 238 255
225 238 255
225 238 255
225 238 255
225 238 255
225 238 255
225 238 255
225 238 255
225 238 255
225 238 255
225 238 255
225 238 255
225 238 255
225 238 255
225 238 255
225 238 255
225 238 255
225 238 255
225 238 255
225 238 255
225 238 255
226 238 255
226 238 255
226 238 255
226 238 255
226 238 255
226 238 255
224 236 250
220 234 238
216 230 227
208 224 204
211 226 212
204 221 191
201 218 175
188 209 130
183 204 99
177 200 44
175 198 0
176 198 0
175 198 0
175 198 0
173 197 0
173 197 0
172 197 0
176 199 0
173 197 0
172 197 0
176 198 0
174 197 0
176 198 0
175 198 0
175 198 0
175 198 0
174 198 0
174 197 0
174 198 0
175 198 0
174 198 0
173 197 0
173 197 0
173 197 0
175 198 0
176 199 0
175 198 0
173 197 0
175 198 0
173 197 0
174 198 0
175 198 0
174 198 0
174 198 0
174 198 0
173 196 0
175 198 0
174 197 0
174 198 0
174 197 0
176 199 0
174 198 0
173 197 0
173 197 0
176 198 0
174 198 0
174 197 0
172 196 0
198 217 193
215 232 255
215 232 255
215 232 255
215 232 255
215 232 255
215 232 255
215 232 255
153 173 196
58 93 120
59 95 141
60 96 145
60 95 142
60 96 145
61 97 151
60 95 142
61 96 144
61 97 152
60 95 144
60 95 141
61 96 149
60 95 143
62 97 156
61 97 150
61 96 142
61 97 155
62 97 150
62 97 154
61 96 145
62 97 148
61 96 139
61 97 149
62 97 150
62 97 150
61 96 143
60 95 139
61 96 143
61 96 149
61 97 156
62 98 153
62 98 155
62 98 155
62 98 156
61 96 145
63 98 155
59 94 140
61 97 150
62 98 160
61 96 141
62 97 151
61 96 147
62 97 150
61 96 150
62 98 156
61 96 151
61 96 147
62 98 157
62 98 153
62 97 151
62 97 154
62 97 160
62 97 151
61 97 147
62 98 155
62 97 150
61 97 153
62 97 153
61 96 152
61 97 158
62 97 156
62 97 152
61 96 145
62 97 155
61 97 156
61 96 144
61 97 153
59 94 146
61 97 150
61 96 153
61 96 152
61 96 151
61 96 153
60 94 139
62 97 157
63 98 155
61 95 150
61 96 147
61 96 147
61 95 149
60 95 150
61 95 150
60 94 145
60 95 148
61 96 152
60 94 149
60 92 142
60 94 146
60 94 146
60 93 148
60 93 149
60 93 145
58 90 138
57 88 136
164 183 216
215 232 255
215 232 255
215 232 255
215 232 255
215 232 255
215 232 255
215 232 255
207 221 236
181 188 180
176 183 176
156 163 154
167 176 173
163 170 159
159 166 155
160 168 161
151 157 138
147 153 137
152 158 140
151 157 142
151 156 138
160 166 152
153 158 141
148 153 132
155 161 141
143 149 126
155 160 139
155 159 132
153 157 130
154 156 119
144 147 116
152 154 118
155 157 120
157 160 132
159 160 124
159 161 129
163 164 129
163 163 125
156 156 116
154 153 107
164 163 122
161 162 122
162 161 113
162 161 115
162 160 110
164 161 108
165 164 116
169 166 114
161 158 100
173 171 124
170 167 118
160 159 111
170 169 118
175 171 119
164 161 102
170 166 112
172 168 115
173 169 115
168 165 112
173 169 113
174 170 113
169 165 105
169 165 100
175 171 117
173 170 116
176 174 132
177 172 115
174 171 112
174 170 114
174 170 106
174 169 104
171 166 106
176 172 117
176 171 114
178 173 114
175 171 108
177 172 112
176 171 106
176 173 115
176 171 106
180 175 118
175 171 110
175 172 116
174 170 104
180 177 125
176 170 104
174 170 108
176 174 118
176 170 103
178 172 108
177 173 116
179 174 117
179 173 110
181 176 120
176 171 107
177 173 116
176 174 120
179 175 117
180 176 124
176 171 108
181 175 117
176 171 108
179 175 117
183 178 124
181 177 122
181 178 127
175 172 118
181 178 129
182 178 127
178 174 114
176 174 121
181 177 125
181 177 122
178 174 117
182 179 129
180 177 123
182 178 127
181 180 137
178 174 115
182 178 130
177 174 114
182 178 127
182 179 131
182 179 130
185 183 140
177 173 113
179 176 121
179 177 129
177 174 121
180 177 123
177 174 116
179 176 126
180 178 130
182 180 132
182 180 135
188 187 151
185 184 144
183 182 140
183 181 135
185 184 143
178 176 124
186 185 146
182 180 136
184 184 146
182 181 136
180 178 127
186 185 147
183 182 137
183 182 142
187 187 150
180 179 131
182 181 135
181 179 133
173 197 0
174 198 0
175 198 0
175 198 0
174 198 0
176 199 0
174 198 0
176 199 0
173 197 0
175 198 0
176 199 36
187 207 122
185 206 111
192 212 149
200 218 175
200 218 175
209 225 204
212 227 212
213 228 218
219 233 238
224 236 250
225 238 255
225 238 255
225 238 255
225 238 255
225 238 255
225 238 255
225 238 255
225 238 255
225 238 255
225 238 255
225 238 255
225 238 255
225 238 255
225 238 255
225 238 255
225 238 255
225 238 255
225 238 255
225 238 255
225 238 255
225 238 255
225 238 255
225 238 255
225 238 255
225 238 255
225 238 255
225 238 255
225 238 255
225 238 255
225 238 255
225 238 255
225 238 255
225 238 255
225 238 255
225 238 255
225 238 255
225 238 255
225 238 255
225 238 255
225 238 255
225 238 255
225 238 255
225 238 255
225 238 255
225 238 255
225 238 255
225 238 255
225 238 255
225 238 255
225 238 255
225 238 255
225 238 255
225 238 255
225 238 255
225 238 255
225 238 255
225 238 255
225 238 255
225 238 255
225 238 255
225 238 255
225 238 255
225 238 255
225 238 255
225 238 255
225 238 255
225 238 255
225 238 255
225 238 255
225 238 255
225 238 255
225 238 255
226 238 255
226 238 255
224 237 252
222 235 246
218 232 236
208 224 201
202 219 182
193 212 149
189 209 128
178 200 57
174 198 0
173 197 0
174 198 0
174 198 0
174 198 0
175 198 0
174 197 0
176 199 0
174 198 0
175 198 0
177 199 0
173 197 0
175 198 0
175 198 0
175 198 0
173 197 0
173 197 0
174 198 0
174 198 0
176 198 0
174 198 0
174 197 0
174 198 0
175 198 0
173 197 0
174 198 0
175 198 0
177 199 0
175 198 0
176 199 0
177 199 0
177 199 0
174 197 0
174 198 0
175 198 0
173 197 0
175 198 0
175 198 0
174 197 0
172 195 0
172 195 0
179 202 92
216 232 255
216 232 255
216 232 255
216 232 255
216 232 255
215 232 255
212 229 252
93 119 151
59 94 129
60 95 139
60 95 130
61 96 143
60 95 136
59 94 131
61 96 136
60 95 145
60 95 130
60 96 140
61 97 148
60 96 142
60 96 150
60 96 142
61 97 148
59 94 140
61 97 153
61 96 142
62 97 147
60 95 143
60 96 142
62 98 156
62 98 155
60 96 145
61 97 151
61 97 153
60 95 143
62 97 154
61 96 147
63 98 152
61 96 148
61 97 149
61 97 151
60 96 153
62 97 152
62 98 153
61 96 148
62 98 152
61 96 145
62 98 156
62 98 155
61 97 148
61 97 148
60 95 141
60 96 144
61 96 148
63 98 159
61 97 151
61 96 142
61 97 152
61 96 148
61 97 151
61 96 149
61 96 153
60 96 143
62 97 154
62 98 159
61 96 153
62 97 153
61 96 148
60 95 143
62 97 153
60 95 141
62 97 155
61 96 149
61 96 152
61 97 154
62 97 154
62 97 151
61 96 149
62 97 156
60 94 141
62 97 153
60 94 143
61 96 149
61 96 143
61 96 146
61 95 151
60 95 144
60 94 154
61 95 151
60 94 139
60 95 140
61 96 152
61 95 147
61 95 156
61 95 149
60 94 140
60 94 145
61 95 150
58 90 135
59 93 147
60 92 143
58 89 132
83 110 159
214 231 254
215 232 255
215 232 255
216 232 255
216 232 255
216 232 255
215 231 252
193 203 202
179 186 179
163 169 157
166 175 172
169 176 164
158 165 153
150 158 146
156 162 145
142 151 148
161 170 167
141 149 135
149 157 144
143 150 132
161 168 156
143 149 132
149 155 139
149 155 136
157 161 137
158 162 135
144 147 116
152 154 124
156 158 130
159 161 130
152 153 115
152 153 122
158 159 121
159 160 118
158 160 124
153 154 114
165 165 128
161 162 124
163 165 132
158 158 113
162 162 115
161 160 114
164 163 117
169 168 125
165 163 112
166 164 118
166 164 110
163 161 108
165 162 104
165 163 112
165 163 111
173 169 112
171 166 103
172 169 115
174 169 109
167 163 104
174 169 108
169 167 113
173 167 110
174 171 116
171 167 110
172 168 110
173 168 110
173 169 110
176 172 115
175 171 114
174 170 111
173 170 113
176 172 113
175 171 118
176 170 106
172 169 107
176 172 115
174 170 110
175 170 110
176 171 108
176 171 113
174 170 107
173 169 107
176 171 108
176 171 112
174 170 110
178 171 108
176 172 111
180 177 124
176 170 104
179 173 114
175 173 116
179 174 112
176 171 107
179 173 112
178 172 106
179 172 107
178 174 114
178 172 109
178 174 118
178 173 112
179 173 112
178 174 116
181 177 122
178 173 114
179 174 115
179 176 121
178 174 115
176 171 107
179 175 120
176 172 112
177 171 108
182 178 125
179 177 125
178 175 119
177 174 116
182 179 130
180 176 119
177 174 116
181 179 130
178 174 118
178 173 113
181 180 134
176 171 109
181 178 127
178 175 121
187 185 148
180 177 125
181 180 136
183 180 132
182 177 123
180 176 120
178 175 120
182 179 130
181 179 132
182 181 135
180 177 127
178 175 121
182 181 141
182 180 134
181 178 130
181 178 130
180 177 127
186 182 134
184 182 138
180 178 129
186 184 142
178 177 126
183 182 140
185 183 142
182 177 123
184 183 141
185 185 147
185 184 147
186 185 148
187 188 157
176 199 51
183 205 102
186 207 117
191 210 140
200 217 173
205 221 191
210 226 209
214 229 224
217 231 230
224 237 252
225 238 255
225 238 255
225 238 255
225 238 255
225 238 255
225 238 255
225 238 255
225 238 255
225 238 255
225 238 255
225 238 255
225 238 255
225 238 255
225 238 255
225 238 255
225 238 255
225 238 255
225 238 255
225 238 255
225 238 255
225 238 255
225 238 255
225 238 255
225 238 255
225 238 255
225 238 255
225 238 255
225 238 255
225 238 255
225 238 255
225 238 255
225 238 255
225 238 255
225 238 255
225 238 255
225 238 255
225 238 255
225 238 255
225 238 255
225 238 255
225 238 255
225 238 255
225 238 255
225 238 255
225 238 255
225 238 255
225 238 255
225 238 255
225 238 255
225 238 255
225 238 255
225 238 255
225 238 255
225 238 255
225 238 255
225 238 255
225 238 255
225 238 255
225 238 255
225 238 255
225 238 255
225 238 255
225 238 255
225 238 255
225 238 255
225 238 255
225 238 255
225 238 255
225 238 255
225 238 255
225 238 255
225 238 255
225 238 255
225 238 255
225 238 255
225 238 255
225 238 255
225 238 255
225 238 255
225 238 255
225 238 255
225 238 255
225 238 255
225 238 255
225 238 255
225 238 255
225 238 255
225 238 255
225 238 255
225 238 255
225 238 255
226 238 255
226 238 255
221 234 241
213 228 218
209 225 206
199 216 167
185 206 114
181 203 92
175 198 0
174 197 0
175 198 0
175 198 0
175 198 0
173 197 0
174 198 0
174 197 0
175 198 0
175 198 0
174 198 0
175 198 0
174 198 0
176 199 0
173 197 0
174 197 0
173 197 0
173 197 0
175 198 0
174 197 0
173 197 0
173 197 0
174 197 0
175 198 0
175 198 0
175 198 0
175 198 0
175 198 0
173 197 0
175 198 0
175 198 0
175 198 0
174 198 0
175 198 0
170 193 0
174 197 0
203 221 209
216 233 255
216 233 255
216 232 255
216 232 255
216 232 255
180 198 221
58 94 126
60 95 144
60 95 141
60 95 131
60 95 135
59 94 130
60 95 140
61 96 144
62 97 150
61 96 148
61 96 144
60 96 143
61 97 150
61 96 142
61 96 147
61 96 155
61 97 145
62 97 151
60 96 148
61 97 148
60 96 145
62 98 154
61 96 147
60 95 134
61 97 152
60 95 143
61 97 151
61 97 154
62 97 150
60 95 135
60 95 141
62 97 151
61 96 140
61 96 145
61 96 150
61 97 142
61 97 150
61 97 152
61 96 147
62 97 152
61 96 149
62 97 150
61 96 144
61 97 151
62 97 154
62 97 148
61 96 149
61 97 147
61 97 150
60 96 145
62 97 153
61 96 143
62 97 157
61 96 142
61 96 150
61 96 148
64 99 161
61 96 143
62 98 156
62 98 155
61 96 145
62 98 153
60 95 140
61 96 150
61 96 142
61 96 147
61 96 149
62 98 153
61 96 146
61 96 145
61 97 152
61 96 144
60 95 148
60 95 138
61 96 145
61 95 148
60 95 143
62 97 155
61 95 142
61 96 142
61 95 150
60 95 146
61 95 147
60 95 143
59 94 139
61 96 149
60 93 143
60 94 148
61 94 144
60 93 141
60 93 143
60 93 142
59 92 143
59 89 137
58 90 143
57 87 139
185 203 228
216 232 255
216 232 255
216 232 255
216 233 255
216 233 255
206 219 233
184 193 189
171 179 176
174 181 174
168 175 167
156 164 158
155 163 156
146 154 146
143 152 149
147 155 143
155 164 158
142 150 140
159 168 166
136 141 119
153 159 143
156 162 145
151 156 139
144 149 128
153 156 130
144 148 123
143 145 108
142 148 126
156 159 130
156 159 132
143 147 115
142 145 116
142 143 103
155 156 115
158 159 123
148 150 111
157 155 104
159 159 123
162 162 121
153 154 110
156 156 114
166 165 119
169 168 119
160 159 117
160 159 109
159 159 113
168 167 118
165 162 109
165 161 101
167 163 102
165 163 110
165 162 107
170 167 106
171 166 106
168 164 105
173 169 117
168 163 103
173 168 104
172 168 108
168 164 100
170 165 106
165 161 100
171 169 117
174 170 108
171 167 108
173 168 107
176 171 109
171 166 103
172 167 99
175 170 108
175 170 105
177 171 101
176 171 108
174 168 102
172 167 99
175 171 109
174 169 100
178 172 108
175 169 104
177 171 106
176 171 109
177 171 107
174 171 116
178 172 107
176 172 115
174 170 105
175 170 105
174 169 105
177 172 113
180 173 110
177 172 109
177 174 117
178 173 114
176 171 109
179 174 111
177 173 112
177 173 113
179 174 114
179 174 116
179 176 123
178 174 118
179 173 110
175 169 102
181 176 120
177 173 115
178 173 113
185 182 136
181 175 116
179 175 120
182 177 121
179 176 122
183 179 128
181 177 122
180 175 117
180 177 125
180 177 125
177 173 116
180 178 126
178 175 122
180 176 120
178 175 121
183 181 135
182 180 135
178 174 116
180 178 126
180 176 122
182 180 133
179 174 112
177 175 120
184 180 130
182 180 134
182 179 130
182 179 128
183 181 136
183 180 132
182 180 132
182 180 134
177 176 123
183 181 134
183 179 129
182 179 131
181 180 136
183 179 125
183 182 140
185 184 145
182 178 128
182 179 131
184 183 140
190 190 157
181 180 135
182 177 123
184 183 142
225 238 255
225 238 255
225 238 255
225 238 255
225 238 255
225 238 255
225 238 255
225 238 255
225 238 255
225 238 255
225 238 255
225 238 255
225 238 255
225 238 255
225 238 255
225 238 255
225 238 255
225 238 255
225 238 255
225 238 255
225 238 255
225 238 255
225 238 255
225 238 255
225 238 255
225 238 255
225 238 255
225 238 255
225 238 255
225 238 255
225 238 255
225 238 255
225 238 255
225 238 255
225 238 255
225 238 255
225 238 255
225 238 255
225 238 255
225 238 255
225 238 255
225 238 255
225 237 255
225 237 255
225 237 255
225 237 255
225 237 255
225 237 255
225 237 255
225 237 255
225 237 255
225 237 255
225 237 255
225 237 255
225 237 255
225 237 255
225 237 255
225 237 255
225 237 255
225 237 255
225 237 255
225 237 255
225 237 255
225 237 255
225 237 255
225 237 255
225 237 255
225 237 255
225 237 255
225 237 255
225 237 255
225 237 255
225 237 255
225 238 255
225 238 255
225 238 255
225 238 255
225 238 255
225 238 255
225 238 255
225 238 255
225 238 255
225 238 255
225 238 255
225 238 255
225 238 255
225 238 255
225 238 255
225 238 255
225 238 255
225 238 255
225 238 255
225 238 255
225 238 255
225 238 255
225 238 255
225 238 255
225 238 255
225 238 255
225 238 255
225 238 255
225 238 255
225 238 255
225 238 255
225 238 255
225 238 255
225 238 255
225 238 255
226 238 255
221 234 240
210 225 207
204 221 188
197 215 163
181 202 80
173 197 0
174 197 0
174 198 0
172 197 0
173 197 0
174 197 0
174 198 0
175 198 0
175 198 0
175 198 0
175 198 0
175 198 0
175 198 0
173 197 0
174 198 0
175 198 0
175 198 0
174 198 0
175 198 0
174 198 0
175 198 0
177 199 0
175 198 0
175 198 0
175 198 0
173 197 0
173 197 0
174 198 0
173 197 0
174 197 0
173 197 0
184 205 128
216 233 255
216 233 255
216 233 255
216 233 255
216 233 255
126 148 177
60 96 143
59 94 130
59 95 137
61 96 142
60 96 143
60 95 135
61 97 145
61 96 149
60 96 137
61 97 147
60 95 140
61 97 153
61 96 145
60 95 137
60 96 144
60 96 141
60 96 149
60 95 142
61 96 141
61 97 149
62 97 153
60 95 137
61 96 145
61 96 142
61 96 141
61 96 149
61 97 152
61 96 145
60 96 145
61 96 145
60 95 131
61 96 147
60 95 142
62 97 150
61 96 143
60 95 143
62 97 160
62 97 151
60 96 141
62 97 150
60 96 144
61 96 145
61 97 148
60 96 148
61 96 142
62 98 155
61 96 147
62 97 150
61 96 147
61 97 153
61 96 145
60 95 142
61 96 152
62 98 160
61 96 143
61 96 142
61 97 153
61 97 153
60 95 140
62 98 156
62 97 152
60 95 143
61 97 155
62 97 149
62 97 145
60 95 144
61 96 147
61 96 144
61 96 147
62 97 148
61 96 152
62 98 155
61 96 149
61 97 152
61 96 148
60 96 145
61 96 150
61 96 147
60 95 142
61 96 151
61 96 147
60 94 140
61 95 147
60 94 140
61 95 149
61 95 144
60 94 141
61 95 150
59 92 138
59 92 145
59 91 144
59 93 143
58 90 138
57 90 138
59 91 138
57 88 134
122 142 176
216 233 255
216 233 255
216 233 255
216 233 255
216 233 255
190 198 195
173 181 176
173 177 163
162 170 164
153 161 153
151 159 152
156 163 155
141 149 137
145 153 143
143 151 144
137 144 131
145 152 139
136 143 128
149 155 138
144 149 131
140 147 132
157 162 144
141 145 122
145 150 129
142 149 129
138 145 127
144 148 123
159 161 129
150 153 123
152 153 116
152 155 124
160 160 120
156 158 128
157 156 111
159 160 120
166 166 123
149 149 107
161 161 121
163 162 115
160 159 108
158 155 100
162 161 115
158 155 99
158 156 103
160 160 111
165 162 113
161 159 110
170 166 114
162 159 99
162 159 104
169 165 106
165 162 104
166 162 102
169 165 108
168 164 106
168 165 109
169 165 101
173 169 113
171 168 111
170 166 103
169 165 103
174 171 113
172 167 107
171 167 102
170 166 108
175 170 109
181 176 121
169 165 101
173 167 102
172 168 106
176 172 109
178 172 109
175 170 108
174 169 103
174 168 99
174 169 103
180 173 110
175 170 105
175 169 103
177 171 108
176 171 111
174 169 105
179 175 118
175 171 110
174 171 109
177 171 108
179 173 106
174 171 108
178 172 108
177 173 112
178 173 109
179 175 118
178 172 106
180 175 113
175 171 106
177 175 122
177 172 108
179 173 110
178 173 110
178 173 115
178 174 120
175 172 112
181 176 121
178 174 117
180 174 113
181 178 130
177 172 109
177 173 110
178 175 120
182 177 120
179 177 125
178 173 114
179 176 122
180 178 131
179 175 118
182 181 137
180 176 120
181 176 119
178 175 120
181 178 127
183 180 132
177 174 115
182 180 135
182 177 121
180 176 122
182 178 128
180 175 118
184 181 133
181 179 131
185 182 135
182 181 138
185 184 141
177 174 117
179 175 122
185 182 135
183 182 141
181 178 125
184 183 142
183 179 127
185 183 142
183 180 133
185 184 145
183 180 132
178 176 124
186 185 147
184 182 138
186 185 145
182 180 135
181 176 118
187 187 151
185 185 147
225 238 255
225 238 255
225 238 255
225 238 255
225 238 255
225 238 255
225 238 255
225 238 255
225 238 255
225 238 255
225 238 255
225 238 255
225 238 255
225 238 255
225 238 255
225 238 255
225 238 255
225 238 255
225 237 255
225 237 255
225 237 255
225 237 255
225 237 255
225 237 255
225 237 255
225 237 255
225 237 255
225 237 255
225 237 255
225 237 255
225 237 255
225 237 255
225 237 255
225 237 255
225 237 255
225 237 255
225 237 255
225 237 255
225 237 255
224 237 255
224 237 255
224 237 255
224 237 255
224 237 255
224 237 255
224 237 255
224 237 255
224 237 255
224 237 255
224 237 255
224 237 255
224 237 255
224 237 255
224 237 255
224 237 255
224 237 255
224 237 255
224 237 255
224 237 255
224 237 255
224 237 255
224 237 255
224 237 255
224 237 255
224 237 255
224 237 255
224 237 255
224 237 255
224 237 255
224 237 255
224 237 255
224 237 255
224 237 255
224 237 255
224 237 255
224 237 255
225 237 255
225 237 255
225 237 255
225 237 255
225 237 255
225 237 255
225 237 255
225 237 255
225 237 255
225 237 255
225 237 255
225 237 255
225 237 255
225 237 255
225 237 255
225 238 255
225 238 255
225 238 255
225 238 255
225 238 255
225 238 255
225 238 255
225 238 255
225 238 255
225 238 255
225 238 255
225 238 255
225 238 255
225 238 255
225 238 255
225 238 255
225 238 255
225 238 255
225 238 255
225 238 255
225 238 255
225 238 255
226 238 255
222 235 245
208 224 201
203 220 182
186 206 105
175 199 36
175 198 0
174 198 0
175 198 0
175 198 0
175 198 0
174 198 0
173 197 0
175 198 0
175 198 0
176 199 0
174 198 0
174 198 0
174 198 0
174 198 0
176 198 0
174 198 0
175 198 0
174 198 0
174 197 0
174 198 0
174 198 0
175 198 0
175 198 0
174 198 0
172 196 0
172 196 0
173 196 0
212 229 240
216 233 255
216 233 255
216 233 255
213 230 252
78 108 142
59 95 129
59 94 126
58 93 122
60 95 136
59 95 142
60 95 139
60 96 139
60 95 133
60 95 143
61 96 143
60 96 148
61 97 148
61 96 142
61 97 151
61 96 152
61 96 144
62 97 150
61 96 144
60 95 144
61 97 156
61 96 142
61 97 145
61 97 152
61 96 145
61 96 143
61 97 147
60 96 150
61 96 143
61 96 143
62 97 152
61 96 141
60 96 152
61 95 140
62 98 157
62 97 152
60 95 140
60 95 139
62 98 154
61 97 151
61 97 150
61 96 144
62 97 150
61 97 148
61 96 140
61 97 149
61 97 149
63 98 154
63 98 160
61 96 149
60 96 148
62 97 155
62 98 153
61 96 145
62 97 149
61 96 144
61 96 145
60 95 138
61 96 151
62 98 150
61 95 150
61 95 141
60 95 140
61 96 141
61 97 155
61 95 155
62 97 152
62 97 149
60 95 140
60 95 140
61 95 145
61 95 148
61 95 146
59 93 139
62 97 149
61 96 149
60 94 143
61 96 145
60 94 144
61 96 144
61 97 154
60 94 143
60 94 148
60 95 144
60 95 145
61 94 144
60 95 147
60 93 139
60 94 144
59 91 139
61 94 151
59 91 136
59 92 141
60 93 146
59 91 145
60 92 144
56 87 135
75 100 143
211 227 249
216 233 255
216 233 255
216 233 255
214 229 248
179 188 188
169 177 175
172 181 177
150 158 154
157 167 167
146 155 152
148 155 143
151 159 152
148 157 148
152 160 154
150 159 154
133 141 129
145 151 131
141 146 128
150 156 139
146 151 135
131 138 120
156 159 134
148 151 124
147 151 123
144 148 124
143 146 116
147 151 123
148 152 125
151 153 117
147 149 113
149 150 113
159 158 117
152 152 111
155 154 108
162 163 126
157 156 106
158 160 123
157 156 108
159 157 110
166 165 123
156 154 105
161 159 108
165 161 107
167 166 120
163 162 116
160 158 106
164 160 103
165 163 117
166 163 106
165 163 108
162 160 105
166 162 99
168 164 102
167 164 105
167 163 100
170 167 111
172 167 104
169 165 100
172 167 104
167 163 104
166 164 106
169 165 107
172 167 105
175 170 107
171 167 104
171 166 100
173 169 106
173 168 99
174 169 104
175 170 106
179 172 106
173 168 105
180 174 118
176 169 101
177 171 108
177 171 107
177 173 113
175 170 104
174 168 99
175 170 107
176 171 104
173 169 106
170 165 88
174 169 103
174 169 102
177 170 101
177 172 107
176 172 115
179 173 112
176 170 103
176 171 106
175 171 112
176 171 108
177 173 115
175 171 107
177 172 109
175 170 107
178 174 117
181 176 119
179 174 112
178 174 115
179 174 116
181 177 126
175 171 112
178 173 110
179 177 124
180 175 116
181 177 123
178 174 120
181 177 122
178 174 114
178 174 114
176 171 108
182 178 126
182 177 120
182 179 130
175 172 115
179 177 126
183 179 127
173 170 103
176 172 110
179 176 124
179 177 125
182 179 130
177 175 118
180 177 125
181 178 127
180 176 117
181 177 122
183 181 138
182 181 136
180 175 117
181 176 118
181 179 131
183 181 135
186 185 145
179 177 124
178 175 118
186 185 147
186 185 149
186 184 143
182 178 125
184 185 147
186 184 142
185 183 138
182 180 133
186 184 141
186 182 137
184 183 144
183 183 144
225 238 255
225 237 255
225 237 255
225 237 255
225 237 255
225 237 255
225 237 255
225 237 255
225 237 255
225 237 255
225 237 255
225 237 255
225 237 255
225 237 255
225 237 255
224 237 255
224 237 255
224 237 255
224 237 255
224 237 255
224 237 255
224 237 255
224 237 255
224 237 255
224 237 255
224 237 255
224 237 255
224 237 255
224 237 255
224 237 255
224 237 255
224 237 255
224 237 255
224 237 255
224 237 255
224 237 255
224 237 255
224 237 255
224 237 255
224 237 255
224 237 255
224 237 255
224 237 255
224 237 255
224 237 255
224 237 255
224 237 255
224 237 255
224 237 255
224 237 255
224 237 255
224 237 255
224 237 255
224 237 255
224 237 255
224 237 255
224 237 255
224 237 255
224 237 255
224 237 255
224 237 255
224 237 255
224 237 255
224 237 255
224 237 255
224 237 255
224 237 255
224 237 255
224 237 255
224 237 255
224 237 255
224 237 255
224 237 255
224 237 255
224 237 255
224 237 255
224 237 255
224 237 255
224 237 255
224 237 255
224 237 255
224 237 255
224 237 255
224 237 255
224 237 255
224 237 255
224 237 255
224 237 255
224 237 255
224 237 255
224 237 255
224 237 255
225 237 255
225 237 255
225 237 255
225 237 255
225 237 255
225 237 255
225 237 255
225 237 255
225 237 255
225 238 255
225 238 255
225 238 255
225 238 255
225 238 255
225 238 255
225 238 255
225 238 255
225 238 255
225 238 255
225 238 255
225 238 255
225 238 255
225 238 255
225 238 255
225 238 255
225 238 255
223 236 249
210 225 209
200 217 175
187 207 117
176 199 51
175 198 0
174 198 0
176 199 0
176 199 0
177 199 0
175 198 0
174 198 0
173 197 0
174 197 0
174 198 0
175 198 0
175 198 0
173 197 0
174 198 0
175 198 0
174 197 0
174 197 0
172 197 0
173 197 0
175 198 0
174 198 0
174 198 0
173 197 0
195 215 175
217 233 255
217 233 255
217 233 255
172 189 204
58 93 118
59 93 124
60 95 142
59 95 130
60 95 126
60 95 136
60 94 130
60 95 133
60 95 141
60 95 131
61 96 142
60 96 141
62 97 152
61 96 144
61 96 147
61 96 142
62 97 143
61 96 141
61 97 155
61 97 151
61 96 144
60 96 151
61 97 148
60 96 145
62 97 150
61 96 147
62 97 152
60 95 144
61 96 148
61 97 144
60 95 140
61 96 147
62 97 151
63 98 154
61 96 147
61 96 140
62 97 144
62 97 154
61 96 137
61 96 140
60 95 137
61 97 150
60 95 141
61 96 140
61 95 142
60 95 139
61 96 145
61 96 143
61 96 147
61 96 146
61 97 147
62 97 152
61 96 145
61 96 148
61 96 145
61 97 155
63 98 158
60 94 139
62 97 151
61 96 144
61 96 143
61 97 151
62 97 150
61 96 148
60 95 138
62 97 154
60 94 139
61 96 140
60 96 149
61 96 146
62 97 155
61 96 149
62 96 152
60 95 143
62 96 149
61 96 148
60 96 143
62 97 150
61 95 144
60 94 138
60 95 141
61 97 149
60 94 135
61 95 151
59 93 138
61 96 158
61 95 143
60 94 145
60 94 148
61 95 147
60 94 147
60 93 138
59 92 137
60 93 147
58 91 143
59 92 144
59 91 137
58 87 133
181 197 223
217 233 255
217 233 255
217 233 255
201 213 221
171 180 178
158 165 153
160 169 168
164 175 178
147 155 151
150 158 151
140 149 143
150 158 151
142 151 142
141 148 139
142 150 139
146 151 132
144 150 136
143 149 132
142 148 134
141 146 126
143 147 117
141 146 125
144 149 131
150 153 125
139 143 119
148 150 119
155 157 128
145 148 116
151 151 113
154 155 117
151 153 113
160 159 112
152 153 113
161 159 114
157 156 112
158 156 106
161 159 110
159 159 122
163 163 120
163 162 109
152 152 108
158 156 102
162 160 111
168 166 115
159 157 110
163 160 104
164 161 109
165 161 97
166 163 107
167 165 114
165 161 100
170 167 116
162 160 102
168 165 107
169 166 112
169 166 109
169 164 101
171 166 103
166 163 98
171 166 99
166 162 95
171 167 103
172 167 100
176 170 107
169 164 96
173 168 106
173 168 103
174 169 111
173 167 95
172 168 101
173 168 100
178 172 108
173 167 99
176 172 113
175 170 109
172 166 95
174 168 95
177 170 105
172 167 97
173 169 106
174 169 103
172 167 101
175 170 104
176 171 109
178 172 107
174 170 103
179 172 104
175 170 104
176 172 110
177 171 104
176 170 103
177 172 108
176 171 105
177 172 113
178 173 112
178 174 116
176 170 101
176 171 109
175 170 102
177 173 109
181 176 120
176 172 108
179 177 125
178 173 112
181 176 121
178 173 109
181 177 123
179 176 121
175 171 110
177 175 123
182 177 123
181 177 121
181 176 120
181 179 132
180 175 116
178 175 121
182 176 119
177 173 113
180 176 117
184 181 134
180 178 129
178 174 116
181 178 129
185 183 138
186 186 149
183 181 134
180 178 128
182 180 134
182 180 132
179 176 124
181 179 132
182 179 129
181 179 131
180 177 127
181 179 131
181 178 129
186 183 140
183 181 135
181 177 121
182 180 134
186 185 147
182 181 137
183 184 146
181 179 127
188 188 156
181 178 125
183 181 136
180 177 124
185 185 148
183 181 136
224 237 255
224 237 255
224 237 255
224 237 255
224 237 255
224 237 255
224 237 255
224 237 255
224 237 255
224 237 255
224 237 255
224 237 255
224 237 255
224 237 255
224 237 255
224 237 255
224 237 255
224 237 255
224 237 255
224 237 255
224 237 255
224 237 255
224 237 255
224 237 255
224 237 255
224 237 255
224 237 255
224 237 255
224 237 255
224 237 255
224 237 255
224 237 255
224 237 255
224 237 255
224 237 255
224 237 255
224 237 255
224 237 255
224 237 255
224 237 255
224 237 255
224 237 255
224 237 255
224 237 255
224 237 255
224 237 255
224 237 255
224 237 255
224 237 255
224 237 255
224 237 255
224 237 255
224 237 255
224 237 255
224 237 255
224 237 255
224 237 255
224 237 255
224 237 255
224 237 255
224 237 255
224 237 255
224 237 255
224 237 255
224 237 255
224 237 255
224 237 255
224 237 255
224 237 255
224 237 255
224 237 255
224 237 255
224 237 255
224 237 255
224 237 255
224 237 255
224 237 255
224 237 255
224 237 255
224 237 255
224 237 255
224 237 255
224 237 255
224 237 255
224 237 255
224 237 255
224 237 255
224 237 255
224 237 255
224 237 255
224 237 255
224 237 255
224 237 255
224 237 255
224 237 255
224 237 255
224 237 255
224 237 255
224 237 255
224 237 255
224 237 255
224 237 255
224 237 255
225 237 255
225 237 255
225 237 255
225 237 255
225 237 255
225 238 255
225 238 255
225 238 255
225 238 255
225 238 255
225 238 255
225 238 255
225 238 255
225 238 255
225 238 255
225 238 255
225 238 255
225 238 255
225 238 255
225 237 253
214 228 220
197 215 159
186 207 114
175 198 25
174 198 0
174 198 0
174 197 0
173 197 0
175 198 0
174 198 0
174 198 0
175 198 0
174 197 0
174 197 0
176 199 0
175 198 0
174 198 0
175 198 0
173 197 0
175 198 0
173 197 0
175 198 0
176 198 0
182 204 108
217 233 255
217 233 255
217 233 255
141 161 181
60 95 126
59 94 128
60 95 133
60 95 136
60 96 137
60 96 142
60 94 131
61 96 137
60 95 133
60 95 136
60 95 143
61 96 140
61 96 148
61 96 148
60 95 136
62 97 153
61 97 147
60 95 140
60 96 141
60 95 137
61 96 135
61 96 150
62 97 155
61 96 142
61 97 149
62 97 150
61 96 145
60 95 139
60 95 147
60 95 149
61 96 148
61 96 150
59 94 139
61 96 144
61 97 144
60 95 143
61 96 145
62 97 147
61 97 152
61 96 148
62 97 144
62 97 143
60 96 142
61 97 147
61 97 149
60 95 144
62 97 149
62 98 152
61 97 150
61 96 144
62 97 152
61 96 150
60 95 142
59 94 142
62 97 148
60 95 139
62 98 156
60 95 142
61 96 152
59 93 135
61 96 145
61 96 147
61 96 142
60 94 133
60 95 148
61 95 148
60 94 134
61 96 147
61 96 143
60 94 142
60 96 143
61 96 144
60 93 137
62 97 149
59 94 142
59 94 134
60 95 145
61 95 144
60 95 139
61 95 141
60 94 135
59 93 135
61 96 149
61 95 145
59 92 127
61 95 148
61 95 149
59 92 140
59 92 138
61 95 146
60 92 134
60 93 145
59 91 140
60 92 143
58 89 134
57 88 131
56 88 134
56 86 134
145 163 190
217 233 255
217 233 255
217 233 255
184 194 195
172 180 176
158 167 166
151 160 156
142 150 142
154 164 165
138 148 148
141 150 145
136 144 139
135 143 130
134 142 130
135 143 136
150 160 158
136 143 130
133 139 125
137 144 131
132 138 116
140 145 128
139 144 123
140 146 128
148 152 128
137 138 103
142 145 119
145 147 111
145 148 120
146 146 102
146 148 116
152 153 116
155 156 121
147 150 112
146 145 100
158 158 118
150 152 116
161 160 115
164 163 120
157 156 105
166 165 119
153 151 97
159 156 102
159 158 104
163 160 110
160 157 103
157 154 98
164 162 111
167 163 103
168 163 99
169 165 108
166 163 105
164 160 96
161 159 104
170 168 117
163 160 96
169 164 99
168 163 97
165 161 100
171 167 106
171 165 98
170 168 109
171 166 98
168 164 102
169 165 100
174 168 104
173 167 103
174 169 104
174 168 106
172 167 99
173 167 99
174 169 102
175 170 104
174 168 98
172 167 97
171 166 94
170 166 98
174 168 106
172 167 96
176 170 101
176 170 106
175 169 102
176 171 107
176 170 107
174 169 105
177 171 106
176 171 108
176 172 113
179 175 118
176 172 110
180 174 113
177 171 106
174 171 108
175 172 110
177 172 108
177 172 109
175 169 98
174 169 103
179 173 110
178 172 109
177 173 110
176 171 108
177 173 113
179 175 118
173 168 99
177 172 110
178 173 115
178 173 113
181 177 122
176 172 113
179 176 123
176 174 118
178 174 116
179 174 115
174 171 110
179 176 125
180 176 119
179 175 119
175 170 105
177 173 113
179 173 109
181 176 119
178 174 117
177 174 120
180 177 122
181 178 125
183 180 132
179 176 122
178 174 116
183 180 133
181 180 135
178 175 120
183 180 133
185 183 141
178 175 120
183 181 134
181 177 123
181 178 125
183 179 130
182 180 135
182 179 130
177 174 117
185 183 142
184 184 143
182 180 130
182 180 133
179 176 122
181 180 135
184 182 137
181 177 126
185 183 142
224 237 255
224 237 255
224 237 255
224 237 255
224 237 255
224 237 255
224 237 255
224 237 255
224 237 255
224 237 255
224 237 255
224 237 255
224 237 255
224 237 255
224 237 255
224 237 255
224 237 255
224 237 255
224 237 255
224 237 255
224 237 255
224 237 255
224 237 255
224 237 255
224 237 255
224 237 255
224 237 255
224 237 255
224 237 255
224 237 255
224 237 255
224 237 255
224 237 255
224 237 255
224 237 255
224 237 255
224 237 255
224 237 255
224 237 255
224 237 255
224 237 255
224 237 255
224 237 255
224 237 255
224 237 255
224 237 255
224 237 255
224 237 255
224 237 255
224 237 255
224 237 255
224 237 255
224 237 255
224 237 255
224 237 255
224 237 255
224 237 255
224 237 255
224 237 255
224 237 255
224 237 255
224 237 255
224 237 255
224 237 255
224 237 255
224 237 255
224 237 255
224 237 255
224 237 255
224 237 255
224 237 255
224 237 255
224 237 255
224 237 255
224 237 255
224 237 255
224 237 255
224 237 255
224 237 255
224 237 255
224 237 255
224 237 255
224 237 255
224 237 255
224 237 255
224 237 255
224 237 255
224 237 255
224 237 255
224 237 255
224 237 255
224 237 255
224 237 255
224 237 255
224 237 255
224 237 255
224 237 255
224 237 255
224 237 255
224 237 255
224 237 255
224 237 255
224 237 255
224 237 255
224 237 255
224 237 255
224 237 255
224 237 255
224 237 255
224 237 255
225 237 255
225 237 255
225 237 255
225 237 255
225 237 255
225 238 255
225 238 255
225 238 255
225 238 255
225 238 255
225 238 255
225 238 255
225 238 255
225 238 255
225 238 255
225 238 255
220 233 240
209 225 207
193 212 147
181 203 76
174 198 0
174 198 0
174 197 0
174 197 0
173 197 0
176 199 0
175 198 0
175 198 0
173 197 0
174 197 0
176 199 0
174 198 0
174 198 0
175 198 0
173 197 0
175 198 0
173 197 0
208 225 227
217 233 255
217 233 255
83 111 129
58 93 111
59 94 126
59 94 125
60 95 131
61 96 141
60 95 130
60 95 133
60 95 142
60 96 144
61 96 142
60 96 143
60 95 143
61 97 144
62 97 150
61 96 145
60 95 140
61 96 143
60 95 139
62 97 148
61 97 150
61 96 147
60 95 139
62 97 145
61 96 145
61 97 145
62 97 158
61 96 143
61 96 140
61 96 142
62 97 152
60 96 144
61 97 147
62 97 149
62 97 156
62 98 155
62 97 149
60 95 141
61 97 147
61 96 141
59 94 136
60 95 135
62 97 150
61 96 141
61 95 141
60 95 143
62 97 148
61 96 142
60 94 138
61 96 149
62 97 147
60 95 142
61 96 142
60 95 143
61 97 148
61 97 148
62 98 154
62 97 149
60 96 145
60 95 134
60 95 148
61 96 146
60 95 142
62 98 156
60 94 137
61 95 144
60 95 140
60 95 136
60 95 135
60 95 136
61 96 147
61 95 138
60 95 136
61 96 148
61 96 149
61 95 147
59 93 136
61 97 155
60 95 140
61 95 142
61 96 143
60 95 142
60 95 142
60 95 146
61 96 154
61 96 146
59 92 139
59 92 137
59 92 132
59 91 137
59 92 130
60 93 145
60 93 139
57 90 132
59 93 135
58 90 134
60 93 149
57 88 135
55 84 123
92 115 154
216 232 254
217 233 255
214 228 245
179 186 181
166 174 169
162 170 170
149 157 151
143 151 146
137 146 143
148 157 157
141 150 144
132 140 134
139 148 142
121 129 118
130 138 128
122 129 112
139 148 143
136 143 130
133 139 121
127 134 118
137 141 115
139 145 120
147 152 127
145 149 121
140 144 115
145 150 125
147 150 124
152 154 121
144 147 116
144 146 107
142 143 106
160 160 120
151 151 108
143 144 103
149 148 103
158 158 113
153 153 110
151 150 101
158 156 105
157 156 109
160 158 103
156 153 100
156 154 103
160 157 100
159 158 106
158 157 102
168 164 100
161 157 96
162 160 105
163 160 100
166 163 106
167 163 102
163 159 99
169 164 100
169 166 106
167 163 100
169 164 99
170 166 104
164 160 96
173 169 108
171 166 98
171 166 102
169 164 98
171 167 102
167 162 93
171 166 107
172 167 100
169 166 100
172 167 102
172 168 103
173 167 92
171 167 107
172 167 100
175 169 106
175 170 107
174 170 104
174 168 103
177 172 112
171 166 93
175 170 101
176 171 109
176 170 102
174 169 103
176 171 109
176 170 106
179 173 113
177 173 115
175 171 107
177 173 112
174 169 103
175 170 106
178 174 115
177 173 112
178 173 114
175 171 108
177 172 108
178 174 113
179 173 110
177 172 109
176 171 107
174 171 107
176 170 104
179 173 112
179 175 118
177 172 110
180 176 121
180 175 118
181 177 123
176 172 110
178 174 116
178 173 112
178 175 120
178 175 123
177 172 110
178 174 115
177 172 106
181 176 121
176 172 110
178 174 117
178 173 115
181 178 124
180 176 121
183 179 125
181 178 130
181 178 129
181 179 130
178 173 109
182 178 129
181 179 130
176 174 122
182 178 126
183 180 134
181 179 130
183 182 137
183 180 131
185 184 143
184 182 135
180 177 125
181 179 132
181 179 134
183 181 137
184 183 140
182 178 126
186 184 142
183 180 133
186 184 145
183 179 131
182 179 126
181 179 130
186 187 151
224 237 255
224 237 255
224 237 255
224 237 255
224 237 255
224 237 255
224 237 255
224 237 255
224 237 255
224 237 255
224 237 255
224 237 255
224 237 255
224 237 255
224 237 255
224 237 255
224 237 255
224 237 255
224 237 255
224 237 255
224 237 255
224 237 255
224 237 255
224 237 255
224 237 255
224 237 255
224 237 255
224 237 255
224 237 255
224 237 255
224 237 255
224 237 255
224 237 255
224 237 255
224 237 255
224 237 255
224 237 255
224 237 255
224 237 255
224 237 255
224 237 255
224 237 255
224 237 255
224 237 255
224 237 255
224 237 255
224 237 255
224 237 255
224 237 255
224 237 255
224 237 255
224 237 255
224 237 255
224 237 255
224 237 255
224 237 255
224 237 255
224 237 255
224 237 255
224 237 255
224 237 255
224 237 255
224 237 255
224 237 255
224 237 255
224 237 255
224 237 255
224 237 255
224 237 255
224 237 255
224 237 255
224 237 255
224 237 255
224 237 255
224 237 255
224 237 255
224 237 255
224 237 255
224 237 255
224 237 255
224 237 255
224 237 255
224 237 255
224 237 255
224 237 255
224 237 255
224 237 255
224 237 255
224 237 255
224 237 255
224 237 255
224 237 255
224 237 255
224 237 255
224 237 255
224 237 255
224 237 255
224 237 255
224 237 255
224 237 255
224 237 255
224 237 255
224 237 255
224 237 255
224 237 255
224 237 255
224 237 255
224 237 255
224 237 255
224 237 255
224 237 255
224 237 255
224 237 255
224 237 255
224 237 255
224 237 255
224 237 255
225 237 255
225 237 255
225 237 255
225 238 255
225 238 255
225 238 255
225 238 255
225 238 255
225 238 255
225 238 255
225 238 255
225 238 255
225 238 255
214 229 223
201 219 182
179 202 80
174 198 0
176 198 0
173 197 0
174 197 0
175 198 0
173 197 0
175 198 0
176 199 0
173 197 0
173 197 0
174 198 0
176 198 0
173 197 0
174 197 0
193 212 161
218 234 255
203 219 242
59 94 125
60 95 129
60 95 130
60 95 131
60 95 137
60 95 139
60 95 140
59 93 121
60 95 139
61 96 141
61 96 145
61 96 144
61 96 142
61 96 142
61 96 144
61 97 144
61 97 150
60 95 135
60 95 142
61 96 145
61 96 140
61 96 142
61 96 149
62 97 152
61 96 143
60 94 130
61 96 149
61 97 140
61 96 141
61 96 140
61 96 143
61 96 144
60 95 141
60 96 140
61 96 145
62 97 147
62 97 152
61 96 139
61 96 144
61 96 140
61 96 148
61 95 139
61 96 145
60 95 139
61 96 155
62 98 159
60 96 139
60 96 143
61 96 147
61 96 148
60 95 143
61 96 136
61 96 145
61 96 140
60 96 137
62 97 153
61 97 144
60 95 139
61 96 150
61 96 149
60 95 142
62 97 156
61 95 143
61 96 148
61 96 142
61 96 140
59 94 140
61 97 148
61 96 146
60 94 132
61 96 149
61 95 144
61 95 141
61 96 147
60 94 140
59 93 137
59 93 137
61 95 149
62 96 148
60 94 137
59 93 137
61 96 147
60 95 140
61 95 145
60 94 148
60 93 139
59 92 140
61 94 141
60 93 141
60 94 143
59 92 136
60 93 139
61 94 143
60 92 142
59 90 134
59 90 140
59 90 140
57 88 133
58 89 136
57 87 130
198 214 237
218 233 255
199 211 220
166 172 162
168 177 178
155 162 155
149 158 158
141 150 148
137 146 145
137 146 145
136 145 142
138 147 144
129 138 133
139 147 138
129 137 128
135 140 119
141 148 132
139 145 130
130 138 127
124 129 110
136 141 117
136 140 116
127 132 104
142 147 125
133 138 114
139 141 105
145 147 113
143 146 114
141 144 111
143 144 108
151 151 107
143 143 99
153 153 111
159 159 121
151 151 110
155 155 115
143 142 90
163 162 118
156 153 98
156 156 108
156 155 109
162 158 98
161 158 102
162 159 102
155 151 92
167 165 114
158 156 102
164 160 100
165 161 100
162 159 100
167 162 93
163 160 100
163 160 100
165 162 99
166 162 99
160 156 91
170 166 105
168 164 106
168 163 103
174 169 106
170 165 95
166 162 89
175 170 109
169 164 99
174 168 98
172 166 99
174 169 108
170 165 95
173 168 104
175 168 95
171 167 99
173 168 101
172 166 98
176 170 103
172 167 100
177 172 111
173 168 96
176 170 108
170 164 90
177 169 99
173 167 100
180 174 109
171 166 97
174 170 103
175 171 110
177 172 112
174 169 99
178 173 113
175 170 106
181 176 119
178 170 100
177 172 108
175 171 109
173 167 89
172 167 99
180 173 108
172 167 101
179 176 122
178 174 116
176 171 104
174 168 98
178 174 115
176 172 113
178 171 103
180 174 113
178 173 115
179 174 114
177 171 104
176 170 103
176 173 113
174 170 106
182 179 128
179 175 116
175 171 104
180 175 118
179 177 125
179 174 115
179 175 117
177 173 116
182 177 123
183 179 125
180 175 116
183 180 131
183 178 125
178 174 118
179 177 126
179 176 124
177 172 110
183 182 138
182 179 129
180 176 122
184 180 131
179 174 116
178 174 115
180 177 127
177 175 123
187 186 148
180 176 122
179 174 115
181 178 129
180 178 126
180 177 125
184 185 148
178 174 115
180 179 136
180 177 126
189 189 155
185 184 143
182 179 128
178 174 118
224 237 255
224 237 255
224 237 255
224 237 255
224 237 255
224 237 255
224 237 255
224 237 255
224 237 255
224 237 255
224 237 255
224 237 255
224 237 255
224 237 255
224 237 255
224 237 255
224 237 255
224 237 255
224 237 255
224 237 255
224 237 255
224 237 255
224 237 255
224 237 255
224 237 255
224 237 255
223 237 255
223 237 255
223 237 255
223 237 255
223 237 255
223 237 255
223 237 255
223 237 255
223 237 255
223 237 255
223 237 255
223 237 255
223 237 255
223 237 255
223 237 255
223 237 255
223 237 255
223 237 255
223 237 255
223 237 255
223 237 255
223 237 255
223 237 255
223 237 255
223 237 255
223 237 255
223 237 255
223 237 255
223 237 255
223 237 255
223 237 255
223 237 255
223 237 255
223 237 255
223 237 255
223 237 255
223 237 255
223 237 255
223 237 255
223 237 255
223 237 255
223 237 255
223 237 255
223 237 255
223 237 255
223 237 255
223 237 255
223 237 255
223 237 255
223 237 255
223 237 255
223 237 255
223 237 255
223 237 255
223 237 255
223 237 255
223 237 255
223 237 255
223 237 255
223 237 255
223 237 255
224 237 255
224 237 255
224 237 255
224 237 255
224 237 255
224 237 255
224 237 255
224 237 255
224 237 255
224 237 255
224 237 255
224 237 255
224 237 255
224 237 255
224 237 255
224 237 255
224 237 255
224 237 255
224 237 255
224 237 255
224 237 255
224 237 255
224 237 255
224 237 255
224 237 255
224 237 255
224 237 255
224 237 255
224 237 255
224 237 255
224 237 255
224 237 255
224 237 255
224 237 255
224 237 255
225 237 255
225 237 255
225 237 255
225 238 255
225 238 255
225 238 255
225 238 255
225 238 255
225 238 255
225 238 255
225 238 255
218 232 234
207 223 199
186 206 111
175 198 0
174 198 0
174 198 0
173 197 0
174 198 0
173 197 0
174 198 0
175 198 0
174 198 0
175 198 0
176 199 0
181 204 105
218 234 255
179 197 220
60 95 129
59 94 128
61 96 136
62 97 148
61 96 136
60 95 140
61 96 135
61 96 142
61 95 134
60 96 141
60 95 141
60 96 139
62 98 152
61 96 143
61 96 147
60 95 137
62 97 151
61 96 141
62 98 150
60 95 144
60 95 142
61 96 141
60 96 140
61 97 145
61 97 148
60 95 148
60 95 140
61 96 148
60 96 135
61 96 141
62 97 147
61 96 139
61 97 151
60 95 140
60 95 139
61 96 137
61 96 141
61 97 143
61 96 143
62 97 153
61 96 137
61 97 145
61 96 148
61 96 147
61 96 149
61 96 149
61 96 148
61 96 142
61 97 148
60 95 134
61 97 149
60 95 145
60 94 134
61 97 143
61 96 143
61 97 151
62 98 156
61 97 147
60 96 145
62 97 145
60 95 136
60 95 133
62 97 155
61 95 137
59 94 135
62 97 148
60 95 141
62 97 151
62 97 145
62 97 156
61 95 142
61 96 141
58 91 122
61 95 143
60 96 146
61 96 151
61 95 145
60 95 138
60 93 135
60 95 142
59 93 136
60 95 146
60 95 140
60 94 140
60 94 142
60 93 143
61 95 153
60 94 133
61 95 147
59 91 132
59 93 144
60 93 138
59 92 139
60 94 148
59 92 139
59 92 142
58 89 130
56 87 125
58 88 132
56 85 132
185 201 224
218 234 255
195 205 208
167 175 169
153 162 163
159 166 160
147 156 155
143 150 145
131 141 141
137 146 146
134 145 148
131 140 136
131 140 136
137 145 134
130 136 121
141 150 142
137 144 128
130 137 124
138 144 127
142 149 132
140 145 126
141 146 122
125 127 95
140 144 117
143 148 126
134 137 102
141 144 114
140 141 105
148 150 120
156 156 117
139 140 99
148 148 101
145 145 104
155 154 108
151 151 102
157 155 106
154 153 102
157 155 108
161 158 101
149 147 96
163 159 100
159 156 107
160 158 108
163 159 101
156 154 101
160 159 110
161 156 94
158 155 92
167 162 98
163 159 94
166 162 100
170 164 102
161 157 93
168 164 104
167 162 95
163 160 102
162 159 98
168 163 94
164 160 98
163 159 95
168 164 94
169 164 96
174 169 101
172 167 101
176 170 104
169 164 99
172 167 103
175 169 100
175 168 98
174 170 109
174 169 104
177 170 104
168 163 93
171 165 91
170 166 101
173 168 99
172 166 97
175 169 103
173 168 99
177 171 103
174 169 103
175 169 96
180 172 104
175 169 102
175 170 103
171 166 93
174 170 104
176 170 100
177 171 106
177 173 110
177 171 109
178 171 104
175 169 102
175 171 107
172 168 101
177 171 103
176 171 106
179 173 111
176 169 99
177 172 111
178 172 109
174 170 103
178 174 114
175 170 104
178 173 110
179 173 109
178 175 124
179 175 121
178 173 115
179 176 127
179 176 124
181 177 124
176 172 113
172 169 105
180 176 121
176 172 112
180 176 119
180 177 127
178 172 108
182 179 130
178 174 117
174 170 101
180 176 117
176 175 122
181 179 131
184 182 136
179 175 118
181 179 130
180 178 131
183 181 134
180 177 124
178 176 122
179 176 126
183 179 130
181 179 129
177 174 120
180 177 124
185 181 132
182 179 126
182 181 135
183 181 139
181 179 129
182 180 133
183 182 137
185 182 137
181 178 126
186 187 154
184 182 142
183 181 132
184 183 143
224 237 255
223 237 255
223 237 255
223 237 255
223 237 255
223 237 255
223 237 255
223 237 255
223 237 255
223 237 255
223 237 255
223 237 255
223 237 255
223 237 255
223 237 255
223 237 255
223 237 255
223 237 255
223 237 255
223 237 255
223 237 255
223 237 255
223 237 255
223 237 255
223 237 255
223 237 255
223 237 255
223 237 255
223 237 255
223 237 255
223 237 255
223 237 255
223 237 255
223 237 255
223 237 255
223 237 255
223 237 255
223 237 255
223 237 255
223 237 255
223 237 255
223 237 255
223 237 255
223 237 255
223 237 255
223 237 255
223 237 255
223 237 255
223 237 255
223 237 255
223 237 255
223 237 255
223 237 255
223 237 255
223 237 255
223 237 255
223 237 255
223 237 255
223 237 255
223 237 255
223 237 255
223 237 255
223 237 255
223 237 255
223 237 255
223 237 255
223 237 255
223 237 255
223 237 255
223 237 255
223 237 255
223 237 255
223 237 255
223 237 255
223 237 255
223 237 255
223 237 255
223 237 255
223 237 255
223 237 255
223 237 255
223 237 255
223 237 255
223 237 255
223 237 255
223 237 255
223 237 255
223 237 255
223 237 255
223 237 255
223 237 255
223 237 255
223 237 255
223 237 255
223 237 255
223 237 255
223 237 255
223 237 255
223 237 255
223 237 255
223 237 255
223 237 255
224 237 255
224 237 255
224 237 255
224 237 255
224 237 255
224 237 255
224 237 255
224 237 255
224 237 255
224 237 255
224 237 255
224 237 255
224 237 255
224 237 255
224 237 255
224 237 255
224 237 255
224 237 255
224 237 255
224 237 255
224 237 255
224 237 255
224 237 255
224 237 255
224 237 255
224 237 255
225 237 255
225 237 255
225 238 255
225 238 255
225 238 255
225 238 255
225 238 255
225 238 255
217 231 231
204 221 188
184 206 111
177 199 0
174 198 0
176 199 0
175 198 0
174 197 0
174 198 0
173 197 0
175 198 0
177 199 36
217 233 252
145 164 191
61 96 135
61 96 135
61 95 131
60 96 141
62 97 149
61 96 136
61 96 137
61 96 142
62 97 150
61 96 141
61 96 145
59 94 129
62 97 153
61 96 143
60 96 149
61 96 141
61 96 143
61 96 141
60 95 135
60 95 137
61 96 141
60 95 134
60 95 136
63 99 154
62 97 140
61 96 145
61 96 147
62 97 149
62 97 145
61 97 143
61 96 148
61 96 139
61 96 141
61 96 143
60 95 141
60 96 143
62 97 148
61 96 141
60 96 139
61 96 142
61 97 145
61 96 144
60 95 142
62 96 145
61 97 151
62 97 143
60 95 136
61 97 149
61 96 142
62 97 153
61 95 136
62 98 152
61 96 141
60 94 135
61 96 139
61 96 140
61 96 141
60 96 139
60 95 134
61 97 148
60 95 145
60 95 143
61 95 139
60 95 134
61 95 142
61 96 143
60 94 139
60 95 136
60 94 136
61 96 148
60 95 144
61 96 145
61 96 143
62 97 151
61 95 140
61 95 144
60 95 140
60 95 139
61 95 142
61 95 148
61 95 143
60 95 143
61 96 150
60 95 140
59 94 136
61 96 145
60 94 144
59 92 138
59 92 136
59 92 136
58 92 133
61 95 143
58 90 128
60 92 140
58 91 138
57 88 131
58 89 130
56 87 133
58 89 128
55 84 123
145 161 187
217 233 253
178 186 186
160 169 170
168 178 183
158 168 172
128 136 133
140 150 155
130 141 146
134 145 146
136 147 151
126 136 130
128 137 134
128 137 133
122 131 124
129 135 118
129 137 126
122 127 103
128 136 122
135 142 128
120 124 98
119 124 106
132 136 106
128 132 109
138 142 115
136 138 105
147 150 123
143 143 101
154 155 119
147 146 97
148 151 116
149 152 116
147 146 102
146 147 102
154 154 109
151 150 103
162 159 104
149 147 97
145 144 90
154 153 102
161 159 112
156 154 100
157 154 95
157 154 98
162 158 99
156 153 93
164 160 94
163 160 100
163 161 104
160 157 102
164 161 101
166 163 104
168 164 98
164 160 92
168 162 94
165 160 95
171 166 103
170 165 101
172 166 103
168 163 91
168 162 94
172 165 97
163 159 94
167 163 96
173 166 92
170 163 93
172 167 99
176 170 104
172 166 97
174 169 102
175 168 94
168 163 91
176 170 103
169 164 93
170 165 91
176 170 102
171 166 95
176 169 100
175 168 99
175 170 104
175 170 105
174 168 99
177 169 96
178 171 101
172 167 99
177 170 102
177 171 104
171 166 94
174 167 92
176 172 109
175 170 107
174 170 104
175 169 95
176 170 101
176 170 102
175 169 96
178 172 108
175 168 97
177 172 105
175 172 115
176 172 106
175 170 103
176 172 110
175 171 111
179 176 120
177 171 104
175 170 106
173 169 99
179 173 109
177 172 113
173 168 99
178 171 105
180 178 127
177 172 110
180 176 120
180 177 131
180 177 124
181 179 131
178 175 121
180 178 126
174 172 113
181 178 127
182 176 114
178 176 122
179 176 121
180 175 117
176 171 106
177 172 104
185 179 125
181 176 118
181 177 124
179 176 120
178 176 125
178 176 122
179 175 117
178 176 124
184 181 137
180 177 125
178 174 116
179 176 125
183 179 130
181 180 132
184 181 131
185 184 144
185 183 138
186 185 147
184 184 142
184 181 134
186 184 143
180 177 129
223 237 255
223 237 255
223 237 255
223 237 255
223 237 255
223 237 255
223 237 255
223 237 255
223 237 255
223 237 255
223 237 255
223 237 255
223 237 255
223 237 255
223 237 255
223 237 255
223 237 255
223 237 255
223 237 255
223 237 255
223 237 255
223 237 255
223 237 255
223 237 255
223 237 255
223 237 255
223 237 255
223 237 255
223 237 255
223 237 255
223 237 255
223 237 255
223 237 255
223 237 255
223 237 255
223 237 255
223 237 255
223 237 255
223 237 255
223 237 255
223 237 255
223 237 255
223 237 255
223 237 255
223 237 255
223 237 255
223 237 255
223 237 255
223 237 255
223 237 255
223 237 255
223 237 255
223 237 255
223 237 255
223 237 255
223 237 255
223 237 255
223 237 255
223 237 255
223 237 255
223 237 255
223 237 255
223 237 255
223 237 255
223 237 255
223 237 255
223 237 255
223 237 255
223 237 255
223 237 255
223 237 255
223 237 255
223 237 255
223 237 255
223 237 255
223 237 255
223 237 255
223 237 255
223 237 255
223 237 255
223 237 255
223 237 255
223 237 255
223 237 255
223 237 255
223 237 255
223 237 255
223 237 255
223 237 255
223 237 255
223 237 255
223 237 255
223 237 255
223 237 255
223 237 255
223 237 255
223 237 255
223 237 255
223 237 255
223 237 255
223 237 255
223 237 255
223 237 255
223 237 255
223 237 255
223 237 255
223 237 255
223 237 255
223 237 255
223 237 255
223 237 255
223 237 255
223 237 255
224 237 255
224 237 255
224 237 255
224 237 255
224 237 255
224 237 255
224 237 255
224 237 255
224 237 255
224 237 255
224 237 255
224 237 255
224 237 255
224 237 255
224 237 255
224 237 255
224 237 255
224 237 255
224 237 255
225 237 255
225 237 255
225 238 255
225 238 255
225 238 255
225 238 255
225 238 255
216 230 228
204 221 188
181 203 84
174 198 0
175 198 0
174 197 0
174 197 0
174 198 0
174 198 0
208 225 220
114 136 160
60 94 133
62 97 149
61 96 137
61 95 131
61 97 145
61 96 135
62 97 144
62 97 143
61 95 140
61 96 143
62 98 149
62 97 153
61 96 144
62 97 149
61 97 148
61 96 143
60 95 142
62 97 148
60 95 133
61 96 139
60 96 140
61 96 142
60 95 147
61 96 142
60 95 137
61 96 139
62 96 143
61 96 142
60 94 142
61 96 141
60 95 142
59 93 128
61 95 140
61 96 148
61 96 150
61 96 144
61 95 137
60 94 141
60 96 149
61 97 148
61 97 147
61 96 143
59 94 136
61 96 143
61 96 140
61 97 149
60 95 133
61 96 139
61 96 144
60 95 141
61 96 142
61 97 147
60 95 139
60 95 145
61 97 151
61 97 147
60 94 133
61 96 143
59 94 130
59 94 138
61 96 141
60 95 147
61 95 143
60 95 139
60 96 136
60 95 150
60 95 145
60 94 135
60 95 143
60 94 132
62 97 152
61 96 142
61 96 148
61 95 144
60 94 139
60 94 134
60 94 141
61 95 144
59 93 133
60 94 136
59 94 136
61 96 149
60 94 141
60 94 134
60 94 138
59 94 143
59 92 124
59 93 134
60 94 138
59 91 135
60 93 137
58 90 127
59 93 138
60 92 142
59 92 140
59 91 135
57 88 126
57 87 124
57 88 129
57 86 129
114 132 164
212 226 242
172 178 168
146 155 154
150 158 155
152 160 158
143 153 156
129 137 135
129 139 136
130 138 132
129 139 139
136 144 140
127 136 132
122 130 122
118 126 116
132 140 133
123 130 117
122 129 111
121 126 106
123 130 111
128 134 115
140 145 122
136 140 108
134 139 112
133 138 117
136 139 110
124 130 107
137 138 97
141 143 103
140 141 102
139 142 107
145 143 91
147 146 99
152 150 99
145 145 96
151 151 103
157 155 101
151 150 99
150 148 94
159 158 110
153 150 87
159 157 102
154 152 94
155 152 92
161 158 98
155 152 95
164 162 104
162 158 102
163 159 92
162 159 105
162 159 100
163 159 95
162 159 98
167 163 101
166 162 99
170 165 102
163 159 103
158 154 88
165 159 91
163 159 90
167 162 91
164 159 87
168 163 93
171 165 97
170 165 100
171 165 98
172 167 100
173 166 90
172 167 101
174 168 101
171 165 95
175 170 105
171 166 98
172 165 94
177 171 104
174 169 100
171 165 90
172 167 101
174 168 99
174 170 106
174 169 100
174 169 101
173 168 101
172 167 97
178 170 97
177 171 101
176 170 98
175 170 99
173 167 88
174 168 101
180 174 115
179 174 115
175 170 101
173 168 103
182 176 118
174 167 94
176 171 108
178 172 108
176 170 104
178 173 113
172 166 95
180 174 115
179 174 118
177 171 106
172 168 103
174 169 99
175 170 105
177 170 104
179 176 124
176 171 109
177 173 111
177 172 109
180 178 129
177 173 113
177 173 113
179 174 114
179 174 116
179 172 108
182 180 135
180 175 119
179 175 121
177 174 118
175 171 113
182 180 132
179 174 115
179 177 122
180 177 123
181 179 131
185 180 131
182 178 123
180 177 126
181 177 123
180 177 124
175 171 106
182 180 133
182 180 134
180 177 123
182 179 129
182 179 128
184 184 146
183 180 130
179 174 113
181 178 128
178 174 116
185 183 139
182 180 134
181 181 136
180 177 124
181 178 131
184 181 134
223 237 255
223 237 255
223 237 255
223 237 255
223 237 255
223 237 255
223 237 255
223 237 255
223 237 255
223 237 255
223 237 255
223 237 255
223 237 255
223 236 255
223 237 255
223 237 255
223 236 255
223 236 255
223 236 255
223 236 255
223 236 255
223 236 255
223 236 255
223 236 255
223 236 255
223 236 255
223 236 255
223 236 255
223 236 255
223 236 255
223 236 255
223 236 255
223 236 255
223 236 255
223 236 255
223 236 255
223 236 255
223 236 255
223 236 255
223 236 255
223 236 255
223 236 255
223 236 255
223 236 255
223 236 255
223 236 255
223 236 255
223 236 255
223 236 255
223 236 255
223 236 255
223 236 255
223 236 255
223 236 255
223 236 255
223 236 255
223 236 255
223 236 255
223 236 255
223 236 255
223 236 255
223 236 255
223 236 255
223 236 255
223 236 255
223 236 255
223 236 255
223 236 255
223 236 255
223 236 255
223 236 255
223 236 255
223 236 255
223 236 255
223 236 255
223 236 255
223 236 255
223 236 255
223 236 255
223 236 255
223 236 255
223 236 255
223 236 255
223 236 255
223 236 255
223 236 255
223 236 255
223 236 255
223 236 255
223 236 255
223 236 255
223 236 255
223 236 255
223 236 255
223 236 255
223 236 255
223 237 255
223 237 255
223 237 255
223 237 255
223 237 255
223 237 255
223 237 255
223 237 255
223 237 255
223 237 255
223 237 255
223 237 255
223 237 255
223 237 255
223 237 255
223 237 255
223 237 255
223 237 255
223 237 255
223 237 255
223 237 255
223 237 255
223 237 255
223 237 255
223 237 255
224 237 255
224 237 255
224 237 255
224 237 255
224 237 255
224 237 255
224 237 255
224 237 255
224 237 255
224 237 255
224 237 255
224 237 255
224 237 255
224 237 255
224 237 255
225 237 255
225 237 255
225 238 255
225 238 255
225 238 255
224 237 252
216 231 230
197 215 163
176 199 25
174 198 0
175 198 0
175 198 0
198 217 179
75 106 148
62 97 135
63 98 150
62 97 145
63 98 154
62 98 149
62 98 147
61 96 142
62 97 149
62 98 151
62 97 148
61 96 143
60 95 137
62 97 142
61 96 143
62 97 151
60 95 142
61 96 147
62 97 152
61 96 149
61 95 140
60 95 139
60 94 134
61 96 148
62 97 143
60 95 136
61 97 147
61 96 141
61 96 143
61 96 144
61 96 144
61 96 144
60 95 134
61 95 143
61 96 144
60 96 141
61 96 147
61 96 141
61 96 139
60 95 134
61 97 148
60 95 140
60 95 139
61 96 139
60 95 136
61 96 145
60 95 136
61 96 145
62 97 147
61 96 143
60 96 141
61 96 144
61 96 143
61 96 148
61 96 143
61 96 150
61 96 147
59 94 137
61 96 143
62 97 149
60 95 142
61 95 140
60 96 140
60 95 138
59 93 135
61 96 145
61 96 148
61 96 142
60 94 133
61 95 137
60 95 139
60 95 142
60 96 145
60 94 134
60 94 138
60 94 137
60 95 141
62 97 152
60 94 140
60 94 139
60 93 136
60 95 141
59 92 131
60 94 135
60 94 139
61 96 153
60 95 141
59 93 136
59 92 136
59 92 144
59 92 139
60 93 138
59 91 134
60 93 133
58 90 132
58 89 124
59 91 135
58 90 136
57 88 123
56 86 126
52 81 116
77 99 137
203 214 223
167 172 161
153 159 153
147 156 158
155 164 165
147 157 163
146 158 166
109 119 117
119 130 133
132 141 135
134 144 144
125 135 134
121 129 121
120 128 114
133 139 123
137 144 134
127 133 119
129 135 118
130 136 114
131 137 116
137 143 126
123 128 105
137 141 117
127 131 106
140 142 109
142 145 114
140 141 98
141 143 109
140 141 100
155 154 112
147 147 106
142 143 99
152 150 100
146 145 93
149 147 93
154 152 105
150 149 97
150 149 97
156 156 106
153 151 99
155 152 101
158 155 97
160 155 97
159 155 94
153 151 99
159 155 93
168 164 106
161 157 89
159 155 90
159 155 95
160 155 88
163 160 96
156 152 92
163 158 94
169 164 103
168 163 96
161 156 89
162 157 92
167 162 92
167 162 95
165 160 97
171 165 95
167 162 90
168 163 94
170 165 92
170 164 93
166 161 91
169 164 92
170 164 94
168 164 95
171 165 97
176 169 103
169 164 88
171 166 93
171 165 95
173 167 98
169 164 90
170 165 90
169 164 92
175 170 104
174 168 99
174 167 94
177 171 104
174 170 107
178 172 108
176 169 97
172 168 101
178 172 104
174 168 97
175 169 96
179 173 108
179 172 108
174 170 106
173 168 95
177 170 102
175 169 101
173 167 91
177 171 104
177 171 108
175 171 110
177 171 109
177 172 109
177 173 115
177 172 108
178 173 116
177 173 112
177 172 108
175 171 109
174 170 101
176 172 106
177 172 104
178 173 113
182 178 124
176 171 108
177 173 111
177 172 109
176 172 108
180 176 121
182 179 127
178 175 116
180 177 122
177 172 106
181 178 124
179 176 123
177 175 125
179 175 115
179 176 119
175 171 108
182 180 132
176 173 113
181 177 123
179 178 128
179 177 123
186 184 141
179 176 124
179 175 123
184 181 132
178 173 113
183 181 136
183 179 127
179 174 119
182 180 133
181 178 126
181 176 121
181 178 127
186 185 147
186 184 142
180 176 124
181 178 124
223 236 255
223 236 255
223 236 255
223 236 255
223 236 255
223 236 255
223 236 255
223 236 255
223 236 255
223 236 255
223 236 255
223 236 255
223 236 255
223 236 255
223 236 255
223 236 255
223 236 255
223 236 255
223 236 255
223 236 255
223 236 255
223 236 255
223 236 255
223 236 255
223 236 255
223 236 255
223 236 255
223 236 255
223 236 255
223 236 255
223 236 255
223 236 255
223 236 255
223 236 255
223 236 255
223 236 255
223 236 255
223 236 255
223 236 255
223 236 255
223 236 255
223 236 255
223 236 255
223 236 255
223 236 255
223 236 255
223 236 255
223 236 255
223 236 255
223 236 255
223 236 255
223 236 255
223 236 255
223 236 255
223 236 255
223 236 255
223 236 255
223 236 255
223 236 255
223 236 255
223 236 255
223 236 255
223 236 255
223 236 255
223 236 255
223 236 255
223 236 255
223 236 255
223 236 255
223 236 255
223 236 255
223 236 255
223 236 255
223 236 255
223 236 255
223 236 255
223 236 255
223 236 255
223 236 255
223 236 255
223 236 255
223 236 255
223 236 255
223 236 255
223 236 255
223 236 255
223 236 255
223 236 255
223 236 255
223 236 255
223 236 255
223 236 255
223 236 255
223 236 255
223 236 255
223 236 255
223 236 255
223 236 255
223 236 255
223 236 255
223 236 255
223 236 255
223 236 255
223 236 255
223 236 255
223 236 255
223 236 255
223 236 255
223 236 255
223 236 255
223 236 255
223 237 255
223 237 255
223 237 255
223 237 255
223 237 255
223 237 255
223 237 255
223 237 255
223 237 255
223 237 255
223 237 255
223 237 255
223 237 255
223 237 255
223 237 255
223 237 255
223 237 255
224 237 255
224 237 255
224 237 255
224 237 255
224 237 255
224 237 255
224 237 255
224 237 255
224 237 255
224 237 255
224 237 255
224 237 255
224 237 255
225 237 255
225 238 255
225 238 255
220 233 240
208 224 204
177 200 72
174 198 0
183 203 140
62 98 150
62 98 145
63 97 142
61 96 144
63 98 154
64 100 163
61 97 147
62 97 147
60 95 140
61 95 141
62 97 149
62 97 149
61 96 147
61 96 142
61 96 145
61 96 142
61 96 141
62 97 145
60 95 136
62 97 143
61 96 141
62 97 148
61 96 134
61 96 142
61 96 140
60 95 139
62 97 150
62 97 145
61 96 142
61 97 144
62 97 144
61 97 144
62 97 150
60 96 136
61 96 140
59 93 128
59 94 141
60 95 137
60 96 140
61 96 136
59 93 122
61 96 143
61 96 147
61 96 143
61 96 144
59 93 131
61 96 140
61 96 144
60 94 147
62 97 148
62 97 141
61 96 141
60 95 136
60 95 137
61 95 135
61 96 145
61 96 144
60 94 135
62 97 151
60 94 133
62 97 153
61 96 144
60 95 139
59 93 132
61 96 141
60 95 140
60 94 133
60 94 135
60 94 135
60 94 133
60 94 136
60 94 137
60 95 143
60 95 142
61 96 145
62 97 153
62 96 152
61 95 142
60 95 144
59 93 129
59 92 135
59 92 123
60 93 132
60 94 132
60 93 136
59 92 139
61 96 142
61 95 143
59 93 140
61 94 143
60 93 136
60 93 138
59 91 132
59 91 136
59 91 127
59 90 129
58 90 131
57 88 125
57 89 129
59 90 135
55 85 125
53 82 124
168 178 181
168 175 173
159 168 168
140 147 142
133 142 145
122 129 122
136 145 146
131 141 145
123 134 136
130 138 134
132 142 145
117 127 122
124 133 129
131 139 132
129 138 132
122 129 119
135 141 125
135 142 128
116 122 99
134 139 117
137 142 118
135 141 119
127 131 106
134 135 99
128 132 102
140 142 104
139 140 105
134 135 93
150 150 108
144 145 108
137 138 88
147 148 105
150 149 102
146 148 108
152 150 94
152 148 91
150 148 91
149 148 102
144 144 97
161 158 96
147 145 87
158 156 101
153 151 96
158 156 98
165 160 99
156 153 88
162 157 95
159 155 88
163 158 90
160 156 87
163 158 91
160 155 88
162 157 90
169 163 95
164 159 90
167 163 97
171 164 93
169 163 90
172 166 101
163 158 88
167 162 98
169 164 94
168 163 88
166 161 94
172 166 100
171 164 92
173 167 99
167 162 85
168 163 91
169 164 93
171 165 90
175 168 95
173 167 90
175 168 97
170 165 95
172 165 93
172 166 97
172 165 93
173 168 99
173 166 94
177 172 110
173 167 93
174 168 96
170 165 90
171 166 91
173 167 99
175 169 98
176 169 99
175 168 94
177 172 110
174 168 99
177 171 104
174 167 92
173 168 93
174 169 99
177 173 110
177 172 103
177 172 108
173 168 101
175 172 110
177 172 109
175 170 108
175 172 109
176 173 113
180 175 117
177 171 106
178 174 111
178 173 113
172 169 100
180 175 115
174 170 102
178 173 111
173 166 93
175 170 106
174 170 108
177 174 117
177 172 109
178 173 112
176 174 118
178 174 117
179 175 117
174 169 101
180 177 126
174 170 103
179 174 112
180 177 124
182 178 125
181 176 119
182 179 131
180 176 122
175 172 112
182 179 127
178 176 121
183 180 129
181 179 130
178 175 122
180 177 122
180 178 129
181 180 132
179 176 121
179 176 120
182 180 134
181 178 127
184 183 143
182 180 131
182 180 135
177 174 119
182 180 132
183 180 133
223 236 255
223 236 255
223 236 255
223 236 255
223 236 255
223 236 255
223 236 255
223 236 255
223 236 255
223 236 255
223 236 255
223 236 255
223 236 255
223 236 255
222 236 255
222 236 255
222 236 255
222 236 255
222 236 255
222 236 255
222 236 255
222 236 255
222 236 255
222 236 255
222 236 255
222 236 255
222 236 255
222 236 255
222 236 255
222 236 255
222 236 255
222 236 255
222 236 255
222 236 255
222 236 255
222 236 255
222 236 255
222 236 255
222 236 255
222 236 255
222 236 255
222 236 255
222 236 255
222 236 255
222 236 255
222 236 255
222 236 255
222 236 255
222 236 255
222 236 255
222 236 255
222 236 255
222 236 255
222 236 255
222 236 255
222 236 255
222 236 255
222 236 255
222 236 255
222 236 255
222 236 255
222 236 255
222 236 255
222 236 255
222 236 255
222 236 255
222 236 255
222 236 255
222 236 255
222 236 255
222 236 255
222 236 255
222 236 255
222 236 255
222 236 255
222 236 255
222 236 255
222 236 255
222 236 255
222 236 255
222 236 255
222 236 255
222 236 255
222 236 255
222 236 255
222 236 255
222 236 255
222 236 255
222 236 255
222 236 255
222 236 255
222 236 255
222 236 255
222 236 255
222 236 255
223 236 255
222 236 255
223 236 255
223 236 255
223 236 255
223 236 255
223 236 255
223 236 255
223 236 255
223 236 255
223 236 255
223 236 255
223 236 255
223 236 255
223 236 255
223 236 255
223 236 255
223 236 255
223 236 255
223 236 255
223 236 255
223 236 255
223 236 255
223 236 255
223 236 255
223 236 255
223 236 255
223 237 255
223 237 255
223 237 255
223 237 255
223 237 255
223 237 255
223 237 255
223 237 255
223 237 255
223 237 255
223 237 255
223 237 255
224 237 255
224 237 255
224 237 255
224 237 255
224 237 255
224 237 255
224 237 255
224 237 255
224 237 255
224 237 255
225 237 255
225 238 255
225 238 255
208 224 203
161 184 97
63 98 145
62 97 148
62 97 140
63 98 151
61 96 145
62 97 147
63 97 151
61 95 137
61 96 139
61 96 144
61 96 144
62 97 149
61 96 141
62 97 143
61 96 143
61 96 142
61 96 147
61 95 137
60 94 131
60 95 139
61 96 143
61 96 140
60 95 140
60 95 135
62 97 144
61 96 143
60 96 140
60 95 131
60 96 135
62 97 154
63 98 153
61 96 143
61 96 145
61 95 142
61 95 143
61 96 151
61 96 141
61 97 144
60 95 136
61 96 140
61 96 147
60 95 137
61 96 135
60 95 139
62 97 149
61 96 143
60 95 144
61 96 140
61 96 141
61 96 139
59 94 131
61 95 135
61 96 144
61 96 145
60 95 141
61 97 145
60 95 140
61 96 148
60 95 126
61 96 144
61 95 140
60 95 140
61 95 144
59 94 137
61 96 144
60 94 136
60 95 137
60 95 146
60 95 136
60 95 144
60 95 143
61 96 142
61 95 140
60 94 141
60 94 138
59 93 131
61 96 147
61 95 138
60 94 134
61 95 140
61 96 149
59 93 132
60 94 138
59 94 131
59 94 133
59 92 123
61 95 139
59 91 124
60 94 135
57 90 126
59 92 133
59 92 134
59 92 136
59 91 139
58 91 134
58 91 125
59 91 139
59 91 143
59 90 135
56 86 129
57 86 121
53 81 116
162 171 173
166 174 174
149 157 157
129 139 140
135 143 145
132 141 143
110 119 118
121 131 134
120 132 138
116 126 127
102 112 107
101 111 107
111 119 111
129 138 134
126 134 122
120 129 125
124 132 120
132 138 127
129 135 116
122 129 111
134 138 117
138 140 110
129 133 102
135 138 106
127 131 98
138 139 98
138 139 98
140 141 100
141 143 100
142 143 103
149 148 102
141 143 110
143 142 90
151 151 97
151 149 100
139 138 89
155 153 97
155 152 98
149 146 88
152 149 97
153 151 92
150 147 87
160 157 96
154 151 86
155 153 97
161 157 97
162 158 95
159 155 90
155 151 85
159 155 84
164 159 94
156 152 87
157 154 92
168 163 91
160 155 86
165 161 88
168 163 97
167 162 90
171 165 101
167 161 86
164 158 84
168 162 89
167 161 86
169 163 89
166 161 87
168 162 88
172 166 95
168 162 89
167 161 83
173 166 97
176 169 95
173 167 96
172 166 97
173 167 98
173 167 91
170 165 90
173 166 87
173 167 94
171 165 91
176 169 98
170 164 88
171 165 94
171 166 93
175 171 106
170 165 96
175 169 97
172 165 96
175 170 104
172 166 95
178 171 104
170 165 90
176 170 99
177 172 104
173 168 101
172 167 99
175 169 97
171 164 88
175 169 98
176 172 109
172 166 91
175 171 109
179 173 109
175 168 98
174 169 102
171 167 97
177 171 104
177 173 111
175 169 97
177 170 102
176 173 114
178 174 116
179 176 122
174 170 105
175 171 104
171 165 89
175 168 95
177 172 113
178 174 117
180 175 118
179 176 121
179 175 116
181 178 129
176 171 108
181 177 121
177 172 108
175 170 104
183 179 130
180 178 126
178 175 120
177 174 118
180 177 127
177 174 120
179 175 122
182 181 135
179 177 125
180 177 125
179 175 119
180 178 127
183 180 131
185 183 141
181 179 132
184 181 134
181 178 126
182 179 129
181 179 134
183 181 136
176 172 112
184 184 143
183 182 140
222 236 255
222 236 255
222 236 255
222 236 255
222 236 255
222 236 255
222 236 255
222 236 255
222 236 255
222 236 255
222 236 255
222 236 255
222 236 255
222 236 255
222 236 255
222 236 255
222 236 255
222 236 255
222 236 255
222 236 255
222 236 255
222 236 255
222 236 255
222 236 255
222 236 255
222 236 255
222 236 255
222 236 255
222 236 255
222 236 255
222 236 255
222 236 255
222 236 255
222 236 255
222 236 255
222 236 255
222 236 255
222 236 255
222 236 255
222 236 255
222 236 255
222 236 255
222 236 255
222 236 255
222 236 255
222 236 255
222 236 255
222 236 255
222 236 255
222 236 255
222 236 255
222 236 255
222 236 255
222 236 255
222 236 255
222 236 255
222 236 255
222 236 255
222 236 255
222 236 255
222 236 255
222 236 255
222 236 255
222 236 255
222 236 255
222 236 255
222 236 255
222 236 255
222 236 255
222 236 255
222 236 255
222 236 255
222 236 255
222 236 255
222 236 255
222 236 255
222 236 255
222 236 255
222 236 255
222 236 255
222 236 255
222 236 255
222 236 255
222 236 255
222 236 255
222 236 255
222 236 255
222 236 255
222 236 255
222 236 255
222 236 255
222 236 255
222 236 255
222 236 255
222 236 255
222 236 255
222 236 255
222 236 255
222 236 255
222 236 255
222 236 255
222 236 255
222 236 255
222 236 255
222 236 255
222 236 255
222 236 255
222 236 255
222 236 255
222 236 255
222 236 255
222 236 255
222 236 255
222 236 255
223 236 255
223 236 255
223 236 255
223 236 255
223 236 255
223 236 255
223 236 255
223 236 255
223 236 255
223 236 255
223 236 255
223 236 255
223 236 255
223 236 255
223 236 255
223 236 255
223 236 255
223 237 255
223 237 255
223 237 255
223 237 255
223 237 255
223 237 255
223 237 255
223 237 255
223 237 255
224 237 255
224 237 255
224 237 255
224 237 255
224 237 255
224 237 255
224 237 255
225 237 255
187 202 221
64 99 152
62 97 148
62 97 149
62 97 148
64 100 158
62 97 147
63 98 148
61 96 143
61 96 140
62 97 145
61 96 148
62 97 144
62 96 142
61 97 144
61 95 135
61 96 144
61 96 147
61 96 140
61 96 148
62 97 147
61 96 151
60 95 141
62 97 150
61 96 149
60 94 136
60 94 129
61 96 145
61 96 139
61 96 142
61 95 137
60 95 134
61 96 142
61 96 147
61 96 137
61 96 144
61 95 139
62 96 143
60 95 147
60 95 141
60 95 140
60 95 141
59 94 140
62 96 142
59 94 125
60 95 131
61 96 145
61 97 144
60 94 132
61 96 139
60 95 139
61 96 145
60 95 136
60 95 133
61 97 147
60 95 136
61 96 147
60 95 140
59 93 134
61 96 139
59 93 131
61 96 141
60 95 141
60 95 140
61 96 149
60 94 134
59 94 140
60 94 136
60 94 137
59 93 127
59 93 128
60 94 140
60 94 133
59 94 140
60 94 135
60 95 137
61 95 140
60 94 135
61 95 142
61 95 141
60 93 130
58 92 121
58 91 122
60 94 140
59 93 134
59 92 133
59 93 138
59 91 136
60 93 132
60 94 141
59 92 135
60 94 148
59 92 136
59 93 141
58 90 126
58 89 125
58 91 134
59 90 124
56 87 119
55 85 117
56 86 124
56 85 126
53 81 122
143 152 149
156 163 159
149 156 152
141 150 154
137 147 155
128 137 137
130 140 145
131 142 146
126 136 135
130 139 136
115 125 123
117 125 118
120 128 120
130 139 133
123 131 124
114 124 120
116 122 95
124 130 109
127 131 102
127 131 106
124 129 105
127 130 96
135 137 109
134 135 96
129 132 97
139 141 105
132 134 94
131 132 97
150 150 110
133 134 93
150 150 106
143 144 101
155 153 104
155 154 105
150 150 108
143 141 82
139 137 77
148 147 93
148 145 89
145 144 89
155 152 94
151 151 104
158 155 97
150 147 91
161 157 94
166 162 98
164 159 96
156 152 92
162 157 88
162 158 93
158 154 87
164 159 88
165 162 99
162 158 93
158 155 77
165 160 91
167 161 91
165 159 86
162 158 83
167 161 89
165 160 83
164 160 94
171 164 94
165 160 91
168 162 89
165 160 91
168 162 90
170 165 95
165 160 85
168 163 89
174 166 91
168 163 93
170 164 84
172 166 91
172 166 92
172 166 92
171 165 93
173 167 92
172 166 90
176 168 98
171 165 91
174 168 97
175 170 106
176 170 102
172 167 98
173 169 97
173 167 95
171 164 88
178 172 105
169 165 90
178 171 99
177 171 106
176 171 104
174 168 98
179 173 106
174 168 97
176 169 98
178 172 107
175 170 104
176 171 109
176 172 113
175 170 104
174 168 95
177 173 116
173 169 101
176 172 108
178 172 108
175 171 106
181 177 122
176 173 118
176 170 103
179 174 114
178 174 115
175 170 102
175 173 113
175 171 106
181 179 128
176 173 115
177 170 99
178 172 109
179 175 117
175 172 109
181 179 130
175 171 109
178 174 116
176 172 110
177 173 114
176 173 115
180 177 121
179 176 124
178 174 115
178 175 118
177 173 114
180 176 119
176 174 119
178 174 114
180 178 132
180 178 125
184 183 140
181 177 123
181 178 126
182 181 136
182 180 132
183 182 140
179 177 125
183 182 142
179 176 121
184 181 131
180 179 134
222 236 255
222 236 255
222 236 255
222 236 255
222 236 255
222 236 255
222 236 255
222 236 255
222 236 255
222 236 255
222 236 255
222 236 255
222 236 255
222 236 255
222 236 255
222 236 255
222 236 255
222 236 255
222 236 255
222 236 255
222 236 255
222 236 255
222 236 255
222 236 255
222 236 255
222 236 255
222 236 255
222 236 255
222 236 255
222 236 255
222 236 255
222 236 255
222 236 255
222 236 255
222 236 255
222 236 255
222 236 255
222 236 255
222 236 255
222 236 255
222 236 255
222 236 255
222 236 255
222 236 255
222 236 255
222 236 255
222 236 255
222 236 255
222 236 255
222 236 255
222 236 255
222 236 255
222 236 255
222 236 255
222 236 255
222 236 255
222 236 255
222 236 255
222 236 255
222 236 255
222 236 255
222 236 255
222 236 255
222 236 255
222 236 255
222 236 255
222 236 255
222 236 255
222 236 255
222 236 255
222 236 255
222 236 255
222 236 255
222 236 255
222 236 255
222 236 255
222 236 255
222 236 255
222 236 255
222 236 255
222 236 255
222 236 255
222 236 255
222 236 255
222 236 255
222 236 255
222 236 255
222 236 255
222 236 255
222 236 255
222 236 255
222 236 255
222 236 255
222 236 255
222 236 255
222 236 255
222 236 255
222 236 255
222 236 255
222 236 255
222 236 255
222 236 255
222 236 255
222 236 255
222 236 255
222 236 255
222 236 255
222 236 255
222 236 255
222 236 255
222 236 255
222 236 255
222 236 255
222 236 255
222 236 255
222 236 255
222 236 255
222 236 255
222 236 255
222 236 255
222 236 255
222 236 255
222 236 255
222 236 255
222 236 255
222 236 255
222 236 255
222 236 255
223 236 255
223 236 255
223 236 255
223 236 255
223 236 255
223 236 255
223 236 255
223 236 255
223 236 255
223 236 255
223 237 255
223 237 255
223 237 255
223 237 255
223 237 255
223 237 255
223 237 255
224 237 255
224 237 255
224 237 255
191 205 227
64 99 152
64 99 152
62 97 143
62 97 151
62 97 150
63 99 154
62 97 150
62 97 145
61 95 135
61 96 143
61 96 143
62 97 145
60 94 137
60 95 141
62 97 145
60 95 135
61 96 141
61 97 139
60 95 135
62 97 147
59 94 131
61 95 140
61 96 149
60 95 139
60 95 142
61 96 135
60 95 131
60 95 134
59 94 139
61 95 134
61 96 147
61 96 144
60 95 135
59 94 134
61 96 141
60 94 126
60 95 139
61 96 144
60 95 139
60 95 134
60 94 139
59 94 133
60 95 129
60 95 139
60 95 134
61 96 143
59 93 129
59 94 128
58 92 126
61 96 139
61 96 147
61 96 143
59 93 121
61 96 143
61 96 148
61 95 135
61 96 142
59 94 133
60 94 130
63 98 150
61 96 147
61 96 141
61 96 139
60 94 134
61 95 139
60 95 135
62 97 145
60 95 138
59 93 120
60 94 135
58 92 128
61 96 147
60 94 129
61 95 139
60 94 136
59 93 129
59 94 136
61 96 145
58 91 129
59 93 132
59 92 127
61 96 142
60 93 130
59 93 134
62 96 142
59 92 132
61 94 140
58 91 126
59 93 128
60 94 140
59 92 131
60 93 136
59 92 137
59 92 138
59 93 136
58 90 129
58 90 132
59 90 134
57 89 127
56 86 120
57 87 126
55 84 121
140 149 153
160 167 165
145 154 157
143 153 158
127 136 142
129 139 143
117 127 129
128 139 142
110 119 115
97 107 102
118 128 130
130 139 136
117 126 121
116 124 116
121 128 118
130 138 130
131 138 125
130 137 123
120 126 110
127 131 108
126 131 108
139 144 120
121 124 90
144 145 108
136 140 109
132 134 94
145 147 114
146 147 107
151 151 112
136 135 89
141 140 90
151 150 105
135 137 98
144 144 98
151 150 102
150 150 103
157 156 110
150 149 105
144 143 93
151 148 86
148 146 93
151 149 100
156 152 85
156 152 88
161 156 92
162 157 91
150 148 84
158 154 86
163 158 87
154 150 84
165 159 93
156 152 86
152 149 81
164 158 87
162 158 87
157 154 87
164 160 91
167 162 86
165 160 86
168 162 91
169 163 92
168 164 93
165 159 89
172 165 93
165 159 83
169 164 93
160 156 79
169 163 91
171 165 91
166 160 81
172 166 97
169 164 92
170 164 87
171 166 98
171 166 94
172 166 99
169 163 88
171 165 92
172 166 95
173 168 97
169 164 90
175 168 93
173 168 100
172 165 84
180 173 109
170 165 84
173 167 100
174 168 95
172 167 93
174 169 103
171 166 89
175 169 98
174 168 93
173 167 98
177 171 103
175 169 95
170 165 95
174 169 100
177 172 106
176 172 109
175 170 103
174 170 104
175 170 104
178 172 108
179 173 111
175 170 103
174 169 100
179 174 113
176 171 106
174 168 104
172 167 99
177 172 112
177 172 106
175 171 108
176 172 110
179 175 120
178 174 115
175 173 116
180 175 117
177 171 107
178 172 108
175 172 112
177 174 116
179 175 117
178 175 120
179 175 119
176 174 122
181 179 128
180 177 123
181 177 125
178 174 117
180 176 120
182 178 124
180 178 126
180 179 132
181 177 124
182 178 127
181 179 131
178 175 121
182 179 128
185 183 140
183 180 131
182 179 130
184 182 137
181 180 133
177 174 118
179 177 128
183 182 138
186 182 133
222 236 255
222 236 255
222 236 255
222 236 255
222 236 255
222 236 255
222 236 255
222 236 255
222 236 255
222 236 255
222 236 255
222 236 255
222 236 255
222 236 255
222 236 255
222 236 255
222 236 255
222 236 255
222 236 255
222 236 255
222 236 255
222 236 255
222 236 255
222 236 255
222 236 255
222 236 255
222 236 255
222 236 255
222 236 255
222 236 255
222 236 255
222 236 255
222 236 255
222 236 255
222 236 255
222 236 255
222 236 255
222 236 255
222 236 255
222 236 255
222 236 255
222 236 255
222 236 255
222 236 255
222 236 255
222 236 255
222 236 255
222 236 255
222 236 255
222 236 255
222 236 255
222 236 255
222 236 255
222 236 255
222 236 255
222 236 255
222 236 255
222 236 255
222 236 255
222 236 255
222 236 255
222 236 255
222 236 255
222 236 255
222 236 255
222 236 255
222 236 255
222 236 255
222 236 255
222 236 255
222 236 255
222 236 255
222 236 255
222 236 255
222 236 255
222 236 255
222 236 255
222 236 255
222 236 255
222 236 255
222 236 255
222 236 255
222 236 255
222 236 255
222 236 255
222 236 255
222 236 255
222 236 255
222 236 255
222 236 255
222 236 255
222 236 255
222 236 255
222 236 255
222 236 255
222 236 255
222 236 255
222 236 255
222 236 255
222 236 255
222 236 255
222 236 255
222 236 255
222 236 255
222 236 255
222 236 255
222 236 255
222 236 255
222 236 255
222 236 255
222 236 255
222 236 255
222 236 255
222 236 255
222 236 255
222 236 255
222 236 255
222 236 255
222 236 255
222 236 255
222 236 255
222 236 255
222 236 255
222 236 255
222 236 255
222 236 255
222 236 255
222 236 255
222 236 255
222 236 255
222 236 255
222 236 255
222 236 255
222 236 255
222 236 255
222 236 255
222 236 255
222 236 255
223 236 255
223 236 255
223 236 255
223 236 255
223 236 255
223 236 255
223 236 255
223 237 255
223 237 255
223 237 255
166 183 209
64 99 160
63 98 149
62 97 137
63 98 141
61 96 135
61 95 137
62 97 149
61 96 139
61 96 140
61 95 134
62 97 150
62 97 148
62 97 148
61 96 140
61 96 131
61 96 141
60 95 133
61 95 137
61 96 147
61 96 141
60 95 137
61 95 137
61 96 145
61 96 133
60 95 133
61 96 143
59 94 133
63 98 150
60 95 136
61 95 135
60 95 144
60 95 139
61 96 141
60 95 129
60 96 140
61 96 145
60 95 136
59 94 130
60 95 133
60 95 141
60 95 138
59 94 117
61 96 147
61 96 141
61 95 140
61 96 147
60 95 130
61 95 144
62 97 144
60 95 136
59 94 129
60 94 133
61 96 143
60 95 141
60 94 136
61 96 139
61 95 143
61 95 142
60 95 138
59 93 128
62 96 151
61 96 136
60 94 133
59 93 128
60 94 135
62 97 144
61 96 147
60 94 138
60 95 142
59 93 135
60 94 137
60 95 135
60 94 127
59 94 133
61 95 142
60 95 140
60 94 145
60 95 130
59 94 131
60 94 140
59 93 128
58 91 123
61 95 131
60 95 141
61 96 142
60 94 141
60 94 144
58 91 131
59 91 134
58 92 130
59 92 127
58 89 121
58 91 131
59 92 124
60 92 128
57 89 127
58 90 131
58 89 124
58 90 133
55 85 125
54 82 119
52 79 113
122 132 141
162 169 167
146 155 159
143 152 156
138 148 152
114 123 127
117 126 131
110 120 123
117 126 126
112 122 121
126 136 140
109 117 114
113 122 112
117 126 124
117 125 111
117 124 109
118 125 111
127 133 112
119 124 99
127 132 113
120 124 95
136 140 117
129 133 102
133 136 110
127 131 100
135 137 102
137 138 92
141 141 102
131 133 87
142 141 92
142 143 98
142 143 99
139 140 91
149 148 97
151 150 103
148 147 99
145 144 87
149 147 87
154 151 95
152 150 92
159 155 91
152 149 87
156 152 89
156 151 83
159 154 86
157 153 89
150 147 79
155 151 86
153 150 82
160 157 97
161 156 84
159 155 93
164 159 88
157 154 82
157 153 81
167 162 91
156 152 80
164 159 90
162 157 85
164 160 85
169 163 85
170 164 92
162 158 87
165 160 87
169 162 87
166 160 86
167 161 83
167 161 86
170 163 86
171 165 94
166 161 86
167 161 83
171 165 90
168 162 83
172 164 89
169 164 87
170 164 85
167 163 85
168 161 88
179 172 106
172 165 91
173 166 96
174 167 95
172 165 90
176 170 102
177 169 93
174 167 92
176 170 104
171 166 87
179 174 113
175 168 94
173 166 92
173 168 99
178 174 114
171 165 91
173 166 90
175 170 100
177 170 102
175 169 105
176 171 106
177 171 104
176 171 106
178 172 110
175 170 103
176 170 99
173 168 102
175 169 104
174 171 108
172 167 94
177 172 109
174 169 101
171 167 93
177 172 106
179 174 115
174 169 106
178 174 117
178 175 117
181 177 119
178 175 118
174 169 103
172 167 93
177 174 113
182 178 124
178 176 122
182 178 127
181 178 126
176 174 120
178 174 112
176 174 116
179 175 120
180 175 115
181 179 131
183 180 133
179 175 118
178 177 123
179 175 117
178 174 117
181 180 134
175 171 112
182 177 124
183 180 132
180 177 123
180 177 126
186 185 144
182 179 127
182 179 130
180 176 124
178 175 117
186 184 144
222 236 255
222 236 255
222 236 255
222 236 255
222 236 255
222 236 255
222 236 255
222 236 255
222 236 255
222 236 255
222 236 255
222 236 255
222 236 255
222 236 255
222 236 255
222 236 255
222 236 255
222 236 255
222 236 255
222 236 255
222 236 255
222 236 255
222 236 255
222 236 255
222 236 255
222 236 255
222 236 255
222 236 255
222 236 255
222 236 255
222 236 255
222 236 255
222 236 255
222 236 255
222 236 255
222 236 255
222 236 255
222 236 255
222 236 255
222 236 255
222 236 255
222 236 255
222 236 255
222 236 255
222 236 255
222 236 255
222 236 255
222 236 255
222 236 255
222 236 255
222 236 255
222 236 255
222 236 255
222 236 255
222 236 255
222 236 255
222 236 255
222 236 255
222 236 255
222 236 255
222 236 255
222 236 255
222 236 255
222 236 255
222 236 255
222 236 255
222 236 255
222 236 255
222 236 255
222 236 255
222 236 255
222 236 255
222 236 255
222 236 255
222 236 255
222 236 255
222 236 255
222 236 255
222 236 255
222 236 255
222 236 255
222 236 255
222 236 255
222 236 255
222 236 255
222 236 255
222 236 255
222 236 255
222 236 255
222 236 255
222 236 255
222 236 255
222 236 255
222 236 255
222 236 255
222 236 255
222 236 255
222 236 255
222 236 255
222 236 255
222 236 255
222 236 255
222 236 255
222 236 255
222 236 255
222 236 255
222 236 255
222 236 255
222 236 255
222 236 255
222 236 255
222 236 255
222 236 255
222 236 255
222 236 255
222 236 255
222 236 255
222 236 255
222 236 255
222 236 255
222 236 255
222 236 255
222 236 255
222 236 255
222 236 255
222 236 255
222 236 255
222 236 255
222 236 255
222 236 255
222 236 255
222 236 255
222 236 255
222 236 255
222 236 255
222 236 255
222 236 255
222 236 255
222 236 255
222 236 255
222 236 255
222 236 255
222 236 255
222 236 255
222 236 255
222 236 255
222 236 255
223 236 255
165 183 211
65 100 156
65 100 157
63 98 141
63 98 145
61 96 140
62 97 150
63 98 148
62 96 140
61 96 142
61 95 142
60 95 130
61 96 139
62 97 149
61 96 139
63 98 150
61 96 137
62 97 142
61 96 136
61 96 141
60 94 131
60 95 136
60 95 129
60 95 135
60 95 137
61 96 136
60 94 133
61 96 139
60 95 135
61 96 147
60 94 137
62 97 145
61 95 134
60 95 139
60 96 140
61 97 148
60 95 131
60 95 133
61 96 139
60 94 135
59 94 130
59 93 131
61 96 137
60 95 131
61 96 143
60 95 131
60 95 136
60 95 140
60 94 142
60 95 139
60 94 133
60 95 140
61 96 144
61 96 140
61 96 142
61 96 143
60 94 128
59 94 139
60 95 141
60 95 139
60 94 136
61 95 141
61 95 138
61 96 139
61 96 145
59 93 128
61 96 143
59 94 135
60 95 138
61 96 136
60 94 128
61 96 141
60 95 139
60 94 139
59 93 124
59 93 137
59 94 137
61 95 143
61 95 136
59 93 133
60 93 131
60 95 139
59 93 130
61 95 133
60 94 132
58 91 126
59 92 125
60 94 131
58 91 126
58 91 127
58 91 134
59 90 126
58 91 131
57 88 120
59 91 130
59 91 127
59 90 135
58 90 127
56 87 121
59 91 130
57 86 121
57 87 126
53 82 119
122 135 148
149 157 160
141 149 153
147 157 163
139 149 157
127 137 144
126 136 142
119 130 133
122 132 135
116 126 127
126 134 130
106 114 107
124 132 126
115 124 115
112 119 106
123 131 120
116 123 109
122 129 115
122 128 108
120 124 95
122 127 104
124 127 92
129 134 113
130 133 102
131 133 92
125 129 103
139 137 92
139 141 104
136 138 103
144 146 110
142 142 89
144 144 95
133 133 86
148 147 97
142 143 97
145 143 87
151 150 98
146 144 88
151 148 92
155 151 84
155 150 87
156 153 98
156 152 93
158 153 81
149 146 84
158 155 91
160 156 88
156 152 90
155 151 87
165 159 89
159 155 87
164 160 89
158 153 85
162 157 86
158 154 86
165 159 87
164 159 93
163 158 83
162 156 86
170 163 86
167 162 86
167 162 91
170 163 90
163 158 89
166 161 86
171 164 91
168 162 89
171 164 92
169 163 87
171 164 89
170 163 84
169 164 87
172 165 84
169 163 83
169 164 90
172 166 92
171 164 87
171 164 84
170 165 86
170 164 93
172 167 94
172 165 93
172 164 90
171 166 93
171 165 87
168 162 80
174 168 101
172 167 93
171 166 96
176 170 97
170 164 92
175 168 93
173 167 96
173 169 95
173 166 90
178 171 103
171 166 90
173 167 94
175 169 103
175 169 98
173 169 100
174 169 103
172 166 92
176 172 110
178 172 108
174 170 104
174 169 99
176 170 103
175 170 104
170 166 95
177 172 106
174 169 97
179 176 121
174 169 108
173 169 106
179 175 118
170 165 90
173 169 102
177 172 105
177 173 117
175 171 109
179 175 115
179 175 117
176 171 111
176 172 106
179 175 116
179 177 127
180 176 118
183 179 125
178 175 119
179 176 121
179 176 124
181 178 123
183 178 122
180 178 128
180 176 124
178 174 116
179 177 126
176 173 114
177 175 119
183 181 132
182 179 128
182 180 129
182 179 126
187 186 147
182 183 146
182 179 132
184 182 141
180 177 127
221 236 255
221 236 255
221 236 255
221 236 255
221 236 255
221 236 255
221 236 255
221 236 255
221 236 255
221 236 255
221 236 255
221 236 255
221 236 255
221 236 255
221 236 255
221 236 255
221 236 255
221 236 255
221 236 255
221 236 255
221 236 255
221 236 255
221 236 255
221 236 255
221 236 255
221 236 255
221 236 255
221 236 255
221 236 255
221 236 255
221 236 255
221 236 255
221 236 255
221 236 255
221 236 255
221 236 255
221 236 255
221 236 255
221 236 255
221 236 255
221 236 255
221 236 255
221 236 255
221 236 255
221 236 255
221 236 255
221 236 255
221 236 255
221 236 255
221 236 255
221 236 255
221 236 255
221 236 255
221 236 255
221 236 255
221 236 255
221 236 255
221 236 255
221 236 255
221 236 255
221 236 255
221 236 255
221 236 255
221 236 255
221 236 255
221 236 255
221 236 255
221 236 255
221 236 255
221 236 255
221 236 255
221 236 255
221 236 255
221 236 255
221 236 255
221 236 255
221 236 255
221 236 255
221 236 255
221 236 255
221 236 255
221 236 255
221 236 255
221 236 255
221 236 255
221 236 255
221 236 255
221 236 255
221 236 255
221 236 255
221 236 255
221 236 255
221 236 255
221 236 255
221 236 255
221 236 255
221 236 255
221 236 255
221 236 255
221 236 255
221 236 255
221 236 255
221 236 255
221 236 255
221 236 255
221 236 255
221 236 255
221 236 255
221 236 255
221 236 255
221 236 255
221 236 255
221 236 255
221 236 255
221 236 255
221 236 255
221 236 255
221 236 255
221 236 255
221 236 255
221 236 255
221 236 255
222 236 255
222 236 255
222 236 255
221 236 255
222 236 255
221 236 255
222 236 255
222 236 255
222 236 255
222 236 255
222 236 255
222 236 255
222 236 255
222 236 255
222 236 255
222 236 255
222 236 255
222 236 255
222 236 255
222 236 255
222 236 255
222 236 255
222 236 255
222 236 255
222 236 255
222 236 255
149 168 203
64 99 156
63 98 153
64 99 152
63 99 154
61 95 133
62 97 145
61 96 143
61 96 139
61 96 139
62 97 144
61 96 144
62 96 144
61 96 135
61 96 143
61 96 141
60 94 135
60 95 129
61 96 139
60 94 133
60 95 135
62 97 144
60 95 133
60 95 130
60 94 131
61 96 139
61 96 140
60 95 135
61 96 141
61 96 142
61 96 140
61 96 142
61 96 140
61 95 134
61 95 136
59 94 129
61 96 141
60 94 139
61 95 142
62 97 148
60 95 134
61 96 135
60 95 126
62 97 144
58 91 117
62 97 148
59 94 130
59 94 133
61 96 141
60 95 128
61 96 147
60 95 141
61 95 139
60 95 130
59 93 121
59 94 137
60 95 141
61 96 144
60 94 139
60 94 125
61 96 133
60 95 145
60 95 137
60 94 140
59 93 120
58 91 120
61 96 136
60 95 136
61 96 143
60 94 130
59 93 135
60 94 136
60 95 139
60 94 134
60 94 131
60 94 142
59 93 127
59 94 138
60 94 138
60 93 134
58 92 128
60 94 128
60 94 126
59 93 139
60 93 133
59 93 134
58 91 123
58 92 125
59 93 135
58 92 131
59 92 130
56 88 116
58 91 134
59 91 130
59 93 136
58 90 129
59 92 131
56 86 117
56 86 123
57 88 120
55 83 115
55 85 120
51 79 109
113 124 132
141 148 149
152 160 162
143 152 160
125 136 143
121 132 138
119 128 132
100 109 110
110 119 118
111 120 118
130 140 141
115 124 119
126 135 127
105 113 98
118 125 116
119 125 107
122 129 111
125 129 106
110 116 96
120 125 101
112 118 93
128 131 104
124 129 106
129 133 104
128 130 98
130 131 91
124 127 92
132 133 90
135 135 89
139 140 94
138 137 84
148 145 85
140 139 90
140 138 81
151 149 99
143 143 94
148 146 94
146 144 86
142 141 86
149 146 81
143 142 84
151 147 82
150 148 87
154 151 84
158 153 85
151 147 80
149 146 76
164 159 89
155 151 85
155 150 83
160 155 77
165 160 97
163 156 84
153 149 85
159 155 84
165 158 90
159 155 83
163 158 87
164 158 84
167 160 89
162 156 80
163 158 85
169 163 87
167 160 86
171 164 91
161 156 79
166 160 85
168 162 89
165 160 85
166 160 87
173 165 88
172 165 90
166 160 82
169 163 92
175 167 88
166 159 83
169 164 90
170 164 87
169 163 82
174 167 93
174 168 100
173 167 93
175 169 94
170 164 90
174 168 90
172 166 94
171 165 86
171 165 94
173 166 95
179 175 117
167 162 85
178 174 116
173 166 94
173 167 94
174 168 96
175 170 99
176 171 106
173 167 97
177 172 108
176 171 103
178 172 112
174 168 95
175 169 99
176 172 109
173 168 96
178 171 103
176 170 100
178 173 110
178 173 112
175 170 101
170 165 88
176 171 109
177 173 112
177 173 112
181 177 123
179 176 125
175 168 102
176 171 107
182 177 120
179 175 117
176 170 106
181 176 123
176 172 110
177 172 111
175 171 105
176 171 104
179 175 118
179 176 121
182 179 128
179 174 116
181 178 124
179 176 122
172 169 102
181 179 128
174 169 102
180 177 124
181 179 131
183 181 136
179 175 118
181 179 129
186 185 143
182 180 134
177 175 119
185 183 137
180 179 131
184 183 139
181 179 127
186 185 142
184 183 143
221 236 255
221 236 255
221 236 255
221 236 255
221 236 255
221 236 255
221 236 255
221 236 255
221 236 255
221 236 255
221 236 255
221 236 255
221 236 255
221 236 255
221 236 255
221 236 255
221 236 255
221 236 255
221 236 255
221 236 255
221 236 255
221 236 255
221 236 255
221 236 255
221 236 255
221 236 255
221 236 255
221 236 255
221 236 255
221 236 255
221 236 255
221 236 255
221 236 255
221 236 255
221 236 255
221 236 255
221 236 255
221 236 255
221 236 255
221 236 255
221 236 255
221 236 255
221 236 255
221 236 255
221 236 255
221 236 255
221 236 255
221 236 255
221 236 255
221 236 255
221 236 255
221 236 255
221 236 255
221 236 255
221 236 255
221 236 255
221 236 255
221 236 255
221 236 255
221 236 255
221 236 255
221 236 255
221 236 255
221 236 255
221 236 255
221 236 255
221 236 255
221 236 255
221 236 255
221 236 255
221 236 255
221 236 255
221 236 255
221 236 255
221 236 255
221 236 255
221 236 255
221 236 255
221 236 255
221 236 255
221 236 255
221 236 255
221 236 255
221 236 255
221 236 255
221 236 255
221 236 255
221 236 255
221 236 255
221 236 255
221 236 255
221 236 255
221 236 255
221 236 255
221 236 255
221 236 255
221 236 255
221 236 255
221 236 255
221 236 255
221 236 255
221 236 255
221 236 255
221 236 255
221 236 255
221 236 255
221 236 255
221 236 255
221 236 255
221 236 255
221 236 255
221 236 255
221 236 255
221 236 255
221 236 255
221 236 255
221 236 255
221 236 255
221 236 255
221 236 255
221 236 255
221 236 255
221 236 255
221 236 255
221 236 255
221 236 255
221 236 255
221 236 255
221 236 255
221 236 255
221 236 255
221 236 255
221 236 255
221 236 255
221 236 255
221 236 255
221 236 255
221 236 255
221 236 255
221 236 255
221 236 255
221 236 255
221 236 255
221 236 255
221 236 255
221 236 255
221 236 255
221 236 255
160 178 210
65 101 160
64 100 155
61 95 137
63 98 149
63 99 153
62 96 147
62 96 149
62 97 141
62 97 145
61 96 139
62 97 140
61 95 141
61 95 142
61 96 139
60 95 128
61 96 142
61 96 142
60 95 139
60 94 134
60 94 135
61 96 140
60 95 134
60 94 130
62 97 142
60 95 135
61 96 135
59 94 128
61 96 140
60 94 128
60 95 140
60 95 135
60 95 136
59 93 130
60 95 139
59 93 118
60 94 129
59 94 130
61 96 141
60 94 136
60 95 139
59 93 129
61 96 144
60 95 129
61 96 139
60 94 131
60 95 134
60 95 129
60 95 136
60 95 128
60 95 136
62 97 145
60 95 134
59 94 137
60 94 135
60 94 128
60 95 135
60 94 139
60 95 144
61 95 142
60 95 136
60 94 138
59 94 128
60 94 120
59 94 129
60 94 129
60 95 138
58 92 129
60 95 144
60 94 126
60 94 131
60 94 129
61 95 140
58 91 122
61 96 147
57 90 115
60 94 134
60 93 141
59 93 135
59 93 132
60 93 133
58 92 134
59 93 132
61 95 139
57 89 116
58 91 132
58 91 131
59 92 131
59 92 131
59 93 134
59 92 135
59 92 129
58 91 138
59 92 131
60 92 139
58 90 133
56 85 113
58 89 128
57 87 117
57 88 129
58 90 136
54 83 120
51 78 106
112 123 127
162 170 171
148 156 159
137 144 145
123 131 132
130 140 143
117 126 129
123 132 133
106 116 117
108 117 116
120 130 130
125 135 138
112 120 110
127 136 131
125 133 123
118 126 117
119 125 107
128 136 125
114 120 104
132 138 121
112 116 85
131 135 106
136 138 107
134 136 104
139 144 117
136 138 109
144 147 115
137 138 102
143 145 106
134 136 101
140 139 88
137 138 93
138 138 93
145 144 92
133 133 76
145 143 95
141 139 77
128 127 69
149 147 87
143 142 91
152 149 87
146 145 85
155 152 94
145 143 77
155 151 84
150 146 80
152 148 74
150 147 85
157 153 81
159 153 81
161 156 84
157 153 78
162 156 85
159 155 87
170 163 87
157 152 78
161 156 81
164 158 82
157 153 78
161 157 84
168 161 85
166 160 79
166 161 83
167 162 87
170 163 82
168 162 88
166 160 82
166 160 82
164 159 75
167 161 86
168 163 83
171 165 90
170 164 88
168 163 85
168 162 88
168 162 89
168 162 86
173 167 93
170 164 89
168 163 89
172 165 86
172 166 87
174 167 92
170 163 86
171 164 84
174 168 95
171 164 86
176 169 97
172 167 95
169 164 83
174 169 103
174 168 94
174 168 93
174 168 97
172 166 89
173 168 94
174 167 92
172 167 97
173 168 96
178 172 108
173 166 95
178 172 109
175 169 101
176 171 106
174 169 101
176 171 102
173 169 104
180 175 118
174 169 104
176 172 112
175 170 106
175 172 110
179 175 116
178 172 106
180 174 114
178 173 115
174 169 97
177 170 96
176 172 109
176 172 110
176 171 106
179 176 122
182 178 123
178 174 115
178 175 117
177 173 113
175 172 110
173 168 102
180 178 127
175 171 109
183 181 134
180 176 121
177 174 118
180 178 126
182 180 132
174 169 104
179 176 122
181 178 126
176 171 108
176 173 113
179 176 123
182 181 135
180 180 135
184 181 138
178 174 114
177 174 122
180 178 130
181 179 132
185 183 138
221 235 255
221 235 255
221 235 255
221 235 255
221 235 255
221 235 255
221 235 255
221 235 255
221 235 255
221 235 255
221 235 255
221 235 255
221 235 255
221 235 255
221 235 255
221 235 255
221 235 255
221 235 255
221 235 255
221 235 255
221 235 255
221 235 255
221 235 255
221 235 255
221 235 255
221 235 255
221 235 255
221 235 255
221 235 255
221 235 255
221 235 255
221 235 255
221 235 255
221 235 255
221 235 255
221 235 255
221 235 255
221 235 255
221 235 255
221 235 255
221 235 255
221 235 255
221 235 255
221 235 255
221 235 255
221 235 255
221 235 255
221 235 255
221 235 255
221 235 255
221 235 255
221 235 255
221 235 255
221 235 255
221 235 255
221 235 255
221 235 255
221 235 255
221 235 255
221 235 255
221 235 255
221 235 255
221 235 255
221 235 255
221 235 255
221 235 255
221 235 255
221 235 255
221 235 255
221 235 255
221 235 255
221 235 255
221 235 255
221 235 255
221 235 255
221 235 255
221 235 255
221 235 255
221 235 255
221 235 255
221 235 255
221 235 255
221 235 255
221 235 255
221 235 255
221 235 255
221 235 255
221 235 255
221 235 255
221 235 255
221 235 255
221 235 255
221 235 255
221 235 255
221 235 255
221 235 255
221 235 255
221 235 255
221 235 255
221 235 255
221 235 255
221 235 255
221 235 255
221 235 255
221 235 255
221 235 255
221 235 255
221 235 255
221 235 255
221 235 255
221 235 255
221 235 255
221 235 255
221 235 255
221 235 255
221 235 255
221 235 255
221 235 255
221 235 255
221 235 255
221 235 255
221 235 255
221 235 255
221 235 255
221 235 255
221 235 255
221 235 255
221 235 255
221 235 255
221 235 255
221 235 255
221 235 255
221 235 255
221 235 255
221 235 255
221 235 255
221 235 255
221 235 255
221 235 255
221 235 255
221 235 255
221 235 255
221 235 255
221 235 255
221 235 255
221 235 255
221 235 255
221 235 255
139 160 199
64 99 152
63 98 149
62 97 149
62 97 147
61 96 141
62 97 148
61 95 139
63 98 150
61 96 139
61 96 144
60 94 128
62 97 141
59 93 133
61 96 139
61 96 141
61 95 135
61 96 136
62 97 150
61 96 136
59 94 125
60 95 135
60 94 130
59 94 130
61 95 140
61 95 134
60 94 135
60 95 130
61 96 134
61 96 143
61 96 142
59 94 126
61 96 141
59 94 125
59 94 133
60 95 137
59 94 137
61 96 135
60 95 136
60 95 129
61 96 137
60 95 133
59 94 135
60 94 130
59 94 125
61 96 139
61 96 140
61 95 138
60 94 124
61 95 138
61 95 139
59 93 135
60 95 134
59 93 133
61 96 147
61 95 135
61 96 140
61 96 137
60 94 130
60 95 139
61 95 137
61 96 145
60 94 130
60 95 133
61 95 140
60 95 133
61 96 148
59 93 129
60 94 132
59 93 134
60 95 137
60 94 137
60 94 129
60 94 130
59 92 130
59 93 133
59 94 135
60 93 132
59 93 124
60 94 135
61 96 149
60 94 130
58 91 120
59 93 133
58 91 123
60 95 138
58 91 125
58 90 121
59 93 130
58 90 123
58 91 121
58 90 124
58 90 125
58 91 134
57 87 109
57 89 129
59 90 127
57 88 122
56 87 120
56 86 111
55 84 118
53 81 108
51 78 100
98 111 122
137 144 145
154 162 164
117 125 127
121 130 134
112 120 121
131 141 147
116 124 126
112 121 123
119 129 129
106 116 111
113 122 114
111 120 112
104 111 94
124 133 124
99 107 91
119 125 107
122 130 116
129 134 114
117 125 115
124 128 104
127 132 111
127 131 100
129 131 98
116 119 77
117 122 87
135 137 102
134 136 95
136 135 84
136 137 96
145 143 81
149 148 104
139 137 81
149 148 96
149 148 99
140 140 90
155 152 86
148 146 97
157 152 90
149 145 85
152 149 83
150 148 90
148 144 76
159 156 91
149 146 88
148 145 78
149 146 80
160 155 83
155 151 81
156 150 75
161 155 85
153 149 81
153 148 73
157 153 81
160 154 86
163 156 78
163 158 84
162 157 85
160 156 78
160 155 86
162 157 79
162 156 77
165 160 81
166 159 83
164 159 79
167 161 86
168 163 84
162 158 79
163 159 83
170 165 90
170 164 91
162 157 78
167 160 88
167 160 80
166 161 79
168 162 82
170 163 86
169 164 85
166 161 85
172 164 86
172 165 87
168 164 95
166 162 93
174 167 90
170 164 83
172 165 86
167 162 83
173 167 97
174 169 104
171 166 90
171 165 85
174 168 95
170 165 95
172 165 82
175 170 104
174 168 93
176 171 103
168 163 84
174 171 107
175 170 106
172 165 90
177 171 101
177 172 107
174 168 95
175 170 103
177 172 107
177 171 103
171 167 99
175 169 100
178 171 103
175 170 103
177 173 114
177 172 115
176 172 108
177 171 103
175 172 111
175 172 110
183 179 128
176 172 109
174 170 108
181 176 116
178 175 116
173 169 103
183 178 122
178 173 115
179 176 123
179 175 117
179 175 118
177 173 114
180 174 114
177 172 109
171 166 100
179 176 124
178 175 115
178 173 113
177 171 106
177 175 124
177 173 115
181 177 119
178 175 119
181 179 131
180 177 123
183 181 134
183 181 136
183 181 134
184 183 142
182 180 133
177 173 113
180 178 126
221 235 255
221 235 255
221 235 255
221 235 255
221 235 255
221 235 255
221 235 255
221 235 255
221 235 255
221 235 255
221 235 255
221 235 255
221 235 255
221 235 255
221 235 255
221 235 255
221 235 255
221 235 255
221 235 255
221 235 255
221 235 255
221 235 255
221 235 255
221 235 255
221 235 255
221 235 255
221 235 255
221 235 255
221 235 255
221 235 255
221 235 255
221 235 255
221 235 255
221 235 255
221 235 255
221 235 255
221 235 255
221 235 255
221 235 255
221 235 255
221 235 255
221 235 255
221 235 255
221 235 255
221 235 255
221 235 255
221 235 255
221 235 255
221 235 255
221 235 255
221 235 255
221 235 255
221 235 255
221 235 255
221 235 255
221 235 255
221 235 255
221 235 255
221 235 255
221 235 255
221 235 255
221 235 255
221 235 255
221 235 255
221 235 255
221 235 255
221 235 255
221 235 255
221 235 255
221 235 255
221 235 255
221 235 255
221 235 255
221 235 255
221 235 255
221 235 255
221 235 255
221 235 255
221 235 255
221 235 255
221 235 255
221 235 255
221 235 255
221 235 255
221 235 255
221 235 255
221 235 255
221 235 255
221 235 255
221 235 255
221 235 255
221 235 255
221 235 255
221 235 255
221 235 255
221 235 255
221 235 255
221 235 255
221 235 255
221 235 255
221 235 255
221 235 255
221 235 255
221 235 255
221 235 255
221 235 255
221 235 255
221 235 255
221 235 255
221 235 255
221 235 255
221 235 255
221 235 255
221 235 255
221 235 255
221 235 255
221 235 255
221 235 255
221 235 255
221 235 255
221 235 255
221 235 255
221 235 255
221 235 255
221 235 255
221 235 255
221 235 255
221 235 255
221 235 255
221 235 255
221 235 255
221 235 255
220 235 255
220 235 255
220 235 255
220 235 255
220 235 255
220 235 255
220 235 255
220 235 255
220 235 255
220 235 255
220 235 255
220 235 255
220 235 255
220 235 255
220 235 255
220 235 255
147 167 205
64 99 156
64 99 153
62 96 142
61 96 134
62 97 143
63 97 147
63 98 147
61 95 131
62 97 147
61 95 135
60 95 148
60 95 141
61 96 140
63 97 145
61 96 141
61 95 141
61 95 131
60 94 131
60 94 131
61 96 139
61 96 141
60 94 130
61 95 130
60 94 130
60 95 131
60 94 126
61 95 134
60 94 134
60 95 136
61 96 143
61 96 139
60 95 130
59 93 124
60 95 135
58 92 121
60 94 131
60 95 139
60 94 130
61 96 141
60 94 131
60 95 139
61 97 151
60 95 134
60 94 134
62 97 147
59 93 131
61 96 135
61 97 149
60 94 136
59 93 129
62 97 144
59 94 134
60 95 131
60 94 136
60 94 126
60 95 130
60 95 134
60 95 137
60 95 136
59 94 129
61 96 138
60 95 141
59 94 137
59 92 134
61 96 137
61 95 146
59 93 133
59 93 130
58 92 128
61 95 137
60 95 138
60 94 131
58 92 125
60 94 134
60 94 128
60 95 135
59 93 140
59 93 135
59 93 128
60 94 138
58 90 127
58 91 129
59 93 132
60 93 134
59 93 125
60 93 131
60 93 131
60 93 134
59 92 121
61 95 140
59 92 137
59 92 132
58 90 126
58 90 127
58 90 123
58 90 121
56 86 118
57 89 124
56 86 121
55 84 112
56 86 114
53 80 115
113 125 130
141 149 149
144 153 155
141 150 153
128 138 146
126 136 141
114 124 126
112 122 124
106 117 117
123 132 135
139 149 151
114 123 117
120 129 124
120 128 120
120 128 118
129 136 122
107 114 96
140 145 131
126 131 106
120 125 102
127 131 105
120 125 101
130 133 105
132 133 104
125 128 96
124 127 85
135 135 95
131 133 94
139 139 87
124 126 77
134 132 75
141 140 95
138 136 74
135 134 76
136 135 82
149 147 89
139 139 89
149 148 93
144 144 92
150 147 85
151 146 82
150 146 81
150 148 90
145 142 73
147 144 76
157 152 87
155 151 83
155 151 86
159 155 89
143 141 71
155 151 80
155 151 73
159 154 78
164 159 84
162 157 83
159 154 77
164 159 82
166 160 79
165 159 85
166 160 87
160 155 73
162 156 77
165 159 85
166 159 79
163 158 79
170 164 88
167 162 82
171 165 90
168 162 89
172 165 85
162 157 75
166 160 86
170 164 81
166 160 82
166 161 90
167 162 88
169 163 85
172 166 91
172 166 91
168 162 77
172 166 96
169 163 88
172 165 86
169 163 90
168 163 82
171 165 86
171 166 90
169 163 90
171 165 88
171 164 87
172 167 90
173 168 95
174 168 99
172 166 87
173 167 91
171 165 88
172 166 93
173 168 97
172 166 91
172 165 90
174 168 100
175 170 103
171 167 92
179 173 109
176 171 108
173 169 106
171 166 99
175 170 106
174 169 103
175 169 102
173 168 99
179 174 119
174 170 103
175 169 100
175 170 103
174 170 105
177 172 111
175 172 108
180 174 112
175 170 103
177 174 120
174 168 97
179 175 116
171 166 90
171 166 98
174 170 108
170 165 92
178 175 120
179 176 121
180 176 118
182 177 118
182 181 138
176 171 108
184 180 130
177 175 117
182 179 128
182 178 125
184 182 136
180 176 120
179 176 126
182 178 127
181 178 128
179 177 124
177 174 114
180 177 124
184 184 142
179 178 128
184 180 133
181 179 133
221 235 255
221 235 255
221 235 255
221 235 255
221 235 255
221 235 255
221 235 255
221 235 255
221 235 255
221 235 255
221 235 255
221 235 255
221 235 255
221 235 255
221 235 255
221 235 255
221 235 255
221 235 255
221 235 255
221 235 255
221 235 255
221 235 255
221 235 255
221 235 255
221 235 255
221 235 255
221 235 255
221 235 255
221 235 255
221 235 255
221 235 255
221 235 255
221 235 255
221 235 255
221 235 255
221 235 255
221 235 255
221 235 255
221 235 255
221 235 255
221 235 255
221 235 255
221 235 255
221 235 255
221 235 255
221 235 255
221 235 255
221 235 255
221 235 255
221 235 255
221 235 255
221 235 255
221 235 255
221 235 255
221 235 255
221 235 255
221 235 255
221 235 255
221 235 255
221 235 255
221 235 255
221 235 255
221 235 255
221 235 255
221 235 255
221 235 255
221 235 255
221 235 255
221 235 255
221 235 255
221 235 255
221 235 255
221 235 255
221 235 255
221 235 255
221 235 255
221 235 255
221 235 255
221 235 255
221 235 255
221 235 255
221 235 255
221 235 255
221 235 255
221 235 255
221 235 255
221 235 255
221 235 255
221 235 255
221 235 255
221 235 255
221 235 255
221 235 255
221 235 255
221 235 255
221 235 255
221 235 255
221 235 255
221 235 255
221 235 255
221 235 255
221 235 255
221 235 255
221 235 255
221 235 255
221 235 255
220 235 255
220 235 255
220 235 255
220 235 255
220 235 255
220 235 255
220 235 255
220 235 255
220 235 255
220 235 255
220 235 255
220 235 255
220 235 255
220 235 255
220 235 255
220 235 255
220 235 255
220 235 255
220 235 255
220 235 255
220 235 255
220 235 255
220 235 255
220 235 255
220 235 255
220 235 255
220 235 255
220 235 255
220 235 255
220 235 255
220 235 255
220 235 255
220 235 255
220 235 255
220 235 255
220 235 255
220 235 255
220 235 255
220 235 255
219 235 255
219 234 255
219 234 255
166 184 218
64 99 151
63 98 151
64 99 152
63 98 147
63 98 151
62 96 140
62 97 140
62 97 148
61 95 139
61 95 139
60 95 133
62 97 145
61 95 133
61 96 144
59 93 137
62 96 143
60 95 139
62 97 140
60 95 137
60 95 131
60 94 128
59 93 129
61 97 141
61 96 140
60 94 126
59 94 126
59 94 130
60 94 134
60 95 139
60 94 129
61 96 140
60 94 135
60 95 137
61 95 137
59 94 129
59 94 128
61 95 140
61 96 140
59 93 131
61 95 139
60 94 133
60 94 134
61 96 134
60 95 136
60 95 131
61 96 133
60 95 126
60 94 129
60 95 135
60 95 135
60 94 133
62 97 148
61 96 145
59 93 125
58 92 122
59 93 125
61 95 141
60 94 134
60 94 136
60 94 135
61 95 135
61 95 139
59 94 130
59 93 130
59 93 139
60 93 125
61 95 134
60 94 133
59 93 133
61 95 143
58 92 126
59 93 132
59 93 129
59 92 124
58 91 133
61 95 138
59 92 131
59 93 133
59 93 133
59 92 130
59 93 128
59 93 124
58 91 128
58 90 125
59 93 134
58 90 123
60 94 134
59 92 121
58 89 125
59 92 134
58 90 124
58 90 129
57 90 126
58 90 127
56 87 120
57 89 125
55 85 107
55 85 109
57 88 120
56 86 113
56 85 113
54 81 113
117 130 144
154 161 158
161 170 173
138 146 148
136 145 150
130 140 146
123 133 138
119 128 128
118 127 129
119 128 127
108 117 113
115 124 117
114 122 112
122 128 117
109 116 107
120 128 115
117 125 117
117 124 109
122 126 105
123 128 105
129 133 108
123 128 107
127 129 89
135 137 100
135 138 106
131 134 108
131 133 88
142 143 100
133 133 91
131 132 83
133 133 86
129 128 73
144 143 90
129 130 81
135 136 84
151 147 82
145 143 79
146 144 89
144 143 82
142 140 80
145 142 77
145 143 79
147 145 78
152 148 79
144 141 73
149 146 76
149 146 72
154 150 75
156 152 77
165 160 91
160 156 85
159 155 90
159 154 79
160 156 85
157 152 73
158 153 77
159 154 72
152 148 76
165 160 78
154 150 78
163 157 79
163 158 77
159 154 78
161 156 76
168 162 82
169 162 84
167 160 89
163 157 78
173 166 85
165 160 82
171 164 84
166 161 86
167 161 82
167 161 81
172 165 86
167 160 85
169 163 86
169 163 82
168 163 88
166 160 79
169 162 80
171 165 87
168 162 82
175 168 94
170 165 90
170 164 88
167 162 84
173 166 95
171 165 87
173 166 91
171 165 87
176 170 104
166 160 82
173 167 97
172 167 93
171 165 85
174 168 95
173 168 93
170 165 93
171 166 96
172 167 93
177 171 104
172 168 102
174 167 90
175 169 97
174 168 97
176 172 112
172 168 97
178 172 107
176 171 106
176 171 101
176 171 101
176 172 112
176 173 113
176 172 106
176 171 111
174 171 109
181 179 131
177 172 105
177 171 104
177 171 106
176 171 110
179 174 112
180 177 121
181 177 124
178 173 111
179 177 125
175 171 108
178 176 123
178 176 123
177 174 114
177 172 112
177 171 107
179 177 125
179 174 117
179 176 123
183 181 132
180 176 118
181 178 126
174 170 108
180 178 127
182 180 133
178 175 116
180 176 125
180 177 124
178 177 127
185 183 142
181 177 123
178 175 123
220 235 255
220 235 255
220 235 255
220 235 255
220 235 255
220 235 255
220 235 255
220 235 255
220 235 255
220 235 255
220 235 255
220 235 255
220 235 255
220 235 255
220 235 255
220 235 255
220 235 255
220 235 255
220 235 255
220 235 255
220 235 255
220 235 255
220 235 255
220 235 255
220 235 255
220 235 255
220 235 255
220 235 255
220 235 255
220 235 255
220 235 255
220 235 255
220 235 255
220 235 255
220 235 255
220 235 255
220 235 255
220 235 255
220 235 255
220 235 255
220 235 255
220 235 255
220 235 255
220 235 255
220 235 255
220 235 255
220 235 255
220 235 255
220 235 255
220 235 255
220 235 255
220 235 255
220 235 255
220 235 255
220 235 255
220 235 255
220 235 255
220 235 255
220 235 255
220 235 255
220 235 255
220 235 255
220 235 255
220 235 255
220 235 255
220 235 255
220 235 255
220 235 255
220 235 255
220 235 255
220 235 255
220 235 255
220 235 255
220 235 255
220 235 255
220 235 255
220 235 255
220 235 255
220 235 255
220 235 255
220 235 255
220 235 255
220 235 255
220 235 255
220 235 255
220 235 255
220 235 255
220 235 255
220 235 255
220 235 255
220 235 255
220 235 255
220 235 255
220 235 255
220 235 255
220 235 255
220 235 255
220 235 255
220 235 255
220 235 255
220 235 255
220 235 255
220 235 255
220 235 255
220 235 255
220 235 255
220 235 255
220 235 255
220 235 255
220 235 255
220 235 255
220 235 255
220 235 255
220 235 255
220 235 255
220 235 255
220 235 255
220 235 255
220 235 255
220 235 255
220 235 255
220 235 255
220 235 255
220 235 255
220 235 255
220 235 255
220 235 255
220 235 255
220 235 255
220 235 255
220 235 255
220 235 255
220 235 255
220 235 255
220 235 255
220 235 255
220 235 255
220 235 255
219 235 255
219 235 255
219 234 255
219 234 255
219 234 255
219 234 255
219 234 255
219 234 255
219 234 255
218 234 255
166 185 219
63 98 151
63 98 149
62 96 143
63 99 156
62 97 148
62 96 136
60 94 137
62 97 141
62 97 142
60 95 134
61 96 145
62 97 147
60 94 129
59 94 133
60 94 130
60 94 133
61 96 139
60 95 131
60 95 141
61 96 139
61 96 149
59 93 124
60 94 137
60 95 135
62 97 144
58 93 122
59 94 129
60 94 133
59 93 129
59 93 125
60 95 135
59 93 124
59 94 125
61 96 142
58 92 120
59 93 129
59 93 121
60 96 140
59 94 130
59 94 130
60 95 133
60 95 133
59 93 129
60 94 130
61 97 143
60 94 131
60 94 134
60 94 134
62 97 147
59 94 128
61 95 140
58 92 111
61 96 139
59 93 125
60 94 130
58 92 118
60 94 135
60 95 140
60 94 134
60 94 133
60 94 129
59 93 122
59 93 126
61 95 143
61 95 138
60 94 136
58 92 129
59 93 125
59 93 132
60 95 137
58 91 125
61 95 137
59 93 122
59 92 123
58 91 130
60 94 130
57 91 125
59 93 130
58 91 118
60 94 141
61 95 139
57 91 120
59 93 136
60 93 129
59 92 128
60 94 127
59 93 138
57 90 120
60 92 130
59 91 129
57 89 115
58 90 124
58 89 122
57 88 119
57 87 118
58 90 135
57 88 125
56 86 115
54 84 111
56 86 118
55 84 108
52 79 111
124 134 135
157 164 165
141 147 145
127 136 140
113 121 125
124 132 133
105 113 111
118 126 126
133 143 149
99 108 104
107 116 110
116 125 120
118 126 121
119 128 120
112 119 113
113 120 100
114 119 99
130 136 120
117 123 100
113 119 99
118 122 95
109 114 87
126 128 91
124 127 94
131 133 93
130 132 97
127 128 80
130 133 101
129 130 82
120 121 75
140 140 81
137 137 86
138 138 86
140 139 81
147 144 82
153 150 90
139 137 84
153 150 96
142 139 74
150 148 83
148 145 78
150 147 79
148 144 75
154 151 88
155 151 75
143 141 77
152 148 76
158 154 88
157 152 83
155 149 79
160 156 81
152 149 85
161 155 86
158 154 78
152 147 71
153 148 76
161 156 79
157 152 81
157 151 74
164 158 83
164 159 78
168 161 87
163 157 78
166 160 84
162 157 81
160 155 79
169 163 83
160 155 75
165 159 76
166 161 84
169 162 88
166 161 82
168 162 84
168 161 82
169 164 79
165 159 77
172 165 88
162 156 73
169 163 83
172 165 90
171 165 92
172 165 94
165 160 82
171 166 94
169 163 86
169 163 80
176 170 100
169 163 84
176 168 91
168 163 81
170 165 90
174 169 101
177 171 100
173 168 97
170 164 92
171 165 88
172 167 97
170 164 87
173 167 97
169 165 87
173 169 104
172 167 97
172 167 92
170 165 94
172 166 97
175 170 101
179 174 110
174 168 100
176 172 109
176 172 108
177 172 109
176 171 104
175 171 109
179 174 114
173 169 104
172 167 95
175 172 113
175 172 115
177 174 114
177 173 113
179 174 117
178 174 116
178 175 115
178 173 113
175 171 107
175 170 106
176 175 118
179 175 118
175 171 108
182 178 125
175 171 109
174 170 106
178 175 120
178 174 119
181 178 125
179 175 118
178 174 113
180 178 125
181 179 127
179 176 122
180 176 120
178 175 123
180 178 129
181 178 125
175 170 106
180 176 122
182 181 135
186 186 151
178 176 126
220 235 255
220 235 255
220 235 255
220 235 255
220 235 255
220 235 255
220 235 255
220 235 255
220 235 255
220 235 255
220 235 255
220 235 255
220 235 255
220 235 255
220 235 255
220 235 255
220 235 255
220 235 255
220 235 255
220 235 255
220 235 255
220 235 255
220 235 255
220 235 255
220 235 255
220 235 255
220 235 255
220 235 255
220 235 255
220 235 255
220 235 255
220 235 255
220 235 255
220 235 255
220 235 255
220 235 255
220 235 255
220 235 255
220 235 255
220 235 255
220 235 255
220 235 255
220 235 255
220 235 255
220 235 255
220 235 255
220 235 255
220 235 255
220 235 255
220 235 255
220 235 255
220 235 255
220 235 255
220 235 255
220 235 255
220 235 255
220 235 255
220 235 255
220 235 255
220 235 255
220 235 255
220 235 255
220 235 255
220 235 255
220 235 255
220 235 255
220 235 255
220 235 255
220 235 255
220 235 255
220 235 255
220 235 255
220 235 255
220 235 255
220 235 255
220 235 255
220 235 255
220 235 255
220 235 255
220 235 255
220 235 255
220 235 255
220 235 255
220 235 255
220 235 255
220 235 255
220 235 255
220 235 255
220 235 255
220 235 255
220 235 255
220 235 255
220 235 255
220 235 255
220 235 255
220 235 255
220 235 255
220 235 255
220 235 255
220 235 255
220 235 255
220 235 255
220 235 255
220 235 255
220 235 255
220 235 255
220 235 255
220 235 255
220 235 255
220 235 255
220 235 255
220 235 255
220 235 255
220 235 255
220 235 255
220 235 255
220 235 255
220 235 255
220 235 255
220 235 255
220 235 255
220 235 255
220 235 255
220 235 255
220 235 255
220 235 255
220 235 255
220 235 255
220 235 255
220 235 255
219 235 255
219 235 255
219 234 255
219 234 255
219 234 255
219 234 255
219 234 255
219 234 255
219 234 255
219 234 255
219 234 255
219 234 255
219 234 255
218 234 255
218 234 255
218 234 255
218 234 255
218 234 255
180 198 228
65 100 158
62 97 143
63 98 156
62 97 145
61 96 134
60 94 130
61 96 143
61 96 135
60 94 136
59 94 117
61 97 145
61 95 135
60 95 131
60 95 134
61 96 135
61 96 134
59 93 118
61 95 140
60 95 121
59 94 135
60 95 137
59 93 128
60 95 133
60 95 130
61 96 134
59 94 122
60 94 125
60 95 130
60 95 139
60 95 133
61 95 136
60 95 134
59 94 134
59 93 125
60 95 128
60 95 133
60 94 131
60 95 133
58 92 128
59 93 126
57 90 115
59 93 129
59 94 135
59 93 129
61 95 139
59 93 131
60 94 134
60 95 130
61 96 140
60 95 136
59 94 133
61 96 135
59 93 128
59 94 124
61 95 141
60 95 142
58 92 120
60 94 126
59 93 118
60 95 143
59 92 128
59 93 129
59 92 127
60 95 135
59 94 129
61 95 137
59 94 129
60 94 129
58 92 119
59 93 135
59 93 133
58 92 126
59 93 131
59 93 135
59 93 127
60 94 137
59 93 130
59 92 128
58 90 124
60 94 134
59 91 121
58 91 119
61 94 136
59 93 134
60 93 128
60 94 130
59 93 137
56 88 120
58 90 125
57 89 123
60 93 125
58 89 125
59 91 130
59 91 129
54 84 111
57 89 125
58 89 120
55 85 110
57 87 118
55 83 111
54 83 107
53 81 118
136 144 142
161 170 175
155 164 166
159 168 173
126 134 137
108 116 114
114 122 120
130 139 139
121 130 131
101 108 99
131 141 144
99 109 105
110 117 104
122 129 122
109 118 107
107 113 99
114 120 104
118 122 97
117 124 106
121 127 110
128 133 110
114 119 93
133 136 102
125 128 105
125 129 102
125 128 93
133 135 102
125 127 89
134 136 95
125 126 74
132 132 86
132 132 75
134 136 93
145 143 86
141 140 84
135 135 74
144 143 89
138 136 75
144 144 96
134 132 68
150 145 81
149 147 86
150 146 77
159 154 79
148 145 81
150 146 78
156 151 78
158 154 82
157 152 81
153 150 80
154 150 80
155 152 73
154 150 78
156 151 73
159 154 73
157 153 74
165 159 79
168 161 82
159 154 77
165 159 79
163 158 79
163 157 78
161 157 82
164 158 72
160 154 77
167 161 80
161 155 74
166 160 76
167 161 78
168 162 85
163 157 81
169 162 83
166 160 85
165 159 80
170 163 86
172 165 86
169 162 82
168 163 83
166 160 81
169 164 87
168 162 80
170 164 91
168 161 75
169 163 82
169 162 83
173 166 87
169 162 79
169 163 90
170 164 83
173 166 91
170 164 83
170 164 84
172 168 97
172 165 86
175 170 99
173 166 90
173 168 93
171 167 94
173 167 95
173 167 95
171 165 87
172 166 99
171 164 87
173 168 97
178 172 104
172 167 96
173 167 94
173 168 100
174 168 94
172 166 91
173 167 97
173 169 104
173 169 102
171 167 102
178 173 111
177 173 112
178 174 113
172 168 101
180 176 122
176 171 110
175 171 109
179 175 118
176 172 110
181 177 122
173 169 100
183 180 131
176 171 109
176 172 107
182 179 132
179 176 122
179 176 123
177 173 111
174 170 99
176 175 121
176 172 116
181 180 134
181 178 129
178 174 115
185 182 135
184 183 141
184 184 142
186 182 137
177 175 120
182 181 134
182 180 134
177 174 121
179 178 124
186 186 144
185 183 139
220 235 255
220 235 255
220 235 255
220 235 255
220 235 255
220 235 255
220 235 255
220 235 255
220 235 255
220 235 255
220 235 255
220 235 255
220 235 255
220 235 255
220 235 255
220 235 255
220 235 255
220 235 255
220 235 255
220 235 255
220 235 255
220 235 255
220 235 255
220 235 255
220 235 255
220 235 255
220 235 255
220 235 255
220 235 255
220 235 255
220 235 255
220 235 255
220 235 255
220 235 255
220 235 255
220 235 255
220 235 255
220 235 255
220 235 255
220 235 255
220 235 255
220 235 255
220 235 255
220 235 255
220 235 255
220 235 255
220 235 255
220 235 255
220 235 255
220 235 255
220 235 255
220 235 255
220 235 255
220 235 255
220 235 255
220 235 255
220 235 255
220 235 255
220 235 255
220 235 255
220 235 255
220 235 255
220 235 255
220 235 255
220 235 255
220 235 255
220 235 255
220 235 255
220 235 255
220 235 255
220 235 255
220 235 255
220 235 255
220 235 255
220 235 255
220 235 255
220 235 255
220 235 255
220 235 255
220 235 255
220 235 255
220 235 255
220 235 255
220 235 255
220 235 255
220 235 255
220 235 255
220 235 255
220 235 255
220 235 255
220 235 255
220 235 255
220 235 255
220 235 255
220 235 255
220 235 255
220 235 255
220 235 255
220 235 255
220 235 255
220 235 255
220 235 255
220 235 255
220 235 255
220 235 255
220 235 255
220 235 255
220 235 255
220 235 255
220 235 255
220 235 255
220 235 255
220 235 255
220 235 255
220 235 255
220 235 255
220 235 255
220 235 255
220 235 255
220 235 255
219 235 255
219 235 255
219 235 255
219 235 255
219 234 255
219 234 255
219 234 255
219 234 255
219 234 255
219 234 255
219 234 255
219 234 255
219 234 255
219 234 255
219 234 255
219 234 255
219 234 255
219 234 255
219 234 255
218 234 255
218 234 255
218 234 255
218 234 255
218 234 255
218 234 255
218 233 255
217 233 255
217 233 255
187 205 235
64 99 153
63 98 147
61 96 135
62 97 144
61 96 144
61 96 139
59 94 135
61 96 137
61 96 137
60 95 131
61 95 125
61 96 136
60 94 128
61 96 136
61 96 137
60 95 139
60 95 129
58 91 110
58 92 118
60 94 130
62 97 145
61 95 140
59 93 120
61 96 134
60 95 131
61 95 129
59 94 131
58 92 121
58 92 124
59 94 126
59 92 122
60 94 135
60 94 128
59 94 124
58 92 120
60 95 136
59 93 125
60 94 128
60 94 131
59 94 130
60 94 128
59 93 129
59 93 122
59 93 124
60 95 135
61 96 142
59 94 126
59 93 126
59 93 120
60 95 135
59 93 129
60 95 139
60 94 135
59 94 130
61 95 137
59 92 126
59 92 128
59 93 131
59 93 120
59 93 134
59 93 130
60 95 135
59 94 128
60 95 130
60 94 136
60 95 128
59 93 124
60 94 133
60 94 133
60 94 128
61 95 139
60 93 126
59 93 129
60 94 132
59 93 125
59 93 121
59 93 132
60 94 137
60 94 129
57 90 128
59 93 125
59 93 134
60 94 135
58 91 124
56 88 109
60 94 136
58 92 127
59 91 126
59 92 129
59 91 124
59 91 130
57 88 117
55 86 107
58 90 121
55 86 105
56 87 113
57 89 124
55 84 106
55 83 110
51 79 104
55 84 109
51 78 105
154 164 162
154 163 167
156 165 168
146 155 155
124 133 138
133 142 144
116 124 124
103 111 112
119 128 126
117 127 127
124 133 133
111 120 117
110 118 109
118 126 119
127 135 128
111 118 103
112 116 94
113 120 101
119 124 96
117 123 94
119 123 94
116 119 85
131 134 106
129 130 87
129 133 103
135 137 103
129 131 92
127 129 91
133 133 81
125 125 79
124 124 73
146 145 94
137 136 87
132 131 77
134 134 85
137 136 76
145 143 90
145 143 82
140 139 75
143 140 74
147 145 87
146 142 72
145 142 72
139 137 67
156 152 87
153 150 80
154 151 83
145 142 70
151 147 75
162 157 88
154 150 81
159 154 82
162 156 79
162 157 86
156 151 79
154 149 76
162 155 83
151 147 66
160 155 75
162 157 79
159 154 76
161 155 82
159 153 74
162 157 77
165 158 77
167 160 80
168 162 85
163 157 76
168 163 85
159 154 72
167 160 82
166 161 76
166 160 80
166 160 84
162 156 72
166 160 81
172 167 95
166 160 80
169 162 83
170 164 83
162 157 75
163 159 85
169 162 82
170 166 92
173 167 96
173 166 91
170 164 92
170 163 87
171 165 90
168 163 87
171 165 91
166 161 76
170 166 97
165 159 75
169 165 87
170 163 83
171 167 99
172 167 93
173 167 95
174 169 99
173 167 99
173 165 90
174 168 105
176 171 104
176 170 102
172 167 93
168 163 86
171 165 91
170 165 90
174 169 103
171 167 97
176 172 114
172 169 103
178 173 113
173 170 102
172 167 103
179 176 120
175 169 103
177 172 112
175 170 104
178 174 116
174 169 105
179 175 112
180 177 125
175 172 115
172 167 101
177 172 108
180 175 115
176 171 104
178 174 117
180 176 121
175 171 108
173 170 108
180 178 127
179 176 121
184 182 138
179 176 122
178 174 116
179 175 123
181 177 124
179 176 123
181 178 126
181 179 131
182 179 129
179 177 126
177 174 119
176 172 109
179 177 124
180 178 130
220 235 255
220 235 255
220 235 255
220 235 255
220 235 255
220 235 255
220 235 255
220 235 255
220 235 255
220 235 255
220 235 255
220 235 255
220 235 255
220 235 255
220 235 255
220 235 255
220 235 255
220 235 255
220 235 255
220 235 255
220 235 255
220 235 255
220 235 255
220 235 255
220 235 255
220 235 255
220 235 255
220 235 255
220 235 255
220 235 255
220 235 255
220 235 255
220 235 255
220 235 255
220 235 255
220 235 255
220 235 255
220 235 255
220 235 255
220 235 255
220 235 255
220 235 255
220 235 255
220 235 255
220 235 255
220 235 255
220 235 255
220 235 255
220 235 255
220 235 255
220 235 255
220 235 255
220 235 255
220 235 255
220 235 255
220 235 255
220 235 255
220 235 255
220 235 255
220 235 255
220 235 255
220 235 255
220 235 255
220 235 255
220 235 255
220 235 255
220 235 255
220 235 255
220 235 255
220 235 255
220 235 255
220 235 255
220 235 255
220 235 255
220 235 255
220 235 255
220 235 255
220 235 255
220 235 255
220 235 255
220 235 255
220 235 255
220 235 255
220 235 255
220 235 255
220 235 255
220 235 255
220 235 255
220 235 255
220 235 255
220 235 255
220 235 255
220 235 255
220 235 255
220 235 255
220 235 255
220 235 255
220 235 255
220 235 255
220 235 255
220 235 255
220 235 255
220 235 255
220 235 255
220 235 255
220 235 255
220 235 255
220 235 255
220 235 255
219 235 255
219 235 255
219 235 255
219 235 255
219 234 255
219 234 255
219 234 255
219 234 255
219 234 255
219 234 255
219 234 255
219 234 255
219 234 255
219 234 255
219 234 255
219 234 255
219 234 255
219 234 255
219 234 255
219 234 255
219 234 255
219 234 255
219 234 255
219 234 255
219 234 255
218 234 255
218 234 255
218 234 255
218 234 255
218 234 255
218 234 255
218 234 255
218 234 255
218 233 255
217 233 255
217 233 255
217 233 255
217 233 255
216 233 255
209 225 248
63 98 151
63 98 149
62 97 147
63 98 155
62 97 150
61 95 137
62 97 147
61 96 142
60 94 124
60 94 130
60 95 128
60 94 131
62 97 150
59 93 133
59 93 130
60 94 130
60 95 130
60 95 137
59 94 125
60 94 133
61 96 137
61 95 134
60 94 126
60 94 139
61 95 136
60 95 136
59 93 122
57 91 125
60 95 129
57 90 113
61 95 131
60 94 129
61 96 136
61 95 134
60 95 136
59 93 126
59 93 128
59 93 125
60 94 124
58 92 124
60 94 131
61 96 143
60 94 139
59 93 131
59 93 131
59 94 130
60 95 145
59 93 130
59 94 126
59 92 124
61 95 134
59 93 131
59 93 125
60 94 134
59 93 121
59 93 125
60 94 130
61 95 137
61 96 139
59 93 133
60 94 134
60 95 140
58 91 121
59 94 134
60 94 130
58 92 124
59 94 121
60 95 134
58 92 130
59 93 133
60 94 141
59 93 123
59 94 137
59 93 125
59 93 125
59 93 130
59 92 126
58 91 119
58 91 121
60 93 136
59 92 128
59 93 127
60 93 120
59 92 127
58 90 126
60 93 125
58 90 125
58 90 115
59 91 121
59 91 124
59 92 117
58 91 130
55 85 103
58 91 131
56 86 122
55 85 114
57 88 122
55 85 101
54 83 112
57 86 113
54 83 103
51 78 95
185 194 199
158 166 167
151 158 156
130 138 138
153 163 170
133 142 146
118 125 118
109 116 116
112 120 116
134 143 145
116 124 114
110 119 115
125 133 125
111 119 108
111 121 112
122 130 123
111 117 100
107 112 89
114 119 96
132 139 122
133 138 116
135 138 110
135 137 97
128 129 88
130 135 108
134 135 91
130 131 83
142 144 107
130 130 77
138 137 85
132 131 78
146 144 84
128 128 80
143 141 77
138 136 76
140 139 76
136 135 73
125 126 73
143 141 81
147 144 76
144 141 69
157 153 84
143 140 72
146 142 63
147 143 79
151 148 80
152 149 75
156 152 77
143 141 72
149 146 74
158 154 81
164 158 76
155 151 83
162 157 80
159 154 78
158 153 78
162 157 86
161 154 73
162 157 80
162 156 83
161 156 75
163 158 79
163 158 84
160 154 69
165 159 79
159 154 73
171 164 88
160 156 78
165 159 82
166 160 77
161 156 77
164 159 83
170 163 86
165 159 73
167 161 79
165 159 86
163 157 70
168 162 87
170 165 89
168 162 91
169 163 90
169 162 76
168 162 79
170 164 84
165 159 74
171 166 95
170 164 85
168 161 77
168 163 80
168 162 73
169 164 91
169 163 84
169 164 91
169 163 77
172 166 93
168 162 81
169 164 86
172 169 104
168 162 78
170 164 90
172 167 100
170 165 93
173 169 109
176 172 107
169 164 92
174 168 96
167 162 84
175 169 99
176 170 103
173 169 106
175 171 106
173 169 100
170 166 99
169 165 92
173 169 100
174 170 104
175 170 105
174 171 110
178 173 116
176 172 110
176 174 115
176 170 103
180 175 117
176 172 111
170 167 103
179 176 118
177 172 105
178 175 119
180 176 119
178 175 121
179 176 125
184 183 138
177 173 114
178 174 117
180 176 121
178 174 116
183 182 139
181 177 122
181 179 132
175 171 109
181 179 131
177 173 110
176 172 107
179 174 114
183 182 135
182 180 133
177 173 110
182 180 133
180 176 123
219 234 255
219 234 255
219 234 255
219 234 255
219 234 255
219 234 255
219 235 255
219 235 255
219 235 255
219 235 255
219 235 255
219 235 255
219 235 255
219 235 255
219 235 255
219 235 255
219 235 255
219 235 255
219 235 255
219 235 255
220 235 255
220 235 255
219 235 255
220 235 255
220 235 255
220 235 255
220 235 255
220 235 255
220 235 255
220 235 255
220 235 255
220 235 255
220 235 255
220 235 255
220 235 255
220 235 255
220 235 255
220 235 255
220 235 255
220 235 255
220 235 255
220 235 255
220 235 255
220 235 255
220 235 255
220 235 255
220 235 255
220 235 255
220 235 255
220 235 255
220 235 255
220 235 255
220 235 255
220 235 255
220 235 255
220 235 255
220 235 255
220 235 255
220 235 255
220 235 255
220 235 255
220 235 255
220 235 255
220 235 255
220 235 255
220 235 255
220 235 255
220 235 255
220 235 255
220 235 255
220 235 255
220 235 255
220 235 255
220 235 255
220 235 255
220 235 255
220 235 255
220 235 255
220 235 255
220 235 255
220 235 255
220 235 255
220 235 255
220 235 255
220 235 255
220 235 255
220 235 255
220 235 255
220 235 255
220 235 255
220 235 255
220 235 255
219 235 255
219 235 255
219 235 255
219 235 255
219 235 255
219 235 255
219 235 255
219 234 255
219 234 255
219 234 255
219 234 255
219 234 255
219 234 255
219 234 255
219 234 255
219 234 255
219 234 255
219 234 255
219 234 255
219 234 255
219 234 255
219 234 255
219 234 255
219 234 255
219 234 255
219 234 255
219 234 255
219 234 255
219 234 255
219 234 255
219 234 255
219 234 255
219 234 255
219 234 255
219 234 255
219 234 255
218 234 255
218 234 255
218 234 255
218 234 255
218 234 255
218 234 255
218 234 255
218 234 255
218 234 255
218 234 255
218 234 255
217 233 255
217 233 255
217 233 255
217 233 255
217 233 255
217 233 255
216 233 255
216 233 255
215 232 255
220 235 255
88 116 171
61 95 140
62 97 143
63 98 151
61 96 148
61 96 139
62 96 131
61 95 136
60 94 133
62 97 141
61 96 139
61 96 133
61 95 140
61 96 133
60 95 130
59 93 128
59 93 128
61 96 141
60 95 133
60 94 136
61 95 137
59 92 125
61 96 141
60 95 130
61 95 133
60 94 129
60 94 128
59 94 126
59 94 124
59 92 122
61 95 133
60 95 128
60 95 134
60 94 128
59 93 128
59 94 133
61 97 148
59 93 126
59 93 118
60 95 135
59 93 126
58 92 115
60 95 131
60 95 133
59 94 129
60 94 124
59 93 126
59 93 120
60 94 126
60 95 133
60 94 131
59 93 134
60 95 133
60 94 132
58 91 120
59 94 124
59 93 128
60 95 135
59 94 124
59 93 129
60 95 134
61 96 143
59 92 131
60 94 137
59 92 125
58 91 131
59 93 122
58 92 125
60 95 135
59 94 131
59 92 125
60 94 133
58 91 116
58 92 121
60 93 132
59 92 125
59 93 123
60 94 136
59 92 132
58 91 118
59 92 121
57 90 108
59 92 126
58 91 124
58 91 113
58 92 123
60 92 129
61 94 138
57 88 115
57 89 119
58 90 121
57 88 123
58 89 119
58 90 133
56 88 111
56 87 109
55 85 115
58 90 127
52 80 100
53 82 106
56 85 116
70 91 112
204 215 225
163 170 165
150 158 153
147 154 145
137 144 144
144 153 155
128 137 139
125 133 135
123 132 131
108 116 115
112 120 111
112 119 114
118 126 127
126 133 122
120 129 123
119 126 118
119 124 109
117 122 103
105 112 92
117 122 95
120 124 97
133 136 107
124 127 99
125 127 86
118 121 86
135 138 101
129 131 94
131 133 93
133 134 88
138 138 88
140 139 86
143 143 91
134 134 87
144 143 95
146 144 88
139 138 79
146 144 94
145 142 70
146 145 85
133 133 74
147 144 77
152 148 87
150 147 88
143 141 82
146 143 76
151 147 74
150 146 80
139 135 62
151 147 74
156 152 69
160 154 79
162 157 84
153 148 77
152 148 69
160 154 82
151 147 69
159 154 75
165 159 81
157 151 72
164 159 78
159 153 71
159 154 70
163 157 81
159 153 68
161 156 72
163 157 80
161 156 74
164 158 74
160 155 75
164 158 75
161 155 76
164 159 79
164 158 76
160 154 81
167 161 74
169 162 86
166 160 70
172 165 84
173 166 95
172 165 90
168 163 83
168 161 73
171 165 93
169 162 84
166 161 78
167 162 84
171 166 89
165 158 77
164 159 80
172 165 87
171 167 98
173 167 93
174 169 97
173 167 90
174 170 98
171 165 95
173 168 100
165 161 87
173 169 99
170 165 92
170 164 84
169 163 84
170 166 101
173 168 97
172 167 99
174 168 95
178 174 114
172 168 102
172 168 101
176 171 106
171 166 97
174 169 97
175 172 115
174 168 99
172 167 102
171 167 101
170 166 97
178 174 121
175 169 99
177 175 119
172 167 96
173 170 114
176 172 110
176 173 120
181 175 116
173 169 110
173 170 108
174 171 107
179 177 123
177 172 106
178 175 121
177 175 120
176 174 117
179 175 122
181 176 118
179 176 122
180 176 120
177 172 109
175 172 112
179 177 122
174 171 106
181 179 133
176 173 112
177 176 123
180 177 124
182 179 129
189 188 151
180 177 123
181 179 133
219 234 255
219 234 255
219 234 255
219 234 255
219 234 255
219 234 255
219 234 255
219 234 255
219 234 255
219 234 255
219 234 255
219 234 255
219 234 255
219 234 255
219 234 255
219 234 255
219 234 255
219 234 255
219 234 255
219 234 255
219 234 255
219 234 255
219 234 255
219 234 255
219 234 255
219 234 255
219 234 255
219 234 255
219 234 255
219 234 255
219 234 255
219 234 255
219 234 255
219 234 255
219 234 255
219 234 255
219 234 255
219 234 255
219 234 255
219 234 255
219 234 255
219 234 255
219 234 255
219 235 255
219 234 255
219 235 255
219 235 255
219 235 255
219 235 255
219 235 255
219 235 255
219 235 255
219 235 255
219 235 255
219 235 255
219 235 255
219 235 255
219 235 255
219 235 255
219 235 255
219 235 255
219 235 255
219 235 255
219 235 255
219 235 255
219 235 255
219 235 255
219 235 255
219 235 255
219 235 255
219 235 255
219 235 255
219 235 255
219 235 255
219 235 255
219 235 255
219 234 255
219 234 255
219 234 255
219 234 255
219 234 255
219 234 255
219 234 255
219 234 255
219 234 255
219 234 255
219 234 255
219 234 255
219 234 255
219 234 255
219 234 255
219 234 255
219 234 255
219 234 255
219 234 255
219 234 255
219 234 255
219 234 255
219 234 255
219 234 255
219 234 255
219 234 255
219 234 255
219 234 255
219 234 255
219 234 255
219 234 255
219 234 255
219 234 255
219 234 255
219 234 255
219 234 255
219 234 255
219 234 255
219 234 255
219 234 255
219 234 255
219 234 255
219 234 255
219 234 255
219 234 255
219 234 255
218 234 255
218 234 255
218 234 255
218 234 255
218 234 255
218 234 255
218 234 255
218 234 255
218 234 255
218 234 255
218 234 255
218 234 255
218 234 255
218 233 255
217 233 255
217 233 255
217 233 255
217 233 255
217 233 255
217 233 255
216 233 255
216 233 255
216 233 255
216 232 255
215 232 255
215 232 255
222 236 255
113 135 174
62 96 145
62 97 145
62 97 147
60 94 133
61 95 143
62 97 149
60 95 133
61 95 140
61 96 142
61 95 139
60 93 126
61 95 139
61 95 142
59 93 129
58 92 115
59 94 124
61 96 140
58 92 121
60 95 133
58 92 125
61 95 136
60 95 135
59 93 126
60 95 131
60 94 131
59 93 122
60 95 141
60 94 124
59 94 121
58 92 128
60 94 125
59 94 125
60 94 134
60 94 130
59 93 124
59 93 125
60 95 134
62 97 149
60 95 140
58 91 124
59 93 125
60 95 128
60 95 135
60 94 129
61 96 137
61 96 140
60 94 141
60 94 134
61 95 143
60 94 133
59 94 131
58 92 122
60 94 125
60 95 133
57 91 115
58 91 129
60 94 128
59 94 129
59 93 120
59 93 126
60 94 140
59 92 127
59 93 128
59 93 128
59 93 129
59 93 128
59 93 130
59 93 124
59 93 125
61 95 135
58 91 111
59 94 133
60 94 130
60 94 128
58 92 119
57 90 120
58 90 124
59 93 128
57 89 117
58 90 125
58 91 119
59 93 137
57 89 116
58 91 117
58 92 123
57 89 111
58 90 114
57 88 117
59 92 130
57 88 112
58 91 121
58 90 117
56 86 114
55 85 103
55 85 101
55 85 109
55 84 117
55 84 102
56 85 116
51 78 103
111 126 142
215 226 238
172 180 178
157 165 167
149 156 150
148 156 154
137 145 145
129 137 138
120 128 126
108 118 119
123 130 121
115 122 114
114 123 118
122 129 121
118 124 108
112 119 111
114 121 107
124 131 120
114 121 105
133 140 128
125 130 109
109 113 86
129 133 106
128 131 98
126 130 99
121 124 88
116 119 76
138 138 91
129 131 85
140 141 106
141 140 97
135 135 81
129 129 86
123 123 68
144 142 87
140 140 92
133 133 78
130 130 73
140 139 78
150 146 83
147 146 95
142 139 67
140 137 72
154 150 83
154 150 77
141 138 66
151 148 76
157 152 90
147 143 70
149 145 74
158 152 69
155 151 80
155 150 74
157 151 71
162 156 75
156 150 70
155 151 71
161 156 74
155 150 71
157 153 69
162 156 79
158 154 75
158 154 72
161 156 78
165 159 88
164 159 76
167 162 82
158 154 72
168 162 88
158 154 68
167 161 78
167 160 79
166 160 82
169 162 86
166 161 77
164 158 75
164 158 78
166 160 74
174 167 96
167 161 74
163 157 70
169 164 82
164 158 77
172 166 90
167 161 83
169 161 77
169 165 91
172 166 93
169 163 83
170 166 96
171 165 87
175 168 96
171 166 90
174 168 93
170 165 93
170 165 95
172 166 99
171 167 100
173 168 95
174 168 93
173 168 97
172 167 93
172 166 90
172 166 87
170 165 93
172 166 94
173 170 109
178 173 111
172 166 93
171 165 97
172 169 106
173 169 110
174 169 99
175 171 108
176 172 113
170 167 100
174 170 109
169 163 81
177 170 94
177 175 122
173 168 97
172 168 104
181 176 119
176 173 119
178 177 124
177 173 109
173 169 104
174 171 110
182 181 135
176 173 113
175 171 115
173 168 94
177 175 120
174 172 112
174 171 109
180 177 125
175 172 112
178 176 119
174 171 110
184 182 134
181 179 132
182 178 124
185 184 139
175 172 115
179 176 120
180 177 124
183 180 129
181 177 122
176 173 115
176 172 112
219 234 255
219 234 255
219 234 255
219 234 255
219 234 255
219 234 255
219 234 255
219 234 255
219 234 255
219 234 255
219 234 255
219 234 255
219 234 255
219 234 255
219 234 255
219 234 255
219 234 255
219 234 255
219 234 255
219 234 255
219 234 255
219 234 255
219 234 255
219 234 255
219 234 255
219 234 255
219 234 255
219 234 255
219 234 255
219 234 255
219 234 255
219 234 255
219 234 255
219 234 255
219 234 255
219 234 255
219 234 255
219 234 255
219 234 255
219 234 255
219 234 255
219 234 255
219 234 255
219 234 255
219 234 255
219 234 255
219 234 255
219 234 255
219 234 255
219 234 255
219 234 255
219 234 255
219 234 255
219 234 255
219 234 255
219 234 255
219 234 255
219 234 255
219 234 255
219 234 255
219 234 255
219 234 255
219 234 255
219 234 255
219 234 255
219 234 255
219 234 255
219 234 255
219 234 255
219 234 255
219 234 255
219 234 255
219 234 255
219 234 255
219 234 255
219 234 255
219 234 255
219 234 255
219 234 255
219 234 255
219 234 255
219 234 255
219 234 255
219 234 255
219 234 255
219 234 255
219 234 255
219 234 255
219 234 255
219 234 255
219 234 255
219 234 255
219 234 255
219 234 255
219 234 255
219 234 255
219 234 255
219 234 255
219 234 255
219 234 255
219 234 255
219 234 255
219 234 255
219 234 255
219 234 255
219 234 255
219 234 255
219 234 255
219 234 255
219 234 255
219 234 255
219 234 255
219 234 255
219 234 255
219 234 255
218 234 255
218 234 255
218 234 255
218 234 255
218 234 255
218 234 255
218 234 255
218 234 255
218 234 255
218 234 255
218 234 255
218 234 255
218 234 255
218 234 255
218 234 255
218 233 255
218 233 255
217 233 255
217 233 255
217 233 255
217 233 255
217 233 255
217 233 255
217 233 255
216 233 255
216 233 255
216 233 255
216 232 255
216 232 255
215 232 255
215 232 255
214 232 255
214 231 255
224 237 255
146 165 194
62 97 148
61 95 141
62 97 147
61 95 137
63 98 150
61 95 141
60 95 125
61 96 135
60 95 131
62 97 147
60 94 130
61 95 135
60 94 125
61 95 136
61 95 136
61 96 141
59 93 128
58 92 125
61 96 136
60 95 131
59 94 130
61 95 131
60 95 141
59 93 131
61 95 129
58 92 121
58 92 114
59 94 131
59 93 130
60 94 128
62 96 139
58 92 118
59 93 128
59 93 131
59 93 124
59 94 133
59 94 125
60 95 137
59 94 126
59 93 120
59 93 131
59 93 118
59 93 120
60 94 122
59 94 135
59 93 121
61 95 131
60 94 129
60 94 133
60 94 132
60 94 133
59 93 129
59 93 121
59 93 126
60 94 136
58 91 118
60 95 136
59 94 118
60 95 126
59 93 128
58 91 121
58 92 120
59 93 128
61 95 140
59 93 122
60 94 129
60 93 122
59 92 117
58 92 125
59 93 130
59 93 138
60 93 131
59 92 126
60 93 128
57 91 114
59 93 127
58 92 118
58 90 121
59 92 131
59 92 114
56 88 109
57 90 117
58 91 123
58 91 123
57 89 119
59 92 129
56 88 118
58 91 121
57 88 115
57 89 119
57 89 111
57 89 117
56 86 104
57 88 121
56 87 115
56 87 119
55 83 95
54 82 108
53 82 104
52 79 99
161 174 192
222 235 251
178 184 179
156 164 162
158 165 161
151 160 162
122 130 125
134 141 139
132 140 139
120 128 124
119 128 127
128 136 134
119 127 120
122 129 123
124 132 128
108 115 103
119 125 108
124 129 104
120 126 114
107 112 84
121 127 105
129 132 101
123 129 115
127 131 106
126 130 94
123 127 97
127 127 79
121 122 73
127 129 90
127 130 89
131 131 91
133 136 103
139 138 94
127 127 77
135 134 79
141 139 72
144 142 82
140 139 76
143 141 83
138 137 79
150 147 85
150 147 86
141 141 86
138 135 61
153 150 88
151 148 78
145 143 74
150 147 73
147 144 68
147 144 76
155 152 82
154 148 70
151 147 76
154 149 75
157 153 69
155 150 73
156 151 73
148 144 63
157 151 71
157 152 78
164 159 76
159 155 69
160 155 73
159 154 65
157 153 75
164 159 82
164 158 78
156 152 79
158 154 71
157 152 66
162 157 78
159 154 69
162 157 74
165 159 81
167 160 73
167 162 88
164 160 75
168 163 85
165 160 84
169 164 88
169 163 86
170 164 80
166 160 83
167 160 76
167 161 82
171 166 92
168 162 81
168 164 94
169 163 80
165 160 85
175 168 92
171 164 89
173 167 90
169 164 92
169 163 84
167 162 84
170 165 90
167 162 92
174 168 95
165 160 82
171 165 90
174 167 89
171 166 97
175 170 106
172 169 104
170 164 85
166 160 75
173 169 104
175 171 109
173 169 106
172 168 103
173 168 97
172 166 93
177 172 109
173 168 96
177 174 116
173 170 106
173 171 106
178 175 123
168 163 82
176 171 105
174 169 107
175 172 111
175 172 115
173 170 108
177 171 106
175 173 115
174 170 106
182 179 127
177 172 110
176 171 103
180 176 118
173 168 99
179 177 127
181 178 125
180 177 123
178 176 121
181 179 129
179 176 121
179 177 126
177 174 122
179 179 132
184 183 145
180 179 130
180 177 126
180 180 139
183 180 134
182 180 135
176 174 118
179 177 124
219 234 255
219 234 255
219 234 255
219 234 255
219 234 255
219 234 255
219 234 255
219 234 255
219 234 255
219 234 255
219 234 255
219 234 255
219 234 255
219 234 255
219 234 255
219 234 255
219 234 255
219 234 255
219 234 255
219 234 255
219 234 255
219 234 255
219 234 255
219 234 255
219 234 255
219 234 255
219 234 255
219 234 255
219 234 255
219 234 255
219 234 255
219 234 255
219 234 255
219 234 255
219 234 255
219 234 255
219 234 255
219 234 255
219 234 255
219 234 255
219 234 255
219 234 255
219 234 255
219 234 255
219 234 255
219 234 255
219 234 255
219 234 255
219 234 255
219 234 255
219 234 255
219 234 255
219 234 255
219 234 255
219 234 255
219 234 255
219 234 255
219 234 255
219 234 255
219 234 255
219 234 255
219 234 255
219 234 255
219 234 255
219 234 255
219 234 255
219 234 255
219 234 255
219 234 255
219 234 255
219 234 255
219 234 255
219 234 255
219 234 255
219 234 255
219 234 255
219 234 255
219 234 255
219 234 255
219 234 255
219 234 255
219 234 255
219 234 255
219 234 255
219 234 255
219 234 255
219 234 255
219 234 255
219 234 255
219 234 255
219 234 255
219 234 255
219 234 255
219 234 255
219 234 255
219 234 255
219 234 255
219 234 255
219 234 255
219 234 255
219 234 255
219 234 255
219 234 255
219 234 255
219 234 255
219 234 255
219 234 255
219 234 255
218 234 255
218 234 255
218 234 255
218 234 255
218 234 255
218 234 255
218 234 255
218 234 255
218 234 255
218 234 255
218 234 255
218 234 255
218 234 255
218 234 255
218 234 255
218 234 255
218 234 255
218 234 255
218 233 255
217 233 255
217 233 255
217 233 255
217 233 255
217 233 255
217 233 255
217 233 255
217 233 255
217 233 255
216 233 255
216 233 255
216 233 255
216 233 255
216 232 255
215 232 255
215 232 255
215 232 255
214 232 255
214 232 255
213 231 255
212 230 246
219 233 238
186 202 207
63 97 147
61 95 141
62 97 141
60 94 137
62 97 144
60 95 128
61 95 137
61 95 133
60 94 130
59 93 121
61 96 135
59 94 130
59 93 128
60 95 131
59 93 130
61 96 139
59 93 122
60 95 133
61 96 139
58 91 122
60 94 128
57 91 114
59 92 120
61 95 140
60 94 131
60 95 133
60 95 139
59 93 121
59 94 121
59 93 130
59 93 118
59 93 118
58 91 128
60 94 130
62 96 143
60 94 130
60 95 133
59 93 126
59 93 117
60 94 133
57 90 111
59 93 122
58 92 115
60 94 129
59 94 125
59 93 129
59 93 126
58 91 120
60 95 136
59 93 128
60 94 130
59 93 122
57 90 111
59 94 131
58 92 124
58 92 118
59 93 128
57 90 114
58 91 115
59 93 125
57 91 122
59 93 113
59 92 124
60 95 137
58 92 108
60 93 120
59 93 118
59 93 118
60 94 135
58 92 118
57 89 117
59 92 128
59 93 129
59 92 128
59 93 130
57 89 118
57 89 103
58 91 119
57 90 118
58 91 121
56 88 104
58 91 124
58 91 113
57 90 117
58 90 127
59 92 132
57 90 114
56 87 117
57 88 122
58 89 113
58 89 131
58 89 120
57 87 114
57 87 114
57 87 112
57 87 118
52 81 100
55 84 112
54 81 110
51 78 99
176 191 187
213 229 224
188 196 189
150 157 153
159 165 162
143 149 142
151 161 163
121 129 124
130 138 132
129 137 131
123 131 126
124 132 128
120 128 123
122 131 127
113 119 107
132 139 129
110 116 105
111 116 99
114 117 87
121 126 104
113 116 79
121 126 104
122 126 100
122 124 89
137 140 112
119 122 86
128 131 95
123 123 74
133 133 81
139 140 99
131 132 85
139 139 86
130 128 70
135 136 91
139 140 92
136 136 82
144 143 82
137 135 82
141 139 86
149 145 79
146 144 83
149 147 95
149 146 82
152 149 87
151 149 90
146 144 78
149 146 77
148 145 68
156 152 86
151 147 79
155 151 82
150 147 73
158 153 81
154 149 70
149 145 66
153 149 83
157 152 78
152 148 73
162 156 89
158 154 73
148 145 69
159 154 73
162 158 77
157 151 71
156 151 56
157 153 65
165 159 71
170 162 94
163 158 87
166 161 86
166 160 80
164 158 78
167 161 84
165 159 77
165 159 72
167 161 83
170 164 89
162 156 74
169 163 86
164 159 77
168 163 85
167 160 77
164 159 75
164 157 70
166 161 80
166 160 79
170 164 89
169 165 95
173 165 84
173 167 96
167 162 82
168 163 86
167 161 81
170 164 87
169 164 93
168 163 88
174 168 95
174 168 96
171 166 95
171 166 97
168 164 90
170 166 97
171 165 85
174 170 102
168 164 92
169 165 96
170 165 90
174 168 94
172 168 100
172 168 99
174 169 101
175 170 103
172 166 90
176 169 97
171 167 103
176 171 106
169 164 90
174 170 102
178 172 104
174 169 102
172 168 100
174 170 108
172 166 93
177 172 106
179 175 118
181 179 132
174 172 115
173 169 103
181 178 125
177 173 115
180 177 123
174 171 112
175 171 110
174 169 101
180 176 120
177 174 118
180 177 126
178 175 121
177 174 118
177 174 115
181 178 122
175 170 103
177 172 110
179 176 123
181 181 136
182 179 128
178 175 121
181 179 134
182 181 137
178 176 121
218 234 255
218 234 255
218 234 255
218 234 255
218 234 255
218 234 255
218 234 255
218 234 255
218 234 255
218 234 255
219 234 255
219 234 255
219 234 255
219 234 255
219 234 255
219 234 255
219 234 255
219 234 255
219 234 255
219 234 255
219 234 255
219 234 255
219 234 255
219 234 255
219 234 255
219 234 255
219 234 255
219 234 255
219 234 255
219 234 255
219 234 255
219 234 255
219 234 255
219 234 255
219 234 255
219 234 255
219 234 255
219 234 255
219 234 255
219 234 255
219 234 255
219 234 255
219 234 255
219 234 255
219 234 255
219 234 255
219 234 255
219 234 255
219 234 255
219 234 255
219 234 255
219 234 255
219 234 255
219 234 255
219 234 255
219 234 255
219 234 255
219 234 255
219 234 255
219 234 255
219 234 255
219 234 255
219 234 255
219 234 255
219 234 255
219 234 255
219 234 255
219 234 255
219 234 255
219 234 255
219 234 255
219 234 255
219 234 255
219 234 255
219 234 255
219 234 255
219 234 255
219 234 255
219 234 255
219 234 255
219 234 255
219 234 255
219 234 255
219 234 255
219 234 255
219 234 255
219 234 255
219 234 255
219 234 255
219 234 255
219 234 255
219 234 255
219 234 255
219 234 255
219 234 255
219 234 255
219 234 255
218 234 255
218 234 255
218 234 255
218 234 255
218 234 255
218 234 255
218 234 255
218 234 255
218 234 255
218 234 255
218 234 255
218 234 255
218 234 255
218 234 255
218 234 255
218 234 255
218 234 255
218 234 255
218 234 255
218 234 255
218 234 255
218 234 255
218 234 255
218 234 255
218 233 255
218 233 255
217 233 255
217 233 255
217 233 255
217 233 255
217 233 255
217 233 255
217 233 255
217 233 255
217 233 255
217 233 255
216 233 255
216 233 255
216 233 255
216 233 255
216 232 255
216 232 255
215 232 255
215 232 255
215 232 255
215 232 255
214 232 255
214 231 255
213 231 255
213 231 255
193 214 179
174 198 0
158 183 72
61 95 147
61 96 141
61 95 142
61 95 134
62 97 140
59 94 117
61 95 142
58 93 121
62 97 145
59 93 122
61 95 140
61 95 139
61 96 140
59 93 126
59 93 124
60 94 131
60 95 128
60 95 131
60 95 122
60 95 129
60 94 124
60 94 125
59 94 124
60 94 133
60 95 134
59 93 121
60 95 129
59 93 128
59 93 120
58 91 115
59 93 128
58 93 125
60 94 122
60 94 131
59 93 118
60 94 126
60 94 125
59 92 121
59 93 125
59 93 118
58 92 115
59 93 126
60 94 133
58 91 111
59 93 126
62 97 147
59 92 121
60 94 134
60 94 126
60 94 136
59 93 134
59 94 121
59 94 128
59 93 126
59 94 120
60 94 131
58 92 120
59 93 126
59 93 121
58 91 117
59 93 125
59 92 118
58 91 125
58 92 120
59 93 120
59 93 118
57 91 117
59 93 135
58 91 113
59 92 121
59 92 129
58 92 125
59 92 124
59 92 128
58 92 130
59 92 131
59 92 128
57 89 111
59 92 135
58 90 117
59 92 130
59 92 124
58 91 119
59 92 129
56 88 120
57 89 108
56 88 116
58 90 124
58 91 126
58 90 120
57 88 118
59 90 127
58 89 114
55 86 114
57 87 110
55 85 110
57 87 120
54 84 102
53 81 105
51 78 98
165 188 34
172 197 0
173 188 113
159 167 162
150 156 149
135 141 135
124 131 122
128 134 128
122 129 125
133 140 134
126 135 130
123 131 128
114 122 112
128 135 127
122 129 120
115 121 107
119 125 111
115 123 112
126 130 113
123 129 110
125 129 103
115 120 93
112 116 88
113 117 89
127 131 100
128 132 103
123 125 84
130 133 92
141 141 98
117 119 63
141 142 92
130 129 76
133 133 80
147 144 92
141 139 78
147 147 101
132 132 77
134 134 81
143 140 76
143 142 93
133 130 56
152 149 82
142 140 74
139 137 53
145 142 77
149 146 77
146 142 71
156 152 75
152 147 73
147 142 62
157 152 76
161 156 84
158 154 71
156 151 68
153 149 69
158 153 80
157 153 74
160 155 81
159 154 74
155 150 75
165 159 83
154 150 64
158 152 71
167 160 82
156 152 72
157 151 65
160 155 74
161 156 83
163 157 75
165 160 80
162 156 77
162 156 70
171 164 84
170 164 90
164 157 70
166 160 82
166 160 71
159 155 71
163 157 78
163 157 77
166 161 85
167 161 79
171 165 91
172 167 99
166 161 81
164 159 71
165 159 75
170 164 90
169 164 91
169 165 94
166 159 75
170 164 87
168 163 90
169 165 90
168 162 85
170 164 81
171 166 93
175 170 103
171 164 87
166 161 79
172 166 95
168 163 85
167 161 77
171 166 89
167 161 81
171 166 90
167 161 75
172 167 92
170 165 87
175 170 104
171 166 95
173 169 105
170 164 93
178 174 117
173 168 98
177 172 112
173 171 115
174 170 108
173 168 97
176 172 109
174 170 106
175 172 111
179 175 116
172 169 108
181 178 124
180 174 114
177 171 102
176 174 121
174 170 104
175 171 108
174 169 108
183 180 132
175 170 105
182 180 134
183 181 133
174 171 113
179 173 116
181 177 126
177 172 110
175 173 117
178 174 113
178 177 130
181 180 138
178 175 122
186 185 144
180 179 130
181 181 134
177 176 123
179 177 123
180 178 125
218 234 255
218 234 255
218 234 255
218 234 255
218 234 255
218 234 255
218 234 255
218 234 255
218 234 255
218 234 255
218 234 255
218 234 255
218 234 255
218 234 255
218 234 255
218 234 255
218 234 255
218 234 255
218 234 255
218 234 255
218 234 255
218 234 255
218 234 255
218 234 255
218 234 255
218 234 255
218 234 255
218 234 255
218 234 255
218 234 255
218 234 255
218 234 255
218 234 255
218 234 255
218 234 255
219 234 255
219 234 255
219 234 255
219 234 255
219 234 255
219 234 255
219 234 255
219 234 255
219 234 255
219 234 255
219 234 255
219 234 255
219 234 255
219 234 255
219 234 255
219 234 255
219 234 255
219 234 255
219 234 255
219 234 255
219 234 255
219 234 255
219 234 255
219 234 255
219 234 255
219 234 255
219 234 255
219 234 255
219 234 255
219 234 255
219 234 255
219 234 255
219 234 255
219 234 255
219 234 255
219 234 255
219 234 255
219 234 255
219 234 255
219 234 255
219 234 255
219 234 255
219 234 255
219 234 255
218 234 255
218 234 255
218 234 255
218 234 255
218 234 255
218 234 255
218 234 255
218 234 255
218 234 255
218 234 255
218 234 255
218 234 255
218 234 255
218 234 255
218 234 255
218 234 255
218 234 255
218 234 255
218 234 255
218 234 255
218 234 255
218 234 255
218 234 255
218 234 255
218 234 255
218 234 255
218 234 255
218 234 255
218 234 255
218 234 255
218 234 255
218 234 255
218 234 255
218 234 255
218 234 255
218 234 255
218 233 255
218 233 255
217 233 255
217 233 255
217 233 255
217 233 255
217 233 255
217 233 255
217 233 255
217 233 255
217 233 255
217 233 255
217 233 255
217 233 255
217 233 255
216 233 255
216 233 255
216 233 255
216 233 255
216 233 255
216 232 255
215 232 255
215 232 255
215 232 255
215 232 255
214 232 255
214 232 255
214 231 255
213 231 255
213 231 255
212 231 255
212 230 255
184 206 120
174 198 0
175 198 0
86 114 136
60 93 134
60 94 134
62 97 143
61 95 129
60 93 135
60 95 129
60 94 133
59 93 129
60 94 130
58 92 124
60 93 121
60 94 137
59 93 117
61 96 139
59 94 125
58 92 120
60 95 140
60 94 124
60 94 128
59 93 129
60 94 126
60 94 130
60 94 130
60 94 128
59 93 118
58 92 105
59 93 118
60 95 130
59 94 125
60 94 128
60 94 124
59 94 131
59 94 122
58 92 120
60 94 128
59 93 134
60 94 130
59 93 125
60 94 133
58 92 124
58 91 122
59 92 126
58 92 122
59 92 122
58 92 118
58 92 128
58 92 113
59 93 117
57 90 120
58 93 111
59 93 122
60 94 132
59 92 129
58 92 122
59 93 120
59 93 134
58 92 121
58 92 110
58 91 117
58 92 117
59 93 135
60 94 125
59 93 123
59 93 127
59 93 130
57 89 113
58 92 125
57 90 131
60 94 131
58 91 121
61 94 131
56 89 115
58 91 118
58 91 123
58 91 124
59 92 118
57 90 116
58 91 126
60 94 134
59 92 128
59 93 124
59 93 125
56 88 108
59 92 124
58 90 124
55 87 112
57 89 119
56 89 108
56 87 108
54 83 91
56 86 119
57 89 122
56 87 113
52 81 102
55 84 107
55 84 113
52 80 93
54 82 106
75 98 98
173 197 0
176 199 0
174 192 101
167 172 162
165 172 163
156 164 165
148 155 156
148 156 155
141 147 143
130 138 138
134 141 136
129 137 133
118 125 118
118 124 113
118 125 113
117 123 109
129 136 126
119 126 107
117 120 93
134 138 115
128 131 105
115 120 96
130 134 111
124 127 89
126 130 100
121 123 88
131 130 87
120 123 85
136 138 97
125 125 76
132 133 102
130 131 89
132 133 87
138 139 87
149 150 111
144 142 95
134 133 70
135 136 87
147 146 89
141 139 88
140 137 76
138 136 64
147 143 68
146 143 79
153 149 84
151 147 78
138 135 67
153 148 74
152 147 70
148 144 73
154 150 74
151 147 61
147 143 62
149 146 61
153 147 72
152 148 68
152 148 67
155 151 78
163 157 72
150 145 67
161 157 78
156 151 68
155 149 65
152 148 59
159 154 75
166 160 84
163 157 69
155 151 58
162 156 78
164 158 80
165 160 91
165 159 75
162 156 72
166 160 76
163 157 78
158 153 69
163 157 80
166 160 83
162 156 70
166 159 81
167 161 82
165 159 74
165 161 77
171 165 90
162 157 75
167 160 72
169 163 87
169 163 83
165 160 83
169 164 86
172 166 95
169 162 83
166 161 84
169 165 94
167 163 88
168 163 87
168 163 89
166 160 76
168 162 85
166 161 78
174 169 106
171 167 93
171 168 106
170 167 98
173 168 99
173 167 92
170 168 103
176 170 100
170 165 93
169 165 90
168 165 94
170 163 85
175 170 98
173 170 111
173 168 99
174 170 105
177 174 115
173 170 110
176 172 110
176 173 110
175 172 109
179 176 121
173 170 100
174 171 109
178 174 116
177 173 116
177 173 111
179 176 121
176 172 113
171 167 98
177 172 104
173 170 107
174 169 102
178 176 120
173 170 107
176 174 121
184 182 139
174 170 110
178 176 124
174 170 109
183 180 131
184 183 140
178 176 127
178 177 128
180 178 131
180 178 130
173 169 103
181 180 134
180 176 121
181 179 131
218 234 255
218 234 255
218 234 255
218 234 255
218 234 255
218 234 255
218 234 255
218 234 255
218 234 255
218 234 255
218 234 255
218 234 255
218 234 255
218 234 255
218 234 255
218 234 255
218 234 255
218 234 255
218 234 255
218 234 255
218 234 255
218 234 255
218 234 255
218 234 255
218 234 255
218 234 255
218 234 255
218 234 255
218 234 255
218 234 255
218 234 255
218 234 255
218 234 255
218 234 255
218 234 255
218 234 255
218 234 255
218 234 255
218 234 255
218 234 255
218 234 255
218 234 255
218 234 255
218 234 255
218 234 255
218 234 255
218 234 255
218 234 255
218 234 255
218 234 255
218 234 255
218 234 255
218 234 255
218 234 255
218 234 255
218 234 255
218 234 255
218 234 255
218 234 255
218 234 255
218 234 255
218 234 255
218 234 255
218 234 255
218 234 255
218 234 255
218 234 255
218 234 255
218 234 255
218 234 255
218 234 255
218 234 255
218 234 255
218 234 255
218 234 255
218 234 255
218 234 255
218 234 255
218 234 255
218 234 255
218 234 255
218 234 255
218 234 255
218 234 255
218 234 255
218 234 255
218 234 255
218 234 255
218 234 255
218 234 255
218 234 255
218 234 255
218 234 255
218 234 255
218 234 255
218 234 255
218 234 255
218 234 255
218 234 255
218 234 255
218 234 255
218 234 255
218 234 255
218 234 255
218 234 255
218 234 255
218 234 255
218 234 255
218 234 255
218 233 255
218 233 255
218 233 255
217 233 255
217 233 255
217 233 255
217 233 255
217 233 255
217 233 255
217 233 255
217 233 255
217 233 255
217 233 255
217 233 255
217 233 255
217 233 255
217 233 255
216 233 255
216 233 255
216 233 255
216 233 255
216 233 255
216 233 255
216 232 255
215 232 255
215 232 255
215 232 255
215 232 255
215 232 255
214 232 255
214 232 255
214 231 255
214 231 255
213 231 255
213 231 255
212 230 255
211 230 255
206 226 240
173 197 25
176 199 0
174 198 0
124 150 118
60 94 135
61 96 147
60 94 126
60 94 134
61 95 129
59 93 122
60 94 135
61 95 134
60 95 130
62 97 145
59 93 122
60 94 130
60 94 139
59 93 129
59 93 122
59 94 130
59 93 124
59 93 118
60 94 128
60 95 134
60 95 133
59 93 131
60 94 141
59 94 134
59 93 128
60 95 139
59 93 133
58 92 117
60 95 134
59 93 125
57 91 105
59 93 124
59 93 130
58 92 120
58 92 125
59 92 118
60 94 125
59 93 130
60 94 129
60 94 134
60 94 134
59 94 117
59 93 130
57 90 115
59 93 122
59 93 129
57 91 129
59 92 111
58 91 114
58 92 114
60 94 131
58 91 108
59 94 128
56 89 108
57 91 114
58 93 121
60 94 131
57 90 117
59 93 129
57 90 118
59 93 130
58 92 115
59 93 126
59 92 131
59 93 124
60 94 137
58 92 117
56 89 113
59 92 121
60 94 134
58 92 122
59 92 129
58 91 124
58 91 118
59 92 125
56 88 117
57 90 116
59 92 115
56 88 118
59 92 118
58 91 118
56 88 110
58 91 121
57 88 113
59 92 129
58 90 128
57 89 112
57 90 121
58 90 126
55 86 109
56 86 114
57 88 114
53 83 97
53 81 103
54 83 103
54 84 103
53 81 88
52 79 89
120 140 60
174 198 0
173 197 0
175 198 0
187 196 183
155 160 147
151 157 142
150 157 150
146 154 153
141 149 151
129 137 130
153 162 165
132 140 135
128 136 131
133 140 131
136 143 133
122 127 107
139 147 140
114 118 95
114 120 105
112 115 82
146 150 131
121 126 97
133 136 104
127 131 109
122 125 88
132 135 104
130 132 93
133 135 102
135 137 88
129 130 90
125 125 81
134 134 89
132 132 78
134 135 84
129 128 67
132 132 79
135 134 80
137 136 81
139 137 72
139 139 80
144 141 81
151 148 84
149 147 86
138 136 73
147 144 68
148 143 68
147 145 72
152 148 67
152 149 78
145 142 69
156 152 91
152 149 80
154 151 79
150 146 66
161 157 78
146 143 73
146 143 60
156 151 81
158 153 72
154 150 66
160 154 72
154 147 64
159 154 68
160 155 79
160 153 72
157 150 64
158 154 74
157 152 71
161 157 73
153 148 66
159 154 70
166 161 87
169 161 79
159 154 63
164 159 85
164 159 80
167 162 86
162 156 62
164 158 84
165 161 86
169 164 88
167 161 86
165 160 76
160 156 67
170 165 92
171 165 87
167 162 87
168 163 81
168 163 87
164 159 78
161 157 73
170 164 87
170 165 93
167 162 80
174 169 107
169 164 88
172 167 96
171 165 86
171 166 90
172 167 99
168 163 81
170 166 94
174 170 102
166 162 84
169 162 81
169 166 98
168 164 93
174 169 104
170 165 92
171 165 91
171 166 94
173 167 98
170 164 89
172 167 98
170 165 91
170 166 94
173 170 104
177 171 106
170 166 94
176 174 120
177 172 108
174 169 107
172 166 93
176 171 108
175 173 112
177 174 115
179 175 120
175 171 108
172 167 95
175 171 106
170 165 97
174 171 116
176 172 109
177 175 118
176 175 125
178 174 122
182 181 133
178 176 125
172 169 105
179 176 122
176 174 118
179 175 118
181 180 137
178 175 118
178 174 114
177 174 116
180 179 132
176 173 120
177 175 120
182 182 139
218 234 255
218 234 255
218 234 255
218 234 255
218 234 255
218 234 255
218 234 255
218 234 255
218 234 255
218 234 255
218 234 255
218 234 255
218 234 255
218 234 255
218 234 255
218 234 255
218 234 255
218 234 255
218 234 255
218 234 255
218 234 255
218 234 255
218 234 255
218 234 255
218 234 255
218 234 255
218 234 255
218 234 255
218 234 255
218 234 255
218 234 255
218 234 255
218 234 255
218 234 255
218 234 255
218 234 255
218 234 255
218 234 255
218 234 255
218 234 255
218 234 255
218 234 255
218 234 255
218 234 255
218 234 255
218 234 255
218 234 255
218 234 255
218 234 255
218 234 255
218 234 255
218 234 255
218 234 255
218 234 255
218 234 255
218 234 255
218 234 255
218 234 255
218 234 255
218 234 255
218 234 255
218 234 255
218 234 255
218 234 255
218 234 255
218 234 255
218 234 255
218 234 255
218 234 255
218 234 255
218 234 255
218 234 255
218 234 255
218 234 255
218 234 255
218 234 255
218 234 255
218 234 255
218 234 255
218 234 255
218 234 255
218 234 255
218 234 255
218 234 255
218 234 255
218 234 255
218 234 255
218 234 255
218 234 255
218 234 255
218 234 255
218 234 255
218 234 255
218 234 255
218 234 255
218 234 255
218 234 255
218 234 255
218 234 255
218 234 255
218 234 255
218 234 255
218 233 255
218 233 255
218 233 255
217 233 255
217 233 255
217 233 255
217 233 255
217 233 255
217 233 255
217 233 255
217 233 255
217 233 255
217 233 255
217 233 255
217 233 255
217 233 255
217 233 255
217 233 255
217 233 255
217 233 255
216 233 255
216 233 255
216 233 255
216 233 255
216 233 255
216 233 255
216 233 255
216 232 255
216 232 255
215 232 255
215 232 255
215 232 255
215 232 255
215 232 255
214 232 255
214 232 255
214 231 255
214 231 255
213 231 255
213 231 255
212 231 255
212 230 255
211 230 255
210 230 255
193 214 177
174 198 0
175 198 0
175 198 0
147 171 82
61 95 141
61 95 137
60 94 139
61 95 136
60 94 135
60 94 125
58 92 126
59 94 124
60 94 128
59 93 121
59 93 133
59 94 122
59 94 131
58 92 130
58 92 120
59 93 126
61 95 129
60 94 135
59 93 122
60 94 117
59 93 126
60 94 129
59 93 126
59 93 128
59 94 126
59 94 118
59 93 125
60 94 120
59 93 122
58 92 129
59 93 108
57 91 118
58 91 113
58 91 113
58 93 117
58 92 118
56 89 121
58 92 113
60 95 133
58 92 124
59 93 125
60 94 131
58 92 120
59 93 120
59 93 125
59 93 121
59 92 117
60 94 129
59 93 121
60 94 133
59 93 125
58 90 110
59 94 128
59 93 126
58 92 124
59 92 118
59 93 120
58 91 117
58 91 123
58 91 120
58 92 116
59 93 126
58 91 124
58 90 117
58 91 122
57 90 113
59 93 124
58 91 122
60 94 131
56 88 107
59 92 130
58 91 114
59 92 121
59 93 124
58 92 123
59 92 121
58 91 120
58 92 120
59 91 132
59 92 129
55 86 107
57 90 121
58 90 121
57 88 104
58 90 123
58 90 120
58 90 127
57 88 125
58 90 123
59 91 125
55 86 110
55 85 111
54 83 112
54 83 107
52 79 91
53 82 102
53 81 103
50 75 91
143 165 55
174 197 0
175 198 0
173 197 0
182 196 151
185 192 190
152 157 141
146 153 147
149 155 150
123 130 122
147 155 151
126 133 129
115 121 109
135 143 141
129 134 119
119 126 118
127 133 118
118 124 109
103 109 92
121 127 111
137 143 128
124 127 105
121 124 90
127 132 110
109 112 71
126 128 92
127 129 97
139 141 111
134 134 94
142 143 101
143 144 100
132 133 87
127 128 77
135 137 95
139 137 90
143 141 88
132 133 80
134 134 84
141 140 91
138 135 72
145 142 79
135 134 66
143 141 81
148 147 94
142 139 76
133 131 65
143 140 61
147 145 78
150 147 81
154 151 78
150 147 79
151 148 81
152 148 75
158 152 76
153 148 76
156 151 75
146 144 76
160 157 90
154 149 68
154 149 64
161 157 77
161 156 81
154 149 60
161 157 80
160 154 67
161 155 79
155 151 71
158 153 71
166 159 75
156 151 67
165 161 93
165 159 79
161 155 80
165 158 78
162 155 76
164 158 76
168 160 82
163 157 77
166 161 84
169 163 91
162 157 70
165 159 78
166 160 76
163 158 73
165 159 72
169 164 84
163 159 92
162 156 72
166 160 77
168 162 86
165 161 92
170 163 84
167 160 68
168 162 90
171 167 100
170 164 87
172 168 104
169 164 87
171 165 93
167 162 87
168 161 74
174 169 104
171 167 103
168 162 84
170 167 101
168 162 86
168 162 88
171 167 97
173 169 103
170 166 97
173 168 101
172 168 101
175 172 117
177 173 110
176 171 106
171 167 93
175 173 115
171 167 101
176 173 120
174 172 111
174 170 108
176 171 104
176 172 110
177 171 104
170 166 103
171 168 108
177 173 115
176 173 117
175 172 111
178 177 126
177 174 118
175 172 112
174 170 104
177 173 113
178 174 116
170 167 103
171 167 99
170 165 89
174 170 104
172 167 97
176 174 121
180 179 131
181 180 137
178 175 118
181 177 129
179 177 130
178 176 123
179 177 124
180 179 129
179 175 119
183 182 139
217 233 255
217 233 255
217 233 255
217 233 255
217 233 255
217 233 255
217 233 255
218 233 255
218 233 255
218 233 255
218 233 255
218 233 255
218 233 255
218 233 255
218 233 255
218 234 255
218 234 255
218 234 255
218 234 255
218 234 255
218 234 255
218 234 255
218 234 255
218 234 255
218 234 255
218 234 255
218 234 255
218 234 255
218 234 255
218 234 255
218 234 255
218 234 255
218 234 255
218 234 255
218 234 255
218 234 255
218 234 255
218 234 255
218 234 255
218 234 255
218 234 255
218 234 255
218 234 255
218 234 255
218 234 255
218 234 255
218 234 255
218 234 255
218 234 255
218 234 255
218 234 255
218 234 255
218 234 255
218 234 255
218 234 255
218 234 255
218 234 255
218 234 255
218 234 255
218 234 255
218 234 255
218 234 255
218 234 255
218 234 255
218 234 255
218 234 255
218 234 255
218 234 255
218 234 255
218 234 255
218 234 255
218 234 255
218 234 255
218 234 255
218 234 255
218 234 255
218 234 255
218 234 255
218 234 255
218 234 255
218 234 255
218 234 255
218 234 255
218 234 255
218 234 255
218 234 255
218 234 255
218 234 255
218 234 255
218 234 255
218 234 255
218 234 255
218 233 255
218 233 255
218 233 255
218 233 255
218 233 255
217 233 255
217 233 255
217 233 255
217 233 255
217 233 255
217 233 255
217 233 255
217 233 255
217 233 255
217 233 255
217 233 255
217 233 255
217 233 255
217 233 255
217 233 255
217 233 255
217 233 255
217 233 255
217 233 255
217 233 255
217 233 255
216 233 255
216 233 255
216 233 255
216 233 255
216 233 255
216 233 255
216 233 255
216 232 255
216 232 255
216 232 255
215 232 255
215 232 255
215 232 255
215 232 255
215 232 255
215 232 255
214 232 255
214 232 255
214 231 255
214 231 255
213 231 255
213 231 255
213 231 255
212 230 255
212 230 255
211 230 255
210 229 255
209 229 255
178 201 88
173 197 0
175 198 0
175 198 0
171 195 25
70 103 135
60 94 136
60 94 135
61 96 139
59 92 125
60 94 131
59 93 131
59 93 131
58 91 125
59 92 124
60 95 129
59 93 115
58 92 122
60 94 136
59 92 122
58 92 114
59 92 129
60 94 129
56 89 118
59 93 128
57 90 108
60 95 130
59 93 121
59 94 137
60 94 131
60 95 131
58 92 114
58 93 114
61 95 135
59 93 122
58 91 115
59 94 131
58 92 121
56 89 115
60 94 129
59 93 121
60 94 124
59 93 128
59 93 117
59 93 122
59 93 122
61 95 134
58 91 114
58 92 122
58 91 117
60 94 129
58 92 120
58 92 121
59 94 115
59 93 124
59 93 126
59 92 124
58 92 115
58 92 117
59 93 126
59 93 130
59 93 122
59 92 122
58 90 117
58 92 110
57 90 107
58 92 120
60 94 130
59 92 125
57 90 122
59 93 127
57 90 125
57 90 110
58 91 115
59 92 123
59 92 126
59 93 125
57 89 105
60 93 121
57 88 110
58 91 116
58 90 110
59 92 124
59 92 123
57 89 118
56 88 109
57 89 114
59 91 126
58 90 119
58 91 121
56 87 112
56 87 110
56 86 103
56 88 117
57 87 116
57 88 110
58 90 122
56 87 112
56 85 119
56 87 110
53 81 102
50 77 100
58 83 83
166 189 5
174 198 0
172 195 0
173 197 0
175 194 75
176 184 180
172 180 180
160 165 154
155 162 156
135 142 138
128 133 120
146 153 142
123 127 107
141 148 142
124 132 129
130 137 130
117 123 108
122 128 111
126 133 123
117 120 90
115 118 83
122 129 116
145 150 131
124 128 100
119 121 84
130 133 104
124 126 88
107 109 56
126 126 84
129 130 88
131 133 94
133 136 95
128 128 72
134 133 85
132 130 70
136 135 75
139 137 75
140 141 95
149 148 92
141 139 63
137 134 53
149 147 85
145 143 89
141 139 69
141 138 82
143 140 73
142 139 62
151 147 74
145 142 65
152 148 78
151 148 82
156 152 78
153 150 81
151 146 68
161 156 84
153 150 75
155 151 78
153 149 69
154 150 67
159 153 78
154 149 67
155 150 67
157 153 80
160 155 81
160 155 74
156 151 64
166 160 78
162 157 71
160 155 71
169 162 75
163 157 73
162 157 79
162 158 72
158 153 73
162 157 79
164 158 72
164 158 75
162 158 81
163 159 82
164 159 72
159 154 65
167 162 83
163 159 76
170 164 90
173 168 97
168 164 87
167 160 82
167 162 87
174 168 97
164 158 70
169 164 83
169 164 89
170 164 85
171 164 87
167 162 83
165 159 63
164 159 76
169 164 93
168 162 77
171 164 88
171 166 93
165 162 86
170 164 91
171 163 86
170 165 91
168 164 87
177 174 115
168 163 92
169 165 93
175 170 107
173 167 100
171 167 97
172 167 97
175 171 112
171 167 108
170 165 99
173 167 93
175 170 104
171 167 105
176 172 113
173 169 104
170 164 83
178 174 118
174 170 106
171 166 89
174 170 104
174 169 96
173 171 110
180 176 118
179 176 123
178 175 120
177 175 123
171 167 103
174 173 121
174 171 112
181 179 133
179 178 131
177 174 116
181 179 130
176 173 116
176 174 119
176 172 109
182 180 134
177 174 116
185 184 144
176 172 117
177 175 119
179 176 121
178 177 125
184 183 143
180 180 134
217 233 255
217 233 255
217 233 255
217 233 255
217 233 255
217 233 255
217 233 255
217 233 255
217 233 255
217 233 255
217 233 255
217 233 255
217 233 255
217 233 255
217 233 255
217 233 255
217 233 255
217 233 255
217 233 255
217 233 255
217 233 255
217 233 255
217 233 255
217 233 255
217 233 255
217 233 255
218 233 255
218 233 255
218 233 255
218 233 255
218 233 255
218 233 255
218 233 255
218 233 255
218 233 255
218 234 255
218 233 255
218 234 255
218 234 255
218 234 255
218 234 255
218 234 255
218 234 255
218 234 255
218 234 255
218 234 255
218 234 255
218 234 255
218 234 255
218 234 255
218 234 255
218 234 255
218 234 255
218 234 255
218 234 255
218 234 255
218 234 255
218 234 255
218 234 255
218 234 255
218 234 255
218 234 255
218 234 255
218 234 255
218 234 255
218 234 255
218 234 255
218 234 255
218 234 255
218 234 255
218 234 255
218 234 255
218 234 255
218 234 255
218 234 255
218 234 255
218 234 255
218 234 255
218 233 255
218 233 255
218 233 255
218 233 255
218 233 255
218 233 255
218 233 255
217 233 255
217 233 255
217 233 255
217 233 255
217 233 255
217 233 255
217 233 255
217 233 255
217 233 255
217 233 255
217 233 255
217 233 255
217 233 255
217 233 255
217 233 255
217 233 255
217 233 255
217 233 255
217 233 255
217 233 255
217 233 255
217 233 255
217 233 255
217 233 255
217 233 255
217 233 255
217 233 255
217 233 255
216 233 255
216 233 255
216 233 255
216 233 255
216 233 255
216 233 255
216 233 255
216 233 255
216 233 255
216 232 255
216 232 255
215 232 255
215 232 255
215 232 255
215 232 255
215 232 255
215 232 255
215 232 255
214 232 255
214 232 255
214 232 255
214 231 255
214 231 255
213 231 255
213 231 255
213 231 255
212 231 255
212 230 255
211 230 255
211 230 255
210 229 255
209 229 255
200 220 218
173 197 0
173 197 0
172 196 0
174 198 0
173 197 0
112 138 115
62 97 143
60 94 139
59 93 134
60 94 136
60 94 128
58 91 121
61 95 136
57 89 113
60 94 122
60 95 128
60 94 131
59 93 121
59 93 118
59 92 122
59 93 125
59 93 131
58 93 121
58 92 118
59 93 128
58 91 120
59 93 115
60 95 128
59 93 128
59 94 125
58 92 114
58 92 120
57 90 122
60 94 131
58 92 121
58 92 115
59 93 121
60 94 136
60 94 126
58 92 120
56 89 110
58 92 117
59 94 120
59 92 120
57 91 111
57 91 117
58 92 120
60 94 128
60 94 124
57 91 111
58 91 126
59 93 125
58 92 120
58 92 121
56 89 107
57 91 111
58 92 108
59 93 122
59 93 130
58 91 118
58 92 120
57 91 124
58 92 118
57 89 114
59 92 129
59 92 126
56 89 114
58 91 126
62 96 139
58 92 118
58 91 121
57 90 111
60 94 133
56 89 113
57 89 117
57 90 123
58 91 119
57 89 114
56 88 112
59 92 121
58 90 117
60 93 128
59 91 119
58 90 113
57 89 116
59 92 117
56 88 112
55 86 106
57 89 110
57 87 118
56 88 109
57 89 115
57 88 109
56 87 111
56 85 100
53 83 99
55 85 106
55 85 99
54 84 102
53 81 105
52 78 96
49 76 79
110 131 60
174 198 0
172 196 0
174 197 0
174 198 0
175 198 0
176 186 157
163 170 161
153 159 143
158 164 157
149 156 152
137 142 129
141 146 132
138 145 139
125 131 117
120 124 97
135 142 132
124 130 115
118 123 96
130 134 116
123 128 107
115 119 90
115 118 87
131 134 104
126 128 96
132 136 110
133 137 108
135 137 104
128 130 87
125 128 85
137 139 101
127 128 79
139 139 93
122 122 69
142 140 77
133 134 88
145 145 95
140 139 92
133 131 62
143 140 74
136 135 80
143 143 88
138 137 81
143 142 84
135 132 55
143 140 68
146 143 79
142 140 71
148 145 83
149 147 92
152 148 78
145 142 63
145 141 66
148 144 64
159 154 86
152 148 77
158 153 80
163 158 90
151 148 79
160 155 81
157 150 76
165 160 89
161 156 74
154 149 59
160 154 81
161 155 75
155 151 76
158 152 77
160 154 79
161 155 74
158 154 75
157 151 64
161 154 71
167 161 80
160 154 69
160 154 71
163 159 82
163 157 69
164 160 88
164 160 85
161 157 79
162 156 72
164 158 75
165 160 83
162 158 77
167 163 91
164 158 81
170 165 101
160 156 74
166 160 80
163 157 77
164 159 80
168 162 78
162 157 81
162 156 73
167 163 88
169 164 85
165 160 76
166 161 78
169 164 91
160 156 78
169 164 96
168 162 86
166 160 79
169 164 89
168 164 99
169 163 86
170 166 92
175 173 114
165 161 85
170 166 93
170 166 96
173 169 108
175 171 106
170 165 86
173 168 97
175 172 113
173 168 99
175 172 112
172 168 107
175 169 105
175 172 112
178 176 122
173 168 101
178 173 111
169 166 94
176 173 119
174 170 104
176 173 116
174 170 112
177 173 108
173 170 108
176 172 112
180 178 126
173 170 105
178 175 124
178 175 119
177 175 119
177 174 113
179 177 124
173 170 108
183 181 138
179 176 126
174 171 113
179 177 128
176 174 116
177 174 118
176 174 118
178 175 121
176 172 117
178 175 124
184 184 144
217 233 255
217 233 255
217 233 255
217 233 255
217 233 255
217 233 255
217 233 255
217 233 255
217 233 255
217 233 255
217 233 255
217 233 255
217 233 255
217 233 255
217 233 255
217 233 255
217 233 255
217 233 255
217 233 255
217 233 255
217 233 255
217 233 255
217 233 255
217 233 255
217 233 255
217 233 255
217 233 255
217 233 255
217 233 255
217 233 255
217 233 255
217 233 255
217 233 255
217 233 255
217 233 255
217 233 255
217 233 255
217 233 255
217 233 255
217 233 255
217 233 255
217 233 255
217 233 255
217 233 255
217 233 255
217 233 255
217 233 255
217 233 255
217 233 255
217 233 255
217 233 255
217 233 255
217 233 255
217 233 255
217 233 255
217 233 255
217 233 255
217 233 255
217 233 255
217 233 255
217 233 255
217 233 255
217 233 255
217 233 255
217 233 255
217 233 255
217 233 255
217 233 255
217 233 255
217 233 255
217 233 255
217 233 255
217 233 255
217 233 255
217 233 255
217 233 255
217 233 255
217 233 255
217 233 255
217 233 255
217 233 255
217 233 255
217 233 255
217 233 255
217 233 255
217 233 255
217 233 255
217 233 255
217 233 255
217 233 255
217 233 255
217 233 255
217 233 255
217 233 255
217 233 255
217 233 255
217 233 255
217 233 255
217 233 255
217 233 255
217 233 255
217 233 255
217 233 255
217 233 255
217 233 255
217 233 255
217 233 255
217 233 255
216 233 255
216 233 255
216 233 255
216 233 255
216 233 255
216 233 255
216 233 255
216 233 255
216 233 255
216 233 255
216 232 255
216 232 255
216 232 255
215 232 255
215 232 255
215 232 255
215 232 255
215 232 255
215 232 255
215 232 255
214 232 255
214 232 255
214 232 255
214 231 255
214 231 255
213 231 255
213 231 255
213 231 255
213 231 255
212 231 255
212 230 255
212 230 255
211 230 255
210 230 255
210 229 255
209 229 255
208 228 255
185 207 137
172 196 0
173 197 0
173 196 0
174 198 0
173 197 0
141 165 74
59 93 129
59 93 122
58 92 114
61 95 142
59 92 128
58 92 114
59 93 128
59 93 121
58 91 117
58 91 120
60 94 126
61 95 126
59 92 111
60 94 129
59 93 115
57 90 118
57 90 118
58 92 114
58 92 125
61 95 130
59 93 121
60 94 137
57 90 115
59 93 126
59 93 126
57 89 118
58 92 118
59 93 133
60 93 131
59 92 122
58 91 108
59 93 118
58 91 113
58 92 117
59 93 120
59 92 121
58 91 125
59 92 122
57 91 114
58 92 118
60 94 130
59 93 122
58 92 121
60 94 131
58 91 111
59 92 126
59 93 124
60 94 128
59 92 126
58 92 120
58 92 121
57 90 105
59 93 118
59 93 126
58 91 115
59 93 117
58 92 121
58 92 118
58 91 121
59 92 120
59 92 124
58 91 113
58 91 118
59 92 128
58 92 124
58 92 125
58 91 114
58 91 119
55 87 102
56 88 107
59 93 124
57 90 114
57 90 123
57 90 114
58 91 121
56 88 110
56 89 107
58 91 124
57 89 117
56 89 107
56 88 101
58 90 124
57 89 114
57 90 117
56 87 99
57 89 107
54 84 98
56 87 110
55 85 104
54 83 110
57 87 115
54 83 100
53 82 100
54 83 95
50 76 83
52 78 80
144 166 45
173 197 0
173 196 0
174 198 0
174 197 0
173 196 0
179 194 108
168 173 164
168 173 162
150 156 148
152 158 150
158 166 162
126 131 114
151 157 151
134 141 134
131 138 130
112 117 98
130 136 118
130 136 121
105 109 85
125 129 109
123 128 106
124 128 97
124 127 99
129 132 101
107 112 84
128 133 105
120 123 88
126 129 101
141 143 107
134 135 95
134 134 82
130 129 77
139 141 97
131 132 91
128 128 75
127 126 59
131 133 85
127 128 69
148 146 96
141 139 80
135 135 81
138 138 86
141 140 85
140 138 82
149 146 77
145 143 79
147 145 72
149 144 69
145 144 88
135 133 62
148 145 65
144 141 59
157 153 81
152 150 95
154 150 79
155 150 72
156 152 83
157 152 80
150 146 66
157 151 70
154 151 73
156 152 72
151 146 62
154 150 74
151 147 66
157 151 57
165 159 92
155 150 68
161 156 73
163 158 78
159 155 76
158 154 72
160 154 64
159 153 58
165 159 77
160 154 66
163 158 77
165 159 72
165 161 89
165 160 80
168 163 93
163 159 77
164 158 74
164 158 86
169 164 99
166 160 80
170 164 84
168 162 83
165 160 81
166 159 76
164 159 75
169 164 92
164 159 80
174 169 103
164 159 75
168 163 88
163 157 75
167 163 89
171 167 92
168 164 99
166 160 80
170 164 81
173 166 97
168 165 105
168 164 99
165 160 84
172 167 97
171 167 103
168 163 90
171 166 95
172 168 103
175 172 113
171 167 95
171 167 99
175 169 104
167 162 93
172 167 98
171 166 90
171 165 100
175 172 112
173 171 114
175 169 101
171 167 93
175 170 106
177 174 119
175 172 119
173 168 103
172 168 107
174 172 113
173 171 117
181 180 134
174 171 109
177 173 115
177 174 117
180 177 127
177 173 113
173 170 113
179 175 117
179 175 117
177 173 118
181 179 133
176 173 113
182 180 130
175 171 108
172 169 104
179 177 127
182 180 131
182 181 136
181 180 134
182 180 130
176 173 114
217 233 255
217 233 255
217 233 255
217 233 255
217 233 255
217 233 255
217 233 255
217 233 255
217 233 255
217 233 255
217 233 255
217 233 255
217 233 255
217 233 255
217 233 255
217 233 255
217 233 255
217 233 255
217 233 255
217 233 255
217 233 255
217 233 255
217 233 255
217 233 255
217 233 255
217 233 255
217 233 255
217 233 255
217 233 255
217 233 255
217 233 255
217 233 255
217 233 255
217 233 255
217 233 255
217 233 255
217 233 255
217 233 255
217 233 255
217 233 255
217 233 255
217 233 255
217 233 255
217 233 255
217 233 255
217 233 255
217 233 255
217 233 255
217 233 255
217 233 255
217 233 255
217 233 255
217 233 255
217 233 255
217 233 255
217 233 255
217 233 255
217 233 255
217 233 255
217 233 255
217 233 255
217 233 255
217 233 255
217 233 255
217 233 255
217 233 255
217 233 255
217 233 255
217 233 255
217 233 255
217 233 255
217 233 255
217 233 255
217 233 255
217 233 255
217 233 255
217 233 255
217 233 255
217 233 255
217 233 255
217 233 255
217 233 255
217 233 255
217 233 255
217 233 255
217 233 255
217 233 255
217 233 255
217 233 255
217 233 255
217 233 255
217 233 255
217 233 255
217 233 255
217 233 255
217 233 255
217 233 255
217 233 255
217 233 255
217 233 255
217 233 255
217 233 255
216 233 255
216 233 255
216 233 255
216 233 255
216 233 255
216 233 255
216 233 255
216 233 255
216 233 255
216 233 255
216 233 255
216 232 255
216 232 255
216 232 255
216 232 255
215 232 255
215 232 255
215 232 255
215 232 255
215 232 255
215 232 255
215 232 255
215 232 255
215 232 255
214 232 255
214 232 255
214 232 255
214 231 255
214 231 255
213 231 255
213 231 255
213 231 255
213 231 255
212 231 255
212 230 255
212 230 255
211 230 255
211 230 255
210 229 255
210 229 255
209 229 255
208 228 255
201 222 234
176 199 44
173 197 0
173 197 0
173 197 0
175 198 0
175 198 0
173 197 25
74 104 126
60 94 128
59 93 126
60 94 129
58 92 115
59 93 129
61 96 139
57 90 125
58 91 125
59 92 125
58 92 125
60 94 131
61 96 134
58 92 110
60 95 134
58 92 120
59 92 117
58 92 122
60 94 121
57 91 113
58 92 120
59 93 117
57 91 113
59 93 118
57 91 111
60 94 131
58 92 118
58 91 110
58 91 115
58 91 124
59 93 125
59 93 126
57 91 118
58 91 111
59 94 126
57 91 107
58 92 122
59 92 124
56 89 107
58 91 121
58 91 124
60 94 128
59 93 114
59 93 129
60 94 120
58 91 120
58 91 124
58 91 115
58 91 122
59 93 118
58 91 114
58 91 117
56 89 117
58 91 122
58 92 130
61 95 134
56 89 114
57 90 115
59 92 118
58 91 120
58 91 117
59 92 124
59 92 125
58 91 115
57 90 118
60 95 134
58 91 120
57 90 116
57 90 114
58 92 120
57 91 112
59 91 118
57 90 117
56 87 114
59 92 130
58 90 115
57 89 111
57 89 112
58 90 118
55 86 103
57 90 122
58 89 109
56 88 116
57 88 112
56 87 119
57 88 106
56 87 112
56 88 102
55 85 117
56 87 112
56 86 114
54 84 103
54 83 101
50 77 91
53 80 92
69 92 74
174 197 18
173 196 0
175 197 0
172 195 0
175 197 0
174 197 0
177 199 25
168 174 146
160 165 150
157 163 151
149 154 145
148 154 146
137 143 133
133 139 132
140 148 144
138 144 135
144 150 137
122 128 114
131 134 110
125 133 121
126 131 108
141 145 123
120 123 90
132 138 116
129 133 108
125 129 99
132 136 111
136 138 104
129 130 93
129 131 99
131 134 103
129 131 88
132 133 86
127 129 89
133 134 98
141 140 88
140 138 86
140 140 89
136 134 78
137 134 73
138 137 76
139 139 80
140 140 88
145 143 91
151 149 90
147 144 77
144 142 71
148 145 75
145 142 72
149 146 86
153 151 97
146 141 65
153 149 68
155 152 79
154 150 86
158 155 85
151 147 80
150 147 74
158 154 72
153 149 62
152 148 64
155 149 69
160 156 73
153 149 70
162 156 81
152 147 61
160 156 80
161 156 71
161 156 80
160 155 86
159 155 70
158 153 75
160 154 79
163 156 79
154 147 57
156 151 66
161 156 73
158 154 68
162 158 77
163 157 79
162 158 78
162 156 71
161 156 66
170 166 93
163 160 86
167 163 90
165 160 81
157 153 62
163 158 81
163 156 70
161 156 67
160 155 69
162 156 79
160 155 73
162 158 75
164 159 80
163 157 80
170 166 91
170 164 84
171 168 103
169 164 96
168 164 98
170 167 104
171 166 100
171 165 93
166 159 87
171 166 95
167 162 83
170 167 102
168 164 90
177 172 114
175 172 109
170 166 98
173 168 103
170 166 105
170 167 103
172 167 96
172 170 106
173 168 98
175 169 99
178 175 120
165 162 94
169 165 98
176 172 112
172 169 107
175 172 111
169 165 97
173 169 99
177 175 121
173 169 102
180 176 120
176 172 116
174 171 112
176 172 114
177 174 120
181 179 133
182 180 133
173 171 112
177 177 129
178 175 123
175 171 114
182 180 134
176 173 115
183 180 133
178 175 120
179 177 126
179 176 123
172 168 109
178 175 123
187 185 141
179 176 124
181 179 134
216 233 255
216 233 255
216 233 255
216 233 255
216 233 255
216 233 255
216 233 255
216 233 255
217 233 255
216 233 255
217 233 255
217 233 255
217 233 255
217 233 255
217 233 255
217 233 255
217 233 255
217 233 255
217 233 255
217 233 255
217 233 255
217 233 255
217 233 255
217 233 255
217 233 255
217 233 255
217 233 255
217 233 255
217 233 255
217 233 255
217 233 255
217 233 255
217 233 255
217 233 255
217 233 255
217 233 255
217 233 255
217 233 255
217 233 255
217 233 255
217 233 255
217 233 255
217 233 255
217 233 255
217 233 255
217 233 255
217 233 255
217 233 255
217 233 255
217 233 255
217 233 255
217 233 255
217 233 255
217 233 255
217 233 255
217 233 255
217 233 255
217 233 255
217 233 255
217 233 255
217 233 255
217 233 255
217 233 255
217 233 255
217 233 255
217 233 255
217 233 255
217 233 255
217 233 255
217 233 255
217 233 255
217 233 255
217 233 255
217 233 255
217 233 255
217 233 255
217 233 255
217 233 255
217 233 255
217 233 255
217 233 255
217 233 255
217 233 255
217 233 255
217 233 255
217 233 255
217 233 255
217 233 255
217 233 255
217 233 255
217 233 255
217 233 255
217 233 255
217 233 255
216 233 255
216 233 255
216 233 255
216 233 255
216 233 255
216 233 255
216 233 255
216 233 255
216 233 255
216 233 255
216 233 255
216 233 255
216 233 255
216 233 255
216 233 255
216 232 255
216 232 255
216 232 255
216 232 255
215 232 255
215 232 255
215 232 255
215 232 255
215 232 255
215 232 255
215 232 255
215 232 255
215 232 255
214 232 255
214 232 255
214 232 255
214 232 255
214 231 255
214 231 255
214 231 255
213 231 255
213 231 255
213 231 255
213 231 255
212 231 255
212 230 255
212 230 255
211 230 255
211 230 255
210 230 255
210 229 255
209 229 255
209 229 255
208 228 255
207 227 255
186 208 149
173 196 0
176 199 0
173 196 0
174 197 0
174 197 0
172 196 0
173 197 0
129 154 99
59 94 128
60 94 130
59 93 124
61 96 140
57 91 117
59 93 121
57 90 114
58 91 111
59 93 125
58 92 124
59 92 121
60 94 125
58 91 117
58 92 114
59 93 115
59 93 122
58 91 111
60 94 125
57 91 115
59 93 128
57 91 111
58 91 100
59 93 120
58 91 117
59 93 128
58 92 122
58 92 124
59 92 115
58 92 110
58 92 120
58 91 117
58 91 111
58 91 117
60 93 125
59 92 122
58 92 110
58 92 117
59 92 125
58 91 118
57 90 102
57 90 117
58 91 125
58 92 118
58 92 122
56 89 113
58 91 114
58 92 121
58 92 122
59 93 122
59 93 120
59 92 125
60 94 122
55 88 105
58 91 116
59 92 117
56 89 110
59 93 125
58 92 125
59 93 121
59 93 118
58 91 122
57 89 108
59 93 122
57 90 111
59 92 123
58 90 120
59 92 115
59 92 121
57 90 117
56 88 107
56 88 109
57 90 110
57 90 108
58 91 116
59 92 124
57 89 126
58 90 117
56 88 116
55 86 107
56 87 109
53 83 95
57 88 112
56 89 115
55 85 112
56 87 111
55 85 94
55 85 104
56 87 117
54 84 105
54 83 98
54 82 102
54 83 99
53 81 100
53 81 98
123 145 68
174 198 0
176 198 0
174 197 0
174 197 0
172 195 0
173 197 0
172 195 0
172 189 88
177 183 173
159 164 154
166 171 157
157 162 149
153 159 155
133 139 128
142 147 139
140 146 137
134 138 115
124 130 119
138 143 125
134 139 125
134 139 127
138 142 119
127 131 101
129 134 118
133 139 125
126 129 97
132 135 113
142 145 121
128 129 92
140 143 113
131 133 92
137 138 103
127 127 68
135 136 97
128 127 64
133 134 91
140 140 88
141 140 97
144 143 90
131 128 56
139 138 84
130 130 69
142 142 88
144 139 67
141 140 76
138 138 81
144 141 77
152 150 91
142 138 64
145 141 72
143 141 67
160 155 77
140 136 66
151 148 75
148 145 80
145 141 66
152 148 73
160 155 83
152 149 79
154 150 80
155 151 71
158 153 69
150 146 72
152 149 74
150 146 64
158 154 83
161 159 85
158 153 64
160 155 78
163 160 83
160 154 73
158 153 60
155 151 62
165 160 86
160 155 69
153 148 60
165 161 86
164 159 79
164 158 86
162 156 72
163 157 67
162 156 78
165 160 94
169 165 99
168 163 95
162 157 72
168 163 84
166 161 82
167 163 86
164 159 76
159 155 76
168 161 83
171 164 84
167 162 85
167 161 85
166 162 93
170 165 88
171 166 91
164 159 82
169 165 90
167 161 87
166 161 74
168 161 80
170 168 111
175 170 104
165 160 75
170 165 93
171 166 91
168 164 97
170 166 93
165 159 80
171 168 106
176 171 108
165 161 80
170 164 90
169 165 94
169 164 88
169 166 99
177 173 115
172 169 102
170 165 93
173 169 104
169 165 95
176 172 111
173 167 101
177 174 119
164 159 75
171 167 95
174 170 105
176 172 112
184 181 132
175 172 109
173 169 103
171 168 97
174 171 115
177 177 128
175 172 118
176 174 123
179 176 125
172 170 110
172 166 90
178 174 121
174 172 113
179 179 133
183 181 133
180 177 121
184 182 134
179 176 126
179 175 124
183 182 137
177 174 116
182 179 130
216 233 255
216 233 255
216 233 255
216 233 255
216 233 255
216 233 255
216 233 255
216 233 255
216 233 255
216 233 255
216 233 255
216 233 255
216 233 255
216 233 255
216 233 255
216 233 255
216 233 255
216 233 255
216 233 255
216 233 255
216 233 255
216 233 255
216 233 255
216 233 255
217 233 255
217 233 255
217 233 255
217 233 255
217 233 255
217 233 255
217 233 255
217 233 255
217 233 255
217 233 255
217 233 255
217 233 255
217 233 255
217 233 255
217 233 255
217 233 255
217 233 255
217 233 255
217 233 255
217 233 255
217 233 255
217 233 255
217 233 255
217 233 255
217 233 255
217 233 255
217 233 255
217 233 255
217 233 255
217 233 255
217 233 255
217 233 255
217 233 255
217 233 255
217 233 255
217 233 255
217 233 255
217 233 255
217 233 255
217 233 255
217 233 255
217 233 255
217 233 255
217 233 255
217 233 255
217 233 255
217 233 255
217 233 255
217 233 255
217 233 255
217 233 255
217 233 255
217 233 255
217 233 255
217 233 255
217 233 255
217 233 255
217 233 255
217 233 255
217 233 255
216 233 255
216 233 255
216 233 255
216 233 255
216 233 255
216 233 255
216 233 255
216 233 255
216 233 255
216 233 255
216 233 255
216 233 255
216 233 255
216 233 255
216 233 255
216 233 255
216 233 255
216 233 255
216 233 255
216 232 255
216 232 255
216 232 255
216 232 255
216 232 255
216 232 255
215 232 255
215 232 255
215 232 255
215 232 255
215 232 255
215 232 255
215 232 255
215 232 255
215 232 255
215 232 255
214 232 255
214 232 255
214 232 255
214 232 255
214 231 255
214 231 255
214 231 255
213 231 255
213 231 255
213 231 255
213 231 255
213 231 255
212 231 255
212 230 255
212 230 255
211 230 255
211 230 255
211 230 255
210 229 255
210 229 255
209 229 255
208 228 255
208 228 255
207 227 255
200 222 233
175 198 51
173 196 0
174 197 0
171 194 0
173 197 0
174 197 0
174 197 0
171 194 0
165 189 40
62 96 129
58 92 124
58 92 122
58 91 125
58 91 118
59 93 126
58 91 117
58 92 124
59 94 126
60 94 121
58 91 115
57 91 120
58 92 117
58 91 122
60 94 128
57 90 111
59 93 122
59 92 121
59 93 126
58 91 118
58 92 113
57 90 117
58 91 122
57 91 107
58 91 121
58 92 122
56 89 107
59 93 118
59 92 117
58 92 115
59 93 124
60 94 125
57 91 108
58 92 108
57 90 117
58 92 122
58 91 102
58 92 118
57 91 110
56 89 111
59 94 118
59 92 124
57 90 97
57 90 114
58 91 111
57 89 108
59 93 114
58 91 108
58 91 118
59 92 122
59 93 129
57 90 110
58 92 101
58 92 118
59 93 117
58 91 125
57 90 111
58 92 126
58 92 128
58 91 125
59 93 125
59 93 124
57 90 111
58 90 120
59 92 126
57 90 114
57 90 108
57 90 108
57 90 113
56 88 107
57 88 115
57 89 101
58 90 115
58 91 113
58 91 123
57 90 117
56 88 113
54 85 110
57 88 110
55 85 106
58 90 124
54 85 96
56 86 100
57 89 112
57 90 114
56 87 114
55 86 108
56 86 101
56 86 103
54 84 109
53 82 95
52 80 93
52 81 88
53 77 71
161 184 36
172 195 0
174 197 0
171 195 0
172 196 0
174 196 0
174 197 0
173 196 0
173 197 25
181 190 164
168 173 158
161 167 160
160 167 159
145 150 141
147 152 140
130 137 132
141 147 142
151 156 141
133 138 125
135 139 122
126 130 105
136 142 126
136 140 119
128 133 111
123 126 105
125 129 97
114 118 90
127 130 100
128 132 98
117 118 69
127 130 98
131 130 85
132 134 92
137 139 105
142 144 103
150 149 98
134 135 87
143 142 97
124 123 56
133 132 83
143 144 94
139 137 81
140 138 67
142 141 80
151 150 98
147 144 83
148 145 85
143 140 66
145 142 71
138 137 77
143 140 68
142 140 72
153 151 96
158 155 86
147 145 75
142 140 61
148 144 65
156 154 87
157 153 84
155 151 71
155 151 70
155 151 72
155 151 86
147 144 66
151 147 62
154 150 75
156 152 73
159 152 76
157 151 74
160 154 73
161 155 80
160 155 71
161 156 74
159 154 73
160 155 70
165 161 91
163 157 74
159 154 82
164 158 79
166 161 87
171 165 87
161 155 73
164 159 79
167 161 90
160 155 64
162 158 82
171 166 97
163 157 72
168 163 87
163 158 79
169 163 87
168 163 91
168 164 92
167 163 88
163 157 64
162 159 84
166 162 87
164 160 79
172 165 85
168 162 89
168 164 101
177 173 117
174 170 110
165 161 95
164 157 68
177 172 109
169 164 92
166 162 92
172 168 103
170 166 93
166 161 80
171 166 99
168 165 99
173 169 105
170 167 103
165 161 91
173 169 108
168 163 91
174 170 109
167 163 99
171 167 101
176 172 112
171 169 118
169 166 94
172 167 101
172 171 115
169 166 104
166 161 84
175 172 111
177 174 118
177 173 114
176 173 115
177 175 119
177 174 117
179 177 126
172 170 108
179 175 125
176 174 117
177 174 122
173 168 98
175 172 116
182 182 137
176 174 118
179 178 131
173 169 105
178 176 128
177 175 122
177 174 123
175 172 118
175 172 112
177 175 121
181 180 132
179 176 125
216 232 255
216 232 255
216 233 255
216 233 255
216 233 255
216 233 255
216 233 255
216 233 255
216 233 255
216 233 255
216 233 255
216 233 255
216 233 255
216 233 255
216 233 255
216 233 255
216 233 255
216 233 255
216 233 255
216 233 255
216 233 255
216 233 255
216 233 255
216 233 255
216 233 255
216 233 255
216 233 255
216 233 255
216 233 255
216 233 255
216 233 255
216 233 255
216 233 255
216 233 255
216 233 255
216 233 255
216 233 255
216 233 255
216 233 255
216 233 255
216 233 255
216 233 255
216 233 255
216 233 255
216 233 255
216 233 255
216 233 255
216 233 255
216 233 255
216 233 255
216 233 255
217 233 255
216 233 255
216 233 255
217 233 255
217 233 255
216 233 255
217 233 255
217 233 255
216 233 255
217 233 255
216 233 255
217 233 255
216 233 255
216 233 255
216 233 255
216 233 255
216 233 255
216 233 255
216 233 255
216 233 255
216 233 255
216 233 255
216 233 255
216 233 255
216 233 255
216 233 255
216 233 255
216 233 255
216 233 255
216 233 255
216 233 255
216 233 255
216 233 255
216 233 255
216 233 255
216 233 255
216 233 255
216 233 255
216 233 255
216 233 255
216 233 255
216 233 255
216 233 255
216 233 255
216 233 255
216 233 255
216 232 255
216 232 255
216 232 255
216 232 255
216 232 255
216 232 255
215 232 255
215 232 255
215 232 255
215 232 255
215 232 255
215 232 255
215 232 255
215 232 255
215 232 255
215 232 255
215 232 255
215 232 255
215 232 255
214 232 255
214 232 255
214 232 255
214 232 255
214 231 255
214 231 255
214 231 255
213 231 255
213 231 255
213 231 255
213 231 255
213 231 255
212 231 255
212 231 255
212 230 255
212 230 255
211 230 255
211 230 255
211 230 255
210 229 255
210 229 255
209 229 255
209 229 255
208 228 255
207 228 255
206 227 255
205 227 255
185 208 153
173 197 0
171 196 0
173 197 0
174 197 0
172 196 0
173 196 0
173 196 0
172 195 0
174 197 0
113 138 97
59 92 124
59 93 130
58 92 121
58 92 115
60 94 126
59 93 125
59 93 131
58 91 126
59 92 120
58 91 117
59 93 128
57 90 111
56 88 108
57 91 113
59 93 124
59 92 117
57 90 97
59 93 124
60 94 120
57 91 118
56 89 107
57 90 107
58 92 118
59 93 125
58 91 114
57 90 108
58 92 122
58 92 113
57 90 114
59 93 122
57 91 124
59 93 128
59 93 130
58 92 111
57 90 105
57 90 114
58 92 113
57 90 110
58 91 117
58 91 114
58 92 105
57 90 115
58 91 107
57 91 126
57 90 105
59 92 126
57 90 118
58 92 121
59 94 118
59 93 125
57 91 117
56 89 118
59 93 121
58 91 114
58 92 115
59 92 125
57 89 116
58 91 118
57 91 113
57 90 115
57 90 107
59 93 129
59 92 120
58 90 120
58 91 116
55 87 96
56 88 107
58 91 116
56 88 101
57 90 116
56 88 107
56 87 110
56 87 106
58 91 117
57 89 118
56 88 114
58 91 115
55 85 98
55 86 100
55 86 103
59 91 125
55 87 104
57 89 113
54 84 99
56 87 105
54 83 98
56 87 104
55 84 108
52 80 102
54 84 97
54 82 94
51 78 79
117 138 71
172 195 0
170 193 0
171 194 0
172 195 0
170 193 0
172 195 0
172 195 0
173 196 0
173 196 0
180 196 117
176 182 171
162 167 153
165 170 159
165 170 159
154 159 148
157 163 151
150 155 142
144 148 132
130 135 115
140 145 124
140 145 129
131 136 122
130 135 114
135 140 121
124 128 103
116 119 88
130 133 102
126 131 106
136 138 111
135 137 101
129 133 104
131 132 90
131 133 94
116 118 75
139 140 102
138 140 103
136 138 102
151 149 100
141 140 86
136 134 75
129 127 76
145 145 90
144 143 85
149 148 102
148 146 90
142 140 83
143 142 82
137 134 70
149 147 78
140 137 69
149 147 83
154 152 74
141 138 73
153 150 80
151 145 63
156 153 87
146 143 77
154 153 108
154 151 79
154 150 74
160 157 82
152 147 58
149 145 67
157 152 66
159 155 89
148 142 60
156 152 74
156 151 71
159 155 75
161 157 77
161 158 87
158 153 78
159 155 72
156 151 69
165 159 87
156 152 78
161 155 76
157 151 58
151 145 54
164 158 77
159 153 68
160 155 68
165 160 88
167 163 87
161 155 77
163 159 87
167 162 85
162 157 84
164 160 82
166 162 88
162 156 67
164 159 84
165 160 76
162 157 77
164 160 79
173 168 101
167 163 97
170 167 104
165 161 94
168 164 93
170 168 109
163 159 89
168 163 88
168 163 84
171 166 95
170 165 102
172 167 108
168 164 92
164 159 87
170 165 96
170 166 97
172 167 104
172 169 109
172 166 93
170 165 93
175 172 110
170 165 93
171 166 95
176 172 113
172 169 107
174 170 109
174 172 116
169 166 96
174 171 110
172 170 117
172 170 114
175 172 112
168 164 100
175 172 116
178 175 122
174 173 116
172 167 105
174 169 107
175 172 113
174 173 112
171 166 101
176 175 120
177 175 121
179 177 126
171 169 109
180 179 135
184 184 142
179 178 131
177 172 115
176 174 121
176 172 114
184 181 132
176 171 106
172 169 104
178 178 131
180 179 134
183 182 139
182 180 132
215 232 255
215 232 255
216 232 255
216 232 255
216 232 255
216 232 255
216 232 255
216 232 255
216 232 255
216 232 255
216 232 255
216 232 255
216 232 255
216 232 255
216 232 255
216 233 255
216 233 255
216 233 255
216 233 255
216 233 255
216 233 255
216 233 255
216 233 255
216 233 255
216 233 255
216 233 255
216 233 255
216 233 255
216 233 255
216 233 255
216 233 255
216 233 255
216 233 255
216 233 255
216 233 255
216 233 255
216 233 255
216 233 255
216 233 255
216 233 255
216 233 255
216 233 255
216 233 255
216 233 255
216 233 255
216 233 255
216 233 255
216 233 255
216 233 255
216 233 255
216 233 255
216 233 255
216 233 255
216 233 255
216 233 255
216 233 255
216 233 255
216 233 255
216 233 255
216 233 255
216 233 255
216 233 255
216 233 255
216 233 255
216 233 255
216 233 255
216 233 255
216 233 255
216 233 255
216 233 255
216 233 255
216 233 255
216 233 255
216 233 255
216 233 255
216 233 255
216 233 255
216 233 255
216 233 255
216 233 255
216 233 255
216 233 255
216 233 255
216 233 255
216 233 255
216 233 255
216 233 255
216 233 255
216 233 255
216 232 255
216 232 255
216 232 255
216 232 255
216 232 255
216 232 255
216 232 255
216 232 255
215 232 255
215 232 255
215 232 255
215 232 255
215 232 255
215 232 255
215 232 255
215 232 255
215 232 255
215 232 255
215 232 255
215 232 255
215 232 255
215 232 255
215 232 255
214 232 255
214 232 255
214 232 255
214 232 255
214 231 255
214 231 255
214 231 255
214 231 255
213 231 255
213 231 255
213 231 255
213 231 255
213 231 255
213 231 255
212 231 255
212 230 255
212 230 255
212 230 255
211 230 255
211 230 255
211 230 255
210 229 255
210 229 255
209 229 255
209 229 255
208 228 255
208 228 255
207 228 255
206 227 255
205 227 255
197 220 223
172 196 25
172 196 0
173 196 0
172 196 0
172 196 0
173 196 0
175 198 0
173 196 0
171 195 0
173 197 0
151 174 57
59 93 130
56 89 111
58 92 117
59 93 133
59 93 124
60 95 131
59 93 120
59 92 121
60 94 122
60 93 120
58 91 115
57 91 110
57 90 108
56 89 103
58 92 115
57 90 113
58 91 115
56 89 111
59 92 121
58 92 122
59 92 122
58 92 114
58 91 107
59 93 120
57 90 115
57 90 99
57 90 107
55 87 97
58 91 113
59 93 122
57 90 111
56 89 113
56 89 108
58 91 117
56 90 107
59 92 115
59 93 122
58 91 121
58 92 120
59 93 115
59 92 124
57 91 111
57 90 117
59 93 115
58 91 113
57 90 113
57 91 126
57 90 117
56 89 107
55 87 99
56 89 103
57 90 105
59 93 122
59 93 126
58 91 108
57 91 111
59 93 116
58 91 125
56 88 106
57 90 118
57 89 103
56 89 103
58 91 118
57 89 107
55 87 113
56 89 99
58 91 104
55 87 102
56 89 107
56 88 105
58 90 112
57 90 113
58 91 122
58 91 110
56 89 101
57 89 104
57 90 107
56 88 110
57 91 117
59 91 123
56 87 102
55 85 104
57 90 120
56 86 105
55 84 109
57 88 108
52 82 82
55 84 100
53 82 98
52 80 85
50 77 69
49 74 81
156 179 45
172 196 0
172 195 0
171 195 0
171 194 0
170 194 0
172 196 0
172 196 0
172 195 0
174 197 0
171 194 25
181 191 156
168 170 151
163 168 159
159 165 159
148 153 143
145 150 136
144 148 134
133 139 121
138 142 125
136 141 130
140 146 131
131 134 113
138 142 124
129 131 104
144 150 136
134 137 109
131 135 101
136 140 103
138 140 107
133 136 103
129 130 88
131 133 96
136 136 78
123 127 85
135 137 101
129 130 85
129 130 88
138 139 95
139 139 91
143 141 89
137 135 69
135 134 71
155 154 101
140 140 89
146 144 86
145 145 97
137 134 65
145 144 83
142 140 74
145 142 75
148 144 71
150 147 87
142 138 63
148 145 83
147 142 64
157 153 78
155 150 62
148 144 72
154 149 71
151 146 74
156 153 76
150 148 75
152 148 69
155 152 77
159 155 81
158 153 62
146 143 66
151 149 69
151 147 68
152 146 53
160 154 76
158 155 83
163 159 69
156 153 79
164 158 78
162 157 79
159 154 73
163 159 84
159 153 74
158 153 61
164 159 85
163 157 76
161 157 82
163 158 81
165 161 84
163 157 73
168 164 91
159 154 68
166 160 73
163 160 81
161 157 79
171 167 101
166 161 82
162 157 74
171 166 95
165 159 74
168 163 90
169 162 84
168 165 95
169 163 86
173 168 97
167 162 87
166 162 84
165 161 90
168 164 84
167 162 87
165 161 87
170 165 95
164 160 85
173 170 103
170 167 103
167 161 87
175 169 104
167 163 95
171 167 99
166 163 89
172 168 106
170 166 93
170 165 99
172 166 97
173 169 101
174 172 115
175 171 110
178 175 117
175 170 106
176 173 113
170 167 103
174 170 108
170 167 104
169 165 95
170 166 100
181 178 128
177 175 120
175 172 117
174 170 109
174 171 109
174 172 113
172 168 103
174 172 110
178 176 122
173 171 109
177 173 116
179 177 123
177 172 116
179 177 128
177 176 121
179 176 125
179 176 125
180 178 130
182 181 134
182 181 135
184 184 145
177 174 121
215 232 255
215 232 255
215 232 255
215 232 255
215 232 255
215 232 255
215 232 255
215 232 255
215 232 255
215 232 255
215 232 255
215 232 255
215 232 255
216 232 255
216 232 255
216 232 255
216 232 255
216 232 255
216 232 255
216 232 255
216 232 255
216 232 255
216 232 255
216 232 255
216 232 255
216 232 255
216 232 255
216 232 255
216 232 255
216 232 255
216 233 255
216 233 255
216 233 255
216 233 255
216 233 255
216 233 255
216 233 255
216 233 255
216 233 255
216 233 255
216 233 255
216 233 255
216 233 255
216 233 255
216 233 255
216 233 255
216 233 255
216 233 255
216 233 255
216 233 255
216 233 255
216 233 255
216 233 255
216 233 255
216 233 255
216 233 255
216 233 255
216 233 255
216 233 255
216 233 255
216 233 255
216 233 255
216 233 255
216 233 255
216 233 255
216 233 255
216 233 255
216 233 255
216 233 255
216 233 255
216 233 255
216 233 255
216 233 255
216 233 255
216 233 255
216 233 255
216 233 255
216 232 255
216 232 255
216 232 255
216 232 255
216 232 255
216 232 255
216 232 255
216 232 255
216 232 255
216 232 255
216 232 255
216 232 255
216 232 255
215 232 255
215 232 255
215 232 255
215 232 255
215 232 255
215 232 255
215 232 255
215 232 255
215 232 255
215 232 255
215 232 255
215 232 255
215 232 255
215 232 255
215 232 255
215 232 255
215 232 255
215 232 255
214 232 255
214 232 255
214 232 255
214 232 255
214 232 255
214 231 255
214 231 255
214 231 255
214 231 255
213 231 255
213 231 255
213 231 255
213 231 255
213 231 255
213 231 255
212 231 255
212 231 255
212 230 255
212 230 255
212 230 255
211 230 255
211 230 255
211 230 255
210 229 255
210 229 255
210 229 255
209 229 255
209 229 255
208 228 255
207 228 255
207 228 255
206 227 255
205 226 255
203 225 254
180 203 105
175 198 0
173 196 0
172 195 0
174 197 0
170 194 0
174 197 0
173 196 0
174 197 0
175 197 0
174 197 0
171 195 0
121 145 86
59 93 126
58 92 121
58 91 108
56 88 110
56 89 107
59 93 118
58 91 121
57 90 110
57 91 117
57 90 117
59 92 117
58 92 115
58 91 118
57 90 111
58 92 115
58 91 111
59 92 118
57 90 120
58 92 115
58 91 111
59 93 126
60 94 122
59 93 128
57 90 113
59 93 115
58 91 118
58 91 114
57 90 105
57 90 118
57 91 115
56 89 114
57 90 113
58 91 108
57 90 110
58 91 113
57 91 111
56 89 107
58 91 117
56 89 118
57 90 108
55 88 108
57 90 117
59 94 131
59 93 122
58 91 107
57 90 120
56 89 117
59 93 122
57 89 111
59 92 114
60 94 130
57 90 111
59 93 121
57 90 113
59 93 118
57 91 118
58 91 115
56 88 105
57 89 111
59 93 126
57 90 108
57 89 107
59 93 124
56 89 113
58 90 110
58 91 105
56 88 108
58 91 110
59 92 124
57 89 111
59 92 120
56 87 98
58 90 113
55 87 107
57 90 117
56 88 108
57 89 106
56 87 105
56 88 112
55 85 95
55 86 107
57 89 118
53 83 97
52 81 91
53 82 92
52 80 96
53 82 91
53 82 94
53 81 87
51 78 83
109 131 73
173 196 0
172 195 0
173 195 0
172 195 0
171 193 0
170 193 0
173 196 0
172 195 0
169 192 0
173 196 0
169 193 0
172 194 68
180 184 176
164 169 157
169 175 167
157 162 147
162 167 155
156 161 150
156 163 154
130 135 115
136 142 127
141 146 128
128 132 110
136 140 122
123 127 103
135 137 101
131 136 116
126 129 101
140 143 112
134 135 106
139 142 117
134 137 105
132 134 96
137 138 104
146 148 118
137 137 87
136 136 82
129 129 87
139 139 87
134 135 89
147 146 100
146 145 93
133 133 76
139 137 75
140 138 83
140 140 85
141 140 92
145 143 86
138 137 78
143 141 80
150 149 88
150 148 80
143 142 73
155 150 82
143 140 67
153 149 84
145 142 71
142 139 57
145 140 71
149 146 70
156 152 74
153 148 75
151 148 79
152 150 73
159 155 86
156 152 79
156 153 87
156 151 73
153 148 64
151 146 65
156 151 77
154 151 69
154 149 69
160 155 72
160 154 68
161 156 80
152 146 49
161 156 80
159 154 75
169 164 97
165 160 82
159 155 78
159 153 70
157 153 80
167 162 90
159 153 66
159 155 69
161 156 70
162 157 78
166 162 97
163 158 79
167 162 91
167 162 87
165 161 82
165 160 85
164 159 80
161 156 73
167 163 93
167 161 72
169 165 99
169 164 101
163 160 97
166 162 96
173 170 108
168 161 80
166 160 74
171 168 100
164 158 73
165 161 94
168 164 98
167 164 91
172 169 111
173 169 103
168 162 83
177 174 125
170 165 99
167 162 87
175 173 112
177 174 115
171 165 93
169 166 104
175 171 112
173 170 108
168 163 91
175 171 108
173 170 108
171 167 97
171 167 108
175 173 116
176 172 117
173 169 109
169 166 108
172 170 110
178 176 127
179 177 121
178 175 122
177 173 116
175 175 122
172 168 101
176 173 112
175 174 121
177 175 121
180 179 132
179 177 126
176 173 113
176 174 121
181 178 128
176 174 115
181 179 130
174 171 116
181 181 141
180 178 130
183 181 133
180 180 136
215 232 255
215 232 255
215 232 255
215 232 255
215 232 255
215 232 255
215 232 255
215 232 255
215 232 255
215 232 255
215 232 255
215 232 255
215 232 255
215 232 255
215 232 255
215 232 255
215 232 255
215 232 255
215 232 255
215 232 255
215 232 255
215 232 255
215 232 255
215 232 255
215 232 255
215 232 255
215 232 255
215 232 255
216 232 255
216 232 255
216 232 255
216 232 255
216 232 255
216 232 255
216 232 255
216 232 255
216 232 255
216 232 255
216 232 255
216 232 255
216 232 255
216 232 255
216 232 255
216 232 255
216 232 255
216 232 255
216 232 255
216 232 255
216 232 255
216 232 255
216 232 255
216 232 255
216 232 255
216 232 255
216 232 255
216 232 255
216 232 255
216 232 255
216 232 255
216 232 255
216 232 255
216 232 255
216 232 255
216 232 255
216 232 255
216 232 255
216 232 255
216 232 255
216 232 255
216 232 255
216 232 255
216 232 255
216 232 255
216 232 255
216 232 255
216 232 255
216 232 255
216 232 255
216 232 255
215 232 255
215 232 255
215 232 255
215 232 255
215 232 255
215 232 255
215 232 255
215 232 255
215 232 255
215 232 255
215 232 255
215 232 255
215 232 255
215 232 255
215 232 255
215 232 255
215 232 255
215 232 255
215 232 255
215 232 255
215 232 255
215 232 255
215 232 255
215 232 255
214 232 255
214 232 255
214 232 255
214 232 255
214 232 255
214 232 255
214 231 255
214 231 255
214 231 255
214 231 255
214 231 255
213 231 255
213 231 255
213 231 255
213 231 255
213 231 255
213 231 255
213 231 255
212 231 255
212 230 255
212 230 255
212 230 255
211 230 255
211 230 255
211 230 255
211 230 255
210 230 255
210 229 255
210 229 255
209 229 255
209 229 255
208 228 255
208 228 255
207 228 255
206 227 255
206 227 255
205 226 255
203 226 255
192 215 201
171 194 0
170 194 0
171 194 0
169 193 0
173 196 0
171 194 0
172 195 0
172 195 0
170 195 0
171 193 0
174 198 0
174 197 0
158 181 51
62 93 118
59 94 126
59 93 124
56 89 103
58 91 120
57 90 113
57 90 117
57 91 121
58 92 120
56 89 113
58 90 117
58 91 117
58 92 122
57 90 111
59 93 125
57 91 113
57 91 111
59 92 114
57 91 113
56 90 108
59 93 121
56 89 110
56 88 103
58 91 121
58 92 117
58 92 113
56 89 103
57 90 111
57 90 111
58 91 115
58 92 115
58 91 115
58 91 108
58 92 118
57 91 113
55 87 103
58 92 110
57 91 115
56 89 111
55 88 107
57 91 113
58 92 118
57 89 108
56 88 102
58 92 120
58 92 117
57 90 115
56 89 110
58 91 122
58 92 117
57 89 99
58 91 110
56 89 113
57 90 116
58 91 114
56 90 114
56 89 102
58 90 120
57 90 114
56 88 105
57 90 107
57 90 101
55 87 105
57 89 114
60 93 130
58 91 122
56 88 105
56 88 108
57 90 110
57 89 107
57 89 102
56 89 107
55 86 98
55 86 110
57 89 110
57 88 107
56 88 113
56 88 110
56 87 105
58 89 113
54 85 97
54 84 101
53 82 92
51 81 93
54 84 105
54 83 98
50 78 89
53 82 91
51 78 90
54 79 82
154 177 18
170 193 0
170 194 0
173 195 0
168 191 0
168 192 0
171 193 0
167 190 0
171 194 0
166 190 0
171 193 0
169 191 0
170 193 0
174 189 118
171 175 160
171 177 173
164 169 154
159 163 147
138 142 125
150 154 138
146 150 131
136 141 129
147 150 126
137 142 121
139 144 127
133 139 123
130 133 107
133 135 109
132 136 114
136 140 122
146 151 135
136 137 95
140 142 114
130 131 84
130 132 96
144 142 92
134 135 94
140 142 99
126 125 79
136 136 83
141 141 96
138 140 110
147 148 104
145 145 97
140 138 79
133 132 70
141 140 83
159 156 90
146 145 86
143 141 81
149 147 89
147 145 89
140 140 79
146 144 75
147 145 82
154 153 98
155 152 89
153 150 84
151 147 66
145 143 73
153 150 78
152 148 73
150 146 79
146 143 67
155 152 75
156 153 77
155 150 75
151 145 58
156 153 80
159 155 90
158 154 73
152 149 60
159 156 80
161 156 82
161 157 89
156 151 57
160 156 84
163 160 98
154 149 67
159 154 79
158 153 67
157 153 65
159 154 73
166 163 94
165 160 91
155 151 59
168 164 98
163 158 86
168 163 91
162 159 74
165 161 82
165 162 84
163 157 86
166 161 89
170 166 97
168 165 97
167 164 89
167 162 82
162 159 79
160 155 75
167 162 85
163 159 80
161 157 77
164 160 84
167 163 93
170 166 97
170 168 103
166 161 85
169 166 108
171 166 96
167 164 101
169 165 99
169 166 101
175 171 112
171 167 98
170 167 98
170 165 95
175 173 123
176 172 110
169 166 101
167 165 105
172 167 104
170 168 103
174 171 112
172 169 110
172 168 104
175 172 112
164 160 82
176 174 127
171 168 103
173 169 104
174 172 112
177 174 119
169 167 105
170 167 104
181 179 132
172 169 112
175 172 118
168 166 101
173 170 110
178 175 125
178 175 120
173 169 107
177 175 116
181 178 127
180 176 123
183 182 138
173 171 115
173 171 122
173 173 124
180 177 126
177 176 134
177 175 124
179 178 134
179 177 129
215 232 255
215 232 255
215 232 255
215 232 255
215 232 255
215 232 255
215 232 255
215 232 255
215 232 255
215 232 255
215 232 255
215 232 255
215 232 255
215 232 255
215 232 255
215 232 255
215 232 255
215 232 255
215 232 255
215 232 255
215 232 255
215 232 255
215 232 255
215 232 255
215 232 255
215 232 255
215 232 255
215 232 255
215 232 255
215 232 255
215 232 255
215 232 255
215 232 255
215 232 255
215 232 255
215 232 255
215 232 255
215 232 255
215 232 255
215 232 255
215 232 255
215 232 255
215 232 255
215 232 255
215 232 255
215 232 255
215 232 255
215 232 255
215 232 255
215 232 255
215 232 255
215 232 255
215 232 255
215 232 255
215 232 255
215 232 255
215 232 255
215 232 255
215 232 255
215 232 255
215 232 255
215 232 255
215 232 255
215 232 255
215 232 255
215 232 255
215 232 255
215 232 255
215 232 255
215 232 255
215 232 255
215 232 255
215 232 255
215 232 255
215 232 255
215 232 255
215 232 255
215 232 255
215 232 255
215 232 255
215 232 255
215 232 255
215 232 255
215 232 255
215 232 255
215 232 255
215 232 255
215 232 255
215 232 255
215 232 255
215 232 255
215 232 255
215 232 255
215 232 255
215 232 255
215 232 255
215 232 255
215 232 255
214 232 255
214 232 255
214 232 255
214 232 255
214 232 255
214 232 255
214 231 255
214 231 255
214 231 255
214 231 255
214 231 255
214 231 255
213 231 255
213 231 255
213 231 255
213 231 255
213 231 255
213 231 255
213 231 255
213 231 255
212 231 255
212 230 255
212 230 255
212 230 255
212 230 255
211 230 255
211 230 255
211 230 255
211 230 255
210 229 255
210 229 255
210 229 255
209 229 255
209 229 255
208 228 255
208 228 255
207 228 255
207 228 255
206 227 255
205 227 255
204 226 255
203 226 255
198 221 236
173 196 25
171 194 0
173 197 0
173 196 0
168 192 0
172 196 0
173 195 0
170 193 0
172 195 0
171 194 0
171 194 0
171 193 0
170 195 0
172 195 0
136 159 76
56 90 111
58 91 117
56 89 114
58 91 117
57 90 111
57 89 113
58 91 100
57 90 115
57 91 117
55 87 95
57 90 108
58 91 113
56 89 110
56 89 110
58 91 114
57 91 108
58 91 115
58 91 115
58 91 115
58 91 103
56 89 103
56 89 100
58 91 110
57 90 114
56 89 115
58 92 124
56 89 110
56 89 107
57 90 110
56 89 111
55 88 100
59 93 126
55 87 95
57 90 102
56 88 103
58 92 120
57 90 114
58 92 122
59 92 125
57 91 111
59 92 115
56 88 102
57 90 111
58 91 124
56 89 120
57 90 110
57 89 111
55 88 97
54 86 99
59 92 122
58 91 111
58 92 120
57 90 125
58 91 114
56 89 107
55 87 90
55 87 118
55 86 99
56 89 110
58 90 115
57 89 115
57 90 111
54 85 99
54 86 100
58 91 121
56 88 104
58 91 117
55 87 103
58 90 117
56 88 113
55 86 106
57 89 115
54 84 99
56 88 101
55 86 111
56 87 107
56 87 100
55 87 105
54 85 95
53 83 85
55 86 108
55 85 100
55 85 100
54 84 106
54 84 95
52 82 79
52 80 90
48 74 72
123 145 61
170 194 0
168 191 0
167 190 0
167 190 0
169 191 0
167 190 0
169 190 0
170 192 0
170 193 0
169 191 0
168 191 0
171 194 0
172 194 0
168 190 25
179 186 160
157 161 144
170 174 164
163 167 155
148 151 133
148 152 140
146 150 140
151 156 147
147 152 143
141 144 120
141 145 124
134 137 112
129 131 98
136 139 110
130 132 108
132 136 115
146 147 109
143 145 117
138 141 109
129 132 102
134 135 92
138 137 90
136 135 83
138 139 97
143 145 102
144 143 98
132 132 78
134 135 81
142 141 87
134 134 81
133 129 69
141 141 89
147 146 89
145 145 96
148 144 71
137 135 68
142 141 82
146 144 78
144 141 71
138 135 57
150 147 92
148 146 82
144 141 78
143 140 65
146 143 70
151 148 76
147 144 68
153 150 77
151 147 75
149 146 67
138 135 48
153 150 76
158 154 84
149 144 72
167 161 94
158 154 73
151 148 73
160 154 82
151 148 64
158 152 78
153 149 67
157 152 67
155 152 65
158 154 82
158 155 78
157 154 75
164 158 82
148 145 58
161 157 74
161 156 82
165 159 87
163 160 87
158 154 59
158 155 82
161 157 80
156 152 63
161 157 79
167 163 99
158 153 68
165 162 100
168 163 106
162 158 78
166 160 81
163 158 87
170 167 102
169 164 84
162 160 92
169 166 98
171 166 94
169 166 97
164 159 84
170 165 103
164 160 74
168 164 93
171 168 106
170 166 94
165 160 82
171 167 103
163 159 84
168 164 93
168 163 95
167 163 89
171 168 106
168 165 99
171 167 104
170 167 103
170 166 100
177 175 123
169 165 97
175 172 123
178 174 116
169 163 86
171 167 108
173 170 113
169 166 102
176 176 125
171 169 115
175 171 114
178 174 120
171 165 92
176 173 118
175 173 119
178 177 130
182 182 141
175 171 114
178 177 130
178 176 126
174 171 115
177 175 122
176 173 117
181 181 137
175 172 121
175 172 113
179 178 127
181 179 129
174 170 106
183 182 136
184 184 143
183 181 138
179 179 133
182 181 139
214 232 255
214 232 255
214 232 255
214 232 255
214 232 255
214 232 255
214 232 255
214 232 255
215 232 255
215 232 255
215 232 255
215 232 255
215 232 255
215 232 255
215 232 255
215 232 255
215 232 255
215 232 255
215 232 255
215 232 255
215 232 255
215 232 255
215 232 255
215 232 255
215 232 255
215 232 255
215 232 255
215 232 255
215 232 255
215 232 255
215 232 255
215 232 255
215 232 255
215 232 255
215 232 255
215 232 255
215 232 255
215 232 255
215 232 255
215 232 255
215 232 255
215 232 255
215 232 255
215 232 255
215 232 255
215 232 255
215 232 255
215 232 255
215 232 255
215 232 255
215 232 255
215 232 255
215 232 255
215 232 255
215 232 255
215 232 255
215 232 255
215 232 255
215 232 255
215 232 255
215 232 255
215 232 255
215 232 255
215 232 255
215 232 255
215 232 255
215 232 255
215 232 255
215 232 255
215 232 255
215 232 255
215 232 255
215 232 255
215 232 255
215 232 255
215 232 255
215 232 255
215 232 255
215 232 255
215 232 255
215 232 255
215 232 255
215 232 255
215 232 255
215 232 255
215 232 255
215 232 255
215 232 255
215 232 255
215 232 255
215 232 255
214 232 255
214 232 255
214 232 255
214 232 255
214 232 255
214 232 255
214 232 255
214 232 255
214 231 255
214 231 255
214 231 255
214 231 255
214 231 255
214 231 255
214 231 255
213 231 255
213 231 255
213 231 255
213 231 255
213 231 255
213 231 255
213 231 255
213 231 255
212 231 255
212 231 255
212 230 255
212 230 255
212 230 255
212 230 255
211 230 255
211 230 255
211 230 255
211 230 255
211 230 255
210 229 255
210 229 255
210 229 255
209 229 255
209 229 255
208 228 255
208 228 255
208 228 255
207 228 255
206 227 255
206 227 255
205 227 255
204 226 255
203 225 255
201 225 255
181 204 140
171 195 0
171 195 0
173 196 0
172 196 0
171 194 0
170 194 0
169 193 0
170 193 0
171 195 0
172 195 0
171 195 0
170 193 0
172 195 0
172 194 0
167 191 25
80 107 107
59 93 124
56 89 111
58 92 111
58 91 126
58 92 121
57 91 118
57 90 111
58 92 114
56 89 114
57 91 114
57 90 103
57 90 111
57 90 121
56 89 102
56 89 110
58 91 115
57 90 113
57 91 117
57 90 118
56 89 102
57 90 105
59 93 120
56 90 110
58 91 114
55 87 97
56 89 102
56 88 108
56 88 100
57 90 113
57 90 107
57 90 105
58 91 115
57 91 107
58 91 124
58 91 117
57 90 117
58 91 121
54 86 107
59 93 120
56 89 108
56 88 108
55 88 102
57 90 110
57 90 105
56 89 113
56 89 118
55 87 103
58 92 128
56 89 110
56 87 98
57 90 121
54 86 94
55 86 103
58 91 111
59 93 121
56 89 102
56 88 100
56 88 102
56 87 107
56 88 99
57 90 105
58 91 118
54 85 99
57 89 108
57 88 108
55 86 110
57 90 107
57 89 108
55 86 97
57 89 104
57 89 113
56 88 104
55 87 104
55 86 102
55 85 99
54 85 91
55 86 102
54 85 103
54 84 97
53 83 81
54 83 104
52 81 91
54 84 87
54 82 82
52 81 98
50 77 87
86 109 87
166 188 18
163 186 0
167 189 0
170 191 0
167 190 0
169 192 0
167 188 0
168 189 0
168 191 0
170 193 0
168 191 0
171 192 0
164 186 0
170 192 0
171 195 0
168 186 86
179 185 173
165 168 151
153 157 144
157 161 147
159 164 153
153 160 155
148 153 142
139 144 128
140 144 120
150 155 141
138 142 123
136 139 115
134 137 112
128 131 106
136 139 106
134 136 103
146 148 113
137 138 99
138 138 94
137 141 110
135 136 99
143 145 108
134 135 94
136 137 102
145 145 101
142 143 110
146 146 94
138 137 88
142 142 85
142 142 98
142 144 95
136 133 54
145 144 89
147 147 97
145 144 86
146 145 91
150 147 81
143 138 61
148 147 93
145 143 79
145 142 72
153 151 83
145 140 61
158 155 91
141 137 57
148 145 67
145 141 60
155 152 81
153 151 80
160 156 79
158 154 88
155 152 82
153 149 67
158 155 87
150 146 53
156 152 70
150 145 59
153 148 65
158 156 93
160 155 82
163 158 91
158 155 95
157 151 68
164 160 84
158 154 69
159 155 78
160 155 75
158 153 70
163 159 88
162 157 78
162 158 83
154 150 74
163 160 92
167 163 96
161 158 89
160 155 72
160 156 79
164 159 94
163 157 68
165 160 74
158 153 69
161 157 79
165 160 88
172 167 101
162 157 80
160 154 73
166 161 82
166 161 90
172 170 113
168 163 95
162 159 80
160 156 72
168 163 87
164 160 85
173 169 106
168 165 94
167 162 93
169 163 89
170 167 103
167 164 95
165 161 86
166 162 96
171 168 108
171 167 104
167 163 90
176 174 126
170 167 103
171 168 105
176 172 116
168 164 96
175 172 113
174 171 115
175 171 114
176 173 125
173 173 123
173 172 117
177 174 115
180 177 127
170 165 98
178 176 130
181 179 127
175 172 116
175 171 110
172 168 109
175 172 111
177 174 124
174 171 113
179 175 119
173 170 112
178 176 125
180 179 130
180 179 132
179 177 129
176 173 121
177 176 124
181 180 135
181 182 146
183 184 144
182 180 138
179 178 131
214 231 255
214 231 255
214 231 255
214 232 255
214 232 255
214 232 255
214 232 255
214 232 255
214 232 255
214 232 255
214 232 255
214 232 255
214 232 255
214 232 255
214 232 255
214 232 255
214 232 255
214 232 255
214 232 255
214 232 255
215 232 255
215 232 255
215 232 255
215 232 255
215 232 255
215 232 255
215 232 255
215 232 255
215 232 255
215 232 255
215 232 255
215 232 255
215 232 255
215 232 255
215 232 255
215 232 255
215 232 255
215 232 255
215 232 255
215 232 255
215 232 255
215 232 255
215 232 255
215 232 255
215 232 255
215 232 255
215 232 255
215 232 255
215 232 255
215 232 255
215 232 255
215 232 255
215 232 255
215 232 255
215 232 255
215 232 255
215 232 255
215 232 255
215 232 255
215 232 255
215 232 255
215 232 255
215 232 255
215 232 255
215 232 255
215 232 255
215 232 255
215 232 255
215 232 255
215 232 255
215 232 255
215 232 255
215 232 255
215 232 255
215 232 255
215 232 255
215 232 255
215 232 255
215 232 255
215 232 255
215 232 255
215 232 255
214 232 255
214 232 255
214 232 255
214 232 255
214 232 255
214 232 255
214 232 255
214 232 255
214 232 255
214 232 255
214 232 255
214 232 255
214 231 255
214 231 255
214 231 255
214 231 255
214 231 255
214 231 255
214 231 255
213 231 255
213 231 255
213 231 255
213 231 255
213 231 255
213 231 255
213 231 255
213 231 255
213 231 255
213 231 255
212 231 255
212 231 255
212 230 255
212 230 255
212 230 255
212 230 255
212 230 255
211 230 255
211 230 255
211 230 255
211 230 255
210 230 255
210 229 255
210 229 255
210 229 255
209 229 255
209 229 255
209 228 255
208 228 255
208 228 255
207 228 255
207 227 255
206 227 255
205 227 255
205 226 255
204 226 255
203 225 255
201 224 255
188 211 186
167 191 0
172 195 0
168 192 0
171 195 0
171 195 0
168 191 0
172 195 0
166 189 0
173 195 0
169 191 0
170 194 0
171 195 0
171 194 0
168 191 0
166 190 0
167 190 0
150 174 54
56 89 108
55 87 99
57 89 120
57 91 118
57 90 105
56 89 108
58 92 115
54 87 105
57 90 115
57 91 108
56 89 113
58 92 107
58 92 108
58 92 114
55 87 95
57 90 110
57 90 114
56 89 108
56 89 110
58 92 114
58 92 110
55 88 100
56 89 110
56 89 102
56 88 103
57 89 113
58 92 117
57 90 114
56 88 107
56 88 105
58 92 113
56 88 110
57 90 110
58 92 128
56 89 102
57 90 111
59 92 122
56 89 105
56 89 110
58 92 120
58 91 113
58 92 118
56 89 90
57 90 114
56 89 110
57 89 111
55 86 95
56 88 113
57 89 117
56 88 108
56 88 103
57 90 110
56 88 107
56 89 110
56 89 105
56 88 103
56 89 110
56 89 99
57 89 108
55 87 110
58 91 110
58 91 120
56 88 110
54 86 96
57 89 99
56 88 103
56 88 115
54 86 100
56 87 110
56 87 98
55 87 97
55 87 92
55 86 94
57 90 117
55 86 110
54 84 94
54 84 101
55 86 114
54 84 99
54 84 96
53 82 94
52 80 89
53 82 90
50 77 89
52 80 91
52 77 73
143 164 42
163 186 0
164 185 0
171 193 0
167 189 0
167 189 0
164 185 0
162 185 0
161 183 0
167 189 0
169 191 0
166 188 0
165 189 0
169 191 0
167 190 0
168 190 0
171 195 0
177 191 117
176 181 170
176 180 167
166 171 163
143 145 120
145 150 133
139 142 118
138 142 126
143 146 123
143 146 127
144 147 129
136 138 113
147 151 131
142 146 123
147 150 129
150 152 129
132 134 101
143 144 111
141 144 113
131 132 96
144 147 113
133 134 88
135 137 107
137 138 97
137 137 95
133 133 90
136 136 87
123 124 65
135 134 86
138 137 83
142 139 76
146 145 93
149 149 106
141 138 72
151 148 76
153 151 88
158 156 100
147 144 75
148 147 95
157 154 87
155 153 86
144 142 76
156 154 96
148 146 83
149 146 89
150 144 56
152 148 69
150 147 78
151 147 75
155 151 71
153 148 72
155 151 76
154 150 87
160 157 90
159 156 96
153 149 72
153 148 70
160 157 85
156 152 86
155 151 66
157 152 78
158 154 76
154 151 78
163 158 87
157 153 75
159 154 75
157 153 78
157 154 77
160 157 91
165 160 95
157 152 58
155 152 67
164 160 95
163 158 75
167 164 100
164 159 84
162 158 85
160 155 75
165 159 77
162 157 80
159 155 84
169 165 95
159 156 80
167 163 95
170 165 90
166 162 99
160 156 84
167 163 85
165 163 93
167 162 93
164 160 84
172 168 108
165 161 92
166 161 87
171 168 109
165 159 80
170 166 97
169 165 99
171 165 93
175 172 114
167 164 97
174 170 110
169 166 106
168 163 97
169 166 99
174 172 119
171 167 97
175 171 113
176 174 125
164 159 85
177 173 119
169 166 100
168 165 96
177 175 120
174 171 113
173 170 106
177 175 123
172 168 97
173 171 116
173 169 105
179 178 128
173 167 101
174 170 108
177 172 112
178 177 130
184 182 134
178 177 131
176 174 125
174 173 120
183 182 138
179 176 124
184 182 136
175 172 112
175 173 120
178 176 125
181 181 138
182 181 137
179 177 127
181 181 139
180 179 131
214 231 255
214 231 255
214 231 255
214 231 255
214 231 255
214 231 255
214 231 255
214 231 255
214 231 255
214 231 255
214 231 255
214 231 255
214 231 255
214 232 255
214 232 255
214 232 255
214 232 255
214 232 255
214 232 255
214 232 255
214 232 255
214 232 255
214 232 255
214 232 255
214 232 255
214 232 255
214 232 255
214 232 255
214 232 255
214 232 255
214 232 255
214 232 255
214 232 255
214 232 255
214 232 255
214 232 255
214 232 255
215 232 255
215 232 255
215 232 255
215 232 255
215 232 255
215 232 255
215 232 255
215 232 255
215 232 255
215 232 255
215 232 255
215 232 255
215 232 255
215 232 255
215 232 255
215 232 255
215 232 255
215 232 255
215 232 255
215 232 255
215 232 255
215 232 255
215 232 255
215 232 255
215 232 255
215 232 255
215 232 255
215 232 255
215 232 255
215 232 255
215 232 255
214 232 255
215 232 255
214 232 255
214 232 255
214 232 255
214 232 255
214 232 255
214 232 255
214 232 255
214 232 255
214 232 255
214 232 255
214 232 255
214 232 255
214 232 255
214 232 255
214 232 255
214 232 255
214 232 255
214 231 255
214 231 255
214 231 255
214 231 255
214 231 255
214 231 255
214 231 255
214 231 255
214 231 255
213 231 255
213 231 255
213 231 255
213 231 255
213 231 255
213 231 255
213 231 255
213 231 255
213 231 255
213 231 255
213 231 255
212 231 255
212 231 255
212 231 255
212 230 255
212 230 255
212 230 255
212 230 255
211 230 255
211 230 255
211 230 255
211 230 255
211 230 255
211 230 255
210 229 255
210 229 255
210 229 255
210 229 255
209 229 255
209 229 255
208 228 255
208 228 255
208 228 255
207 228 255
207 228 255
206 227 255
206 227 255
205 227 255
204 226 255
203 226 255
202 225 255
201 224 255
193 217 221
169 193 36
171 194 0
172 195 0
171 194 0
171 194 0
173 196 0
166 190 0
169 192 0
170 193 0
171 193 0
169 192 0
168 191 0
171 195 0
170 193 0
168 192 0
166 189 0
169 191 0
169 192 0
115 139 88
54 87 107
55 87 110
56 90 107
55 88 110
58 92 114
58 91 118
56 88 102
59 92 113
57 89 100
57 90 113
58 92 111
56 89 105
57 90 121
57 90 118
58 91 111
58 91 113
58 91 113
57 91 107
56 89 110
57 91 113
57 91 115
57 90 107
56 89 100
59 92 124
55 88 105
57 90 107
58 92 111
59 93 122
55 88 107
56 88 110
56 89 103
56 89 108
57 90 102
54 87 95
58 92 117
58 91 115
58 91 103
57 90 108
55 87 94
58 91 114
57 91 120
55 87 102
57 91 107
58 91 111
55 88 92
55 86 105
56 88 103
57 89 114
57 89 105
57 90 103
55 87 111
56 89 97
57 90 124
56 88 110
56 88 111
58 91 122
55 87 105
58 91 118
56 88 105
56 88 111
56 89 107
53 84 90
57 89 109
57 90 118
54 85 101
55 86 110
54 86 102
55 86 97
56 88 103
55 86 109
53 82 98
55 87 107
56 86 105
57 88 114
55 84 97
53 83 91
56 86 111
52 81 84
53 82 94
51 80 85
54 84 103
54 83 99
51 78 82
51 78 93
103 124 58
162 183 0
167 189 0
167 189 0
165 187 0
161 182 0
163 184 0
165 187 0
163 184 0
168 190 0
168 191 0
169 192 0
167 191 0
167 189 0
168 187 0
164 186 0
166 189 0
169 191 0
169 189 25
176 184 141
178 181 164
173 177 164
157 161 146
150 155 140
144 148 130
158 163 147
145 148 125
151 155 141
137 140 124
137 142 131
136 140 112
139 141 112
141 145 117
132 135 112
145 148 124
140 143 113
142 145 114
131 132 86
148 150 119
149 149 118
133 136 94
139 140 99
133 132 68
146 148 111
150 150 115
151 152 117
140 141 98
149 147 95
156 156 112
143 141 80
148 147 83
139 137 77
135 135 77
144 143 75
138 136 65
150 150 104
148 148 95
148 144 80
144 144 83
150 147 79
158 157 100
143 141 70
164 161 103
147 144 69
157 154 79
156 154 94
156 154 78
142 139 66
155 151 80
159 156 89
152 149 86
155 150 71
149 143 56
151 146 68
153 150 79
154 150 74
149 148 77
162 159 87
164 160 93
160 154 82
157 152 79
156 152 56
157 153 76
157 153 79
164 159 89
164 162 95
164 159 89
162 159 86
161 156 77
160 156 82
166 162 91
165 162 95
161 157 90
158 153 84
161 157 86
165 159 82
164 159 75
161 156 75
163 159 87
168 165 99
167 162 90
162 158 84
165 162 89
169 165 108
166 163 94
163 158 84
164 160 86
168 162 85
165 160 84
168 163 84
174 169 105
165 161 85
175 173 117
172 169 108
162 158 79
166 162 90
170 167 108
170 167 104
169 164 97
173 171 108
169 167 106
168 165 98
172 169 114
174 170 102
174 171 110
172 168 110
170 167 99
171 167 106
176 174 123
171 170 115
171 168 110
175 172 115
175 173 113
171 167 95
173 171 113
175 172 119
171 168 109
173 170 113
168 166 104
171 168 103
181 180 134
177 176 129
181 180 134
174 171 115
178 176 124
173 171 115
180 176 130
179 177 130
181 180 139
176 173 118
175 174 126
177 175 123
184 183 144
175 172 110
176 174 123
180 176 124
186 185 147
178 176 126
213 231 255
213 231 255
213 231 255
213 231 255
213 231 255
213 231 255
214 231 255
214 231 255
214 231 255
214 231 255
214 231 255
214 231 255
214 231 255
214 231 255
214 231 255
214 231 255
214 231 255
214 231 255
214 231 255
214 231 255
214 231 255
214 231 255
214 231 255
214 231 255
214 231 255
214 232 255
214 232 255
214 232 255
214 232 255
214 232 255
214 232 255
214 232 255
214 232 255
214 232 255
214 232 255
214 232 255
214 232 255
214 232 255
214 232 255
214 232 255
214 232 255
214 232 255
214 232 255
214 232 255
214 232 255
214 232 255
214 232 255
214 232 255
214 232 255
214 232 255
214 232 255
214 232 255
214 232 255
214 232 255
214 232 255
214 232 255
214 232 255
214 232 255
214 232 255
214 232 255
214 232 255
214 232 255
214 232 255
214 232 255
214 232 255
214 232 255
214 232 255
214 232 255
214 232 255
214 232 255
214 232 255
214 232 255
214 232 255
214 232 255
214 232 255
214 232 255
214 232 255
214 231 255
214 231 255
214 231 255
214 231 255
214 231 255
214 231 255
214 231 255
214 231 255
214 231 255
214 231 255
214 231 255
214 231 255
214 231 255
213 231 255
213 231 255
213 231 255
213 231 255
213 231 255
213 231 255
213 231 255
213 231 255
213 231 255
213 231 255
213 231 255
213 231 255
213 231 255
212 231 255
212 231 255
212 231 255
212 230 255
212 230 255
212 230 255
212 230 255
212 230 255
211 230 255
211 230 255
211 230 255
211 230 255
211 230 255
211 230 255
210 229 255
210 229 255
210 229 255
210 229 255
209 229 255
209 229 255
209 229 255
208 228 255
208 228 255
208 228 255
207 228 255
207 228 255
206 227 255
206 227 255
205 227 255
205 226 255
204 226 255
203 225 255
202 225 255
201 224 255
196 221 241
173 197 76
169 192 0
173 196 0
167 190 0
173 196 0
168 191 0
168 192 0
170 193 0
171 194 0
172 194 0
168 191 0
168 191 0
165 189 0
167 190 0
166 190 0
166 189 0
169 191 0
166 189 0
168 190 0
157 180 25
79 107 99
55 88 114
57 90 115
56 88 111
56 88 105
56 89 103
56 88 110
57 90 113
55 88 110
58 91 115
57 90 114
57 90 99
59 93 124
58 91 111
56 89 100
57 91 108
58 91 115
56 89 107
57 91 113
58 91 111
57 89 111
57 90 99
55 88 107
56 88 102
56 89 105
58 91 115
56 90 108
57 90 110
57 91 115
57 90 114
54 86 94
57 91 110
57 90 113
56 89 102
57 91 111
56 88 103
57 89 105
56 88 108
57 90 105
55 88 94
54 86 88
57 90 107
55 87 97
58 91 107
55 88 94
56 89 100
56 89 105
57 90 107
55 87 105
56 89 99
57 90 105
58 92 110
55 86 99
57 90 114
55 87 104
56 87 103
54 86 97
54 85 103
58 91 110
56 88 104
56 89 105
54 85 94
55 86 94
54 86 104
57 89 114
55 87 91
56 88 107
54 86 99
52 82 91
54 85 103
55 87 108
55 86 110
53 84 82
54 85 99
56 87 110
54 84 101
54 84 90
53 82 75
52 82 96
55 85 93
52 81 85
55 84 97
51 79 85
80 102 58
165 186 18
166 187 0
166 189 0
160 183 0
168 190 0
163 183 0
165 187 0
166 188 0
166 186 0
164 186 0
164 186 0
162 183 0
166 187 0
167 188 0
166 187 0
164 185 0
167 188 0
168 189 0
165 185 0
167 189 36
175 181 161
179 183 175
164 169 162
154 158 138
144 147 124
154 158 136
150 155 140
160 164 149
139 142 120
139 141 118
153 157 142
145 148 126
142 145 120
153 157 137
144 145 115
136 138 98
133 134 97
137 140 110
143 146 115
147 148 117
122 123 82
143 145 111
128 128 79
139 140 90
137 135 77
145 145 100
134 135 95
152 153 112
144 143 90
141 141 98
150 151 106
140 139 89
140 140 82
151 149 98
140 135 71
143 140 73
148 147 97
137 132 41
146 144 85
150 148 80
153 149 84
142 138 63
148 144 78
158 155 90
151 149 83
151 149 76
147 144 71
142 139 69
150 147 68
149 146 70
152 149 80
160 156 78
151 148 91
150 148 77
152 148 71
154 151 73
160 156 84
152 147 74
156 153 75
162 160 100
160 156 87
164 161 86
164 161 91
155 150 58
155 151 67
161 157 78
162 158 85
154 150 80
158 154 75
160 155 73
157 153 84
165 161 87
158 152 76
166 161 80
164 159 90
164 161 84
165 159 80
159 156 84
164 160 93
165 161 94
171 167 101
166 163 101
165 161 87
167 163 97
161 157 82
174 170 114
166 162 99
169 166 97
171 167 109
165 162 95
169 165 104
165 162 93
165 160 84
167 164 98
170 168 115
165 162 101
165 162 99
170 167 108
167 164 96
175 172 118
176 172 111
174 170 108
168 164 102
173 169 108
177 174 116
169 166 102
176 175 125
173 170 110
175 172 123
177 176 131
174 173 116
166 162 86
176 173 116
170 166 100
179 174 121
173 171 116
173 169 109
176 174 120
177 173 120
170 167 103
183 183 144
178 175 123
175 173 117
178 179 133
182 179 131
177 175 126
179 176 123
180 177 127
176 174 123
173 169 117
182 181 137
181 182 138
175 173 119
176 176 131
184 183 139
188 189 156
180 179 136
178 176 125
213 231 255
213 231 255
213 231 255
213 231 255
213 231 255
213 231 255
213 231 255
213 231 255
213 231 255
213 231 255
213 231 255
213 231 255
213 231 255
213 231 255
213 231 255
213 231 255
214 231 255
214 231 255
214 231 255
214 231 255
214 231 255
214 231 255
214 231 255
214 231 255
214 231 255
214 231 255
214 231 255
214 231 255
214 231 255
214 231 255
214 231 255
214 231 255
214 231 255
214 231 255
214 231 255
214 231 255
214 231 255
214 231 255
214 231 255
214 231 255
214 231 255
214 231 255
214 231 255
214 231 255
214 231 255
214 231 255
214 231 255
214 231 255
214 231 255
214 231 255
214 231 255
214 231 255
214 231 255
214 231 255
214 231 255
214 231 255
214 231 255
214 231 255
214 231 255
214 231 255
214 231 255
214 231 255
214 231 255
214 231 255
214 231 255
214 231 255
214 231 255
214 231 255
214 231 255
214 231 255
214 231 255
214 231 255
214 231 255
214 231 255
214 231 255
214 231 255
214 231 255
214 231 255
214 231 255
214 231 255
214 231 255
214 231 255
213 231 255
213 231 255
213 231 255
213 231 255
213 231 255
213 231 255
213 231 255
213 231 255
213 231 255
213 231 255
213 231 255
213 231 255
213 231 255
213 231 255
213 231 255
213 231 255
213 231 255
212 231 255
212 231 255
212 231 255
212 230 255
212 230 255
212 230 255
212 230 255
212 230 255
212 230 255
211 230 255
211 230 255
211 230 255
211 230 255
211 230 255
211 230 255
210 230 255
210 229 255
210 229 255
210 229 255
210 229 255
209 229 255
209 229 255
209 229 255
208 228 255
208 228 255
208 228 255
207 228 255
207 228 255
207 227 255
206 227 255
206 227 255
205 226 255
204 226 255
203 226 255
203 225 255
201 225 255
200 224 255
197 222 249
175 198 102
171 194 0
168 191 0
170 193 0
172 195 0
168 191 0
172 195 0
172 196 0
168 191 0
169 192 0
171 195 0
168 191 0
169 192 0
169 193 0
160 183 0
164 186 0
164 187 0
166 190 0
162 186 0
165 188 0
164 187 0
146 170 62
60 91 108
56 89 103
56 88 111
57 90 108
57 90 111
57 90 113
55 88 105
54 86 103
57 90 105
57 90 108
58 91 118
56 89 111
56 90 99
57 90 111
57 90 108
57 90 114
57 90 113
55 86 108
56 90 99
56 88 100
57 90 113
56 88 99
57 90 110
55 87 95
59 92 121
56 88 100
57 90 108
56 88 105
57 90 102
57 90 107
57 90 110
55 88 99
55 88 111
56 87 105
57 89 107
56 88 99
55 87 102
54 85 100
55 88 97
54 86 89
57 91 103
55 88 111
56 89 105
55 87 108
57 89 113
55 87 108
57 90 114
53 84 99
58 91 115
57 91 100
55 87 105
58 92 111
55 87 100
56 88 105
55 87 105
57 90 105
55 87 105
51 82 95
57 90 100
54 86 89
55 87 102
56 88 113
56 89 108
54 85 87
56 88 103
56 88 108
53 84 81
56 87 98
56 87 103
57 89 110
55 87 96
55 85 99
55 86 97
54 85 99
54 84 99
50 79 90
52 81 87
52 81 80
51 79 80
52 80 80
51 79 77
50 77 83
150 172 31
163 184 0
164 184 0
156 175 0
161 182 0
165 186 0
164 186 0
164 184 0
162 181 0
163 184 0
167 188 0
156 177 0
164 184 0
165 185 0
160 181 0
168 190 0
167 187 0
162 182 0
163 185 0
168 189 0
167 189 0
170 189 74
178 183 170
163 166 142
171 176 167
170 175 161
164 167 151
162 165 147
156 161 145
148 151 131
148 151 128
144 146 115
149 153 132
148 151 124
142 144 116
136 137 100
146 148 123
142 142 105
133 134 90
139 141 112
136 137 100
137 137 93
146 146 114
140 141 101
142 143 104
151 152 117
147 147 101
141 139 85
143 145 100
144 142 81
144 143 93
131 131 75
151 150 92
140 140 83
130 129 65
150 149 93
142 141 76
150 147 86
152 151 99
146 145 88
146 143 81
142 140 76
148 146 73
145 143 75
150 148 97
151 150 88
148 145 70
154 151 78
148 142 59
147 145 83
153 150 83
149 147 79
154 152 85
152 149 83
151 148 78
157 155 87
161 157 82
156 151 75
159 154 69
155 151 66
150 146 67
163 160 93
163 160 91
165 162 101
161 157 91
163 160 93
156 153 88
156 153 81
161 157 83
161 156 81
164 159 93
165 162 102
161 159 92
166 162 103
162 160 90
168 165 99
170 166 104
162 158 84
169 166 107
166 163 99
163 159 86
160 156 70
162 157 77
164 161 90
162 157 90
160 155 73
164 160 89
170 166 99
166 160 89
162 158 93
163 160 88
171 168 109
166 163 106
167 162 87
174 172 118
166 164 99
163 159 80
167 163 92
170 166 103
171 167 103
170 168 113
170 167 106
170 167 106
168 164 97
172 170 109
168 164 95
172 169 113
173 170 116
172 169 110
173 169 110
177 175 120
176 174 118
175 174 117
172 169 109
174 172 122
178 175 124
175 172 115
177 175 124
179 178 134
172 169 109
179 176 127
173 170 112
180 179 132
183 184 148
176 173 117
171 169 111
176 175 130
176 173 117
174 173 120
179 177 125
188 188 151
172 168 104
182 180 139
182 182 142
181 182 142
176 174 124
179 178 133
179 178 133
182 182 137
213 231 255
213 231 255
213 231 255
213 231 255
213 231 255
213 231 255
213 231 255
213 231 255
213 231 255
213 231 255
213 231 255
213 231 255
213 231 255
213 231 255
213 231 255
213 231 255
213 231 255
213 231 255
213 231 255
213 231 255
213 231 255
213 231 255
213 231 255
213 231 255
213 231 255
213 231 255
213 231 255
213 231 255
213 231 255
213 231 255
214 231 255
214 231 255
214 231 255
214 231 255
214 231 255
214 231 255
214 231 255
214 231 255
214 231 255
214 231 255
214 231 255
214 231 255
214 231 255
214 231 255
214 231 255
214 231 255
214 231 255
214 231 255
214 231 255
214 231 255
214 231 255
214 231 255
214 231 255
214 231 255
214 231 255
214 231 255
214 231 255
214 231 255
214 231 255
214 231 255
214 231 255
214 231 255
214 231 255
214 231 255
214 231 255
214 231 255
214 231 255
214 231 255
214 231 255
214 231 255
214 231 255
213 231 255
213 231 255
213 231 255
213 231 255
213 231 255
213 231 255
213 231 255
213 231 255
213 231 255
213 231 255
213 231 255
213 231 255
213 231 255
213 231 255
213 231 255
213 231 255
213 231 255
213 231 255
213 231 255
213 231 255
213 231 255
213 231 255
213 231 255
212 231 255
212 231 255
212 231 255
212 230 255
212 230 255
212 230 255
212 230 255
212 230 255
212 230 255
212 230 255
211 230 255
211 230 255
211 230 255
211 230 255
211 230 255
211 230 255
211 230 255
210 230 255
210 229 255
210 229 255
210 229 255
210 229 255
209 229 255
209 229 255
209 229 255
209 229 255
208 228 255
208 228 255
208 228 255
207 228 255
207 228 255
207 227 255
206 227 255
206 227 255
205 227 255
204 226 255
204 226 255
203 225 255
202 225 255
201 224 255
200 224 255
198 223 255
179 203 151
165 189 0
171 194 0
170 193 0
169 192 0
170 194 0
169 192 0
170 193 0
163 187 0
169 191 0
166 188 0
169 193 0
163 185 0
163 186 0
166 189 0
163 187 0
166 188 0
168 190 0
169 192 0
165 187 0
166 190 0
171 194 0
163 186 0
130 153 60
55 87 114
53 84 107
55 87 102
57 90 110
57 90 114
57 90 118
53 85 90
53 85 105
54 85 99
54 87 99
57 90 110
55 88 100
55 88 103
56 89 110
55 89 97
56 88 103
55 88 103
53 85 82
56 89 100
58 91 100
56 89 114
56 89 94
57 90 105
56 89 102
57 90 100
57 89 102
56 89 95
56 88 99
55 88 122
55 87 105
57 89 107
54 86 103
56 89 114
55 87 100
55 87 88
55 87 102
55 87 105
59 92 121
56 89 107
56 89 107
59 94 124
53 85 90
56 88 94
56 88 103
57 90 105
57 91 107
57 90 121
53 84 99
54 87 100
57 89 108
57 90 108
55 87 105
56 89 107
57 90 105
54 85 105
53 84 97
55 87 99
55 87 97
54 85 94
56 88 114
54 85 101
55 87 103
55 87 105
54 84 99
55 86 102
54 85 81
54 84 100
53 83 102
56 87 102
52 82 68
53 84 94
55 87 103
54 84 98
53 83 87
51 79 89
54 83 94
53 82 97
49 77 80
49 76 81
49 77 70
122 141 44
158 180 0
157 178 0
162 182 0
162 182 0
161 182 0
158 178 0
161 182 0
160 181 0
163 183 0
166 188 0
164 185 0
161 182 0
162 181 0
164 185 0
165 188 0
161 181 0
163 183 0
168 189 0
164 184 0
165 185 0
166 186 0
168 190 0
172 189 87
182 186 170
175 180 167
171 175 165
161 165 148
158 161 142
158 162 150
156 160 145
155 157 136
148 151 136
145 148 128
135 137 118
146 150 130
140 141 112
140 142 112
145 148 124
142 142 106
142 143 106
143 145 115
143 143 101
148 150 116
140 138 86
136 137 97
135 135 77
143 143 96
139 139 86
152 152 107
138 136 80
126 123 71
137 134 73
156 155 100
145 144 92
140 138 82
146 145 89
147 144 84
143 141 75
144 143 82
138 136 80
148 148 98
141 139 73
146 143 74
149 146 81
152 148 82
147 144 80
148 144 69
148 144 73
151 148 66
156 152 78
156 152 72
155 154 98
151 150 87
156 152 82
154 151 83
157 153 75
161 157 89
155 151 82
155 151 80
152 147 73
150 148 78
163 159 95
157 152 71
161 158 99
163 159 94
157 154 80
154 149 71
154 150 63
152 148 75
163 160 97
153 151 81
161 157 84
162 157 82
165 161 93
162 158 87
161 158 82
168 165 106
162 157 73
162 158 90
158 154 73
157 153 63
171 166 92
169 165 104
159 153 65
172 168 103
159 156 83
166 162 97
164 159 80
162 158 85
162 158 80
166 162 98
169 167 106
173 169 109
170 167 106
169 165 101
167 164 92
166 162 96
168 165 97
175 173 118
174 171 108
174 173 122
172 168 100
164 161 94
170 167 107
172 170 116
170 168 109
174 172 116
165 162 99
171 169 106
168 164 104
168 163 94
175 173 116
172 168 119
182 182 141
171 169 113
179 177 133
175 174 122
178 177 134
172 168 110
176 172 116
172 167 106
179 176 127
171 166 94
175 172 116
178 174 121
174 173 127
176 173 125
175 173 123
180 179 133
177 177 132
178 178 132
181 181 141
173 170 110
175 173 118
175 174 126
183 184 150
179 178 137
183 183 145
177 176 129
212 230 255
212 231 255
212 231 255
212 231 255
212 231 255
212 231 255
212 231 255
213 231 255
213 231 255
213 231 255
213 231 255
213 231 255
213 231 255
213 231 255
213 231 255
213 231 255
213 231 255
213 231 255
213 231 255
213 231 255
213 231 255
213 231 255
213 231 255
213 231 255
213 231 255
213 231 255
213 231 255
213 231 255
213 231 255
213 231 255
213 231 255
213 231 255
213 231 255
213 231 255
213 231 255
213 231 255
213 231 255
213 231 255
213 231 255
213 231 255
213 231 255
213 231 255
213 231 255
213 231 255
213 231 255
213 231 255
213 231 255
213 231 255
213 231 255
213 231 255
213 231 255
213 231 255
213 231 255
213 231 255
213 231 255
213 231 255
213 231 255
213 231 255
213 231 255
213 231 255
213 231 255
213 231 255
213 231 255
213 231 255
213 231 255
213 231 255
213 231 255
213 231 255
213 231 255
213 231 255
213 231 255
213 231 255
213 231 255
213 231 255
213 231 255
213 231 255
213 231 255
213 231 255
213 231 255
213 231 255
213 231 255
213 231 255
213 231 255
213 231 255
213 231 255
213 231 255
213 231 255
212 231 255
212 231 255
212 231 255
212 231 255
212 231 255
212 230 255
212 230 255
212 230 255
212 230 255
212 230 255
212 230 255
212 230 255
212 230 255
211 230 255
211 230 255
211 230 255
211 230 255
211 230 255
211 230 255
211 230 255
211 230 255
210 229 255
210 229 255
210 229 255
210 229 255
210 229 255
209 229 255
209 229 255
209 229 255
209 229 255
209 228 255
208 228 255
208 228 255
208 228 255
207 228 255
207 228 255
206 227 255
206 227 255
206 227 255
205 227 255
205 226 255
204 226 255
203 226 255
202 225 255
202 225 255
201 224 255
199 224 255
198 223 255
180 204 184
170 194 0
171 193 0
174 196 0
166 190 0
168 191 0
165 188 0
172 195 0
169 192 0
169 193 0
165 188 0
165 187 0
168 190 0
170 193 0
166 189 0
170 193 0
168 191 0
166 189 0
161 184 0
164 186 0
165 189 0
162 185 0
162 185 0
167 190 0
164 186 0
114 139 94
56 89 113
53 84 102
56 89 118
57 89 108
56 88 103
55 87 103
56 89 111
53 85 94
55 87 113
55 87 92
54 86 95
56 89 102
56 90 102
56 88 97
58 92 114
56 89 102
56 88 100
55 88 97
56 88 94
58 91 115
55 87 97
54 86 99
57 90 107
55 87 102
57 90 107
55 88 103
57 90 107
56 88 102
57 89 107
56 88 99
55 87 95
56 89 100
56 89 107
55 87 103
56 89 94
56 88 108
55 87 99
55 88 92
58 91 116
57 90 115
54 86 102
54 86 107
57 89 104
55 86 103
54 86 102
54 85 82
55 86 107
56 88 107
55 86 99
56 87 98
56 89 102
54 86 97
55 87 104
55 86 94
54 85 95
54 86 86
55 86 101
55 87 91
52 82 87
56 87 104
55 87 101
54 86 95
52 82 98
54 85 97
54 85 91
55 86 104
55 86 103
54 85 107
52 81 91
53 83 95
54 84 79
50 79 80
51 79 86
52 81 84
50 78 78
51 80 81
50 77 79
48 76 64
104 125 53
155 176 0
156 177 0
156 177 0
161 182 0
160 182 0
158 176 0
161 181 0
159 180 0
156 177 0
161 181 0
158 177 0
166 186 0
161 181 0
159 178 0
161 182 0
160 181 0
166 187 0
162 182 0
170 192 0
165 185 0
163 184 0
164 183 0
164 184 0
167 188 0
164 176 94
183 186 172
167 172 159
166 170 155
159 162 151
151 154 138
161 164 150
148 150 127
150 155 140
148 151 134
139 139 107
154 157 133
146 148 120
150 154 131
132 132 86
144 147 118
147 150 131
140 142 110
139 141 111
147 148 112
142 143 103
148 151 121
150 150 103
147 147 105
146 145 94
145 145 96
147 144 90
149 150 113
126 123 61
145 146 103
153 153 96
150 147 90
148 146 86
142 141 85
143 142 85
151 150 95
146 145 90
148 145 80
139 138 76
148 147 96
145 142 69
151 150 91
152 149 91
149 145 70
163 161 101
151 149 87
148 144 79
157 157 104
151 147 78
155 153 99
154 150 82
156 154 91
155 152 85
157 152 80
148 145 82
154 152 90
155 152 75
159 155 84
158 155 88
160 158 96
159 156 91
162 158 95
161 158 92
162 159 93
164 158 89
160 159 103
160 156 74
161 156 79
158 154 75
165 163 99
163 161 93
156 154 85
158 155 90
163 162 98
152 148 68
166 164 106
163 160 93
156 151 71
171 168 112
168 164 93
161 158 89
167 166 103
168 164 96
169 165 105
170 166 101
164 162 95
164 160 89
170 168 107
175 174 128
168 163 99
166 163 101
168 164 100
165 162 90
166 161 83
168 166 104
166 161 98
170 167 104
171 167 101
168 164 101
170 165 93
173 170 110
167 164 99
170 166 98
174 173 118
168 165 94
176 174 121
174 171 115
170 168 111
170 168 113
170 165 93
170 169 113
173 171 115
170 169 112
176 175 130
180 177 129
175 173 117
175 174 122
181 180 139
169 167 110
175 173 121
171 168 110
176 174 120
174 173 126
172 169 109
184 185 148
176 173 120
179 178 130
178 177 128
183 181 137
178 176 130
175 171 110
180 180 134
180 178 131
184 183 142
177 175 125
181 180 140
212 230 255
212 230 255
212 230 255
212 230 255
212 230 255
212 230 255
212 230 255
212 230 255
212 230 255
212 231 255
212 231 255
212 231 255
212 231 255
212 231 255
212 231 255
212 231 255
212 231 255
213 231 255
213 231 255
213 231 255
213 231 255
213 231 255
213 231 255
213 231 255
213 231 255
213 231 255
213 231 255
213 231 255
213 231 255
213 231 255
213 231 255
213 231 255
213 231 255
213 231 255
213 231 255
213 231 255
213 231 255
213 231 255
213 231 255
213 231 255
213 231 255
213 231 255
213 231 255
213 231 255
213 231 255
213 231 255
213 231 255
213 231 255
213 231 255
213 231 255
213 231 255
213 231 255
213 231 255
213 231 255
213 231 255
213 231 255
213 231 255
213 231 255
213 231 255
213 231 255
213 231 255
213 231 255
213 231 255
213 231 255
213 231 255
213 231 255
213 231 255
213 231 255
213 231 255
213 231 255
213 231 255
213 231 255
213 231 255
213 231 255
213 231 255
213 231 255
213 231 255
213 231 255
213 231 255
212 231 255
212 231 255
212 231 255
212 231 255
212 231 255
212 231 255
212 231 255
212 230 255
212 230 255
212 230 255
212 230 255
212 230 255
212 230 255
212 230 255
212 230 255
212 230 255
211 230 255
211 230 255
211 230 255
211 230 255
211 230 255
211 230 255
211 230 255
211 230 255
211 230 255
210 230 255
210 229 255
210 229 255
210 229 255
210 229 255
210 229 255
209 229 255
209 229 255
209 229 255
209 229 255
209 229 255
208 228 255
208 228 255
208 228 255
207 228 255
207 228 255
207 228 255
206 227 255
206 227 255
206 227 255
205 227 255
205 226 255
204 226 255
203 226 255
203 225 255
202 225 255
201 224 255
200 224 255
199 223 255
197 222 255
185 210 196
170 193 0
168 191 0
170 192 0
169 191 0
169 191 0
166 189 0
173 195 0
164 187 0
166 188 0
168 191 0
166 188 0
170 193 0
166 190 0
168 191 0
162 185 0
162 185 0
167 190 0
165 188 0
171 194 0
159 182 0
166 188 0
160 183 0
160 183 0
165 188 0
166 188 0
158 181 25
94 120 92
57 89 111
53 84 94
56 88 102
54 86 94
55 87 102
54 86 100
54 85 103
55 87 95
55 87 103
54 86 100
56 89 100
55 87 92
53 85 92
57 90 103
56 88 95
56 89 110
57 89 107
56 88 102
57 90 114
57 91 114
56 89 113
55 88 95
55 87 99
57 90 117
56 90 102
56 89 103
54 85 102
54 86 100
58 91 108
56 89 105
56 89 102
56 89 107
56 88 94
55 87 99
55 87 95
54 85 102
56 88 97
55 86 90
56 89 110
55 88 102
56 88 96
57 91 105
54 86 110
54 85 94
55 86 97
57 89 113
54 86 99
57 90 108
54 86 94
55 86 97
56 88 105
57 90 105
55 87 107
56 88 102
52 83 86
55 86 103
53 83 83
56 88 109
54 85 97
54 86 104
54 85 88
55 87 104
56 88 107
56 87 103
54 84 108
52 83 81
54 84 99
50 80 67
51 80 90
51 80 83
52 82 99
55 86 96
50 79 87
49 77 68
46 71 61
50 78 79
90 110 51
151 171 18
153 173 0
152 171 0
146 167 0
153 173 0
157 177 0
150 168 0
160 180 0
153 172 0
162 181 0
158 177 0
161 182 0
154 173 0
159 177 0
166 185 0
155 175 0
164 185 0
163 181 0
157 176 0
163 184 0
161 179 0
162 182 0
157 177 0
167 186 0
161 178 0
159 178 0
171 182 121
171 173 154
169 172 156
173 178 171
158 163 148
158 162 151
150 153 133
152 154 131
145 147 121
154 157 141
144 146 123
146 149 128
145 146 115
159 160 130
143 143 106
153 155 131
142 143 101
149 152 125
155 158 134
144 143 93
151 151 115
143 144 106
150 151 116
147 149 119
146 146 109
144 142 94
152 151 110
156 155 106
135 133 77
150 151 110
152 151 99
142 142 96
148 148 86
156 155 112
152 151 95
144 142 86
147 148 102
153 152 106
154 151 95
152 149 85
149 148 91
144 142 71
153 150 95
147 143 42
150 148 84
142 140 57
156 154 91
160 158 86
155 151 80
156 154 83
153 149 87
151 147 71
159 157 100
156 151 85
160 157 90
153 148 69
163 161 103
157 153 87
160 157 97
161 159 95
159 155 82
161 158 93
155 152 85
157 156 89
161 157 88
166 164 109
163 160 99
157 153 82
161 157 93
155 152 75
162 158 84
162 160 100
160 158 92
167 165 103
162 158 88
164 160 87
161 160 92
159 156 90
165 162 95
167 165 103
165 162 93
168 165 97
166 162 93
166 164 99
162 158 85
169 166 108
172 169 109
164 161 93
162 158 83
167 163 107
170 166 101
161 157 76
167 167 112
166 162 87
168 166 99
168 164 104
173 171 118
171 170 111
171 168 108
170 167 106
173 171 123
175 173 123
166 163 96
172 169 112
177 175 129
175 173 129
179 177 132
173 169 105
179 177 127
173 172 118
176 173 120
176 175 126
170 167 109
169 166 103
168 164 93
175 172 118
177 174 117
178 175 129
178 178 134
181 179 133
179 177 128
176 174 131
171 169 113
176 174 120
176 174 125
175 172 119
173 172 121
183 182 139
179 178 135
183 181 135
176 176 126
182 182 140
177 176 134
175 174 118
177 175 122
211 230 255
212 230 255
212 230 255
212 230 255
212 230 255
212 230 255
212 230 255
212 230 255
212 230 255
212 230 255
212 230 255
212 230 255
212 230 255
212 230 255
212 230 255
212 230 255
212 230 255
212 230 255
212 230 255
212 231 255
212 231 255
212 231 255
212 231 255
212 231 255
212 231 255
212 231 255
212 231 255
212 231 255
212 231 255
212 231 255
212 231 255
212 231 255
213 231 255
213 231 255
213 231 255
213 231 255
213 231 255
213 231 255
213 231 255
213 231 255
213 231 255
213 231 255
213 231 255
213 231 255
213 231 255
213 231 255
213 231 255
213 231 255
213 231 255
213 231 255
213 231 255
213 231 255
213 231 255
213 231 255
213 231 255
213 231 255
213 231 255
213 231 255
213 231 255
213 231 255
213 231 255
213 231 255
213 231 255
213 231 255
213 231 255
213 231 255
213 231 255
212 231 255
212 231 255
212 231 255
212 231 255
212 231 255
212 231 255
212 231 255
212 231 255
212 231 255
212 231 255
212 230 255
212 230 255
212 230 255
212 230 255
212 230 255
212 230 255
212 230 255
212 230 255
212 230 255
212 230 255
212 230 255
212 230 255
212 230 255
211 230 255
211 230 255
211 230 255
211 230 255
211 230 255
211 230 255
211 230 255
211 230 255
211 230 255
211 230 255
210 230 255
210 229 255
210 229 255
210 229 255
210 229 255
210 229 255
210 229 255
209 229 255
209 229 255
209 229 255
209 229 255
209 229 255
208 228 255
208 228 255
208 228 255
208 228 255
207 228 255
207 228 255
207 227 255
206 227 255
206 227 255
206 227 255
205 227 255
205 226 255
204 226 255
204 226 255
203 225 255
202 225 255
201 225 255
201 224 255
199 224 255
198 223 255
197 222 255
187 212 204
166 189 0
169 191 0
171 194 0
169 191 0
168 191 0
168 192 0
168 191 0
169 192 0
164 187 0
169 191 0
166 188 0
167 190 0
168 191 0
165 187 0
167 190 0
161 183 0
161 184 0
164 187 0
165 187 0
165 187 0
164 187 0
167 189 0
154 177 0
160 182 0
158 181 0
159 182 0
160 182 0
155 178 40
76 104 90
53 84 95
56 88 103
56 89 94
54 86 95
55 87 100
54 86 99
54 86 107
55 88 110
57 90 102
52 84 84
55 87 92
55 87 102
54 86 103
54 85 88
57 89 110
54 86 94
54 86 100
54 85 97
54 86 94
54 87 95
55 87 92
53 85 92
54 86 94
56 89 113
55 87 103
55 87 90
54 86 86
54 86 103
57 89 102
58 92 111
56 88 105
56 88 99
57 91 108
56 88 92
55 87 97
56 88 99
55 87 103
55 87 99
54 85 102
57 89 100
55 87 102
55 87 103
54 86 97
55 86 94
55 87 103
54 85 94
55 88 110
56 88 97
55 87 100
55 86 90
55 87 96
52 83 88
56 89 103
54 85 105
55 86 94
53 83 86
54 85 85
52 82 101
53 83 99
54 85 102
54 85 90
55 86 99
52 82 89
54 84 96
53 84 100
55 86 96
53 82 85
52 81 102
54 84 88
50 79 86
49 78 79
51 80 82
48 75 72
48 75 69
85 104 51
147 167 0
152 172 0
156 175 0
163 184 0
157 177 0
152 172 0
156 176 0
155 172 0
158 177 0
164 183 0
157 176 0
156 177 0
158 175 0
159 177 0
159 177 0
158 178 0
152 173 0
161 181 0
159 178 0
158 177 0
159 177 0
158 177 0
157 175 0
160 178 0
157 178 0
161 180 0
158 175 0
154 173 0
171 181 135
174 177 162
163 165 144
173 176 161
164 168 154
153 154 128
159 162 145
152 153 128
165 169 160
155 159 146
146 148 120
161 164 143
165 167 145
134 137 111
148 150 123
132 133 100
156 159 133
147 149 107
142 142 105
150 151 117
139 137 85
147 147 108
147 147 107
149 151 120
144 146 112
138 137 78
155 156 115
139 139 96
145 146 104
145 142 84
150 148 93
141 141 93
148 146 89
150 147 85
151 150 101
145 143 90
151 148 90
157 156 105
149 146 77
147 144 80
164 162 113
150 148 87
152 150 87
157 156 99
161 160 103
154 152 90
159 156 87
159 154 77
144 141 70
157 155 87
151 149 83
158 154 83
157 153 81
160 158 93
155 151 78
158 155 84
160 158 89
150 146 63
159 157 97
156 154 86
159 157 108
155 151 80
158 154 82
158 154 90
159 155 72
170 167 111
155 150 84
158 156 85
160 156 90
164 162 103
163 159 84
164 161 96
161 157 95
163 161 102
160 155 75
163 161 91
167 164 100
161 157 96
164 159 88
163 160 99
166 166 106
166 163 94
163 161 88
164 161 103
166 164 102
162 159 89
168 165 103
162 161 96
164 160 90
165 162 94
167 164 99
167 163 91
163 160 85
173 171 120
161 156 79
179 176 127
162 160 95
170 167 104
173 171 114
163 158 78
170 169 118
179 177 128
177 175 125
173 170 115
172 170 112
174 172 123
171 169 110
175 174 121
169 166 112
169 168 110
175 172 117
176 172 120
172 169 109
175 171 115
170 168 109
179 178 131
178 177 134
180 179 134
175 173 123
174 171 109
179 177 132
180 179 133
181 180 137
176 173 118
179 179 135
181 178 134
169 167 108
174 172 116
180 180 139
178 176 126
176 175 129
188 189 156
177 174 123
181 180 136
211 230 255
211 230 255
211 230 255
211 230 255
211 230 255
211 230 255
211 230 255
211 230 255
211 230 255
212 230 255
212 230 255
212 230 255
212 230 255
212 230 255
212 230 255
212 230 255
212 230 255
212 230 255
212 230 255
212 230 255
212 230 255
212 230 255
212 230 255
212 230 255
212 230 255
212 230 255
212 230 255
212 230 255
212 230 255
212 230 255
212 230 255
212 230 255
212 230 255
212 230 255
212 231 255
212 231 255
212 231 255
212 231 255
212 231 255
212 231 255
212 231 255
212 231 255
212 231 255
212 231 255
212 231 255
212 231 255
212 231 255
212 231 255
212 231 255
212 231 255
212 231 255
212 231 255
212 231 255
212 231 255
212 231 255
212 231 255
212 231 255
212 231 255
212 231 255
212 231 255
212 231 255
212 231 255
212 231 255
212 230 255
212 230 255
212 230 255
212 230 255
212 230 255
212 230 255
212 230 255
212 230 255
212 230 255
212 230 255
212 230 255
212 230 255
212 230 255
212 230 255
212 230 255
212 230 255
212 230 255
212 230 255
212 230 255
212 230 255
211 230 255
211 230 255
211 230 255
211 230 255
211 230 255
211 230 255
211 230 255
211 230 255
211 230 255
211 230 255
211 230 255
211 230 255
211 230 255
210 230 255
210 229 255
210 229 255
210 229 255
210 229 255
210 229 255
210 229 255
210 229 255
209 229 255
209 229 255
209 229 255
209 229 255
209 228 255
208 228 255
208 228 255
208 228 255
208 228 255
207 228 255
207 228 255
207 228 255
207 227 255
206 227 255
206 227 255
205 227 255
205 227 255
205 226 255
204 226 255
204 226 255
203 225 255
202 225 255
202 225 255
201 224 255
200 224 255
199 223 255
198 223 255
196 222 255
183 208 188
166 188 0
168 191 0
166 189 0
169 191 0
166 189 0
170 192 0
168 191 0
163 186 0
169 192 0
170 193 0
164 187 0
163 187 0
164 187 0
163 186 0
162 185 0
161 184 0
161 184 0
166 189 0
156 179 0
160 183 0
163 186 0
160 183 0
163 187 0
159 182 0
158 181 0
160 182 0
156 177 0
155 177 0
157 179 0
154 176 31
77 103 86
56 89 105
55 87 102
53 84 88
55 87 102
57 90 115
56 88 105
55 87 102
55 87 94
54 86 97
55 87 103
55 87 99
54 86 92
55 87 88
54 86 97
56 89 103
54 85 97
56 88 108
56 89 100
55 86 92
55 87 100
55 88 100
55 87 97
55 87 103
55 87 103
54 86 99
55 89 94
54 86 94
55 86 107
57 90 94
55 87 90
57 90 103
54 86 105
55 88 100
53 84 100
52 83 84
53 84 88
54 86 97
52 82 76
55 87 99
54 86 78
55 86 113
55 87 102
54 86 95
55 88 95
53 85 92
55 87 110
56 88 111
55 87 102
54 85 90
54 86 103
55 86 105
53 85 82
55 87 97
54 85 99
53 83 103
53 83 92
53 84 99
55 86 109
53 84 97
52 82 95
53 83 84
52 81 92
52 82 82
53 83 100
52 81 85
52 82 92
51 81 89
50 78 78
51 80 71
51 80 77
51 80 81
47 74 63
72 95 63
141 162 18
152 171 0
146 165 0
153 174 0
148 168 0
150 169 0
152 169 0
152 170 0
147 167 0
149 166 0
147 165 0
158 177 0
154 173 0
152 170 0
157 174 0
152 169 0
155 173 0
154 172 0
158 177 0
156 173 0
156 174 0
155 170 0
158 175 0
155 172 0
157 175 0
152 169 0
161 179 0
158 177 0
158 176 0
159 177 0
170 179 115
178 181 170
177 180 166
163 166 148
155 158 135
154 155 134
159 162 151
148 150 123
163 165 145
154 155 128
158 161 138
153 155 126
146 147 114
137 141 116
149 150 123
150 153 131
138 140 108
145 147 109
155 156 118
156 156 125
160 162 133
147 147 105
140 141 103
148 148 106
151 150 91
152 151 118
152 151 108
161 164 134
144 139 80
152 150 102
143 143 91
149 149 99
145 141 85
145 146 107
152 151 90
149 148 91
154 151 83
152 151 100
142 137 66
141 138 64
151 145 73
149 146 84
151 148 89
148 146 80
154 150 86
146 145 89
159 154 89
151 149 91
152 151 97
158 155 94
164 161 98
161 157 97
155 151 90
159 155 79
161 158 90
166 163 96
151 149 75
159 155 92
155 152 80
158 156 90
153 151 84
160 158 84
158 154 83
158 154 85
161 158 93
152 148 75
160 157 92
162 159 99
162 157 74
166 163 99
168 166 109
156 151 67
162 159 87
162 158 81
160 157 93
157 155 92
169 167 107
163 160 92
163 161 92
166 163 103
165 161 99
158 155 81
166 162 105
169 167 109
169 165 100
164 161 90
169 166 105
162 159 96
174 173 118
171 169 113
168 165 110
174 171 121
169 165 108
175 172 118
169 166 104
166 162 94
165 161 99
175 173 119
171 168 117
173 170 123
171 168 109
172 170 117
173 168 108
171 167 104
175 172 110
179 177 133
167 164 106
176 176 130
176 175 129
173 171 116
169 166 110
173 169 104
171 169 109
172 170 112
174 172 120
173 171 120
172 169 110
188 190 159
174 172 122
173 170 112
178 177 124
174 174 124
181 180 135
178 177 135
185 185 152
182 181 139
174 171 115
177 175 122
182 181 135
180 179 132
177 174 118
183 182 142
176 173 122
211 230 255
211 230 255
211 230 255
211 230 255
211 230 255
211 230 255
211 230 255
211 230 255
211 230 255
211 230 255
211 230 255
211 230 255
211 230 255
211 230 255
211 230 255
211 230 255
211 230 255
211 230 255
211 230 255
211 230 255
212 230 255
212 230 255
212 230 255
212 230 255
212 230 255
212 230 255
212 230 255
212 230 255
212 230 255
212 230 255
212 230 255
212 230 255
212 230 255
212 230 255
212 230 255
212 230 255
212 230 255
212 230 255
212 230 255
212 230 255
212 230 255
212 230 255
212 230 255
212 230 255
212 230 255
212 230 255
212 230 255
212 230 255
212 230 255
212 230 255
212 230 255
212 230 255
212 230 255
212 230 255
212 230 255
212 230 255
212 230 255
212 230 255
212 230 255
212 230 255
212 230 255
212 230 255
212 230 255
212 230 255
212 230 255
212 230 255
212 230 255
212 230 255
212 230 255
212 230 255
212 230 255
212 230 255
212 230 255
212 230 255
211 230 255
211 230 255
211 230 255
211 230 255
211 230 255
211 230 255
211 230 255
211 230 255
211 230 255
211 230 255
211 230 255
211 230 255
211 230 255
211 230 255
211 230 255
211 230 255
211 230 255
210 230 255
210 229 255
210 229 255
210 229 255
210 229 255
210 229 255
210 229 255
210 229 255
210 229 255
209 229 255
209 229 255
209 229 255
209 229 255
209 229 255
209 229 255
208 228 255
208 228 255
208 228 255
208 228 255
207 228 255
207 228 255
207 228 255
207 227 255
206 227 255
206 227 255
206 227 255
205 227 255
205 227 255
204 226 255
204 226 255
204 226 255
203 225 255
202 225 255
202 225 255
201 224 255
200 224 255
199 223 255
198 223 255
197 222 255
195 221 255
181 205 171
167 189 0
165 189 0
166 189 0
168 191 0
161 184 0
172 195 0
167 189 0
160 183 0
165 188 0
163 186 0
161 184 0
160 183 0
163 186 0
159 182 0
161 184 0
160 184 0
163 186 0
165 188 0
166 189 0
165 187 0
160 183 0
166 188 0
158 180 0
157 179 0
158 181 0
156 178 0
154 177 0
150 173 0
163 185 0
152 174 0
158 180 0
149 171 31
81 108 78
51 82 95
55 87 92
52 84 86
54 86 94
53 84 95
53 84 88
56 88 95
55 87 94
55 87 99
55 87 97
55 87 97
51 82 86
56 88 99
55 88 97
55 87 103
51 82 84
56 89 107
51 82 92
55 88 94
53 84 97
55 88 102
54 87 92
55 87 100
55 87 100
54 85 90
55 87 108
55 88 94
55 88 100
55 87 95
54 86 95
56 89 105
52 83 86
55 87 103
52 83 94
57 90 110
55 86 105
56 88 102
55 87 110
54 86 92
54 85 99
54 86 97
54 85 88
56 88 105
55 87 105
55 87 102
52 82 92
55 87 103
55 86 99
53 85 94
54 85 97
54 86 92
54 85 99
51 82 86
51 81 84
56 88 104
51 82 80
52 82 97
55 87 96
53 83 93
52 82 75
51 81 87
53 83 86
53 84 93
53 83 87
51 80 94
52 80 87
50 79 87
53 83 93
51 80 67
51 79 84
77 100 74
135 152 18
149 168 0
137 156 0
147 164 0
153 172 0
148 167 0
150 168 0
148 167 0
146 164 0
149 167 0
144 162 0
154 172 0
154 172 0
148 167 0
143 160 0
151 170 0
152 169 0
154 172 0
150 168 0
152 171 0
153 170 0
144 162 0
155 171 0
154 171 0
155 173 0
148 165 0
158 176 0
155 169 0
160 179 0
158 174 0
153 170 0
156 172 0
173 182 130
181 184 174
175 176 156
167 169 152
161 163 147
168 171 154
160 163 145
156 158 135
149 152 137
141 143 114
163 166 155
141 141 108
149 149 117
147 147 111
149 151 120
142 143 117
145 146 117
136 135 85
147 147 108
149 150 115
151 154 131
159 160 131
151 150 113
151 151 109
158 158 115
144 143 99
153 152 113
152 151 101
145 145 96
146 144 99
151 148 86
143 143 90
159 158 114
149 148 93
153 151 94
144 143 94
152 151 98
148 145 89
160 158 101
157 156 117
147 144 78
160 160 108
156 154 90
151 150 97
154 149 78
162 161 106
155 151 80
155 152 80
160 158 113
158 153 87
162 161 112
161 158 94
166 165 115
154 150 82
152 150 93
158 158 102
161 157 93
157 153 86
151 148 69
164 162 101
162 158 90
151 147 75
164 163 103
163 160 90
160 157 97
153 148 63
161 158 85
165 160 95
163 162 103
159 156 88
173 169 113
165 160 89
164 162 104
161 158 95
162 159 98
169 166 106
163 160 90
165 160 90
169 167 116
165 164 106
173 170 109
161 158 92
168 164 99
162 158 89
163 160 104
172 171 119
165 160 87
167 164 109
159 155 86
162 159 92
167 163 103
171 166 106
167 164 93
169 164 108
175 174 125
170 168 116
175 173 117
171 168 113
171 171 116
173 170 113
170 168 112
171 168 101
176 174 121
173 170 115
170 168 114
171 167 106
172 169 111
171 167 104
183 184 150
175 173 126
170 168 109
175 173 117
179 178 131
173 173 120
176 174 120
183 183 146
174 173 128
177 175 130
173 169 109
182 183 147
183 182 143
178 178 136
175 174 128
180 180 139
173 170 116
179 178 133
179 176 127
176 174 124
182 183 147
179 178 134
180 180 141
183 184 155
210 229 255
210 229 255
210 229 255
210 230 255
210 230 255
210 230 255
211 230 255
211 230 255
211 230 255
211 230 255
211 230 255
211 230 255
211 230 255
211 230 255
211 230 255
211 230 255
211 230 255
211 230 255
211 230 255
211 230 255
211 230 255
211 230 255
211 230 255
211 230 255
211 230 255
211 230 255
211 230 255
211 230 255
211 230 255
211 230 255
211 230 255
211 230 255
211 230 255
211 230 255
211 230 255
211 230 255
211 230 255
212 230 255
212 230 255
212 230 255
212 230 255
212 230 255
212 230 255
212 230 255
212 230 255
212 230 255
212 230 255
212 230 255
212 230 255
212 230 255
212 230 255
212 230 255
212 230 255
212 230 255
212 230 255
212 230 255
212 230 255
212 230 255
212 230 255
211 230 255
211 230 255
211 230 255
211 230 255
211 230 255
211 230 255
211 230 255
211 230 255
211 230 255
211 230 255
211 230 255
211 230 255
211 230 255
211 230 255
211 230 255
211 230 255
211 230 255
211 230 255
211 230 255
211 230 255
211 230 255
211 230 255
211 230 255
211 230 255
211 230 255
210 230 255
210 230 255
210 229 255
210 229 255
210 229 255
210 229 255
210 229 255
210 229 255
210 229 255
210 229 255
210 229 255
210 229 255
209 229 255
209 229 255
209 229 255
209 229 255
209 229 255
209 229 255
208 228 255
208 228 255
208 228 255
208 228 255
208 228 255
207 228 255
207 228 255
207 228 255
207 228 255
206 227 255
206 227 255
206 227 255
206 227 255
205 227 255
205 226 255
204 226 255
204 226 255
204 226 255
203 225 255
202 225 255
202 225 255
201 224 255
200 224 255
200 224 255
199 223 255
198 223 255
196 222 255
195 221 255
179 204 173
168 191 0
163 186 0
165 188 0
171 194 0
163 187 0
167 189 0
169 193 0
169 191 0
167 189 0
160 183 0
160 182 0
169 191 0
166 188 0
168 191 0
156 178 0
162 184 0
161 183 0
158 181 0
163 185 0
158 180 0
159 181 0
155 178 0
158 180 0
162 184 0
158 180 0
151 174 0
162 185 0
152 175 0
158 180 0
156 178 0
157 178 0
146 168 0
146 167 0
151 173 0
65 94 90
54 87 102
53 84 94
52 83 84
53 85 88
54 85 100
54 86 100
54 86 94
54 86 95
56 89 102
54 85 92
54 86 76
53 85 88
55 87 99
56 89 110
55 87 99
52 84 86
55 88 107
54 87 97
52 84 80
50 80 72
54 85 100
53 84 92
57 90 94
51 81 80
53 85 82
54 86 94
57 90 115
57 90 97
55 87 99
56 88 102
53 85 78
53 84 86
55 87 100
55 86 99
54 85 94
51 82 76
51 81 80
57 89 105
55 86 100
55 87 97
55 87 103
54 85 86
53 84 84
53 83 82
55 86 92
53 85 92
53 83 92
51 81 85
54 84 88
54 86 98
54 85 97
53 84 81
51 80 79
53 82 94
53 83 94
55 87 96
53 83 90
54 85 97
51 80 94
51 81 69
51 81 80
53 83 90
50 78 81
52 81 85
50 79 78
49 77 70
49 77 74
49 77 77
84 105 65
128 148 26
140 159 0
141 160 0
143 163 0
142 160 0
148 168 0
151 170 0
137 154 0
147 165 0
148 167 0
144 161 0
151 169 0
148 163 0
147 165 0
157 174 0
151 169 0
146 163 0
154 170 0
153 170 0
147 162 0
151 168 0
161 180 0
150 169 0
143 158 0
156 173 0
158 175 0
154 167 0
156 173 0
152 167 0
152 168 0
160 177 0
154 167 0
155 174 0
156 170 0
176 185 141
180 184 177
179 183 173
162 164 140
167 168 149
157 157 135
133 134 108
154 154 125
170 173 155
153 155 128
151 151 126
148 148 115
151 153 128
147 148 109
150 151 125
158 157 125
155 156 125
149 150 117
159 161 141
155 155 121
161 164 138
142 141 103
148 147 111
145 146 103
140 139 95
154 155 121
148 148 105
149 146 93
159 160 123
151 151 103
153 152 106
150 149 103
154 155 110
156 155 94
148 148 91
151 150 99
145 144 93
147 146 94
162 163 123
157 156 107
148 147 96
151 148 91
154 152 102
154 152 95
156 153 99
153 150 79
145 142 68
153 149 80
160 157 102
160 158 103
158 156 96
157 155 98
156 152 87
158 157 104
154 151 83
156 153 90
160 154 83
157 156 89
160 158 109
162 159 92
166 165 115
164 163 110
171 167 117
161 159 95
158 154 80
159 155 87
162 158 90
163 158 87
167 164 97
156 151 84
162 159 89
158 154 80
164 162 104
171 170 123
163 160 98
167 166 112
168 166 106
161 157 86
164 158 83
170 167 112
168 167 107
164 161 99
163 159 93
167 163 98
171 168 117
165 161 96
171 170 115
164 161 102
163 159 93
168 165 103
169 168 114
172 169 106
167 165 106
167 165 104
166 160 90
171 168 113
169 168 104
179 179 135
165 161 93
177 176 124
167 164 97
177 176 130
170 167 104
173 171 117
176 174 125
183 184 149
173 170 112
174 172 122
177 177 133
180 179 137
177 175 130
176 173 116
172 170 113
179 179 138
173 172 120
180 179 134
178 177 130
184 183 143
181 180 142
173 171 120
182 181 137
171 169 116
175 171 121
182 182 140
180 180 140
182 181 140
183 183 142
179 178 134
178 177 130
183 184 150
179 179 131
210 229 255
210 229 255
210 229 255
210 229 255
210 229 255
210 229 255
210 229 255
210 229 255
210 229 255
210 229 255
210 229 255
210 229 255
210 230 255
210 230 255
210 230 255
211 230 255
211 230 255
211 230 255
211 230 255
211 230 255
211 230 255
211 230 255
211 230 255
211 230 255
211 230 255
211 230 255
211 230 255
211 230 255
211 230 255
211 230 255
211 230 255
211 230 255
211 230 255
211 230 255
211 230 255
211 230 255
211 230 255
211 230 255
211 230 255
211 230 255
211 230 255
211 230 255
211 230 255
211 230 255
211 230 255
211 230 255
211 230 255
211 230 255
211 230 255
211 230 255
211 230 255
211 230 255
211 230 255
211 230 255
211 230 255
211 230 255
211 230 255
211 230 255
211 230 255
211 230 255
211 230 255
211 230 255
211 230 255
211 230 255
211 230 255
211 230 255
211 230 255
211 230 255
211 230 255
211 230 255
211 230 255
211 230 255
211 230 255
211 230 255
211 230 255
211 230 255
211 230 255
210 230 255
210 230 255
210 229 255
210 229 255
210 229 255
210 229 255
210 229 255
210 229 255
210 229 255
210 229 255
210 229 255
210 229 255
210 229 255
209 229 255
209 229 255
209 229 255
209 229 255
209 229 255
209 229 255
209 229 255
209 229 255
208 228 255
208 228 255
208 228 255
208 228 255
208 228 255
208 228 255
207 228 255
207 228 255
207 228 255
207 228 255
207 227 255
206 227 255
206 227 255
206 227 255
205 227 255
205 227 255
205 226 255
204 226 255
204 226 255
203 226 255
203 225 255
202 225 255
202 225 255
201 225 255
201 224 255
200 224 255
199 223 255
198 223 255
197 222 255
195 221 255
193 220 254
174 199 149
171 193 0
161 184 0
164 187 0
165 188 0
166 188 0
169 192 0
165 188 0
159 183 0
165 188 0
166 189 0
159 182 0
161 183 0
158 181 0
162 185 0
160 184 0
165 187 0
163 186 0
160 183 0
158 180 0
155 178 0
153 175 0
158 181 0
163 185 0
158 180 0
152 175 0
157 179 0
151 172 0
154 177 0
159 180 0
151 172 0
144 164 0
152 174 0
155 176 0
146 168 0
147 168 0
142 165 25
86 109 51
53 84 100
54 87 86
54 85 92
53 85 90
55 88 90
55 87 108
53 84 94
50 81 78
54 85 97
52 82 84
54 86 94
53 85 84
54 86 103
52 83 78
53 83 95
55 86 97
55 87 94
54 85 97
51 81 84
52 83 92
54 86 95
52 82 80
54 85 99
53 85 100
52 83 74
55 87 100
55 87 99
52 83 92
55 86 100
54 85 102
53 85 95
54 86 84
55 87 103
52 83 94
55 87 84
54 86 94
55 87 84
53 85 90
55 87 97
52 83 89
53 84 84
53 84 88
50 80 80
54 85 90
50 79 72
53 83 80
55 86 94
56 88 113
53 84 92
53 84 94
53 84 94
51 82 88
50 79 74
53 84 90
53 84 90
52 83 92
51 80 83
53 83 89
49 78 77
50 78 78
51 80 95
50 79 75
51 80 77
47 74 77
49 77 83
49 78 76
75 95 54
134 152 18
130 148 0
141 160 0
137 155 0
152 171 0
139 157 0
141 162 0
143 159 0
141 158 0
144 162 0
142 158 0
148 163 0
149 169 0
146 165 0
148 163 0
142 160 0
153 169 0
143 157 0
147 164 0
149 166 0
146 165 0
149 163 0
152 167 0
144 160 0
148 165 0
152 169 0
150 167 0
146 163 0
148 161 0
147 162 0
155 169 0
157 173 0
157 172 0
156 172 0
157 173 0
155 171 0
172 180 129
174 176 158
174 175 156
182 184 172
170 173 162
157 158 136
155 155 133
142 143 115
158 160 135
155 157 133
155 157 138
155 159 136
163 164 138
142 143 108
153 155 133
148 148 114
145 145 112
151 152 120
140 139 99
149 149 111
155 156 123
140 139 101
144 143 89
146 145 97
150 149 107
161 163 133
150 148 96
151 150 107
148 148 107
145 143 89
156 156 112
148 145 91
152 151 95
147 144 92
147 147 105
152 149 94
161 159 109
154 151 88
137 133 58
155 153 83
161 161 115
158 155 105
163 162 111
151 148 82
156 153 99
151 149 90
155 153 97
148 145 94
154 152 87
152 148 78
160 158 103
151 149 87
159 157 99
155 153 88
157 153 91
158 156 89
161 159 93
165 162 104
154 151 68
158 156 93
162 160 106
159 157 95
163 160 93
164 161 101
161 159 94
160 158 93
153 150 84
166 164 124
165 163 110
164 161 94
159 157 99
167 165 110
163 160 90
161 157 95
165 162 100
173 172 126
168 164 108
165 159 90
165 162 107
172 168 113
165 162 101
166 164 109
167 164 113
171 170 117
166 163 95
172 171 122
166 162 101
168 164 102
171 169 111
168 165 108
170 167 104
173 171 121
170 166 109
169 165 99
177 175 132
173 171 126
173 171 121
169 168 116
166 162 87
177 177 137
171 168 115
176 174 124
180 179 136
178 176 128
175 174 133
172 167 114
176 174 119
172 169 121
172 172 123
173 170 112
173 169 115
170 168 110
172 169 112
174 172 121
180 181 144
171 168 108
173 172 114
179 177 127
179 177 130
179 177 132
177 174 126
176 175 134
184 184 146
181 181 142
181 178 133
183 182 148
180 179 143
185 185 150
181 179 134
177 174 122
209 229 255
209 229 255
209 229 255
209 229 255
210 229 255
210 229 255
210 229 255
210 229 255
210 229 255
210 229 255
210 229 255
210 229 255
210 229 255
210 229 255
210 229 255
210 229 255
210 229 255
210 229 255
210 229 255
210 229 255
210 229 255
210 229 255
210 229 255
210 230 255
210 230 255
210 230 255
210 230 255
211 230 255
211 230 255
211 230 255
211 230 255
211 230 255
211 230 255
211 230 255
211 230 255
211 230 255
211 230 255
211 230 255
211 230 255
211 230 255
211 230 255
211 230 255
211 230 255
211 230 255
211 230 255
211 230 255
211 230 255
211 230 255
211 230 255
211 230 255
211 230 255
211 230 255
211 230 255
211 230 255
211 230 255
211 230 255
211 230 255
211 230 255
211 230 255
211 230 255
211 230 255
211 230 255
211 230 255
211 230 255
211 230 255
211 230 255
210 230 255
210 230 255
210 230 255
210 230 255
210 229 255
210 229 255
210 229 255
210 229 255
210 229 255
210 229 255
210 229 255
210 229 255
210 229 255
210 229 255
210 229 255
210 229 255
210 229 255
210 229 255
210 229 255
209 229 255
209 229 255
209 229 255
209 229 255
209 229 255
209 229 255
209 229 255
209 229 255
209 228 255
208 228 255
208 228 255
208 228 255
208 228 255
208 228 255
208 228 255
207 228 255
207 228 255
207 228 255
207 228 255
207 227 255
206 227 255
206 227 255
206 227 255
206 227 255
205 227 255
205 227 255
205 226 255
204 226 255
204 226 255
204 226 255
203 226 255
203 225 255
202 225 255
202 225 255
201 224 255
201 224 255
200 224 255
199 223 255
198 223 255
197 222 255
196 222 255
195 221 255
191 219 250
176 200 133
163 186 0
166 189 0
162 185 0
165 188 0
166 188 0
167 191 0
167 189 0
160 183 0
155 179 0
162 184 0
168 191 0
152 174 0
158 181 0
164 186 0
160 183 0
164 187 0
162 185 0
161 183 0
160 182 0
158 180 0
155 178 0
155 177 0
151 172 0
154 176 0
161 183 0
155 178 0
153 174 0
149 172 0
154 176 0
142 164 0
149 171 0
154 176 0
142 163 0
146 167 0
150 171 0
151 173 0
135 157 0
137 157 0
109 130 40
50 81 84
51 81 94
52 84 84
50 81 90
49 79 84
52 82 90
52 83 86
53 85 90
54 86 84
53 85 82
53 84 88
55 87 90
55 87 88
52 84 82
54 86 105
53 85 95
53 85 95
52 83 92
51 82 76
52 83 84
53 84 84
55 87 107
54 85 94
53 84 90
53 84 90
56 88 99
53 83 92
54 86 97
52 83 82
52 82 97
54 86 95
53 84 94
52 83 99
52 83 90
52 83 82
53 85 92
52 82 86
53 84 78
53 85 86
52 82 88
53 83 86
52 83 99
54 85 90
51 81 80
53 85 99
54 86 80
50 80 86
53 84 86
52 83 94
51 80 76
52 82 96
52 82 76
53 83 103
51 81 84
51 80 87
49 77 80
52 82 86
49 78 80
51 81 87
51 80 81
49 77 80
50 78 80
47 74 65
49 76 69
102 120 45
124 142 0
136 153 0
138 156 0
129 147 0
133 150 0
145 163 0
137 154 0
148 168 0
146 165 0
135 152 0
139 157 0
142 159 0
135 150 0
142 159 0
143 160 0
142 159 0
148 165 0
142 157 0
134 151 0
149 164 0
146 163 0
143 158 0
151 167 0
140 154 0
148 163 0
151 165 0
143 156 0
153 169 0
147 159 0
143 158 0
154 168 0
156 170 0
149 165 0
149 163 0
149 165 0
147 160 0
152 164 0
154 168 0
157 167 74
185 189 181
172 175 161
166 167 150
173 174 157
172 172 152
151 152 128
167 170 151
162 164 145
158 159 133
155 157 125
139 140 108
154 156 138
148 148 120
160 161 133
150 151 111
142 140 96
153 154 125
157 157 128
149 150 117
153 153 125
150 149 105
144 144 95
150 150 112
153 153 117
161 163 128
147 147 105
150 149 111
158 157 118
142 142 97
152 151 100
150 149 94
143 143 97
151 149 103
155 153 104
153 152 109
151 148 85
155 153 97
152 151 99
161 160 118
156 154 104
158 157 107
151 151 101
159 156 98
159 157 101
153 149 81
158 157 102
156 153 98
154 152 94
160 159 108
156 153 91
157 156 90
156 153 99
153 152 90
162 159 95
157 152 80
155 152 74
164 161 99
154 149 73
158 155 87
168 167 110
167 164 108
171 169 115
164 159 93
162 158 87
161 157 93
161 159 95
159 157 102
159 157 99
156 153 82
163 162 114
158 156 86
163 161 103
162 159 90
163 160 97
158 154 88
164 161 104
159 155 78
166 164 108
170 169 118
164 161 101
173 171 125
166 164 112
176 174 124
165 160 86
168 166 112
166 165 102
172 171 117
170 167 103
166 162 95
171 169 117
167 166 109
170 166 103
163 160 93
168 166 115
173 171 111
175 175 131
172 170 121
175 173 126
171 168 114
176 176 129
176 174 124
174 172 117
170 168 117
178 175 130
174 174 124
174 172 120
174 172 120
173 170 113
180 182 150
179 177 132
177 175 127
184 183 141
186 187 151
172 170 120
185 184 147
180 179 134
177 175 128
179 179 133
175 173 126
181 180 137
179 178 133
179 177 133
182 181 138
176 176 132
179 180 142
189 189 154
183 182 140
182 179 134
209 229 255
209 229 255
209 229 255
209 229 255
209 229 255
209 229 255
209 229 255
209 229 255
209 229 255
209 229 255
209 229 255
209 229 255
210 229 255
210 229 255
210 229 255
210 229 255
210 229 255
210 229 255
210 229 255
210 229 255
210 229 255
210 229 255
210 229 255
210 229 255
210 229 255
210 229 255
210 229 255
210 229 255
210 229 255
210 229 255
210 229 255
210 229 255
210 229 255
210 229 255
210 229 255
210 229 255
210 229 255
210 229 255
210 229 255
210 229 255
210 229 255
210 229 255
210 229 255
210 229 255
210 229 255
210 229 255
210 229 255
210 229 255
210 229 255
210 229 255
210 229 255
210 229 255
210 229 255
210 229 255
210 229 255
210 229 255
210 229 255
210 229 255
210 229 255
210 229 255
210 229 255
210 229 255
210 229 255
210 229 255
210 229 255
210 229 255
210 229 255
210 229 255
210 229 255
210 229 255
210 229 255
210 229 255
210 229 255
210 229 255
210 229 255
210 229 255
210 229 255
210 229 255
209 229 255
209 229 255
209 229 255
209 229 255
209 229 255
209 229 255
209 229 255
209 229 255
209 229 255
209 229 255
209 229 255
208 228 255
208 228 255
208 228 255
208 228 255
208 228 255
208 228 255
208 228 255
208 228 255
207 228 255
207 228 255
207 228 255
207 228 255
207 227 255
206 227 255
206 227 255
206 227 255
206 227 255
205 227 255
205 227 255
205 227 255
205 226 255
204 226 255
204 226 255
204 226 255
203 226 255
203 225 255
202 225 255
202 225 255
201 224 255
201 224 255
200 224 255
199 223 255
198 223 255
197 222 255
196 222 255
195 221 255
193 220 255
189 216 237
169 193 88
166 189 0
165 188 0
164 188 0
168 191 0
164 187 0
169 192 0
163 186 0
168 191 0
161 184 0
164 186 0
159 181 0
168 191 0
157 179 0
162 184 0
157 180 0
157 179 0
161 184 0
165 187 0
160 183 0
163 185 0
155 177 0
158 180 0
150 172 0
144 167 0
150 172 0
150 171 0
158 180 0
156 178 0
156 178 0
148 169 0
151 172 0
152 172 0
141 161 0
144 166 0
144 165 0
139 160 0
141 162 0
142 163 0
137 159 0
135 155 0
117 136 25
53 83 76
51 82 84
50 81 76
51 81 94
53 84 92
51 82 67
50 80 80
55 87 95
53 85 88
53 84 84
53 84 84
52 84 76
50 81 84
52 84 84
54 86 88
52 83 88
53 85 94
52 84 88
53 84 90
54 85 103
54 85 88
54 86 82
51 81 80
53 84 97
54 85 90
54 86 102
51 81 72
51 81 88
54 86 97
51 81 78
52 82 86
55 86 92
53 84 95
54 85 107
52 82 92
55 86 92
51 81 84
52 83 82
52 82 88
53 83 95
53 84 86
53 84 84
53 84 88
51 81 86
53 84 90
51 81 84
55 86 95
54 85 83
51 81 82
51 80 79
52 82 90
49 77 75
51 80 82
50 78 81
47 74 70
52 83 76
47 74 67
48 76 70
48 75 53
47 74 62
46 71 70
53 80 77
104 120 31
132 148 0
126 142 0
121 137 0
133 151 0
137 154 0
131 147 0
127 143 0
138 155 0
132 150 0
130 145 0
142 158 0
139 157 0
133 150 0
146 162 0
135 151 0
142 159 0
140 157 0
139 156 0
145 163 0
149 163 0
140 157 0
136 150 0
141 156 0
140 157 0
146 163 0
142 159 0
147 162 0
135 147 0
143 157 0
154 170 0
147 160 0
149 163 0
145 157 0
144 159 0
150 164 0
151 166 0
152 166 0
149 161 0
151 164 0
153 166 0
160 172 67
177 183 166
169 171 154
171 173 160
165 168 151
160 162 148
165 168 154
166 169 152
156 157 128
151 153 138
145 146 120
152 153 128
153 155 128
146 146 111
154 155 133
159 158 125
153 155 133
148 147 114
151 152 117
151 151 114
151 150 112
158 157 125
153 153 123
149 146 99
150 150 108
157 157 117
151 151 109
156 156 115
157 155 103
161 161 126
147 145 89
152 150 105
160 159 113
157 157 117
145 143 90
153 151 99
161 159 110
164 164 124
154 152 106
161 161 112
155 154 104
149 148 93
151 147 85
164 162 121
156 155 110
160 157 104
157 155 101
159 156 95
155 152 89
159 158 100
161 159 104
157 153 87
155 155 104
159 156 97
159 157 104
158 154 83
157 156 97
165 162 101
161 158 97
163 161 108
158 155 93
156 154 85
157 154 80
162 161 103
163 162 104
159 154 92
159 156 95
163 160 96
169 166 109
163 160 95
170 169 122
170 169 116
169 168 110
163 160 95
168 164 105
167 165 107
168 166 107
170 167 118
167 164 109
165 162 101
167 163 108
165 162 104
172 170 116
164 162 102
171 167 106
171 170 120
165 162 97
163 161 93
171 168 115
178 181 154
167 164 99
171 171 115
172 170 119
164 159 92
173 169 123
172 170 117
175 174 124
170 166 110
172 170 123
175 173 117
179 179 133
178 176 127
173 171 115
172 168 109
179 176 132
175 172 115
180 179 140
175 174 129
180 179 136
181 180 141
171 169 115
182 182 147
180 178 138
172 171 120
175 175 126
175 171 113
179 179 132
179 179 135
172 171 118
176 173 125
181 182 143
178 178 132
177 175 127
179 180 145
184 184 145
179 178 133
183 183 147
184 184 150
208 228 255
208 228 255
209 228 255
209 229 255
209 229 255
209 229 255
209 229 255
209 229 255
209 229 255
209 229 255
209 229 255
209 229 255
209 229 255
209 229 255
209 229 255
209 229 255
209 229 255
209 229 255
209 229 255
209 229 255
209 229 255
209 229 255
210 229 255
210 229 255
210 229 255
210 229 255
210 229 255
210 229 255
210 229 255
210 229 255
210 229 255
210 229 255
210 229 255
210 229 255
210 229 255
210 229 255
210 229 255
210 229 255
210 229 255
210 229 255
210 229 255
210 229 255
210 229 255
210 229 255
210 229 255
210 229 255
210 229 255
210 229 255
210 229 255
210 229 255
210 229 255
210 229 255
210 229 255
210 229 255
210 229 255
210 229 255
210 229 255
210 229 255
210 229 255
210 229 255
210 229 255
210 229 255
210 229 255
210 229 255
210 229 255
210 229 255
210 229 255
210 229 255
210 229 255
209 229 255
209 229 255
209 229 255
209 229 255
209 229 255
209 229 255
209 229 255
209 229 255
209 229 255
209 229 255
209 229 255
209 229 255
209 229 255
209 229 255
209 228 255
208 228 255
208 228 255
208 228 255
208 228 255
208 228 255
208 228 255
208 228 255
208 228 255
207 228 255
207 228 255
207 228 255
207 228 255
207 228 255
207 227 255
206 227 255
206 227 255
206 227 255
206 227 255
206 227 255
205 227 255
205 227 255
205 226 255
205 226 255
204 226 255
204 226 255
204 226 255
203 226 255
203 225 255
202 225 255
202 225 255
202 225 255
201 224 255
200 224 255
200 224 255
199 223 255
198 223 255
197 223 255
196 222 255
195 221 255
194 221 255
193 220 255
180 207 194
165 189 44
164 188 0
168 191 0
164 187 0
161 185 0
163 187 0
154 176 0
164 188 0
169 192 0
167 190 0
158 181 0
162 184 0
155 178 0
156 178 0
157 179 0
159 182 0
157 179 0
160 182 0
159 182 0
152 174 0
162 184 0
159 182 0
160 181 0
163 185 0
160 182 0
156 179 0
158 181 0
153 174 0
149 170 0
155 177 0
150 171 0
150 172 0
150 171 0
153 174 0
141 161 0
144 165 0
141 162 0
134 154 0
141 161 0
148 169 0
135 155 0
143 163 0
142 162 0
119 138 31
71 95 72
47 75 84
50 80 70
54 86 100
52 82 94
50 81 70
52 83 86
50 80 72
52 82 95
49 79 72
50 80 82
50 80 80
51 81 78
54 85 99
51 82 88
52 82 97
53 84 102
55 87 105
54 86 99
53 84 88
52 83 82
53 84 94
53 84 88
53 84 84
54 85 88
55 87 99
51 82 84
54 86 88
52 83 86
52 83 76
51 82 80
53 84 95
53 84 94
51 81 90
53 83 86
51 81 82
53 84 79
51 81 82
52 83 83
51 80 81
50 79 78
53 85 78
50 79 86
54 84 99
51 80 74
50 80 86
51 81 76
55 86 97
49 77 84
51 80 72
51 80 93
49 77 80
51 80 92
50 80 92
45 71 65
49 77 72
46 73 63
49 76 77
49 76 68
60 83 54
105 118 25
133 148 0
108 125 0
126 143 0
125 142 0
126 142 0
126 140 0
127 144 0
133 149 0
136 151 0
133 149 0
144 161 0
131 147 0
140 156 0
134 151 0
137 157 0
134 149 0
143 160 0
143 158 0
133 150 0
148 162 0
135 151 0
137 149 0
141 156 0
142 155 0
143 161 0
140 154 0
137 152 0
140 153 0
148 164 0
133 146 0
141 157 0
147 162 0
143 155 0
141 151 0
144 154 0
140 151 0
151 166 0
139 150 0
141 152 0
153 165 0
153 163 0
153 165 0
151 162 0
171 176 144
171 174 164
170 172 152
171 173 156
164 164 143
163 165 142
164 167 149
166 168 149
166 166 142
147 146 109
170 173 158
160 162 144
161 162 142
155 156 133
159 162 140
156 155 128
153 155 133
149 148 117
158 158 131
149 147 111
148 149 114
147 147 112
148 148 111
143 143 99
152 151 102
147 146 105
151 149 102
145 144 102
138 134 63
151 148 93
152 150 99
154 153 103
150 147 85
153 151 96
154 150 99
153 152 99
157 156 104
160 161 128
145 143 89
153 150 98
157 156 104
152 150 90
151 148 90
152 148 87
164 163 117
156 155 104
153 150 89
155 152 100
158 155 93
160 156 92
166 165 115
153 151 98
156 152 90
156 153 93
162 161 102
166 165 111
149 147 68
161 158 102
159 157 101
156 152 80
164 162 110
171 171 125
158 155 90
165 161 99
162 159 99
158 156 102
161 159 102
165 161 99
165 160 102
163 158 85
167 163 97
166 164 103
165 164 111
157 153 82
162 159 99
167 166 117
172 170 127
169 164 106
173 172 123
173 173 123
171 169 111
171 169 119
171 170 112
168 166 113
170 167 115
160 157 94
172 170 117
170 166 108
173 170 110
171 167 108
175 174 126
172 170 121
169 167 115
174 173 126
167 164 98
173 169 115
176 174 126
176 175 125
178 177 127
177 177 131
177 176 130
168 166 102
175 172 124
176 174 124
170 168 112
181 182 146
174 173 134
179 178 136
175 174 128
176 174 122
175 173 123
179 179 139
185 186 152
175 173 127
179 179 145
177 178 136
180 180 142
176 175 124
178 178 136
179 180 134
185 185 147
183 183 147
179 179 134
181 180 142
175 173 125
181 179 136
208 228 255
208 228 255
208 228 255
208 228 255
208 228 255
208 228 255
208 228 255
208 228 255
208 228 255
208 228 255
209 228 255
209 229 255
209 229 255
209 229 255
209 229 255
209 229 255
209 229 255
209 229 255
209 229 255
209 229 255
209 229 255
209 229 255
209 229 255
209 229 255
209 229 255
209 229 255
209 229 255
209 229 255
209 229 255
209 229 255
209 229 255
209 229 255
209 229 255
209 229 255
209 229 255
209 229 255
209 229 255
209 229 255
209 229 255
209 229 255
209 229 255
209 229 255
209 229 255
209 229 255
209 229 255
209 229 255
209 229 255
209 229 255
209 229 255
209 229 255
209 229 255
209 229 255
209 229 255
209 229 255
209 229 255
209 229 255
209 229 255
209 229 255
209 229 255
209 229 255
209 229 255
209 229 255
209 229 255
209 229 255
209 229 255
209 229 255
209 229 255
209 229 255
209 229 255
209 229 255
209 229 255
209 229 255
209 229 255
209 229 255
209 229 255
209 229 255
209 228 255
208 228 255
208 228 255
208 228 255
208 228 255
208 228 255
208 228 255
208 228 255
208 228 255
208 228 255
208 228 255
207 228 255
207 228 255
207 228 255
207 228 255
207 228 255
207 228 255
207 227 255
206 227 255
206 227 255
206 227 255
206 227 255
206 227 255
206 227 255
205 227 255
205 227 255
205 226 255
205 226 255
204 226 255
204 226 255
204 226 255
203 226 255
203 225 255
203 225 255
202 225 255
202 225 255
201 225 255
201 224 255
200 224 255
200 224 255
199 223 255
198 223 255
198 223 255
197 222 255
196 222 255
195 221 255
193 220 255
190 217 249
171 196 155
164 188 0
166 190 0
160 184 0
163 187 0
162 185 0
169 192 0
160 183 0
161 184 0
152 176 0
163 186 0
161 184 0
155 178 0
155 178 0
161 184 0
160 184 0
154 176 0
160 182 0
157 180 0
155 178 0
156 179 0
160 183 0
159 182 0
150 173 0
149 172 0
148 170 0
149 172 0
152 174 0
148 169 0
156 178 0
147 168 0
146 167 0
147 169 0
144 166 0
142 163 0
137 158 0
147 168 0
150 171 0
140 161 0
151 170 0
137 158 0
139 159 0
138 157 0
124 143 0
128 148 0
138 156 0
127 146 0
102 122 54
52 81 84
52 82 78
48 77 74
51 82 90
49 79 72
52 82 95
52 83 72
52 82 84
49 78 70
50 81 72
50 79 72
50 80 80
52 84 78
49 79 74
52 82 78
49 79 78
54 85 92
53 84 92
52 82 95
54 86 80
52 83 88
51 81 88
51 81 76
49 78 74
50 80 82
52 83 84
51 82 80
48 77 74
50 80 82
52 82 94
51 81 80
51 82 67
53 83 78
52 82 84
51 81 78
54 85 97
53 84 90
52 82 86
52 83 80
52 83 89
48 76 78
50 80 75
51 80 79
52 82 82
51 80 80
53 82 96
49 77 78
51 80 88
52 81 98
48 76 76
50 78 77
52 81 91
49 78 65
47 74 66
44 70 62
58 82 66
83 99 36
116 131 0
122 136 0
126 141 0
120 134 0
124 140 0
123 138 0
116 132 0
117 131 0
118 133 0
122 138 0
125 142 0
135 150 0
133 148 0
129 142 0
131 147 0
129 146 0
139 154 0
126 141 0
141 156 0
128 142 0
138 155 0
143 158 0
141 156 0
136 149 0
141 156 0
141 156 0
137 151 0
137 148 0
138 150 0
143 158 0
144 156 0
146 160 0
144 158 0
146 160 0
137 148 0
141 152 0
146 158 0
138 148 0
146 160 0
143 155 0
139 150 0
144 154 0
141 148 0
144 156 0
144 154 0
146 154 0
164 172 120
175 178 164
174 177 163
179 182 168
163 163 141
156 159 142
152 152 120
168 169 147
168 168 151
165 166 149
156 155 130
157 156 122
160 161 137
154 154 120
153 153 122
159 159 133
158 160 133
152 152 117
166 168 137
159 159 125
160 161 128
141 140 92
153 153 117
145 145 105
152 151 112
152 150 103
146 143 92
150 150 108
154 152 111
154 151 111
155 155 112
157 154 102
164 163 122
152 151 97
161 158 104
156 156 107
147 144 100
161 159 115
159 158 109
162 158 87
151 148 90
154 152 93
161 160 109
141 139 78
167 165 115
143 139 70
156 153 93
158 157 102
154 152 93
158 156 103
165 162 105
156 153 90
166 164 112
164 160 110
161 157 101
157 155 97
165 163 108
157 154 93
160 156 105
158 155 96
167 165 112
163 159 99
163 161 108
165 163 106
160 157 94
155 152 93
164 161 110
167 164 102
162 157 94
158 153 79
162 160 99
166 165 106
157 152 81
173 173 128
168 167 116
166 163 100
166 163 104
172 170 120
179 178 137
172 170 115
170 168 114
170 167 109
170 168 110
171 169 112
171 170 117
179 180 142
172 171 115
173 170 118
170 169 116
172 170 115
174 171 125
165 162 99
173 171 121
174 173 122
171 170 121
170 170 120
170 169 120
176 175 131
168 165 103
176 174 123
174 173 129
176 176 131
177 174 125
175 173 116
178 177 134
176 175 131
177 177 136
165 162 99
179 177 131
172 170 119
181 181 145
180 180 142
180 179 141
180 180 141
183 183 148
178 176 127
187 187 157
183 183 148
180 178 130
184 184 152
183 182 148
176 174 128
182 182 147
183 183 144
182 181 138
207 228 255
207 228 255
207 228 255
208 228 255
208 228 255
208 228 255
208 228 255
208 228 255
208 228 255
208 228 255
208 228 255
208 228 255
208 228 255
208 228 255
208 228 255
208 228 255
208 228 255
208 228 255
208 228 255
208 228 255
208 228 255
209 228 255
209 228 255
209 229 255
209 229 255
209 229 255
209 229 255
209 229 255
209 229 255
209 229 255
209 229 255
209 229 255
209 229 255
209 229 255
209 229 255
209 229 255
209 229 255
209 229 255
209 229 255
209 229 255
209 229 255
209 229 255
209 229 255
209 229 255
209 229 255
209 229 255
209 229 255
209 229 255
209 229 255
209 229 255
209 229 255
209 229 255
209 229 255
209 229 255
209 229 255
209 229 255
209 229 255
209 229 255
209 229 255
209 229 255
209 229 255
209 229 255
209 229 255
209 229 255
209 229 255
209 229 255
209 228 255
209 228 255
208 228 255
208 228 255
208 228 255
208 228 255
208 228 255
208 228 255
208 228 255
208 228 255
208 228 255
208 228 255
208 228 255
208 228 255
208 228 255
208 228 255
207 228 255
207 228 255
207 228 255
207 228 255
207 228 255
207 228 255
207 227 255
207 227 255
206 227 255
206 227 255
206 227 255
206 227 255
206 227 255
206 227 255
205 227 255
205 227 255
205 227 255
205 226 255
204 226 255
204 226 255
204 226 255
204 226 255
203 226 255
203 225 255
203 225 255
202 225 255
202 225 255
202 225 255
201 224 255
201 224 255
200 224 255
200 224 255
199 223 255
198 223 255
198 223 255
197 222 255
196 222 255
195 221 255
193 220 255
192 220 255
186 214 237
167 193 128
165 189 0
162 186 0
167 191 0
164 188 0
163 187 0
161 185 0
160 184 0
163 187 0
165 188 0
153 176 0
159 182 0
160 184 0
154 177 0
159 183 0
159 182 0
155 178 0
162 185 0
159 182 0
159 181 0
159 181 0
157 179 0
159 181 0
159 181 0
156 178 0
138 159 0
158 180 0
143 165 0
148 169 0
151 172 0
141 163 0
150 172 0
146 168 0
150 171 0
140 161 0
147 168 0
142 162 0
145 166 0
136 156 0
138 159 0
138 158 0
125 145 0
140 160 0
130 149 0
121 140 0
139 159 0
142 161 0
120 139 0
131 150 0
114 133 18
68 92 65
49 78 72
49 79 72
52 82 84
50 79 76
51 82 78
51 81 88
48 77 78
48 77 72
53 84 78
50 80 78
49 79 76
50 79 84
52 83 86
51 81 82
51 81 82
50 79 80
52 83 95
51 81 72
50 81 78
50 79 84
52 82 84
50 79 84
53 84 80
50 80 72
53 84 76
52 82 92
52 83 74
49 78 74
54 84 95
51 81 79
53 84 92
53 84 92
53 83 80
50 79 78
50 80 84
50 79 84
51 80 84
48 77 62
50 79 80
52 82 79
49 78 80
52 81 85
50 80 86
48 75 72
52 81 90
46 73 70
48 76 76
50 78 83
49 77 72
48 75 74
45 72 62
46 72 70
64 83 48
108 122 0
111 126 0
126 141 0
107 123 0
112 127 0
111 126 0
115 129 0
123 138 0
117 131 0
114 127 0
119 135 0
130 145 0
126 142 0
123 138 0
123 139 0
128 142 0
129 145 0
128 140 0
127 143 0
128 142 0
133 147 0
136 151 0
136 151 0
132 146 0
129 140 0
145 161 0
129 144 0
145 160 0
135 147 0
142 155 0
133 146 0
146 159 0
142 153 0
135 148 0
140 152 0
135 146 0
138 149 0
134 145 0
142 151 0
144 156 0
145 159 0
148 158 0
144 155 0
135 146 0
139 151 0
137 147 0
141 151 0
149 158 0
153 161 0
154 162 76
179 182 159
177 179 169
184 188 181
167 168 145
160 161 141
169 171 156
169 172 153
171 173 156
151 152 125
159 160 142
154 154 130
157 158 137
156 157 128
163 163 135
157 157 130
153 153 120
151 152 114
158 157 128
154 153 122
151 151 117
147 146 99
156 155 108
153 151 109
165 165 130
146 145 95
162 162 130
158 156 114
156 155 109
146 143 92
167 167 131
164 165 130
164 163 124
160 159 117
152 150 93
168 168 126
158 156 109
153 151 93
155 153 101
152 151 99
153 152 99
154 150 86
158 156 106
162 160 106
164 162 121
158 157 103
158 155 97
158 157 97
158 156 110
160 158 106
159 158 105
160 158 93
167 164 111
158 156 99
168 166 115
162 159 112
167 167 126
162 160 106
161 159 105
156 152 80
158 156 95
168 165 108
161 158 99
162 161 106
164 161 103
163 160 99
163 162 117
157 154 87
162 157 97
167 165 108
169 166 108
166 164 107
167 166 115
164 161 99
172 171 123
167 164 110
165 163 116
171 170 125
164 162 93
165 164 108
170 168 115
170 167 113
169 168 116
174 174 129
167 164 104
172 169 117
169 167 111
172 170 119
172 171 122
168 166 115
170 168 108
174 173 129
170 168 118
172 169 118
176 174 125
182 181 148
178 177 132
175 174 133
176 175 135
175 174 127
177 177 133
179 178 131
179 178 134
182 182 145
176 174 129
169 165 106
175 173 126
173 171 118
180 179 137
180 178 139
176 174 130
171 169 113
176 176 129
177 176 129
183 183 149
180 180 139
181 178 135
179 179 141
179 178 139
187 188 157
182 181 139
176 176 130
190 192 167
183 181 142
207 228 255
207 228 255
207 228 255
207 228 255
207 228 255
207 228 255
207 228 255
207 228 255
207 228 255
207 228 255
207 228 255
208 228 255
208 228 255
208 228 255
208 228 255
208 228 255
208 228 255
208 228 255
208 228 255
208 228 255
208 228 255
208 228 255
208 228 255
208 228 255
208 228 255
208 228 255
208 228 255
208 228 255
208 228 255
208 228 255
208 228 255
208 228 255
208 228 255
208 228 255
208 228 255
208 228 255
208 228 255
208 228 255
208 228 255
208 228 255
208 228 255
208 228 255
208 228 255
208 228 255
208 228 255
208 228 255
208 228 255
208 228 255
208 228 255
208 228 255
208 228 255
208 228 255
208 228 255
208 228 255
208 228 255
208 228 255
208 228 255
208 228 255
208 228 255
208 228 255
208 228 255
208 228 255
208 228 255
208 228 255
208 228 255
208 228 255
208 228 255
208 228 255
208 228 255
208 228 255
208 228 255
208 228 255
208 228 255
208 228 255
208 228 255
207 228 255
207 228 255
207 228 255
207 228 255
207 228 255
207 228 255
207 228 255
207 228 255
207 227 255
207 227 255
206 227 255
206 227 255
206 227 255
206 227 255
206 227 255
206 227 255
206 227 255
205 227 255
205 227 255
205 227 255
205 226 255
205 226 255
204 226 255
204 226 255
204 226 255
204 226 255
203 226 255
203 226 255
203 225 255
202 225 255
202 225 255
202 225 255
201 224 255
201 224 255
200 224 255
200 224 255
199 224 255
199 223 255
198 223 255
197 222 255
197 222 255
196 222 255
195 221 255
194 220 255
192 220 255
190 218 253
181 208 198
166 191 36
168 192 0
164 187 0
161 185 0
164 188 0
162 187 0
158 182 0
161 184 0
162 187 0
162 185 0
166 189 0
156 179 0
158 181 0
163 186 0
160 184 0
160 184 0
157 181 0
154 176 0
159 180 0
154 177 0
149 171 0
154 176 0
156 178 0
153 175 0
140 162 0
153 176 0
149 171 0
144 166 0
153 175 0
143 164 0
152 174 0
149 171 0
151 172 0
143 164 0
143 163 0
138 158 0
143 164 0
142 162 0
147 168 0
140 160 0
132 152 0
132 152 0
141 161 0
126 144 0
128 149 0
119 138 0
134 153 0
132 152 0
128 146 0
124 143 0
123 141 0
114 132 0
100 120 36
57 83 70
48 78 72
49 77 84
50 81 72
50 80 70
49 78 78
49 78 62
51 82 80
53 85 76
52 83 84
50 80 72
51 81 82
49 79 84
51 82 67
51 81 92
51 81 82
51 81 76
51 81 67
51 82 84
52 83 78
51 81 84
51 80 84
51 81 76
46 74 51
51 82 76
50 80 74
52 82 88
51 81 86
52 82 76
49 78 74
52 82 86
52 83 88
47 76 74
49 79 80
48 76 62
49 78 82
49 78 78
45 72 60
53 84 94
48 76 80
46 73 60
47 75 62
50 79 78
49 78 80
47 74 65
50 79 74
46 73 67
46 73 51
46 72 54
63 86 70
82 99 44
101 113 0
90 104 0
120 135 0
110 125 0
106 120 0
115 130 0
111 128 0
118 131 0
116 131 0
130 145 0
107 120 0
121 136 0
114 129 0
121 137 0
127 142 0
133 145 0
128 143 0
127 140 0
122 138 0
130 145 0
123 137 0
134 150 0
128 141 0
129 142 0
127 138 0
135 150 0
137 153 0
136 152 0
127 140 0
131 144 0
125 138 0
127 140 0
138 149 0
135 146 0
139 149 0
140 154 0
139 149 0
134 146 0
135 148 0
129 141 0
131 142 0
131 144 0
136 147 0
135 146 0
141 149 0
135 145 0
140 147 0
134 142 0
143 151 0
138 145 0
150 158 0
145 154 11
158 162 117
176 179 169
180 183 170
168 170 157
173 174 149
154 154 130
166 168 154
161 162 138
159 159 133
165 167 151
160 161 133
164 163 133
152 152 117
162 163 140
160 161 138
162 165 147
158 158 128
155 153 120
171 173 151
161 161 130
148 147 105
169 170 147
158 158 122
151 150 102
157 155 114
151 150 115
147 146 105
157 154 108
154 153 108
153 152 112
152 152 99
155 154 100
159 159 117
160 158 117
158 158 114
162 161 112
157 155 109
154 151 102
166 166 128
163 165 130
157 154 103
168 167 128
161 160 111
158 157 99
161 162 117
160 158 108
164 162 107
155 151 85
159 158 112
158 155 96
153 152 95
160 157 94
164 164 123
158 158 109
160 158 111
159 155 93
163 160 104
160 158 101
165 163 104
166 165 117
162 158 92
163 162 106
156 151 83
160 158 101
160 155 89
168 166 115
159 155 94
164 162 113
173 173 129
168 164 108
163 161 105
168 165 113
168 165 113
159 155 92
165 163 102
167 164 112
167 166 119
172 171 121
165 160 95
167 165 112
170 168 118
170 168 114
164 159 95
175 177 136
171 169 125
172 169 114
171 169 121
175 174 121
173 172 125
165 161 104
163 159 100
179 178 139
178 177 139
186 187 156
181 181 141
173 172 124
180 179 134
176 173 125
177 176 132
181 181 145
172 172 125
180 179 137
179 179 140
178 176 129
185 185 147
171 169 116
175 173 120
180 181 145
181 181 138
181 180 141
177 175 129
177 177 135
183 183 145
182 181 139
183 183 147
182 181 142
184 186 157
177 176 132
181 181 140
184 184 151
184 186 153
184 183 145
206 227 255
206 227 255
206 227 255
206 227 255
207 227 255
207 227 255
207 227 255
207 227 255
207 228 255
207 228 255
207 228 255
207 228 255
207 228 255
207 228 255
207 228 255
207 228 255
207 228 255
207 228 255
207 228 255
207 228 255
207 228 255
208 228 255
208 228 255
208 228 255
208 228 255
208 228 255
208 228 255
208 228 255
208 228 255
208 228 255
208 228 255
208 228 255
208 228 255
208 228 255
208 228 255
208 228 255
208 228 255
208 228 255
208 228 255
208 228 255
208 228 255
208 228 255
208 228 255
208 228 255
208 228 255
208 228 255
208 228 255
208 228 255
208 228 255
208 228 255
208 228 255
208 228 255
208 228 255
208 228 255
208 228 255
208 228 255
208 228 255
208 228 255
208 228 255
208 228 255
208 228 255
208 228 255
208 228 255
208 228 255
208 228 255
208 228 255
207 228 255
207 228 255
207 228 255
207 228 255
207 228 255
207 228 255
207 228 255
207 228 255
207 228 255
207 228 255
207 227 255
207 227 255
207 227 255
206 227 255
206 227 255
206 227 255
206 227 255
206 227 255
206 227 255
206 227 255
206 227 255
205 227 255
205 227 255
205 227 255
205 227 255
205 226 255
205 226 255
204 226 255
204 226 255
204 226 255
204 226 255
204 226 255
203 226 255
203 225 255
203 225 255
202 225 255
202 225 255
202 225 255
201 225 255
201 224 255
200 224 255
200 224 255
200 224 255
199 223 255
198 223 255
198 223 255
197 222 255
196 222 255
196 222 255
195 221 255
194 221 255
192 220 255
191 219 255
187 215 231
171 197 133
161 186 0
159 183 0
162 187 0
162 186 0
164 188 0
162 187 0
164 188 0
161 186 0
167 191 0
157 181 0
157 181 0
159 184 0
161 185 0
159 182 0
160 184 0
159 182 0
159 182 0
160 183 0
149 172 0
149 172 0
164 187 0
151 174 0
160 183 0
155 178 0
152 174 0
146 168 0
145 167 0
157 179 0
153 175 0
145 167 0
147 168 0
149 170 0
149 170 0
152 173 0
139 160 0
133 153 0
136 157 0
141 161 0
144 164 0
141 161 0
143 163 0
133 153 0
134 153 0
135 155 0
130 149 0
139 158 0
122 139 0
115 135 0
127 146 0
120 138 0
108 125 0
107 124 0
96 113 0
110 127 0
100 118 18
77 95 36
55 81 36
46 74 57
48 77 74
50 80 80
44 71 54
48 77 72
48 76 82
49 78 65
50 81 80
49 79 82
53 84 82
51 81 82
47 75 78
50 79 84
53 84 84
50 80 78
51 81 80
50 80 80
49 78 65
51 80 76
54 85 92
50 80 78
50 80 78
51 82 92
50 80 78
50 79 70
49 77 80
50 80 80
51 81 84
52 82 83
49 78 72
50 80 84
48 77 76
52 82 86
47 75 57
51 81 76
51 80 81
50 79 70
46 73 62
49 76 78
47 74 70
47 74 54
44 70 67
46 74 74
43 69 51
48 70 31
83 99 40
93 106 8
97 109 0
94 106 0
113 125 0
118 131 0
98 111 0
105 119 0
117 130 0
123 139 0
115 129 0
117 132 0
124 139 0
112 125 0
124 139 0
121 137 0
125 140 0
119 132 0
131 146 0
126 140 0
124 138 0
133 148 0
124 138 0
126 142 0
129 143 0
135 151 0
126 138 0
124 137 0
134 148 0
137 152 0
137 151 0
139 153 0
132 145 0
133 146 0
129 138 0
137 149 0
133 142 0
133 147 0
134 145 0
133 145 0
139 153 0
142 154 0
137 146 0
129 139 0
139 153 0
137 148 0
140 146 0
138 149 0
131 137 0
134 141 0
138 148 0
138 144 0
145 153 0
143 151 0
138 145 0
136 142 0
152 160 84
178 182 162
180 183 176
176 176 163
179 182 175
169 169 141
167 168 154
170 172 155
164 166 149
173 176 158
162 162 138
158 159 128
154 153 133
165 167 149
162 163 142
170 170 147
158 159 131
162 162 133
162 162 128
163 163 135
159 159 122
150 149 114
159 159 125
151 149 103
142 141 92
152 149 108
157 155 117
152 149 105
163 162 122
156 155 117
156 154 108
160 160 114
162 159 108
150 148 99
158 155 117
156 155 114
164 163 123
158 156 108
159 159 114
156 154 106
152 149 93
153 150 94
158 155 109
156 155 103
167 166 126
157 153 97
155 151 84
169 167 124
158 155 103
165 164 117
153 149 79
168 169 132
150 148 84
163 161 113
155 151 93
157 154 93
162 160 112
166 165 115
167 166 107
166 162 116
167 164 114
167 166 121
170 170 124
168 166 113
169 167 123
167 166 119
161 157 105
166 163 113
177 176 126
170 168 115
165 162 106
167 167 127
169 167 113
171 171 124
173 171 125
170 169 115
170 170 124
169 168 120
170 166 120
166 165 112
172 172 121
182 183 151
178 178 132
178 176 127
173 171 121
173 171 120
171 171 130
170 167 109
165 161 99
171 170 122
170 168 113
172 171 121
172 170 123
179 179 138
172 172 132
186 187 154
174 173 127
174 172 124
173 172 125
182 182 146
172 171 123
177 175 135
173 171 121
178 179 139
187 189 158
179 178 134
173 171 119
183 181 140
182 182 145
185 185 153
184 183 146
178 177 133
183 183 145
178 177 134
183 183 146
181 179 136
181 180 140
181 180 143
182 183 146
181 180 138
180 181 142
206 227 255
206 227 255
206 227 255
206 227 255
206 227 255
206 227 255
206 227 255
206 227 255
206 227 255
206 227 255
206 227 255
206 227 255
206 227 255
207 227 255
207 227 255
207 227 255
207 227 255
207 228 255
207 228 255
207 228 255
207 228 255
207 228 255
207 228 255
207 228 255
207 228 255
207 228 255
207 228 255
207 228 255
207 228 255
207 228 255
207 228 255
207 228 255
207 228 255
207 228 255
207 228 255
207 228 255
207 228 255
207 228 255
207 228 255
207 228 255
207 228 255
207 228 255
207 228 255
207 228 255
207 228 255
207 228 255
207 228 255
207 228 255
207 228 255
207 228 255
207 228 255
207 228 255
207 228 255
207 228 255
207 228 255
207 228 255
207 228 255
207 228 255
207 228 255
207 228 255
207 228 255
207 228 255
207 228 255
207 228 255
207 228 255
207 228 255
207 228 255
207 228 255
207 227 255
207 227 255
207 227 255
207 227 255
206 227 255
206 227 255
206 227 255
206 227 255
206 227 255
206 227 255
206 227 255
206 227 255
206 227 255
206 227 255
205 227 255
205 227 255
205 227 255
205 227 255
205 226 255
205 226 255
205 226 255
204 226 255
204 226 255
204 226 255
204 226 255
204 226 255
203 226 255
203 226 255
203 225 255
203 225 255
202 225 255
202 225 255
202 225 255
201 225 255
201 224 255
201 224 255
200 224 255
200 224 255
199 223 255
199 223 255
198 223 255
198 223 255
197 222 255
196 222 255
195 221 255
195 221 255
194 220 255
192 220 255
191 219 255
189 217 250
177 204 179
166 192 25
166 191 0
160 185 0
164 189 0
165 189 0
162 187 0
161 186 0
164 188 0
161 185 0
161 185 0
154 178 0
156 180 0
161 184 0
163 188 0
162 186 0
159 182 0
157 181 0
159 182 0
154 176 0
158 181 0
158 181 0
158 180 0
149 172 0
154 176 0
151 173 0
151 173 0
150 173 0
151 173 0
149 171 0
150 172 0
152 174 0
144 165 0
152 173 0
153 174 0
139 160 0
143 165 0
140 161 0
146 167 0
134 154 0
129 149 0
135 156 0
134 155 0
127 146 0
134 153 0
128 147 0
128 148 0
126 146 0
120 140 0
119 137 0
122 142 0
115 133 0
119 137 0
112 128 0
119 136 0
108 124 0
114 131 0
92 108 0
97 112 0
94 110 0
86 104 44
59 81 51
44 71 57
46 74 76
49 78 70
51 82 80
47 76 74
49 78 84
48 76 86
51 81 78
47 75 72
48 77 74
46 74 65
46 73 72
49 78 86
50 80 80
49 78 65
49 78 67
49 77 84
49 78 70
51 82 78
49 78 82
49 78 74
50 79 88
47 75 63
48 76 70
49 79 80
47 75 70
49 77 80
47 74 67
47 75 70
50 80 72
48 76 67
49 76 88
48 76 68
45 71 70
44 69 86
46 73 62
46 73 63
45 71 57
41 65 51
45 71 57
61 80 40
85 100 44
77 89 0
73 85 0
106 120 0
90 102 0
90 102 0
106 120 0
99 112 0
104 118 0
102 115 0
111 124 0
119 133 0
113 127 0
109 122 0
116 129 0
105 116 0
101 116 0
128 142 0
104 118 0
121 136 0
126 142 0
125 138 0
124 139 0
125 140 0
124 139 0
135 153 0
123 138 0
128 141 0
128 141 0
130 143 0
129 144 0
129 143 0
125 138 0
132 145 0
130 142 0
133 147 0
143 155 0
134 147 0
132 144 0
142 151 0
130 140 0
136 149 0
134 145 0
137 148 0
136 147 0
131 142 0
134 142 0
133 141 0
122 132 0
137 146 0
133 140 0
131 142 0
133 141 0
136 143 0
134 142 0
127 131 0
146 154 0
145 153 0
137 143 0
139 147 0
160 163 138
181 182 167
184 186 182
172 174 162
165 166 147
167 167 149
161 160 133
160 158 133
151 150 125
165 165 142
163 164 142
166 166 142
162 163 140
144 144 111
165 164 137
150 147 108
154 154 122
154 153 122
164 163 130
153 151 120
154 153 117
159 159 128
164 164 130
150 150 120
154 152 114
164 165 140
156 156 117
156 154 111
172 173 140
159 158 111
164 162 130
156 155 114
163 162 120
158 156 106
159 158 120
156 153 103
166 166 130
157 155 105
156 153 93
161 159 115
156 152 92
158 157 117
162 160 111
160 160 118
170 169 123
167 166 123
165 164 125
162 160 118
163 162 112
158 157 102
167 165 122
163 160 108
161 157 95
163 161 110
160 157 106
168 165 115
164 162 108
166 163 110
160 158 97
166 164 113
173 172 124
163 162 121
168 166 118
165 163 111
165 163 109
162 159 97
173 171 130
171 168 121
168 168 117
168 167 114
163 160 104
165 162 106
173 171 122
163 161 97
168 167 113
168 166 114
168 166 111
171 170 120
170 169 124
167 163 106
172 169 112
171 169 112
172 168 113
173 171 123
166 164 113
171 170 126
172 171 128
171 170 124
174 173 123
174 172 121
177 176 132
179 178 138
177 176 136
183 182 146
175 173 127
183 184 152
178 176 138
179 178 126
178 176 132
179 178 141
177 175 138
185 185 151
178 178 141
186 188 158
177 177 138
184 184 151
177 175 132
179 178 141
180 181 147
181 181 144
183 183 149
189 190 161
174 171 117
184 185 155
187 186 149
188 188 159
188 188 154
184 184 151
179 176 126
205 226 255
205 227 255
205 227 255
205 227 255
205 227 255
205 227 255
205 227 255
206 227 255
206 227 255
206 227 255
206 227 255
206 227 255
206 227 255
206 227 255
206 227 255
206 227 255
206 227 255
206 227 255
206 227 255
206 227 255
206 227 255
206 227 255
206 227 255
206 227 255
206 227 255
207 227 255
207 227 255
207 227 255
207 227 255
207 227 255
207 227 255
207 227 255
207 228 255
207 228 255
207 228 255
207 228 255
207 228 255
207 228 255
207 228 255
207 228 255
207 228 255
207 228 255
207 228 255
207 228 255
207 228 255
207 228 255
207 228 255
207 228 255
207 228 255
207 228 255
207 228 255
207 228 255
207 228 255
207 228 255
207 227 255
207 227 255
207 227 255
207 227 255
207 227 255
207 227 255
207 227 255
207 227 255
206 227 255
206 227 255
206 227 255
206 227 255
206 227 255
206 227 255
206 227 255
206 227 255
206 227 255
206 227 255
206 227 255
206 227 255
206 227 255
206 227 255
205 227 255
205 227 255
205 227 255
205 227 255
205 227 255
205 226 255
205 226 255
205 226 255
204 226 255
204 226 255
204 226 255
204 226 255
204 226 255
204 226 255
203 226 255
203 226 255
203 225 255
203 225 255
202 225 255
202 225 255
202 225 255
202 225 255
201 224 255
201 224 255
200 224 255
200 224 255
200 224 255
199 223 255
199 223 255
198 223 255
198 223 255
197 222 255
197 222 255
196 222 255
195 221 255
194 221 255
193 220 255
192 220 255
191 219 255
190 218 255
180 209 207
167 194 92
162 187 0
162 188 0
161 186 0
161 187 0
166 191 0
162 187 0
159 184 0
164 188 0
160 185 0
163 187 0
163 187 0
160 184 0
157 181 0
151 175 0
159 182 0
158 181 0
157 180 0
157 180 0
149 172 0
162 184 0
160 184 0
157 180 0
151 173 0
150 172 0
151 173 0
147 169 0
150 172 0
148 170 0
152 175 0
148 170 0
144 165 0
143 165 0
150 171 0
140 161 0
149 171 0
150 171 0
143 164 0
137 158 0
141 161 0
144 165 0
136 156 0
141 161 0
127 147 0
138 158 0
139 158 0
130 149 0
127 146 0
127 146 0
121 140 0
125 144 0
118 136 0
113 130 0
117 134 0
109 126 0
106 123 0
107 124 0
113 130 0
94 111 0
104 121 0
93 110 0
90 105 0
100 115 0
75 90 31
52 73 40
42 68 47
47 75 51
45 73 70
49 78 70
46 74 60
47 75 72
44 72 51
47 75 51
51 81 84
45 73 70
47 75 70
52 83 80
48 76 70
47 74 72
49 78 82
47 75 65
48 77 74
43 70 62
48 76 60
50 80 74
47 75 67
47 75 74
47 75 76
48 75 67
47 75 76
47 75 80
46 74 60
47 75 67
44 70 67
45 72 65
46 73 60
43 69 67
44 70 57
44 70 57
44 69 57
51 76 47
53 71 36
88 103 18
88 101 0
88 96 0
97 108 0
89 103 0
87 100 0
95 108 0
93 106 0
100 113 0
106 118 0
114 128 0
110 124 0
106 120 0
99 112 0
103 120 0
120 135 0
114 129 0
113 128 0
122 136 0
117 132 0
127 141 0
116 131 0
114 126 0
111 125 0
123 137 0
119 131 0
123 136 0
126 141 0
132 147 0
125 138 0
123 137 0
133 145 0
134 149 0
132 146 0
132 145 0
131 144 0
136 149 0
123 134 0
128 139 0
130 142 0
138 151 0
121 131 0
126 137 0
139 150 0
124 135 0
135 146 0
128 137 0
127 137 0
126 134 0
137 145 0
125 134 0
127 135 0
133 141 0
137 145 0
124 133 0
144 152 0
135 143 0
139 147 0
141 151 0
135 141 0
140 148 0
135 141 0
131 137 0
147 151 67
162 165 133
175 177 166
175 175 158
172 174 162
173 174 160
165 165 138
168 169 147
172 172 151
163 163 140
170 172 159
161 161 137
157 156 130
158 159 133
162 161 133
165 165 137
166 165 133
158 157 128
162 162 135
157 156 125
167 168 140
156 156 120
152 150 111
158 157 114
163 161 133
154 151 102
162 161 125
157 155 120
155 153 114
159 158 117
152 151 108
157 156 114
153 149 96
166 165 128
164 163 117
159 157 123
159 158 108
165 163 122
162 161 125
172 172 133
162 161 120
168 167 131
160 158 112
157 155 103
163 161 115
162 161 111
159 158 111
159 157 106
169 167 126
158 155 106
166 164 115
164 163 112
165 163 115
169 167 121
170 167 122
166 164 117
161 158 108
162 160 110
171 169 126
165 163 113
163 160 106
167 166 124
168 167 119
167 166 114
169 168 119
172 170 128
169 166 111
167 166 118
167 166 115
172 171 126
171 169 121
178 176 132
172 170 123
171 170 121
174 171 123
168 165 117
165 164 116
180 180 146
167 163 99
175 173 134
174 173 135
170 169 125
179 177 135
171 171 127
178 177 141
175 174 128
170 169 123
175 175 133
174 174 130
173 172 124
173 172 130
170 168 118
176 175 131
174 172 124
174 173 127
178 177 135
175 172 126
175 174 124
177 177 137
178 178 139
182 181 147
178 176 129
177 176 132
185 186 153
179 180 142
182 181 146
186 188 161
188 190 161
186 186 152
182 182 145
187 189 158
183 182 144
183 184 150
184 185 152
187 188 157
183 183 147
183 184 149
184 185 151
204 226 255
204 226 255
204 226 255
205 226 255
205 226 255
205 226 255
205 226 255
205 226 255
205 227 255
205 227 255
205 227 255
205 227 255
205 227 255
205 227 255
205 227 255
205 227 255
206 227 255
206 227 255
206 227 255
206 227 255
206 227 255
206 227 255
206 227 255
206 227 255
206 227 255
206 227 255
206 227 255
206 227 255
206 227 255
206 227 255
206 227 255
206 227 255
206 227 255
206 227 255
206 227 255
206 227 255
206 227 255
206 227 255
206 227 255
206 227 255
206 227 255
206 227 255
206 227 255
206 227 255
206 227 255
206 227 255
206 227 255
206 227 255
206 227 255
206 227 255
206 227 255
206 227 255
206 227 255
206 227 255
206 227 255
206 227 255
206 227 255
206 227 255
206 227 255
206 227 255
206 227 255
206 227 255
206 227 255
206 227 255
206 227 255
206 227 255
206 227 255
205 227 255
205 227 255
205 227 255
205 227 255
205 227 255
205 227 255
205 227 255
205 226 255
205 226 255
205 226 255
205 226 255
204 226 255
204 226 255
204 226 255
204 226 255
204 226 255
204 226 255
204 226 255
203 226 255
203 226 255
203 225 255
203 225 255
203 225 255
202 225 255
202 225 255
202 225 255
202 225 255
201 225 255
201 224 255
201 224 255
200 224 255
200 224 255
200 224 255
199 224 255
199 223 255
198 223 255
198 223 255
197 222 255
197 222 255
196 222 255
196 222 255
195 221 255
194 221 255
193 220 255
192 220 255
191 219 255
189 218 255
183 212 230
170 197 135
161 188 0
162 188 0
159 185 0
161 187 0
164 189 0
158 183 0
162 188 0
161 186 0
158 183 0
161 185 0
162 186 0
159 184 0
160 184 0
159 184 0
154 177 0
163 186 0
159 182 0
163 186 0
155 178 0
153 176 0
152 174 0
161 184 0
157 180 0
149 172 0
153 176 0
149 172 0
157 180 0
152 174 0
149 171 0
148 170 0
157 180 0
156 178 0
149 170 0
149 171 0
143 165 0
144 164 0
147 168 0
144 165 0
144 165 0
137 157 0
134 155 0
131 152 0
137 158 0
140 161 0
138 158 0
131 151 0
134 155 0
117 137 0
128 147 0
129 148 0
126 145 0
126 145 0
129 147 0
119 137 0
116 134 0
111 129 0
100 117 0
110 127 0
114 131 0
109 126 0
112 128 0
85 100 0
84 99 0
89 103 0
102 117 0
70 85 0
90 103 0
59 76 31
56 74 25
48 73 60
44 71 67
46 75 60
45 72 67
45 72 62
47 75 65
47 76 78
45 73 62
43 70 62
46 73 72
46 73 65
46 74 72
45 72 57
47 75 74
43 69 67
48 75 74
45 73 72
46 73 72
47 74 72
48 77 70
47 74 76
45 72 62
44 71 67
46 73 54
46 73 62
45 71 62
45 71 70
42 67 40
44 70 70
45 71 72
55 73 40
68 79 18
52 64 18
84 93 0
81 92 0
100 110 0
73 86 0
88 100 0
81 94 0
85 96 0
91 102 0
92 104 0
101 114 0
104 118 0
104 117 0
99 111 0
106 119 0
113 127 0
118 130 0
121 134 0
112 123 0
118 131 0
117 131 0
116 130 0
106 120 0
119 132 0
128 144 0
123 138 0
124 140 0
121 135 0
120 135 0
126 139 0
122 136 0
128 142 0
131 143 0
121 136 0
130 146 0
130 144 0
134 147 0
123 138 0
136 150 0
128 139 0
129 143 0
133 144 0
127 138 0
129 142 0
136 149 0
137 151 0
133 143 0
131 143 0
135 144 0
135 144 0
121 131 0
136 145 0
137 145 0
137 146 0
132 142 0
131 142 0
134 142 0
135 140 0
142 150 0
133 139 0
137 144 0
136 139 0
138 143 0
134 139 0
130 138 0
129 129 0
140 145 0
150 155 92
173 175 158
166 167 154
177 179 166
179 181 170
167 166 144
166 166 147
174 175 157
165 165 142
183 185 173
166 168 149
162 162 140
164 165 147
158 159 135
158 157 125
167 168 140
168 168 147
164 165 133
160 161 133
153 152 114
159 158 120
151 149 111
163 163 140
159 160 130
157 154 117
158 157 125
159 158 125
165 164 128
162 161 120
161 158 111
158 156 117
165 164 122
143 138 80
159 156 115
164 161 117
161 159 114
171 170 135
161 160 120
154 152 102
159 158 115
156 152 88
172 171 133
163 163 126
175 176 142
168 169 131
167 166 125
168 168 128
166 163 117
161 158 109
167 166 121
158 154 105
171 170 127
161 158 104
167 167 125
168 167 124
168 166 119
168 165 113
163 160 116
160 159 110
166 163 109
163 160 104
164 163 108
164 162 109
169 168 116
163 161 104
167 165 110
168 166 119
165 163 120
180 179 141
168 166 120
168 168 123
167 163 113
169 168 120
172 170 120
178 179 146
175 174 136
181 180 141
165 161 99
168 167 110
175 175 135
173 173 130
164 159 106
176 176 135
169 168 118
170 168 121
174 174 130
175 173 121
177 176 132
172 171 123
179 179 138
181 181 142
174 174 131
178 175 133
177 175 129
177 176 135
175 174 126
178 177 135
180 179 141
175 174 134
177 175 133
188 190 167
181 181 140
179 178 137
186 187 152
177 175 133
169 166 110
187 188 159
173 169 116
179 178 133
179 177 139
177 176 133
183 184 154
186 187 153
178 179 137
185 186 154
180 181 141
203 226 255
204 226 255
204 226 255
204 226 255
204 226 255
204 226 255
204 226 255
204 226 255
204 226 255
204 226 255
204 226 255
205 226 255
205 226 255
205 226 255
205 226 255
205 226 255
205 227 255
205 227 255
205 227 255
205 227 255
205 227 255
205 227 255
205 227 255
205 227 255
205 227 255
205 227 255
205 227 255
205 227 255
205 227 255
206 227 255
206 227 255
206 227 255
206 227 255
206 227 255
206 227 255
206 227 255
206 227 255
206 227 255
206 227 255
206 227 255
206 227 255
206 227 255
206 227 255
206 227 255
206 227 255
206 227 255
206 227 255
206 227 255
206 227 255
206 227 255
206 227 255
206 227 255
206 227 255
206 227 255
205 227 255
205 227 255
205 227 255
205 227 255
205 227 255
205 227 255
205 227 255
205 227 255
205 227 255
205 227 255
205 227 255
205 226 255
205 226 255
205 226 255
205 226 255
205 226 255
205 226 255
204 226 255
204 226 255
204 226 255
204 226 255
204 226 255
204 226 255
204 226 255
204 226 255
203 226 255
203 226 255
203 226 255
203 225 255
203 225 255
203 225 255
202 225 255
202 225 255
202 225 255
202 225 255
202 225 255
201 225 255
201 224 255
201 224 255
201 224 255
200 224 255
200 224 255
200 224 255
199 223 255
199 223 255
198 223 255
198 223 255
198 223 255
197 222 255
196 222 255
196 222 255
195 221 255
194 221 255
194 221 255
193 220 255
192 220 255
191 219 255
189 218 255
186 215 244
173 201 163
164 192 25
160 186 0
163 189 0
162 188 0
162 188 0
157 182 0
161 187 0
158 182 0
165 190 0
157 182 0
156 182 0
159 183 0
161 186 0
156 180 0
144 167 0
155 178 0
155 179 0
157 181 0
157 182 0
155 178 0
157 181 0
153 177 0
156 180 0
153 176 0
157 179 0
154 177 0
146 168 0
148 170 0
151 174 0
147 170 0
154 175 0
156 178 0
151 173 0
156 178 0
144 166 0
147 169 0
147 169 0
143 164 0
143 164 0
144 164 0
133 153 0
138 159 0
136 156 0
139 159 0
136 156 0
131 151 0
132 151 0
130 150 0
128 147 0
129 147 0
133 152 0
120 139 0
117 135 0
114 133 0
121 139 0
122 141 0
120 139 0
105 123 0
122 139 0
105 123 0
110 125 0
115 133 0
100 117 0
97 112 0
97 112 0
90 104 0
87 102 0
86 99 0
78 92 0
85 99 0
74 87 0
64 76 0
46 61 31
57 75 40
48 68 44
41 67 51
39 64 57
43 70 62
43 69 54
42 68 51
45 73 70
45 72 60
44 70 57
45 71 72
45 73 57
44 70 60
46 73 72
45 73 60
44 71 60
43 69 51
44 71 57
43 69 76
47 74 75
45 72 62
43 68 65
41 66 62
38 62 54
43 62 47
49 65 40
66 78 0
74 85 18
71 80 0
64 76 0
75 85 0
82 94 0
96 108 0
95 104 0
86 97 0
78 91 0
85 98 0
88 99 0
114 126 0
95 107 0
90 103 0
98 109 0
97 110 0
95 108 0
99 112 0
108 123 0
108 122 0
108 123 0
108 121 0
119 133 0
112 125 0
113 129 0
109 120 0
122 135 0
115 131 0
122 136 0
119 132 0
118 131 0
103 115 0
121 134 0
120 131 0
125 138 0
129 142 0
121 134 0
132 146 0
128 141 0
126 136 0
126 141 0
124 136 0
125 140 0
126 139 0
134 145 0
123 134 0
137 149 0
131 141 0
137 148 0
121 134 0
131 142 0
121 132 0
128 141 0
127 137 0
126 135 0
139 148 0
123 132 0
128 134 0
134 141 0
125 128 0
132 142 0
132 141 0
126 131 0
135 141 0
135 143 0
131 138 0
136 140 0
129 134 0
128 130 0
131 132 0
139 143 0
133 137 0
152 156 114
164 164 143
172 174 163
172 173 155
174 176 160
177 177 161
174 174 155
167 167 151
164 164 140
169 170 147
165 162 125
168 170 149
159 158 133
157 155 128
159 158 122
158 156 120
170 169 142
164 162 135
171 172 151
159 159 130
151 149 108
159 158 122
161 157 111
167 167 133
164 164 128
162 160 122
162 162 130
170 170 135
151 147 93
161 161 135
161 161 120
146 142 92
167 167 133
168 168 133
156 153 99
162 161 122
171 171 135
165 164 125
169 168 131
158 156 106
165 164 123
157 154 103
164 161 110
167 165 121
158 157 106
164 162 123
169 168 120
161 158 106
164 161 113
166 164 115
164 162 122
158 156 112
159 157 109
167 164 121
163 160 105
168 165 111
157 155 104
167 165 125
161 159 108
169 166 121
171 170 130
176 176 140
168 167 121
178 179 142
167 164 116
171 170 128
175 173 127
173 173 132
167 165 111
170 167 118
174 175 135
174 172 132
174 174 128
173 173 129
173 171 128
162 160 110
167 164 120
174 174 135
175 175 131
173 172 126
174 173 131
176 174 131
173 172 127
181 183 151
177 177 134
179 177 135
182 182 145
169 168 117
168 163 112
180 179 140
179 178 136
181 181 147
184 184 147
182 182 147
178 177 136
184 184 151
177 175 130
187 188 162
188 190 163
178 178 142
179 179 137
175 174 127
188 189 160
183 182 142
182 179 135
180 178 140
180 179 142
188 190 161
180 179 138
180 180 146
183 182 148
184 184 148
184 183 150
184 184 147
203 225 255
203 225 255
203 225 255
203 225 255
203 226 255
203 226 255
203 226 255
203 226 255
204 226 255
204 226 255
204 226 255
204 226 255
204 226 255
204 226 255
204 226 255
204 226 255
204 226 255
204 226 255
204 226 255
204 226 255
204 226 255
204 226 255
205 226 255
205 226 255
205 226 255
205 226 255
205 226 255
205 226 255
205 226 255
205 226 255
205 226 255
205 226 255
205 227 255
205 227 255
205 227 255
205 227 255
205 227 255
205 227 255
205 227 255
205 227 255
205 227 255
205 227 255
205 227 255
205 227 255
205 227 255
205 227 255
205 227 255
205 227 255
205 227 255
205 226 255
205 227 255
205 226 255
205 226 255
205 226 255
205 226 255
205 226 255
205 226 255
205 226 255
205 226 255
205 226 255
205 226 255
204 226 255
204 226 255
204 226 255
204 226 255
204 226 255
204 226 255
204 226 255
204 226 255
204 226 255
204 226 255
204 226 255
204 226 255
203 226 255
203 226 255
203 226 255
203 226 255
203 225 255
203 225 255
203 225 255
202 225 255
202 225 255
202 225 255
202 225 255
202 225 255
202 225 255
201 225 255
201 224 255
201 224 255
201 224 255
200 224 255
200 224 255
200 224 255
199 223 255
199 223 255
199 223 255
198 223 255
198 223 255
197 222 255
197 222 255
196 222 255
196 222 255
195 221 255
195 221 255
194 221 255
193 220 255
192 220 255
191 219 255
190 219 255
189 218 255
185 215 244
177 206 188
165 191 36
163 190 0
162 188 0
162 188 0
162 188 0
155 181 0
160 186 0
160 186 0
159 185 0
164 190 0
163 188 0
159 185 0
157 182 0
162 187 0
163 186 0
167 191 0
164 188 0
150 173 0
155 179 0
152 176 0
161 185 0
154 178 0
149 172 0
155 178 0
156 178 0
150 172 0
156 180 0
160 183 0
151 174 0
153 175 0
154 176 0
153 175 0
144 165 0
147 168 0
149 171 0
146 167 0
147 169 0
146 167 0
143 163 0
142 163 0
137 158 0
141 162 0
133 154 0
140 161 0
141 162 0
130 149 0
138 157 0
136 156 0
128 148 0
125 144 0
124 144 0
128 147 0
118 137 0
131 150 0
120 139 0
121 139 0
119 137 0
118 137 0
119 137 0
113 129 0
127 145 0
107 125 0
117 134 0
100 117 0
102 119 0
98 115 0
82 96 0
86 101 0
101 117 0
87 102 0
98 112 0
77 89 0
75 88 0
71 84 0
72 83 0
60 72 0
59 70 0
63 74 18
49 60 25
42 56 0
46 64 36
58 76 47
46 68 54
38 61 54
42 68 62
41 66 60
41 66 65
44 69 67
39 63 40
37 60 40
39 63 51
41 62 18
35 55 44
35 56 36
51 64 36
41 55 25
42 59 36
60 73 25
77 89 0
59 67 0
67 75 0
59 69 0
75 84 0
72 81 0
79 88 0
86 98 0
78 87 0
74 86 0
79 93 0
82 92 0
85 92 0
89 101 0
88 101 0
96 110 0
103 116 0
84 95 0
89 99 0
95 109 0
102 116 0
106 118 0
98 111 0
108 122 0
112 126 0
119 134 0
124 140 0
120 133 0
114 129 0
114 126 0
115 130 0
123 138 0
115 128 0
108 123 0
123 136 0
118 132 0
124 139 0
129 142 0
125 138 0
130 146 0
114 127 0
127 140 0
130 143 0
125 140 0
138 150 0
126 138 0
123 134 0
129 143 0
131 141 0
131 142 0
122 132 0
123 134 0
131 144 0
130 142 0
134 145 0
132 142 0
134 145 0
120 129 0
135 145 0
119 127 0
130 140 0
120 125 0
130 138 0
129 138 0
130 138 0
129 138 0
132 135 0
126 135 0
134 138 0
131 135 0
129 133 0
123 127 0
136 140 0
132 134 0
124 128 0
120 122 0
125 129 0
133 137 44
156 158 114
172 173 161
177 177 168
175 177 169
171 173 158
162 163 140
175 176 162
166 167 147
159 158 135
164 163 137
182 185 169
165 166 151
158 155 122
163 162 125
165 165 142
153 152 114
168 166 140
168 167 137
157 156 122
155 150 105
163 160 120
163 162 122
158 156 117
163 162 135
160 157 122
160 158 122
161 160 114
152 149 105
174 172 140
164 161 122
165 164 133
169 168 137
156 153 102
158 156 117
165 163 125
164 163 125
154 153 109
170 170 140
161 159 109
164 162 118
168 167 135
163 160 115
169 169 136
174 172 134
161 158 106
168 165 113
170 169 128
160 158 106
162 160 101
177 177 141
167 163 113
168 166 121
162 158 103
167 164 123
168 167 116
171 168 123
175 174 132
164 162 112
176 175 142
166 164 126
165 163 116
174 171 124
174 172 127
170 169 122
168 167 122
168 165 116
168 166 109
171 167 116
176 176 138
175 174 134
178 178 143
179 179 144
169 167 116
167 164 115
173 172 134
180 181 142
169 169 120
172 170 122
169 168 124
171 170 123
179 179 142
171 169 114
181 182 147
178 176 136
182 181 142
183 184 151
171 169 125
179 179 140
177 176 134
176 174 133
182 184 151
178 177 137
178 175 137
177 176 134
185 184 150
184 183 149
190 191 164
183 182 150
176 175 133
181 179 137
187 189 161
176 174 126
183 183 147
178 176 136
182 182 145
182 181 143
191 193 171
181 180 144
193 195 172
185 184 150
188 189 161
182 182 144
202 225 255
202 225 255
202 225 255
202 225 255
202 225 255
202 225 255
203 225 255
203 225 255
203 225 255
203 225 255
203 225 255
203 226 255
203 226 255
203 226 255
203 226 255
203 226 255
203 226 255
204 226 255
204 226 255
204 226 255
204 226 255
204 226 255
204 226 255
204 226 255
204 226 255
204 226 255
204 226 255
204 226 255
204 226 255
204 226 255
204 226 255
204 226 255
204 226 255
204 226 255
204 226 255
204 226 255
204 226 255
204 226 255
204 226 255
204 226 255
204 226 255
204 226 255
204 226 255
204 226 255
204 226 255
204 226 255
204 226 255
204 226 255
204 226 255
204 226 255
204 226 255
204 226 255
204 226 255
204 226 255
204 226 255
204 226 255
204 226 255
204 226 255
204 226 255
204 226 255
204 226 255
204 226 255
204 226 255
204 226 255
204 226 255
203 226 255
203 226 255
203 226 255
203 226 255
203 225 255
203 225 255
203 225 255
203 225 255
203 225 255
202 225 255
202 225 255
202 225 255
202 225 255
202 225 255
202 225 255
201 225 255
201 225 255
201 224 255
201 224 255
201 224 255
200 224 255
200 224 255
200 224 255
200 224 255
199 224 255
199 223 255
199 223 255
198 223 255
198 223 255
198 223 255
197 222 255
197 222 255
196 222 255
196 222 255
195 221 255
195 221 255
194 221 255
193 220 255
193 220 255
192 219 255
191 219 255
190 218 255
188 218 255
185 215 241
174 202 169
167 194 62
161 187 0
163 191 0
160 187 0
162 189 0
159 185 0
161 187 0
165 190 0
160 186 0
165 190 0
159 184 0
157 181 0
157 182 0
156 180 0
158 182 0
157 182 0
153 178 0
158 181 0
162 186 0
163 187 0
157 180 0
157 180 0
151 174 0
151 175 0
149 172 0
158 181 0
147 169 0
160 183 0
147 169 0
156 179 0
153 175 0
150 172 0
156 178 0
151 173 0
146 169 0
149 171 0
149 170 0
150 172 0
148 169 0
149 170 0
150 172 0
139 160 0
152 173 0
135 156 0
142 163 0
149 169 0
131 151 0
143 164 0
136 156 0
140 161 0
131 151 0
134 153 0
125 144 0
126 144 0
127 146 0
127 146 0
126 143 0
106 125 0
119 138 0
118 136 0
126 144 0
115 132 0
106 124 0
120 137 0
97 113 0
110 126 0
102 119 0
92 107 0
101 117 0
88 105 0
104 119 0
97 113 0
90 103 0
74 87 0
94 108 0
84 97 0
69 84 0
64 77 0
72 84 0
68 81 0
60 68 0
57 68 0
74 85 0
54 63 0
59 69 0
52 62 0
64 73 0
58 66 0
73 83 0
50 59 0
42 50 0
31 38 0
58 67 0
49 57 0
54 64 0
50 58 0
66 77 0
55 63 0
58 67 0
66 75 0
67 76 0
64 74 0
70 79 0
65 74 0
84 95 0
60 72 0
76 87 0
68 78 0
84 94 0
80 90 0
83 96 0
75 86 0
82 93 0
103 113 0
84 96 0
88 101 0
79 91 0
95 106 0
110 124 0
102 115 0
89 101 0
112 127 0
102 115 0
109 124 0
104 116 0
112 125 0
110 123 0
104 119 0
121 134 0
117 132 0
131 146 0
115 129 0
120 133 0
125 139 0
126 140 0
115 130 0
123 137 0
115 127 0
116 127 0
123 137 0
131 147 0
120 135 0
124 137 0
127 137 0
123 135 0
123 136 0
139 152 0
125 138 0
128 138 0
126 138 0
130 142 0
119 129 0
135 149 0
136 145 0
128 138 0
112 121 0
133 143 0
123 133 0
129 139 0
131 141 0
125 133 0
136 144 0
123 132 0
118 123 0
127 133 0
134 140 0
127 131 0
134 140 0
130 137 0
124 130 0
135 141 0
136 144 0
132 137 0
128 135 0
127 130 0
124 125 0
129 131 0
126 128 0
125 128 0
126 124 25
153 154 117
173 173 161
181 183 171
171 172 162
167 165 142
168 170 161
179 182 173
162 161 138
169 169 147
167 168 149
159 159 140
162 159 140
172 172 156
163 163 130
168 169 147
166 165 137
164 163 133
163 163 133
171 171 149
164 163 133
165 162 128
166 167 140
162 160 128
161 160 117
164 163 130
170 169 137
176 176 155
168 168 140
163 161 122
164 164 131
156 152 111
157 155 102
162 159 117
162 160 120
166 165 128
163 160 108
167 166 128
160 156 115
167 164 123
161 160 112
166 163 118
160 156 106
163 161 103
169 166 126
165 161 124
172 171 140
172 169 124
163 162 120
173 172 136
167 165 125
164 160 101
164 160 103
171 169 125
171 168 120
171 171 134
173 171 136
169 168 123
169 168 122
173 170 132
160 157 102
173 171 132
169 167 117
170 168 123
164 162 107
175 173 134
175 173 129
160 156 97
167 165 115
167 165 121
174 171 132
171 169 124
174 173 130
171 169 122
176 177 141
175 174 134
174 173 128
172 170 126
177 177 147
173 171 124
171 168 120
171 169 121
178 177 138
173 172 126
184 184 148
180 177 139
179 180 142
177 176 139
181 182 148
183 184 153
176 174 128
178 177 130
181 180 142
186 187 152
181 181 144
182 182 149
179 177 135
185 186 154
181 181 148
180 181 149
187 187 154
184 185 147
181 181 141
183 183 148
183 182 145
183 183 153
189 191 163
182 181 142
186 186 154
183 184 147
181 180 146
201 224 255
201 224 255
201 224 255
201 225 255
201 225 255
202 225 255
202 225 255
202 225 255
202 225 255
202 225 255
202 225 255
202 225 255
202 225 255
202 225 255
203 225 255
203 225 255
203 225 255
203 225 255
203 225 255
203 225 255
203 225 255
203 225 255
203 226 255
203 226 255
203 226 255
203 226 255
203 226 255
203 226 255
203 226 255
203 226 255
203 226 255
203 226 255
203 226 255
204 226 255
204 226 255
204 226 255
204 226 255
204 226 255
204 226 255
204 226 255
204 226 255
204 226 255
204 226 255
204 226 255
204 226 255
204 226 255
204 226 255
204 226 255
203 226 255
203 226 255
203 226 255
203 226 255
203 226 255
203 226 255
203 226 255
203 226 255
203 226 255
203 226 255
203 226 255
203 226 255
203 225 255
203 225 255
203 225 255
203 225 255
203 225 255
203 225 255
203 225 255
202 225 255
202 225 255
202 225 255
202 225 255
202 225 255
202 225 255
202 225 255
202 225 255
201 225 255
201 224 255
201 224 255
201 224 255
201 224 255
201 224 255
200 224 255
200 224 255
200 224 255
200 224 255
199 224 255
199 223 255
199 223 255
199 223 255
198 223 255
198 223 255
197 223 255
197 222 255
197 222 255
196 222 255
196 222 255
195 221 255
195 221 255
194 221 255
193 220 255
193 220 255
192 220 255
191 219 255
190 219 255
189 218 255
188 217 255
181 211 228
174 203 169
163 191 51
160 188 0
163 190 0
159 186 0
164 191 0
158 184 0
164 190 0
161 187 0
154 179 0
163 190 0
161 187 0
162 187 0
155 180 0
158 183 0
155 180 0
157 182 0
156 180 0
151 174 0
152 176 0
154 178 0
156 179 0
159 182 0
160 183 0
155 178 0
157 181 0
158 182 0
156 179 0
157 179 0
152 175 0
156 179 0
147 169 0
150 173 0
150 172 0
151 172 0
157 179 0
148 169 0
138 159 0
144 166 0
152 173 0
154 177 0
142 164 0
136 158 0
150 171 0
139 160 0
148 168 0
140 160 0
147 168 0
134 154 0
135 156 0
132 152 0
136 156 0
144 164 0
141 160 0
137 156 0
131 150 0
130 149 0
121 139 0
130 149 0
124 143 0
121 139 0
123 141 0
106 125 0
118 137 0
108 127 0
124 142 0
107 125 0
106 123 0
109 127 0
104 121 0
110 126 0
102 118 0
107 123 0
97 112 0
74 91 0
83 97 0
88 104 0
90 104 0
88 102 0
92 107 0
72 86 0
76 88 0
85 98 0
68 81 0
62 74 0
74 84 0
75 85 0
65 76 0
49 57 0
78 88 0
59 69 0
52 63 0
65 76 0
68 81 0
65 75 0
55 65 0
59 68 0
69 80 0
53 62 0
66 74 0
47 58 0
59 68 0
70 81 0
71 81 0
76 85 0
81 94 0
66 76 0
71 82 0
83 94 0
79 90 0
69 80 0
85 97 0
93 103 0
88 100 0
91 105 0
86 97 0
92 103 0
99 111 0
82 94 0
93 105 0
95 108 0
103 114 0
114 127 0
113 128 0
93 107 0
107 122 0
103 118 0
111 124 0
108 123 0
105 120 0
118 132 0
117 130 0
120 135 0
121 135 0
123 136 0
112 125 0
122 136 0
132 147 0
115 127 0
129 145 0
119 133 0
131 144 0
128 143 0
128 143 0
133 147 0
129 144 0
122 136 0
130 143 0
126 141 0
128 143 0
130 142 0
135 148 0
117 131 0
130 144 0
122 134 0
120 132 0
132 142 0
126 138 0
132 142 0
140 152 0
130 141 0
125 132 0
122 133 0
131 141 0
127 137 0
130 138 0
122 133 0
138 146 0
122 131 0
135 143 0
126 131 0
130 138 0
129 137 0
133 142 0
129 135 0
121 124 0
128 131 0
138 143 0
129 131 0
120 121 0
136 141 0
126 129 0
118 119 0
127 126 0
130 132 51
155 155 111
180 181 173
184 187 183
179 182 177
177 178 165
172 173 160
177 179 167
167 167 144
163 162 135
168 168 147
155 153 125
164 165 144
162 160 128
170 169 149
172 172 153
167 166 135
165 164 135
162 158 117
155 153 114
163 160 125
170 170 142
161 160 128
164 161 120
161 160 130
166 165 133
163 161 128
164 162 125
159 156 114
170 169 133
157 154 105
170 169 135
170 170 144
172 171 140
170 170 140
157 153 103
165 164 130
165 163 120
165 163 125
155 153 109
173 174 138
164 163 115
158 155 95
175 175 145
163 160 109
167 164 123
161 158 109
172 171 133
170 168 133
160 157 107
177 177 144
171 170 138
165 163 117
165 160 103
169 168 125
183 184 154
169 166 117
180 180 150
177 178 143
172 170 118
169 168 121
167 167 122
172 171 127
173 170 126
171 169 129
170 167 118
168 166 123
172 172 122
173 171 127
169 166 120
174 173 131
172 171 126
170 168 126
176 176 137
168 166 125
183 184 147
177 177 146
182 183 151
180 180 142
177 175 131
165 163 115
184 182 149
183 183 153
183 182 147
187 188 160
176 174 129
185 186 159
174 172 133
184 185 157
186 186 154
181 182 148
180 181 151
181 180 141
180 180 139
178 180 141
176 176 141
188 189 161
182 182 151
181 179 137
187 188 159
181 181 147
186 187 155
190 192 167
186 187 160
190 192 166
186 185 156
184 185 151
187 187 159
182 182 147
200 224 255
200 224 255
200 224 255
200 224 255
200 224 255
201 224 255
201 224 255
201 224 255
201 224 255
201 224 255
201 225 255
201 225 255
202 225 255
202 225 255
202 225 255
202 225 255
202 225 255
202 225 255
202 225 255
202 225 255
202 225 255
202 225 255
202 225 255
202 225 255
202 225 255
202 225 255
203 225 255
203 225 255
203 225 255
203 225 255
203 225 255
203 225 255
203 225 255
203 225 255
203 225 255
203 225 255
203 225 255
203 225 255
203 225 255
203 225 255
203 225 255
203 225 255
203 225 255
203 225 255
203 225 255
203 225 255
203 225 255
203 225 255
203 225 255
203 225 255
203 225 255
203 225 255
203 225 255
203 225 255
202 225 255
202 225 255
202 225 255
202 225 255
202 225 255
202 225 255
202 225 255
202 225 255
202 225 255
202 225 255
202 225 255
202 225 255
202 225 255
201 225 255
201 225 255
201 225 255
201 224 255
201 224 255
201 224 255
201 224 255
201 224 255
200 224 255
200 224 255
200 224 255
200 224 255
200 224 255
199 224 255
199 223 255
199 223 255
199 223 255
198 223 255
198 223 255
198 223 255
198 223 255
197 222 255
197 222 255
196 222 255
196 222 255
196 222 255
195 221 255
195 221 255
194 221 255
193 220 255
193 220 255
192 220 255
191 219 255
191 219 255
190 218 255
188 218 255
187 217 255
182 212 231
168 197 137
163 191 44
163 190 0
161 188 0
160 187 0
163 191 0
162 189 0
159 185 0
164 189 0
160 186 0
164 190 0
158 185 0
156 181 0
162 187 0
157 182 0
163 188 0
154 179 0
156 180 0
159 183 0
156 180 0
155 179 0
156 180 0
152 175 0
163 187 0
153 175 0
163 187 0
159 182 0
161 184 0
147 170 0
161 184 0
150 173 0
155 177 0
158 181 0
154 176 0
149 171 0
145 167 0
151 173 0
149 170 0
152 173 0
152 174 0
144 166 0
148 169 0
145 167 0
146 167 0
141 162 0
146 167 0
148 169 0
135 156 0
137 157 0
136 157 0
142 162 0
147 168 0
135 155 0
135 155 0
141 161 0
136 156 0
128 148 0
136 155 0
122 142 0
128 147 0
121 140 0
116 134 0
114 132 0
133 151 0
117 135 0
115 132 0
126 145 0
115 132 0
120 137 0
119 137 0
107 125 0
103 120 0
119 135 0
109 125 0
107 123 0
93 109 0
90 106 0
96 111 0
87 102 0
86 100 0
90 105 0
93 107 0
80 95 0
71 84 0
90 103 0
70 83 0
64 77 0
78 91 0
72 84 0
61 76 0
74 85 0
68 80 0
70 82 0
53 64 0
66 78 0
80 91 0
62 73 0
72 81 0
61 72 0
65 76 0
81 93 0
78 89 0
75 86 0
76 88 0
74 86 0
81 93 0
82 94 0
80 92 0
76 88 0
76 88 0
91 101 0
99 111 0
92 104 0
87 99 0
93 105 0
96 109 0
94 106 0
79 93 0
89 101 0
99 112 0
94 108 0
98 111 0
93 106 0
104 118 0
123 137 0
107 120 0
107 121 0
123 136 0
108 120 0
113 125 0
116 130 0
110 123 0
111 126 0
120 136 0
115 129 0
115 130 0
118 132 0
115 129 0
121 133 0
117 130 0
115 129 0
113 126 0
128 140 0
118 131 0
127 139 0
124 137 0
118 131 0
128 142 0
130 143 0
139 155 0
129 144 0
135 148 0
127 138 0
134 148 0
137 152 0
122 135 0
124 136 0
130 141 0
131 143 0
136 147 0
136 149 0
133 142 0
125 133 0
118 130 0
119 131 0
127 137 0
130 143 0
133 146 0
129 137 0
132 144 0
132 141 0
135 141 0
124 129 0
139 149 0
130 137 0
128 134 0
132 137 0
131 136 0
128 133 0
133 139 0
113 117 0
130 135 0
127 132 0
126 131 0
123 125 0
118 119 0
124 125 0
131 135 0
119 119 25
140 140 77
165 166 149
178 178 166
188 189 182
176 178 167
166 166 151
177 177 161
173 174 159
178 179 163
179 180 161
171 172 153
163 161 140
168 168 144
163 162 135
171 170 142
168 167 142
160 158 128
169 169 142
176 177 153
169 167 142
167 164 128
164 162 133
168 166 140
160 157 122
167 166 140
170 170 149
170 170 140
165 164 133
161 159 128
168 165 133
168 168 137
172 171 140
170 169 140
160 156 115
170 169 131
163 161 120
170 167 125
161 159 120
162 162 128
167 164 120
171 170 135
169 168 129
170 170 131
166 164 123
166 163 122
169 168 120
169 167 131
175 174 138
166 164 117
172 172 134
167 164 126
161 158 104
165 163 117
183 183 156
165 163 116
177 175 135
171 169 126
173 170 130
176 175 142
173 171 132
174 173 131
173 173 134
173 171 132
170 167 122
169 167 128
173 170 128
175 174 134
180 181 144
179 179 142
184 185 152
170 167 128
178 177 141
181 181 153
178 177 142
168 165 112
176 172 129
186 188 160
184 183 155
180 179 146
181 180 142
183 184 153
180 181 153
194 196 176
180 179 141
176 174 136
184 184 153
181 182 150
180 180 143
181 180 145
177 175 133
188 189 163
182 183 149
180 180 146
183 183 149
176 175 133
183 184 155
188 188 162
184 185 154
197 200 182
181 182 148
189 190 164
187 188 159
193 195 172
188 187 157
191 192 165
195 198 179
198 223 255
199 223 255
199 223 255
199 223 255
199 224 255
200 224 255
200 224 255
200 224 255
200 224 255
200 224 255
200 224 255
200 224 255
201 224 255
201 224 255
201 224 255
201 224 255
201 224 255
201 224 255
201 224 255
201 225 255
201 225 255
201 225 255
201 225 255
202 225 255
202 225 255
202 225 255
202 225 255
202 225 255
202 225 255
202 225 255
202 225 255
202 225 255
202 225 255
202 225 255
202 225 255
202 225 255
202 225 255
202 225 255
202 225 255
202 225 255
202 225 255
202 225 255
202 225 255
202 225 255
202 225 255
202 225 255
202 225 255
202 225 255
202 225 255
202 225 255
202 225 255
202 225 255
202 225 255
202 225 255
202 225 255
202 225 255
202 225 255
201 225 255
201 225 255
201 225 255
201 225 255
201 224 255
201 224 255
201 224 255
201 224 255
201 224 255
201 224 255
200 224 255
200 224 255
200 224 255
200 224 255
200 224 255
200 224 255
200 224 255
199 224 255
199 223 255
199 223 255
199 223 255
199 223 255
198 223 255
198 223 255
198 223 255
198 223 255
197 222 255
197 222 255
197 222 255
196 222 255
196 222 255
196 222 255
195 221 255
195 221 255
194 221 255
194 221 255
193 220 255
193 220 255
192 220 255
191 219 255
191 219 255
190 218 255
189 218 255
188 217 255
185 215 249
177 206 193
163 191 102
162 189 0
161 188 0
165 192 0
160 188 0
161 189 0
155 182 0
159 186 0
160 186 0
161 188 0
164 190 0
160 186 0
160 186 0
157 182 0
157 181 0
153 178 0
160 184 0
155 180 0
158 183 0
155 180 0
154 178 0
160 183 0
155 179 0
151 175 0
159 183 0
150 173 0
155 178 0
159 182 0
158 182 0
152 176 0
157 180 0
152 174 0
154 177 0
148 171 0
156 178 0
141 163 0
149 172 0
156 178 0
148 170 0
152 174 0
147 169 0
152 173 0
151 173 0
141 163 0
152 174 0
142 163 0
155 175 0
136 157 0
131 152 0
137 158 0
138 158 0
137 158 0
149 169 0
132 152 0
141 161 0
132 153 0
133 153 0
132 152 0
133 153 0
125 145 0
137 156 0
132 151 0
118 138 0
140 159 0
141 161 0
127 146 0
128 147 0
114 131 0
116 133 0
99 117 0
112 130 0
116 133 0
103 120 0
118 135 0
98 115 0
98 115 0
106 123 0
103 118 0
106 124 0
95 110 0
87 100 0
94 108 0
94 110 0
99 114 0
92 108 0
94 108 0
87 101 0
90 104 0
85 100 0
78 91 0
86 99 0
90 103 0
93 107 0
82 96 0
77 88 0
76 87 0
82 94 0
68 80 0
76 89 0
73 87 0
76 87 0
78 90 0
76 87 0
83 95 0
83 96 0
89 102 0
85 97 0
70 79 0
81 92 0
85 96 0
86 97 0
87 100 0
97 108 0
78 92 0
88 101 0
94 108 0
87 101 0
84 98 0
87 101 0
95 108 0
100 113 0
96 109 0
111 126 0
106 118 0
112 127 0
102 116 0
107 120 0
104 119 0
117 130 0
102 114 0
117 133 0
106 121 0
104 120 0
113 127 0
120 134 0
112 126 0
98 111 0
128 144 0
120 136 0
120 134 0
119 131 0
124 140 0
122 138 0
126 140 0
126 141 0
112 125 0
118 134 0
132 148 0
134 149 0
121 134 0
136 151 0
123 138 0
133 147 0
120 132 0
135 147 0
124 138 0
121 134 0
126 141 0
129 142 0
129 141 0
129 141 0
142 155 0
130 144 0
133 145 0
123 132 0
128 139 0
138 148 0
131 139 0
133 146 0
133 141 0
135 147 0
129 139 0
141 149 0
133 140 0
126 136 0
129 134 0
124 131 0
134 139 0
135 145 0
123 123 0
132 139 0
126 130 0
128 131 0
118 122 0
127 129 0
125 127 0
123 126 0
124 126 0
130 134 0
127 128 0
114 113 0
117 115 0
129 132 0
143 144 76
161 162 133
181 183 175
168 167 153
175 175 163
169 170 155
169 167 149
165 166 153
169 168 149
157 156 125
169 169 147
166 164 137
161 161 142
170 169 147
165 164 140
167 166 140
169 169 142
181 182 161
167 166 135
162 159 117
170 170 142
177 176 151
168 167 137
171 169 140
167 166 140
170 168 140
163 161 125
160 159 120
161 158 117
166 164 130
173 174 148
165 163 125
173 171 135
164 162 125
172 172 142
165 163 126
172 172 142
167 165 130
171 169 131
165 163 121
178 179 149
167 165 135
174 173 138
172 170 131
171 170 133
164 161 117
171 171 135
176 174 142
168 167 123
175 174 141
174 174 145
175 175 143
176 175 138
173 173 133
184 185 156
176 175 138
165 161 113
179 178 147
174 173 134
179 178 142
174 173 132
170 168 121
166 162 113
175 175 141
186 187 160
176 173 132
174 173 139
170 169 127
177 176 142
170 167 117
173 172 132
182 181 148
177 175 136
179 178 146
179 178 137
180 179 141
182 182 147
182 183 153
177 175 134
184 183 153
180 181 150
180 180 146
187 189 159
188 191 172
176 175 139
181 181 152
181 182 156
186 184 153
182 181 143
183 181 148
189 189 163
188 190 165
189 188 155
199 202 184
180 180 145
192 194 170
189 190 168
179 177 143
186 187 156
186 186 156
193 195 172
193 194 171
190 191 167
196 198 179
192 217 224
197 222 255
197 223 255
198 223 255
198 223 255
198 223 255
199 223 255
199 223 255
199 223 255
199 223 255
199 223 255
199 224 255
200 224 255
200 224 255
200 224 255
200 224 255
200 224 255
200 224 255
200 224 255
200 224 255
200 224 255
200 224 255
201 224 255
201 224 255
201 224 255
201 224 255
201 224 255
201 224 255
201 224 255
201 224 255
201 224 255
201 224 255
201 224 255
201 224 255
201 224 255
201 224 255
201 224 255
201 224 255
201 224 255
201 224 255
201 224 255
201 224 255
201 224 255
201 224 255
201 224 255
201 224 255
201 224 255
201 224 255
201 224 255
201 224 255
201 224 255
201 224 255
201 224 255
201 224 255
201 224 255
201 224 255
201 224 255
201 224 255
200 224 255
200 224 255
200 224 255
200 224 255
200 224 255
200 224 255
200 224 255
200 224 255
200 224 255
199 224 255
199 223 255
199 223 255
199 223 255
199 223 255
199 223 255
198 223 255
198 223 255
198 223 255
198 223 255
198 223 255
197 222 255
197 222 255
197 222 255
197 222 255
196 222 255
196 222 255
196 221 255
195 221 255
195 221 255
194 221 255
194 221 255
193 220 255
193 220 255
192 220 255
192 219 255
191 219 255
190 219 255
190 218 255
189 218 255
188 217 255
186 217 255
179 209 215
172 201 163
164 193 36
165 192 0
161 189 0
160 187 0
163 191 0
164 192 0
160 188 0
161 187 0
164 191 0
162 188 0
160 186 0
161 187 0
161 187 0
159 184 0
160 185 0
158 183 0
160 185 0
161 186 0
160 185 0
158 183 0
155 179 0
159 183 0
163 187 0
155 178 0
157 181 0
154 178 0
158 182 0
158 181 0
153 177 0
152 175 0
158 181 0
149 172 0
153 175 0
151 174 0
159 181 0
152 174 0
149 171 0
152 174 0
151 173 0
149 171 0
153 175 0
147 169 0
150 172 0
146 168 0
151 172 0
138 159 0
144 165 0
153 174 0
156 177 0
141 162 0
146 166 0
149 169 0
143 164 0
146 167 0
144 165 0
132 152 0
127 147 0
135 155 0
134 153 0
131 150 0
133 153 0
129 149 0
136 155 0
129 148 0
130 150 0
131 149 0
131 149 0
118 137 0
130 150 0
118 136 0
122 140 0
126 145 0
116 134 0
100 117 0
110 128 0
114 131 0
104 122 0
118 135 0
106 124 0
104 121 0
96 112 0
105 122 0
93 108 0
105 122 0
106 121 0
96 113 0
98 113 0
98 113 0
88 103 0
88 103 0
95 110 0
96 110 0
89 103 0
81 93 0
73 86 0
86 100 0
72 84 0
93 107 0
77 91 0
74 86 0
81 93 0
80 94 0
73 85 0
91 104 0
81 92 0
79 92 0
74 90 0
82 97 0
78 92 0
89 103 0
78 90 0
108 119 0
99 112 0
93 106 0
96 110 0
79 93 0
88 101 0
102 115 0
86 100 0
89 102 0
102 116 0
93 105 0
100 114 0
102 115 0
101 115 0
105 120 0
97 112 0
107 122 0
106 120 0
101 115 0
101 116 0
114 127 0
125 138 0
125 139 0
108 123 0
112 129 0
122 137 0
115 130 0
122 137 0
114 129 0
124 138 0
112 124 0
116 131 0
120 137 0
121 135 0
124 139 0
125 140 0
123 136 0
120 133 0
129 146 0
135 150 0
138 151 0
110 125 0
116 131 0
117 131 0
127 141 0
127 141 0
131 145 0
121 133 0
131 142 0
129 142 0
129 142 0
126 138 0
128 140 0
131 141 0
126 139 0
131 138 0
128 139 0
133 144 0
132 140 0
138 147 0
131 140 0
123 131 0
131 141 0
121 130 0
119 128 0
133 140 0
133 141 0
129 133 0
130 139 0
120 126 0
138 145 0
129 133 0
126 134 0
122 127 0
126 134 0
131 136 0
136 140 0
127 129 0
132 137 0
125 124 0
131 132 0
117 117 0
127 130 0
116 114 0
124 124 0
117 114 0
124 122 51
160 161 133
167 168 147
178 177 162
172 172 155
178 179 165
180 181 169
179 179 159
176 175 157
174 174 159
181 180 159
182 184 163
174 173 153
170 167 140
166 165 140
177 176 157
181 181 161
173 171 142
181 182 163
158 153 120
169 168 133
172 171 149
166 164 133
163 158 114
174 173 140
177 178 158
171 170 142
171 169 138
168 167 133
162 157 117
176 175 149
174 172 142
172 172 142
175 174 144
169 167 125
169 167 131
172 170 145
161 157 114
167 166 128
172 171 135
168 167 128
169 166 128
178 178 151
170 166 123
182 183 158
176 176 147
174 172 131
168 166 124
181 181 151
178 178 147
176 176 141
182 182 155
178 178 148
177 176 139
176 174 138
174 172 134
175 174 140
177 176 142
177 176 143
180 178 144
181 182 155
164 161 121
182 181 148
171 171 130
179 178 137
181 181 151
183 184 153
179 178 139
180 178 139
178 177 141
175 174 136
176 175 137
182 182 150
177 176 138
182 181 147
180 179 145
186 186 156
180 180 143
181 181 149
186 187 159
170 168 123
184 184 153
181 180 143
177 175 132
180 181 148
183 182 151
187 189 163
185 185 158
191 193 169
190 191 169
187 187 154
189 190 165
190 192 168
188 189 163
198 201 185
189 190 162
188 186 154
191 192 175
188 188 164
192 193 170
190 192 168
194 201 161
174 196 0
175 199 108
187 212 196
194 219 240
197 222 255
197 222 255
197 222 255
197 222 255
198 223 255
198 223 255
198 223 255
198 223 255
198 223 255
199 223 255
199 223 255
199 223 255
199 223 255
199 223 255
199 223 255
199 223 255
199 224 255
199 224 255
199 224 255
200 224 255
200 224 255
200 224 255
200 224 255
200 224 255
200 224 255
200 224 255
200 224 255
200 224 255
200 224 255
200 224 255
200 224 255
200 224 255
200 224 255
200 224 255
200 224 255
200 224 255
200 224 255
200 224 255
200 224 255
200 224 255
200 224 255
200 224 255
200 224 255
200 224 255
200 224 255
200 224 255
200 224 255
200 224 255
200 224 255
200 224 255
200 224 255
200 224 255
200 224 255
200 224 255
199 223 255
199 223 255
199 223 255
199 223 255
199 223 255
199 223 255
199 223 255
199 223 255
199 223 255
198 223 255
198 223 255
198 223 255
198 223 255
198 223 255
197 222 255
197 222 255
197 222 255
197 222 255
197 222 255
196 222 255
196 222 255
196 222 255
195 221 255
195 221 255
195 221 255
194 221 255
194 221 255
194 220 255
193 220 255
193 220 255
192 220 255
192 219 255
191 219 255
190 219 255
190 218 255
189 218 255
188 217 255
187 217 255
181 212 233
174 204 177
165 193 88
160 189 0
161 189 0
160 187 0
163 191 0
162 189 0
161 188 0
160 186 0
164 190 0
164 191 0
157 183 0
165 192 0
164 189 0
163 189 0
161 188 0
160 187 0
158 183 0
164 188 0
157 182 0
157 182 0
160 186 0
157 181 0
163 187 0
157 181 0
153 177 0
160 183 0
159 182 0
155 178 0
161 184 0
156 179 0
156 179 0
153 176 0
159 182 0
154 177 0
152 175 0
151 173 0
151 173 0
157 180 0
154 177 0
154 177 0
158 180 0
152 173 0
153 175 0
152 174 0
145 166 0
151 172 0
136 158 0
147 168 0
149 170 0
152 175 0
151 173 0
147 168 0
133 155 0
136 157 0
140 161 0
146 166 0
141 162 0
140 161 0
135 155 0
140 160 0
119 140 0
138 158 0
137 156 0
132 152 0
137 156 0
132 151 0
124 144 0
130 149 0
123 142 0
125 144 0
115 132 0
131 150 0
116 132 0
128 146 0
118 137 0
120 139 0
106 124 0
108 126 0
109 127 0
104 121 0
114 130 0
116 132 0
109 125 0
121 137 0
102 119 0
109 126 0
103 119 0
107 124 0
109 126 0
97 113 0
95 109 0
94 108 0
98 114 0
97 111 0
77 92 0
97 112 0
88 103 0
88 101 0
99 114 0
90 103 0
84 100 0
93 106 0
87 101 0
85 98 0
95 109 0
71 84 0
80 93 0
90 103 0
96 112 0
97 112 0
81 96 0
83 97 0
88 102 0
94 107 0
94 109 0
100 113 0
97 112 0
79 93 0
101 115 0
92 106 0
91 104 0
96 111 0
112 127 0
91 104 0
114 127 0
109 125 0
98 113 0
104 118 0
103 118 0
112 126 0
106 122 0
106 121 0
99 114 0
111 123 0
109 124 0
114 129 0
121 134 0
112 127 0
117 133 0
121 136 0
118 131 0
119 134 0
112 127 0
116 131 0
113 128 0
121 136 0
122 137 0
119 134 0
130 144 0
127 142 0
130 146 0
127 143 0
136 152 0
120 135 0
126 141 0
129 142 0
135 150 0
132 148 0
128 143 0
134 147 0
126 139 0
129 142 0
125 138 0
121 134 0
121 130 0
134 146 0
132 143 0
126 139 0
127 139 0
126 136 0
136 147 0
118 129 0
132 143 0
136 146 0
133 145 0
132 143 0
130 140 0
139 148 0
132 143 0
129 139 0
129 141 0
132 141 0
132 138 0
125 130 0
117 120 0
137 144 0
125 132 0
130 134 0
126 131 0
136 142 0
125 129 0
125 128 0
133 140 0
119 118 0
128 130 0
128 132 0
120 122 0
123 123 0
123 127 0
127 128 0
124 123 0
120 119 0
124 121 0
138 138 76
157 157 130
173 173 155
177 177 163
169 169 149
175 174 159
180 181 161
169 168 155
175 174 155
165 162 133
164 164 137
180 181 167
168 166 140
167 165 147
184 185 161
178 177 157
166 164 140
177 177 159
172 173 149
171 170 144
173 171 144
173 173 147
172 171 142
169 168 147
165 162 130
167 165 135
169 166 135
164 162 125
163 160 123
178 179 157
172 172 135
172 171 141
167 165 130
179 181 159
163 161 130
170 168 130
175 174 143
163 161 130
171 170 135
178 178 151
170 168 136
165 162 121
171 169 134
177 177 149
172 170 136
167 167 133
179 179 151
168 166 126
173 172 140
185 186 162
173 172 131
169 167 118
176 175 135
177 176 145
175 175 141
176 174 139
176 174 140
172 171 137
174 174 141
185 185 159
183 183 155
173 171 130
184 183 149
175 173 134
174 173 134
187 188 162
172 170 128
173 172 140
182 183 157
172 170 129
181 181 153
182 183 154
183 183 149
180 178 144
179 178 147
191 193 172
186 186 156
182 182 148
181 181 148
181 181 147
186 186 165
182 182 148
185 187 159
185 186 164
187 189 165
195 196 175
190 192 172
191 193 170
194 197 176
188 188 158
182 182 151
190 191 163
188 189 159
193 195 175
195 198 179
191 195 168
183 195 127
175 192 76
173 193 0
171 194 0
175 198 0
175 197 0
173 196 0
178 203 125
185 210 194
191 216 227
196 222 255
196 222 255
197 222 255
197 222 255
197 222 255
197 222 255
197 222 255
198 223 255
198 223 255
198 223 255
198 223 255
198 223 255
198 223 255
198 223 255
198 223 255
198 223 255
199 223 255
199 223 255
199 223 255
199 223 255
199 223 255
199 223 255
199 223 255
199 223 255
199 223 255
199 223 255
199 223 255
199 223 255
199 223 255
199 223 255
199 223 255
199 223 255
199 223 255
199 223 255
199 223 255
199 223 255
199 223 255
199 223 255
199 223 255
199 223 255
199 223 255
199 223 255
199 223 255
199 223 255
199 223 255
199 223 255
199 223 255
199 223 255
199 223 255
199 223 255
198 223 255
198 223 255
198 223 255
198 223 255
198 223 255
198 223 255
198 223 255
198 223 255
197 222 255
197 222 255
197 222 255
197 222 255
197 222 255
196 222 255
196 222 255
196 222 255
196 222 255
196 222 255
195 221 255
195 221 255
195 221 255
194 221 255
194 221 255
194 221 255
193 220 255
193 220 255
193 220 255
192 220 255
192 219 255
191 219 255
190 219 255
190 218 255
189 218 255
188 218 255
187 217 255
186 217 255
183 214 242
172 202 171
168 196 99
162 190 0
163 192 0
159 187 0
161 190 0
162 189 0
160 188 0
163 190 0
160 187 0
163 189 0
162 189 0
163 190 0
163 189 0
159 185 0
158 184 0
158 183 0
153 179 0
156 181 0
159 184 0
165 190 0
159 183 0
160 185 0
155 179 0
161 186 0
159 183 0
164 188 0
158 182 0
161 184 0
161 184 0
160 184 0
156 179 0
156 179 0
157 180 0
159 183 0
148 171 0
158 180 0
152 175 0
155 178 0
154 177 0
154 176 0
154 176 0
155 177 0
147 170 0
154 177 0
152 174 0
150 172 0
151 172 0
137 159 0
157 178 0
140 162 0
142 163 0
147 168 0
144 166 0
152 173 0
141 162 0
149 169 0
146 166 0
139 160 0
143 164 0
147 168 0
141 162 0
143 164 0
136 157 0
136 156 0
148 168 0
141 160 0
138 157 0
129 149 0
127 146 0
139 158 0
117 138 0
135 154 0
123 142 0
125 143 0
121 140 0
121 140 0
123 142 0
115 132 0
118 136 0
116 134 0
118 135 0
112 131 0
119 136 0
116 134 0
112 128 0
107 123 0
105 122 0
105 122 0
118 135 0
107 125 0
98 115 0
91 108 0
99 116 0
109 126 0
97 112 0
99 116 0
112 128 0
98 113 0
99 115 0
88 103 0
98 112 0
96 111 0
85 101 0
94 109 0
86 98 0
88 103 0
86 99 0
87 102 0
101 115 0
94 107 0
90 104 0
102 116 0
83 97 0
105 121 0
115 131 0
105 120 0
98 111 0
89 105 0
91 104 0
86 101 0
105 120 0
108 121 0
85 100 0
93 105 0
110 124 0
99 115 0
107 122 0
105 119 0
103 115 0
105 119 0
102 117 0
106 122 0
118 133 0
106 118 0
97 111 0
117 133 0
111 124 0
109 124 0
111 126 0
120 136 0
104 120 0
122 137 0
99 113 0
121 138 0
122 138 0
125 140 0
118 133 0
115 128 0
127 141 0
115 128 0
127 143 0
121 135 0
124 140 0
119 133 0
121 137 0
123 138 0
123 139 0
113 128 0
122 137 0
124 139 0
136 151 0
129 142 0
125 139 0
126 137 0
127 140 0
135 149 0
132 143 0
134 147 0
138 152 0
133 147 0
126 137 0
126 136 0
132 147 0
142 155 0
120 130 0
131 143 0
135 145 0
132 143 0
126 137 0
130 141 0
123 132 0
135 148 0
136 144 0
135 143 0
135 144 0
140 150 0
128 134 0
129 130 0
134 143 0
135 142 0
124 132 0
124 129 0
128 132 0
132 135 0
124 130 0
136 138 0
122 124 0
122 124 0
125 130 0
124 127 0
125 121 0
129 126 0
116 117 0
121 120 0
126 127 0
122 123 0
124 126 0
128 129 0
117 115 0
137 136 84
155 154 122
163 161 135
184 185 173
178 179 167
178 178 165
183 184 175
175 175 157
173 172 155
161 159 135
180 178 161
183 182 165
183 184 171
182 182 163
177 179 163
176 176 157
179 179 155
170 168 140
172 171 147
179 179 161
170 167 137
173 172 142
167 166 135
179 179 153
184 184 160
170 170 135
166 161 122
175 173 151
175 174 147
174 172 143
171 169 134
177 177 145
177 177 145
172 172 150
176 176 149
180 180 147
172 171 140
175 174 138
177 176 145
169 165 131
175 175 145
169 165 122
176 175 141
174 173 140
183 184 160
177 176 148
179 179 145
170 168 126
174 173 144
178 177 145
174 172 134
178 178 152
180 180 156
174 172 133
181 180 147
177 174 132
181 180 147
181 180 150
177 177 150
186 187 161
181 182 153
183 184 154
177 177 142
183 182 151
183 182 152
179 178 147
182 181 155
179 178 149
187 187 163
188 188 160
181 181 152
189 189 167
175 171 120
182 182 151
185 186 163
182 182 153
189 190 165
188 189 165
190 190 167
187 186 155
186 185 149
192 193 170
189 190 166
189 189 166
188 188 160
191 192 167
198 201 186
195 198 179
198 201 190
194 197 179
183 193 133
173 190 64
170 190 0
170 190 0
171 191 0
170 189 0
175 198 0
172 196 0
175 198 0
173 196 0
172 195 0
175 198 0
174 196 25
179 202 108
185 209 181
192 218 236
195 221 255
195 221 255
196 222 255
196 222 255
196 222 255
196 222 255
196 222 255
197 222 255
197 222 255
197 222 255
197 222 255
197 222 255
197 222 255
197 222 255
197 222 255
198 223 255
198 223 255
198 223 255
198 223 255
198 223 255
198 223 255
198 223 255
198 223 255
198 223 255
198 223 255
198 223 255
198 223 255
198 223 255
198 223 255
198 223 255
198 223 255
198 223 255
198 223 255
198 223 255
198 223 255
198 223 255
198 223 255
198 223 255
198 223 255
198 223 255
198 223 255
198 223 255
198 223 255
198 223 255
197 222 255
197 222 255
197 222 255
197 222 255
197 222 255
197 222 255
197 222 255
197 222 255
197 222 255
196 222 255
196 222 255
196 222 255
196 222 255
196 222 255
196 221 255
195 221 255
195 221 255
195 221 255
194 221 255
194 221 255
194 221 255
194 220 255
193 220 255
193 220 255
193 220 255
192 220 255
192 220 255
191 219 255
191 219 255
190 219 255
190 218 255
189 218 255
189 218 255
188 217 255
187 217 255
185 216 253
179 210 223
175 205 188
167 196 111
164 192 25
163 192 0
161 189 0
163 192 0
164 192 0
160 187 0
159 187 0
159 186 0
161 189 0
161 188 0
162 189 0
158 185 0
166 193 0
162 188 0
160 185 0
162 189 0
160 186 0
164 188 0
162 187 0
155 180 0
161 186 0
158 183 0
158 182 0
158 183 0
164 188 0
159 184 0
162 186 0
164 189 0
155 179 0
158 182 0
156 180 0
160 183 0
159 183 0
155 178 0
159 182 0
157 180 0
151 173 0
155 177 0
152 175 0
149 172 0
150 172 0
151 174 0
150 173 0
157 180 0
155 177 0
151 174 0
152 174 0
149 171 0
144 166 0
153 175 0
149 170 0
138 158 0
150 172 0
138 159 0
154 175 0
152 174 0
140 161 0
147 168 0
139 160 0
144 165 0
149 170 0
136 157 0
147 168 0
130 151 0
143 163 0
136 157 0
147 167 0
141 161 0
138 157 0
133 153 0
130 149 0
129 149 0
136 155 0
123 142 0
130 149 0
121 140 0
122 141 0
120 139 0
124 142 0
120 139 0
127 145 0
123 141 0
122 141 0
125 144 0
109 127 0
117 135 0
117 133 0
113 130 0
121 138 0
113 130 0
105 122 0
113 131 0
117 134 0
99 117 0
99 116 0
99 115 0
104 120 0
109 125 0
95 112 0
104 121 0
91 107 0
115 131 0
91 107 0
102 118 0
88 104 0
91 106 0
101 115 0
93 107 0
112 129 0
81 96 0
88 103 0
97 112 0
101 115 0
102 118 0
99 114 0
99 115 0
97 112 0
104 119 0
95 110 0
106 121 0
104 119 0
109 125 0
93 107 0
108 123 0
102 116 0
106 122 0
107 122 0
97 112 0
107 124 0
103 119 0
101 113 0
100 114 0
110 127 0
113 129 0
120 136 0
109 123 0
114 131 0
111 127 0
109 125 0
112 127 0
117 131 0
114 131 0
116 131 0
119 134 0
130 147 0
121 135 0
125 141 0
120 136 0
118 133 0
121 136 0
127 143 0
128 144 0
124 142 0
132 147 0
127 142 0
113 129 0
126 142 0
128 144 0
122 135 0
134 151 0
132 149 0
136 153 0
133 148 0
126 140 0
134 147 0
123 137 0
133 147 0
131 144 0
127 140 0
134 148 0
128 140 0
136 148 0
131 144 0
133 147 0
130 142 0
133 146 0
126 138 0
124 135 0
135 145 0
146 156 0
129 141 0
134 144 0
125 136 0
133 144 0
142 152 0
128 136 0
131 138 0
131 138 0
130 139 0
127 134 0
127 135 0
136 143 0
131 136 0
123 126 0
134 139 0
133 140 0
126 131 0
128 132 0
126 129 0
143 148 0
126 128 0
125 128 0
128 129 0
126 131 0
129 128 0
132 133 0
131 133 0
130 132 0
130 133 0
125 121 0
122 122 0
131 131 0
126 126 0
133 134 0
147 150 80
142 139 108
177 179 167
192 194 184
179 179 165
176 174 157
178 178 161
179 181 171
181 182 165
176 175 161
172 170 147
170 168 140
175 174 157
175 174 155
177 177 161
184 184 165
180 180 159
172 171 153
174 173 151
181 180 155
176 175 151
168 166 137
164 161 128
177 176 149
171 169 140
169 167 145
164 160 117
173 172 145
175 175 147
169 168 133
170 168 133
174 174 144
175 174 141
179 178 147
160 157 115
174 172 136
175 174 138
177 178 151
161 158 115
180 179 149
170 168 137
175 172 143
177 176 147
185 186 162
184 185 155
177 177 150
182 183 160
180 179 148
177 176 144
174 172 138
184 185 160
180 180 147
183 182 151
186 186 163
182 181 150
178 176 138
180 179 147
178 178 151
179 178 147
181 181 145
180 179 147
184 183 151
179 177 147
182 181 141
187 188 165
188 190 168
185 185 154
196 198 178
181 180 145
182 183 155
185 183 157
190 191 169
186 187 159
188 191 168
183 182 147
184 183 153
187 186 158
192 194 173
189 191 171
193 195 175
200 203 188
195 197 176
192 193 172
186 194 145
185 195 127
179 194 80
171 191 0
169 188 0
172 189 0
173 191 0
170 193 0
174 195 0
171 192 0
173 196 0
175 198 0
167 190 0
172 196 0
173 196 0
175 197 0
174 197 0
173 196 0
173 197 0
174 197 0
177 201 80
181 205 147
188 213 206
191 218 241
194 221 255
195 221 255
195 221 255
195 221 255
195 221 255
195 221 255
196 222 255
196 222 255
196 222 255
196 222 255
196 222 255
196 222 255
196 222 255
196 222 255
197 222 255
197 222 255
197 222 255
197 222 255
197 222 255
197 222 255
197 222 255
197 222 255
197 222 255
197 222 255
197 222 255
197 222 255
197 222 255
197 222 255
197 222 255
197 222 255
197 222 255
197 222 255
197 222 255
197 222 255
197 222 255
197 222 255
196 222 255
196 222 255
196 222 255
196 222 255
196 222 255
196 222 255
196 222 255
196 222 255
196 222 255
196 221 255
195 221 255
195 221 255
195 221 255
195 221 255
195 221 255
195 221 255
194 221 255
194 221 255
194 221 255
194 221 255
193 220 255
193 220 255
193 220 255
192 220 255
192 220 255
192 220 255
191 219 255
191 219 255
191 219 255
190 219 255
190 218 255
189 218 255
188 218 255
188 217 255
187 217 255
186 217 255
183 213 241
178 208 207
170 199 159
164 193 76
164 191 0
163 191 0
164 192 0
165 192 0
165 193 0
162 189 0
162 189 0
161 189 0
162 190 0
164 190 0
161 187 0
159 186 0
161 187 0
163 189 0
162 188 0
162 188 0
159 184 0
163 188 0
160 186 0
160 186 0
152 178 0
159 184 0
159 184 0
160 184 0
159 183 0
158 182 0
161 186 0
159 183 0
161 185 0
163 187 0
159 183 0
159 183 0
153 177 0
156 179 0
152 175 0
154 177 0
153 176 0
154 177 0
157 180 0
159 182 0
150 172 0
158 182 0
154 176 0
155 176 0
159 181 0
158 180 0
147 170 0
152 174 0
151 173 0
141 162 0
156 179 0
149 170 0
156 177 0
149 170 0
138 160 0
148 170 0
144 166 0
146 167 0
132 153 0
145 166 0
144 165 0
140 161 0
140 162 0
145 165 0
146 167 0
147 167 0
136 157 0
145 166 0
135 156 0
139 159 0
130 150 0
139 159 0
130 151 0
140 160 0
140 160 0
128 147 0
125 145 0
129 149 0
129 147 0
127 146 0
127 146 0
121 140 0
124 143 0
111 128 0
116 135 0
121 139 0
121 139 0
131 149 0
117 135 0
113 131 0
119 137 0
114 131 0
103 121 0
103 120 0
102 119 0
112 129 0
119 137 0
103 121 0
106 123 0
110 127 0
103 118 0
104 121 0
91 108 0
103 120 0
100 115 0
104 122 0
108 125 0
100 117 0
104 120 0
103 121 0
100 116 0
88 104 0
95 111 0
104 119 0
108 125 0
87 103 0
94 111 0
98 113 0
103 120 0
112 128 0
108 123 0
94 110 0
100 117 0
99 116 0
106 124 0
91 105 0
106 121 0
102 117 0
108 122 0
94 109 0
111 127 0
109 124 0
111 127 0
117 133 0
111 127 0
118 133 0
110 125 0
110 126 0
97 110 0
108 121 0
122 138 0
126 142 0
116 132 0
121 136 0
119 135 0
120 135 0
129 147 0
128 146 0
122 139 0
124 141 0
127 143 0
131 147 0
138 156 0
115 129 0
123 139 0
121 138 0
123 138 0
124 140 0
130 144 0
125 140 0
124 139 0
125 138 0
138 153 0
125 140 0
123 139 0
134 149 0
128 143 0
128 142 0
132 148 0
131 143 0
136 151 0
134 149 0
129 142 0
132 145 0
120 134 0
132 145 0
142 155 0
139 154 0
133 142 0
134 147 0
136 150 0
132 144 0
119 129 0
133 144 0
129 141 0
136 146 0
131 141 0
133 143 0
123 132 0
135 147 0
134 145 0
143 153 0
134 145 0
140 151 0
133 142 0
134 140 0
141 151 0
133 142 0
145 149 0
125 129 0
130 137 0
130 134 0
133 138 0
136 142 0
132 138 0
133 139 0
124 128 0
132 136 0
130 132 0
131 131 0
137 142 0
124 125 0
127 128 0
126 127 0
137 140 0
121 122 0
127 124 0
129 131 0
114 110 0
124 122 0
141 142 67
150 149 108
157 156 120
174 173 159
181 181 170
186 188 181
178 176 161
171 168 144
178 177 161
174 173 153
168 167 142
167 166 147
177 176 153
186 187 173
169 166 135
178 176 151
177 176 154
177 178 159
174 172 151
167 165 135
167 163 130
179 178 155
179 178 155
172 171 145
173 172 133
176 175 151
175 174 142
177 176 152
182 181 163
172 171 142
178 178 154
180 180 151
190 193 182
186 186 167
178 177 147
190 191 172
183 184 159
176 174 138
184 184 155
179 178 147
182 182 156
182 182 156
174 171 142
180 179 150
176 175 143
183 183 158
185 187 165
179 178 151
177 176 141
179 176 141
173 172 134
179 179 148
181 182 155
186 185 160
184 183 156
192 193 171
188 187 158
191 192 167
185 184 155
191 192 171
179 177 146
184 183 156
184 185 163
186 187 165
179 178 147
183 184 161
194 196 176
193 195 178
192 195 176
185 184 154
189 191 168
196 198 179
187 188 167
194 195 179
183 182 155
190 191 172
189 192 161
186 194 139
174 185 89
175 191 69
169 188 0
170 189 0
168 185 0
171 190 0
170 190 0
171 191 0
170 187 0
172 193 0
172 191 0
171 190 0
173 196 0
172 196 0
175 198 0
173 195 0
175 198 0
171 195 0
176 199 0
173 197 0
175 197 0
174 197 0
174 197 0
175 198 0
175 198 0
176 199 0
176 200 111
182 207 163
187 212 196
191 217 236
193 220 255
194 220 255
194 221 255
194 221 255
194 221 255
194 221 255
195 221 255
195 221 255
195 221 255
195 221 255
195 221 255
195 221 255
195 221 255
195 221 255
195 221 255
195 221 255
195 221 255
195 221 255
195 221 255
195 221 255
196 221 255
195 221 255
195 221 255
195 221 255
195 221 255
195 221 255
195 221 255
195 221 255
195 221 255
195 221 255
195 221 255
195 221 255
195 221 255
195 221 255
195 221 255
195 221 255
195 221 255
194 221 255
194 221 255
194 221 255
194 221 255
194 221 255
194 221 255
194 221 255
194 220 255
193 220 255
193 220 255
193 220 255
193 220 255
192 220 255
192 220 255
192 220 255
191 219 255
191 219 255
191 219 255
190 219 255
190 219 255
190 218 255
189 218 255
189 218 255
188 217 255
187 217 255
187 217 255
186 216 255
183 214 244
178 208 203
171 201 161
166 195 88
162 191 0
162 191 0
162 191 0
162 190 0
163 192 0
164 192 0
163 191 0
162 189 0
164 191 0
164 191 0
161 188 0
161 188 0
161 188 0
162 188 0
162 188 0
163 189 0
161 187 0
163 188 0
159 185 0
161 187 0
163 188 0
161 188 0
165 190 0
163 188 0
161 186 0
158 182 0
155 180 0
155 179 0
159 183 0
160 184 0
152 175 0
159 182 0
151 175 0
158 182 0
161 186 0
156 180 0
162 185 0
157 180 0
159 182 0
154 178 0
159 182 0
149 171 0
153 176 0
160 183 0
156 179 0
149 172 0
158 181 0
155 176 0
155 176 0
157 179 0
154 175 0
152 174 0
156 178 0
149 170 0
157 179 0
151 172 0
155 177 0
149 171 0
144 165 0
148 169 0
139 161 0
150 171 0
145 166 0
149 171 0
136 158 0
151 171 0
137 158 0
141 162 0
134 155 0
130 151 0
146 167 0
145 166 0
130 149 0
131 151 0
134 153 0
140 160 0
134 154 0
141 161 0
124 143 0
133 153 0
129 149 0
135 154 0
133 154 0
128 147 0
133 152 0
119 138 0
114 133 0
119 138 0
119 137 0
131 150 0
115 133 0
109 128 0
123 141 0
119 136 0
122 140 0
113 130 0
120 138 0
123 141 0
118 136 0
116 134 0
112 130 0
112 130 0
114 131 0
119 137 0
104 121 0
116 132 0
112 129 0
108 125 0
96 112 0
100 117 0
108 124 0
109 126 0
107 123 0
103 120 0
103 119 0
111 127 0
100 116 0
109 124 0
119 135 0
110 126 0
108 122 0
96 111 0
115 131 0
107 123 0
109 125 0
96 113 0
110 124 0
98 117 0
104 120 0
111 126 0
103 119 0
110 125 0
115 132 0
112 128 0
112 129 0
102 118 0
117 134 0
114 130 0
109 125 0
107 124 0
123 140 0
117 133 0
113 131 0
107 124 0
113 129 0
126 143 0
115 129 0
126 143 0
127 144 0
122 138 0
119 136 0
118 134 0
124 139 0
121 139 0
126 142 0
124 141 0
122 138 0
126 139 0
123 140 0
131 146 0
122 138 0
122 137 0
129 144 0
127 141 0
121 134 0
127 144 0
133 145 0
132 147 0
142 156 0
125 139 0
132 145 0
129 143 0
124 141 0
139 154 0
137 149 0
125 135 0
133 148 0
125 139 0
137 150 0
132 145 0
141 155 0
128 142 0
128 141 0
135 147 0
128 139 0
132 145 0
134 144 0
128 136 0
134 145 0
129 141 0
127 137 0
134 143 0
128 139 0
127 141 0
122 130 0
142 152 0
127 138 0
125 134 0
133 142 0
132 141 0
132 139 0
135 143 0
140 150 0
134 141 0
137 147 0
139 148 0
122 125 0
133 138 0
127 128 0
126 127 0
131 133 0
135 138 0
124 127 0
132 138 0
137 143 0
132 135 0
130 134 0
128 133 0
132 133 0
130 129 0
130 132 0
133 131 0
133 132 0
123 120 0
121 118 0
122 118 0
123 120 0
133 129 0
137 134 67
147 144 99
155 153 122
191 193 186
177 175 161
182 182 169
180 180 163
181 181 169
179 179 167
176 175 157
169 167 147
169 168 142
182 183 165
177 176 159
179 179 162
182 181 165
184 185 171
176 174 149
176 176 151
176 176 153
169 167 137
176 176 153
177 176 149
173 171 145
170 167 137
176 175 151
176 174 145
182 183 160
177 175 138
172 171 138
183 182 157
186 187 174
177 175 148
177 176 149
180 180 159
174 172 140
185 185 160
185 186 166
184 182 157
185 184 156
173 171 139
181 180 157
186 187 160
184 184 163
182 181 152
183 183 157
179 178 152
183 183 153
189 191 163
176 173 144
185 186 167
182 181 155
185 186 163
190 192 168
182 182 147
191 193 174
191 192 167
186 185 157
179 179 150
188 189 169
189 190 163
187 187 158
189 190 167
181 179 148
188 189 167
189 190 159
203 207 195
192 192 167
190 194 161
188 194 153
181 191 116
172 187 74
169 185 0
170 188 0
170 187 0
170 187 0
169 185 0
170 186 0
170 188 0
168 187 0
172 190 0
166 183 0
171 189 0
171 192 0
170 188 0
172 192 0
173 196 0
174 197 0
174 197 0
174 198 0
174 197 0
171 194 0
174 197 0
173 196 0
174 197 0
174 197 0
175 197 0
177 199 0
176 199 0
175 198 0
175 198 0
174 197 0
173 196 0
174 197 0
177 200 84
182 206 147
182 207 169
186 213 214
191 218 246
192 220 255
193 220 255
193 220 255
193 220 255
193 220 255
193 220 255
193 220 255
194 220 255
194 220 255
194 220 255
194 221 255
194 221 255
194 221 255
194 221 255
194 221 255
194 221 255
194 221 255
194 221 255
194 221 255
194 221 255
194 221 255
194 221 255
194 221 255
194 221 255
194 220 255
194 220 255
194 220 255
194 220 255
193 220 255
193 220 255
193 220 255
193 220 255
193 220 255
193 220 255
193 220 255
192 220 255
192 220 255
192 220 255
192 220 255
192 219 255
191 219 255
191 219 255
191 219 255
190 219 255
190 219 255
190 219 255
190 218 255
189 218 255
189 218 255
188 218 255
188 217 255
187 217 255
187 217 255
186 216 255
183 214 242
181 211 226
175 205 184
171 200 149
166 195 84
162 190 0
163 191 0
164 192 0
164 191 0
164 192 0
162 190 0
163 191 0
161 190 0
163 191 0
164 191 0
158 185 0
159 186 0
165 192 0
162 189 0
162 188 0
163 190 0
161 187 0
164 190 0
161 188 0
161 188 0
156 181 0
164 189 0
162 187 0
164 189 0
160 185 0
166 192 0
165 190 0
165 190 0
158 182 0
158 183 0
157 182 0
158 183 0
163 187 0
166 190 0
158 182 0
163 188 0
161 185 0
162 185 0
157 180 0
154 177 0
162 185 0
156 179 0
158 181 0
156 178 0
159 182 0
151 173 0
159 182 0
155 178 0
157 179 0
157 179 0
152 174 0
154 178 0
144 166 0
153 175 0
154 175 0
156 178 0
149 171 0
154 177 0
152 174 0
146 167 0
151 173 0
151 173 0
142 164 0
157 179 0
143 164 0
152 173 0
140 161 0
134 155 0
139 159 0
149 170 0
141 161 0
135 156 0
141 162 0
142 163 0
139 159 0
136 157 0
132 153 0
137 158 0
134 153 0
142 161 0
126 146 0
138 158 0
128 147 0
124 142 0
140 161 0
130 149 0
137 157 0
117 136 0
120 140 0
128 147 0
135 154 0
132 151 0
126 145 0
126 144 0
113 132 0
116 135 0
120 138 0
112 131 0
125 143 0
118 137 0
112 131 0
128 146 0
117 135 0
113 132 0
120 139 0
116 134 0
111 129 0
118 136 0
115 133 0
127 145 0
107 124 0
116 133 0
103 120 0
107 124 0
106 124 0
111 129 0
93 109 0
114 129 0
108 125 0
92 108 0
104 119 0
105 121 0
96 112 0
102 117 0
110 127 0
100 117 0
103 119 0
102 118 0
114 129 0
103 120 0
109 123 0
114 129 0
103 121 0
108 124 0
109 126 0
110 126 0
118 135 0
113 130 0
112 127 0
115 131 0
115 130 0
120 136 0
111 129 0
122 139 0
121 135 0
116 132 0
114 128 0
124 139 0
125 143 0
120 138 0
121 139 0
111 126 0
114 128 0
126 142 0
128 146 0
125 141 0
133 149 0
116 132 0
139 156 0
117 132 0
125 141 0
129 144 0
130 146 0
137 151 0
125 141 0
129 144 0
118 134 0
134 150 0
131 147 0
127 141 0
132 147 0
124 139 0
122 135 0
133 150 0
124 139 0
136 149 0
137 151 0
131 147 0
130 145 0
138 150 0
138 152 0
124 139 0
136 150 0
130 142 0
125 139 0
137 150 0
135 150 0
138 152 0
138 150 0
122 134 0
131 144 0
138 153 0
136 147 0
133 145 0
135 147 0
144 156 0
137 147 0
134 145 0
136 148 0
131 143 0
137 150 0
130 138 0
140 147 0
139 149 0
138 148 0
131 140 0
130 136 0
136 142 0
133 139 0
138 143 0
135 140 0
133 140 0
137 140 0
129 135 0
130 132 0
135 142 0
131 134 0
124 125 0
133 137 0
135 138 0
136 140 0
134 140 0
136 137 0
132 131 0
135 140 0
129 132 0
127 128 0
126 123 0
129 126 0
129 128 0
123 120 0
128 125 0
132 132 0
130 127 0
127 126 0
124 123 0
126 122 44
145 144 102
169 171 142
159 157 125
177 176 161
176 173 155
183 183 171
183 184 175
179 178 161
180 179 156
177 176 155
183 182 166
177 175 155
167 166 141
181 179 157
180 179 155
183 182 162
182 181 159
181 180 155
190 191 171
183 182 163
184 184 167
188 189 177
184 185 168
177 176 150
180 179 155
176 174 145
188 189 172
175 171 142
188 187 167
180 178 148
182 184 165
179 178 154
185 186 162
178 176 142
183 183 160
183 182 161
188 189 171
185 185 163
184 183 155
186 186 166
180 179 153
181 180 155
180 178 147
188 189 168
182 181 158
186 185 164
189 190 167
182 180 156
182 180 151
185 185 161
182 181 155
192 194 180
188 189 171
187 188 160
190 192 173
186 189 166
184 184 156
194 195 179
183 186 157
189 194 154
183 191 134
174 184 101
171 186 52
167 182 0
170 186 0
169 187 0
167 184 0
169 188 0
171 189 0
170 188 0
168 186 0
170 190 0
170 187 0
174 193 0
171 189 0
170 188 0
167 183 0
170 189 0
169 189 0
169 186 0
172 192 0
174 197 0
177 199 0
169 193 0
172 195 0
176 199 0
172 195 0
174 197 0
176 198 0
170 193 0
175 197 0
175 198 0
174 197 0
172 195 0
177 199 0
174 197 0
174 197 0
173 196 0
174 197 0
175 198 0
175 198 0
174 197 0
173 196 0
175 198 0
176 199 62
178 203 133
181 206 151
182 208 179
188 215 227
190 218 248
191 219 255
191 219 255
191 219 255
192 219 255
192 219 255
192 220 255
192 220 255
192 220 255
192 220 255
192 220 255
192 220 255
192 220 255
192 220 255
192 220 255
192 220 255
192 220 255
192 220 255
192 220 255
192 220 255
192 220 255
192 219 255
192 219 255
191 219 255
191 219 255
191 219 255
191 219 255
191 219 255
191 219 255
191 219 255
190 219 255
190 219 255
190 219 255
190 218 255
189 218 255
189 218 255
189 218 255
189 218 255
188 218 255
188 217 255
187 217 255
187 217 255
186 217 255
184 215 246
181 210 218
176 206 194
175 205 184
169 198 120
168 197 105
164 192 0
165 192 0
165 193 0
164 193 0
163 191 0
165 192 0
164 192 0
161 189 0
164 192 0
164 192 0
163 190 0
163 191 0
162 190 0
163 190 0
162 190 0
159 186 0
164 191 0
165 192 0
162 188 0
165 191 0
162 188 0
165 190 0
165 190 0
161 187 0
161 188 0
162 187 0
161 187 0
163 189 0
157 182 0
165 190 0
156 181 0
158 182 0
159 184 0
162 187 0
158 183 0
157 180 0
157 180 0
158 181 0
149 172 0
156 180 0
158 181 0
161 184 0
165 188 0
157 180 0
159 182 0
156 179 0
154 177 0
159 182 0
158 181 0
152 175 0
156 179 0
157 180 0
153 175 0
159 182 0
158 181 0
154 176 0
155 177 0
151 174 0
152 174 0
154 177 0
155 177 0
144 165 0
158 180 0
150 172 0
151 172 0
146 168 0
146 168 0
146 167 0
144 164 0
153 175 0
148 171 0
145 167 0
149 169 0
150 171 0
140 161 0
145 165 0
143 164 0
139 159 0
138 158 0
155 175 0
137 156 0
134 154 0
142 162 0
140 161 0
143 165 0
130 151 0
142 161 0
131 150 0
130 151 0
133 153 0
146 167 0
128 149 0
128 148 0
135 153 0
138 158 0
126 144 0
132 152 0
123 142 0
119 137 0
118 138 0
125 142 0
127 146 0
124 142 0
118 136 0
109 128 0
119 138 0
126 143 0
125 142 0
119 137 0
124 143 0
107 126 0
110 128 0
118 136 0
112 130 0
116 135 0
120 138 0
109 127 0
113 132 0
105 122 0
107 124 0
111 128 0
121 138 0
116 133 0
117 135 0
112 130 0
113 131 0
121 138 0
114 132 0
119 137 0
127 144 0
113 130 0
108 127 0
111 128 0
115 133 0
114 130 0
121 139 0
103 118 0
114 131 0
111 127 0
107 123 0
113 129 0
111 126 0
120 137 0
116 134 0
109 125 0
108 123 0
112 129 0
120 137 0
118 135 0
113 131 0
116 133 0
118 137 0
123 141 0
128 146 0
125 142 0
115 132 0
131 147 0
124 141 0
125 142 0
120 136 0
127 142 0
124 140 0
131 149 0
117 132 0
135 152 0
131 147 0
134 152 0
126 143 0
128 145 0
133 147 0
126 144 0
135 152 0
115 130 0
125 142 0
123 137 0
134 150 0
133 150 0
136 149 0
130 145 0
137 150 0
130 148 0
132 147 0
129 144 0
133 148 0
139 155 0
130 144 0
136 151 0
143 157 0
132 147 0
128 140 0
122 137 0
136 150 0
135 148 0
139 152 0
132 148 0
130 142 0
148 161 0
141 154 0
135 150 0
136 149 0
142 151 0
136 146 0
134 143 0
126 135 0
142 152 0
136 145 0
125 134 0
135 146 0
146 155 0
127 132 0
144 153 0
133 140 0
127 135 0
140 152 0
131 138 0
131 137 0
140 149 0
143 152 0
135 142 0
126 132 0
142 147 0
143 148 0
132 137 0
139 145 0
134 136 0
135 140 0
125 127 0
143 145 0
141 143 0
132 134 0
128 127 0
133 134 0
126 123 0
140 144 0
130 129 0
135 135 0
126 126 0
141 143 0
128 126 0
125 123 0
139 138 0
134 134 0
131 128 0
129 122 0
129 126 0
134 133 0
130 124 44
142 140 88
162 162 130
161 160 122
173 171 151
186 186 167
190 191 175
185 185 175
174 172 151
176 174 154
191 192 182
176 175 155
183 183 167
174 173 151
185 185 167
182 182 169
191 191 179
181 181 159
189 190 173
181 180 159
187 188 171
183 184 168
184 183 161
186 186 162
184 184 167
177 177 156
190 190 172
170 169 140
178 174 146
186 186 160
186 186 168
180 180 154
182 182 157
184 183 161
189 189 168
183 183 156
188 188 171
188 187 166
191 192 175
191 191 174
190 191 169
193 195 179
185 186 160
191 192 175
196 197 181
189 189 171
191 193 174
196 198 183
189 193 165
180 182 131
176 179 123
176 184 109
175 184 97
169 179 72
165 179 0
168 181 0
167 181 0
169 184 0
165 181 0
167 181 0
164 177 0
169 186 0
172 188 0
172 189 0
168 183 0
168 186 0
169 186 0
168 186 0
168 183 0
170 187 0
171 191 0
171 190 0
170 188 0
169 184 0
167 185 0
170 188 0
173 192 0
173 195 0
176 198 0
174 197 0
171 194 0
177 199 0
175 198 0
173 196 0
174 197 0
175 197 0
175 198 0
174 197 0
176 198 0
177 199 0
175 198 0
173 196 0
176 199 0
174 197 0
172 195 0
174 197 0
172 195 0
174 197 0
175 197 0
174 197 0
172 195 0
173 197 0
175 198 0
174 197 0
173 196 0
172 195 0
174 198 36
175 199 84
179 204 135
181 208 181
183 210 196
186 214 224
185 212 209
185 213 227
189 217 249
189 218 255
190 218 255
190 218 255
190 218 255
190 218 255
190 218 255
190 218 255
190 218 255
189 218 255
190 218 255
190 218 255
189 218 255
189 218 255
189 218 255
189 218 255
189 218 255
188 218 255
188 218 255
188 218 255
188 217 255
188 217 255
187 217 255
187 217 255
186 216 253
185 215 245
184 213 234
182 212 228
179 209 212
176 205 181
175 204 173
170 200 149
169 197 111
166 193 36
164 192 0
164 192 0
165 192 0
166 193 0
163 192 0
163 191 0
165 193 0
164 192 0
165 192 0
165 192 0
166 193 0
163 191 0
163 190 0
164 191 0
164 192 0
163 191 0
166 192 0
164 191 0
163 189 0
168 194 0
165 192 0
166 191 0
157 183 0
164 191 0
160 185 0
165 191 0
161 186 0
157 183 0
164 189 0
163 189 0
165 190 0
166 190 0
158 182 0
162 186 0
166 190 0
160 184 0
163 188 0
164 188 0
160 184 0
161 186 0
163 188 0
162 185 0
161 185 0
159 183 0
158 181 0
154 177 0
159 182 0
160 184 0
157 180 0
156 179 0
156 179 0
160 184 0
152 174 0
151 173 0
157 179 0
153 175 0
158 180 0
160 183 0
152 174 0
161 183 0
153 175 0
150 172 0
153 175 0
149 172 0
158 181 0
161 182 0
154 176 0
146 167 0
147 168 0
148 169 0
152 173 0
142 163 0
148 169 0
153 175 0
149 171 0
143 165 0
151 172 0
140 161 0
145 165 0
140 161 0
151 172 0
141 162 0
137 158 0
139 160 0
142 162 0
146 166 0
153 173 0
136 156 0
140 160 0
132 152 0
140 160 0
135 155 0
138 159 0
138 156 0
140 161 0
129 150 0
138 158 0
133 152 0
131 151 0
136 156 0
138 158 0
118 137 0
129 149 0
118 137 0
126 145 0
127 146 0
125 145 0
127 146 0
121 141 0
122 141 0
128 146 0
120 138 0
125 141 0
116 136 0
116 135 0
120 140 0
106 124 0
118 137 0
115 132 0
128 147 0
130 148 0
110 128 0
115 133 0
120 137 0
115 133 0
104 121 0
126 145 0
104 122 0
120 138 0
112 129 0
108 124 0
107 123 0
110 126 0
113 130 0
127 144 0
117 136 0
106 121 0
120 137 0
120 136 0
110 129 0
117 134 0
111 129 0
128 146 0
126 142 0
132 149 0
118 134 0
116 133 0
119 134 0
117 135 0
105 120 0
124 141 0
132 148 0
124 143 0
117 134 0
123 141 0
123 140 0
122 139 0
124 142 0
127 144 0
105 120 0
120 137 0
117 134 0
124 142 0
129 145 0
115 132 0
118 134 0
130 148 0
114 130 0
125 141 0
129 145 0
129 146 0
128 144 0
134 151 0
136 153 0
135 150 0
122 138 0
132 149 0
120 137 0
129 146 0
123 140 0
126 142 0
133 148 0
134 150 0
133 150 0
135 150 0
136 153 0
130 144 0
134 150 0
137 152 0
142 158 0
144 160 0
135 151 0
134 148 0
135 149 0
130 145 0
137 153 0
129 139 0
144 158 0
134 146 0
132 146 0
128 140 0
139 154 0
136 150 0
142 155 0
135 151 0
147 161 0
135 146 0
132 143 0
140 153 0
142 155 0
135 147 0
139 151 0
135 147 0
137 148 0
141 152 0
140 148 0
140 147 0
137 144 0
147 156 0
129 135 0
141 146 0
144 151 0
144 154 0
135 141 0
131 138 0
135 142 0
141 148 0
136 141 0
138 141 0
138 142 0
130 133 0
137 141 0
137 142 0
129 131 0
139 142 0
136 136 0
136 141 0
131 132 0
135 141 0
136 140 0
131 130 0
135 136 0
134 134 0
131 130 0
146 149 0
135 136 0
129 126 0
129 127 0
140 142 0
139 141 0
131 131 0
130 129 0
135 135 0
135 135 0
138 138 0
133 130 0
133 132 0
135 132 0
140 141 44
141 138 36
159 158 102
156 156 108
164 162 115
171 172 140
181 182 161
181 181 158
187 189 173
186 185 174
190 191 173
186 186 170
187 186 169
185 185 167
183 183 171
175 172 146
182 182 163
194 195 187
189 189 175
179 178 160
189 190 172
186 186 168
171 170 142
194 195 182
189 189 172
199 201 190
189 189 172
190 191 174
191 192 175
189 190 174
191 192 179
190 191 177
191 193 178
194 196 178
180 180 146
184 188 154
186 191 145
175 178 128
175 184 107
170 177 77
162 173 58
164 176 36
166 177 0
165 178 0
166 178 0
168 183 0
165 177 0
167 181 0
166 178 0
164 176 0
166 180 0
166 181 0
168 183 0
168 183 0
167 182 0
169 184 0
170 186 0
169 185 0
169 186 0
169 185 0
168 184 0
165 180 0
169 186 0
171 187 0
168 187 0
170 190 0
171 190 0
171 190 0
171 188 0
170 189 0
170 187 0
174 197 0
174 196 0
174 196 0
174 197 0
173 197 0
175 198 0
174 196 0
175 198 0
174 197 0
173 196 0
172 196 0
174 196 0
171 194 0
174 197 0
175 197 0
175 197 0
173 196 0
171 194 0
174 198 0
175 198 0
173 197 0
172 196 0
176 198 0
173 196 0
170 194 0
172 196 0
174 197 0
174 197 0
172 195 0
171 195 0
173 197 0
171 196 0
173 197 0
170 194 0
171 195 0
173 197 0
173 197 0
171 195 0
173 197 36
173 198 72
173 199 80
175 201 125
175 202 137
177 204 159
175 202 144
177 203 147
177 205 165
178 205 173
176 204 159
177 204 163
178 206 177
176 205 169
179 207 182
176 204 165
175 204 163
175 202 149
173 201 137
173 200 133
171 199 130
170 197 92
169 196 84
168 194 36
167 194 0
166 193 0
166 193 0
167 194 0
166 193 0
165 192 0
166 193 0
166 193 0
163 192 0
165 192 0
164 192 0
167 194 0
167 194 0
166 193 0
163 191 0
163 190 0
164 191 0
164 192 0
167 193 0
165 192 0
165 192 0
164 191 0
167 194 0
163 189 0
162 189 0
165 192 0
164 191 0
165 192 0
165 191 0
162 188 0
163 190 0
167 193 0
164 189 0
163 190 0
162 189 0
163 188 0
167 192 0
162 186 0
165 190 0
165 190 0
161 185 0
161 186 0
163 187 0
164 189 0
164 189 0
160 183 0
164 188 0
161 186 0
163 187 0
161 185 0
164 188 0
163 188 0
155 178 0
159 182 0
157 180 0
157 180 0
158 181 0
161 184 0
157 180 0
155 179 0
160 183 0
154 177 0
160 182 0
156 179 0
155 177 0
149 171 0
158 181 0
155 177 0
157 178 0
147 170 0
161 183 0
155 176 0
155 177 0
147 170 0
158 180 0
155 177 0
160 181 0
146 168 0
153 175 0
144 166 0
149 172 0
157 179 0
139 160 0
142 163 0
150 171 0
152 174 0
149 171 0
146 167 0
140 161 0
143 164 0
138 160 0
145 166 0
142 162 0
153 174 0
139 159 0
137 158 0
144 164 0
138 158 0
136 157 0
133 154 0
139 160 0
133 151 0
136 156 0
134 153 0
133 154 0
131 151 0
128 149 0
140 159 0
126 145 0
129 148 0
134 153 0
134 155 0
133 153 0
127 148 0
134 154 0
139 157 0
116 134 0
133 151 0
121 140 0
125 144 0
125 144 0
124 143 0
113 131 0
125 143 0
110 128 0
117 135 0
117 136 0
113 131 0
124 144 0
119 137 0
121 139 0
125 144 0
115 133 0
112 130 0
119 138 0
122 138 0
116 133 0
112 128 0
117 135 0
120 137 0
109 126 0
124 141 0
130 147 0
123 142 0
127 146 0
116 133 0
116 134 0
107 124 0
121 138 0
113 131 0
102 117 0
122 139 0
106 124 0
119 136 0
123 142 0
121 138 0
122 139 0
107 123 0
119 135 0
118 137 0
128 145 0
122 140 0
130 147 0
124 142 0
119 134 0
118 135 0
128 145 0
118 135 0
126 144 0
120 139 0
123 141 0
125 143 0
131 148 0
120 137 0
135 153 0
131 150 0
117 134 0
131 149 0
120 136 0
136 156 0
129 147 0
135 151 0
138 155 0
134 151 0
133 148 0
136 153 0
134 149 0
139 156 0
133 148 0
128 143 0
136 155 0
134 149 0
132 149 0
127 144 0
135 150 0
130 146 0
142 159 0
132 147 0
135 152 0
139 154 0
134 149 0
138 152 0
146 162 0
141 155 0
135 147 0
130 145 0
136 150 0
137 151 0
136 149 0
140 153 0
141 155 0
135 149 0
149 161 0
140 153 0
139 153 0
145 156 0
137 147 0
141 152 0
136 148 0
137 148 0
134 144 0
142 153 0
130 139 0
129 137 0
135 147 0
133 143 0
136 147 0
138 149 0
138 148 0
141 147 0
141 151 0
140 149 0
131 136 0
140 146 0
139 145 0
142 151 0
136 144 0
132 142 0
134 140 0
129 134 0
142 148 0
140 146 0
134 135 0
139 145 0
131 137 0
138 140 0
138 139 0
127 129 0
145 149 0
136 138 0
137 141 0
131 134 0
127 127 0
132 133 0
129 127 0
139 137 0
136 138 0
121 119 0
136 137 0
131 129 0
132 133 0
125 121 0
134 134 0
138 138 0
134 132 0
141 140 0
133 128 0
144 147 0
127 125 0
137 135 0
132 130 0
139 138 0
133 131 0
143 141 0
135 132 0
140 138 0
133 131 0
158 159 57
152 153 67
154 156 72
151 148 76
170 172 109
171 173 117
161 162 88
178 180 142
168 170 115
167 169 115
166 167 109
176 177 133
170 171 118
170 173 117
172 174 125
177 180 131
168 170 97
166 171 100
169 176 85
162 166 75
167 172 82
164 168 78
155 160 25
164 173 0
159 168 0
165 176 0
161 170 0
160 168 0
165 176 0
160 170 0
165 179 0
163 174 0
166 179 0
165 173 0
165 175 0
164 177 0
165 178 0
163 174 0
164 177 0
166 178 0
164 176 0
165 179 0
167 182 0
168 182 0
166 179 0
167 180 0
166 180 0
168 182 0
170 186 0
168 184 0
167 182 0
168 183 0
167 183 0
166 183 0
170 186 0
166 183 0
171 189 0
170 187 0
168 187 0
171 187 0
172 188 0
173 196 0
174 197 0
175 197 0
176 198 0
174 197 0
173 196 0
175 198 0
176 198 0
173 197 0
174 197 0
175 197 0
175 198 0
173 196 0
172 196 0
173 196 0
171 194 0
175 198 0
174 197 0
174 197 0
174 197 0
175 198 0
175 198 0
176 198 0
173 197 0
173 197 0
173 196 0
172 196 0
173 197 0
172 196 0
172 197 0
172 196 0
172 196 0
174 197 0
173 197 0
173 197 0
172 196 0
173 197 0
171 196 0
171 196 0
171 196 0
171 196 0
171 196 0
170 195 0
170 196 0
170 195 0
170 196 0
170 195 0
169 194 0
170 195 0
169 195 0
171 196 0
169 195 0
168 194 0
168 195 0
167 194 0
166 194 0
167 194 0
166 193 0
167 194 0
166 194 0
166 193 0
168 194 0
166 193 0
165 193 0
166 194 0
165 193 0
165 193 0
166 193 0
164 192 0
167 194 0
166 193 0
164 192 0
165 193 0
163 190 0
165 192 0
164 191 0
162 190 0
166 193 0
164 191 0
163 190 0
165 192 0
167 194 0
164 190 0
166 193 0
165 192 0
162 189 0
164 190 0
162 187 0
163 190 0
164 189 0
164 190 0
163 189 0
164 190 0
166 191 0
162 188 0
162 187 0
159 184 0
161 186 0
165 190 0
162 187 0
159 183 0
157 182 0
161 186 0
163 187 0
168 192 0
166 190 0
165 189 0
168 192 0
161 185 0
159 182 0
159 183 0
162 186 0
156 179 0
158 181 0
159 183 0
163 187 0
157 181 0
157 179 0
151 174 0
154 177 0
158 181 0
155 178 0
164 187 0
153 176 0
158 181 0
154 177 0
154 177 0
160 183 0
152 175 0
155 177 0
150 172 0
154 176 0
153 175 0
151 173 0
154 177 0
151 173 0
152 174 0
150 171 0
159 181 0
154 176 0
163 184 0
147 168 0
149 171 0
142 163 0
157 178 0
149 170 0
147 169 0
150 171 0
144 165 0
150 171 0
153 174 0
152 174 0
141 163 0
147 168 0
153 175 0
146 166 0
149 170 0
146 167 0
141 162 0
135 155 0
139 159 0
142 162 0
135 156 0
144 164 0
135 155 0
140 160 0
130 150 0
143 162 0
137 157 0
134 153 0
137 156 0
133 152 0
125 144 0
122 140 0
136 156 0
136 156 0
125 144 0
137 155 0
130 150 0
135 154 0
138 158 0
141 160 0
128 147 0
131 150 0
128 146 0
132 151 0
125 143 0
125 143 0
115 133 0
114 133 0
118 136 0
119 137 0
133 152 0
103 122 0
130 149 0
119 137 0
122 139 0
119 137 0
127 145 0
120 139 0
114 133 0
111 130 0
116 135 0
116 133 0
116 133 0
114 133 0
120 137 0
112 129 0
116 132 0
126 143 0
128 145 0
112 131 0
128 146 0
132 149 0
115 131 0
125 142 0
119 138 0
120 137 0
114 131 0
121 139 0
134 151 0
120 137 0
115 131 0
123 139 0
124 142 0
125 145 0
125 143 0
118 135 0
120 137 0
120 136 0
126 143 0
131 149 0
131 148 0
135 150 0
134 152 0
125 143 0
129 147 0
120 136 0
143 161 0
120 136 0
133 151 0
142 160 0
131 150 0
130 148 0
128 144 0
122 138 0
124 142 0
134 149 0
132 150 0
123 141 0
141 157 0
131 149 0
130 145 0
136 153 0
134 151 0
132 149 0
145 162 0
139 155 0
142 158 0
139 154 0
144 160 0
131 147 0
136 153 0
136 151 0
131 146 0
129 145 0
133 148 0
141 155 0
143 158 0
144 159 0
142 158 0
134 150 0
135 149 0
133 147 0
137 149 0
143 156 0
140 154 0
140 154 0
141 157 0
145 157 0
128 138 0
134 145 0
132 144 0
140 148 0
144 157 0
136 146 0
139 151 0
140 151 0
127 136 0
135 142 0
138 150 0
143 153 0
144 157 0
131 140 0
136 143 0
138 142 0
130 138 0
138 143 0
134 142 0
139 145 0
135 139 0
143 150 0
145 152 0
134 137 0
135 141 0
140 147 0
134 139 0
147 155 0
138 142 0
137 142 0
139 143 0
140 141 0
140 141 0
136 140 0
137 141 0
132 135 0
139 143 0
143 147 0
137 136 0
141 142 0
137 136 0
141 143 0
135 136 0
142 141 0
136 135 0
141 141 0
135 133 0
137 137 0
137 136 0
139 138 0
138 140 0
135 135 0
137 134 0
138 137 0
146 147 0
141 140 0
140 139 0
140 140 0
144 146 0
145 145 0
139 138 0
140 141 0
148 150 0
147 147 0
145 147 0
148 150 0
152 153 0
153 155 0
155 159 0
151 153 0
148 149 0
153 158 0
150 154 0
150 152 0
159 162 0
158 165 0
156 162 0
153 159 0
160 168 0
160 168 0
160 168 0
160 167 0
158 165 0
159 166 0
161 170 0
159 167 0
163 173 0
161 171 0
159 170 0
160 171 0
164 173 0
161 172 0
162 170 0
160 170 0
165 176 0
162 173 0
162 174 0
165 178 0
168 180 0
165 177 0
168 181 0
167 180 0
167 179 0
162 174 0
165 179 0
166 180 0
166 181 0
166 181 0
170 184 0
168 182 0
170 185 0
166 183 0
169 185 0
169 185 0
170 188 0
167 183 0
170 187 0
167 184 0
169 187 0
167 183 0
176 198 0
174 197 0
172 195 0
175 197 0
174 197 0
173 196 0
175 198 0
175 197 0
175 198 0
174 197 0
173 196 0
174 197 0
172 195 0
174 197 0
174 197 0
175 198 0
174 197 0
174 197 0
175 198 0
174 197 0
173 197 0
175 198 0
174 197 0
173 197 0
171 195 0
173 197 0
173 197 0
174 198 0
174 198 0
172 196 0
172 196 0
171 196 0
173 196 0
172 197 0
172 197 0
171 196 0
173 197 0
173 197 0
171 195 0
172 196 0
171 196 0
171 196 0
170 195 0
171 196 0
171 196 0
169 195 0
170 195 0
170 195 0
171 196 0
170 195 0
170 195 0
168 195 0
168 194 0
168 194 0
168 194 0
166 193 0
169 195 0
169 195 0
168 194 0
167 194 0
166 193 0
166 193 0
167 194 0
168 194 0
167 194 0
166 192 0
166 193 0
166 194 0
167 194 0
165 192 0
165 192 0
166 194 0
165 192 0
168 194 0
166 194 0
164 191 0
164 191 0
167 193 0
163 190 0
163 189 0
166 192 0
164 191 0
163 190 0
165 192 0
165 191 0
166 192 0
168 194 0
165 192 0
166 192 0
165 191 0
164 189 0
164 190 0
165 191 0
161 187 0
164 189 0
162 187 0
165 190 0
165 189 0
163 188 0
163 188 0
165 189 0
162 187 0
159 184 0
165 189 0
161 185 0
160 184 0
162 186 0
162 186 0
153 177 0
159 182 0
165 189 0
158 182 0
158 182 0
158 181 0
159 183 0
160 183 0
155 178 0
162 185 0
163 186 0
157 180 0
156 178 0
156 179 0
153 175 0
160 183 0
151 174 0
157 180 0
156 178 0
158 180 0
161 183 0
154 176 0
156 179 0
155 177 0
154 177 0
154 176 0
154 176 0
152 174 0
158 182 0
160 182 0
159 180 0
155 178 0
148 169 0
146 167 0
152 173 0
150 172 0
147 169 0
155 176 0
148 169 0
149 170 0
151 172 0
139 160 0
143 165 0
152 173 0
148 169 0
148 169 0
143 165 0
150 171 0
135 156 0
140 161 0
141 162 0
143 164 0
137 158 0
142 162 0
127 148 0
134 154 0
141 160 0
141 161 0
134 154 0
128 147 0
135 154 0
146 166 0
136 156 0
140 159 0
120 140 0
127 148 0
127 147 0
136 157 0
132 152 0
130 149 0
135 152 0
131 149 0
134 154 0
136 155 0
126 144 0
129 149 0
116 135 0
125 142 0
133 152 0
133 152 0
125 144 0
122 140 0
127 146 0
121 141 0
113 133 0
130 148 0
130 148 0
126 144 0
123 142 0
121 138 0
126 144 0
118 137 0
116 133 0
133 151 0
122 141 0
127 146 0
117 135 0
123 141 0
119 137 0
128 147 0
131 150 0
134 154 0
123 142 0
119 137 0
120 136 0
111 129 0
124 143 0
132 151 0
121 139 0
121 139 0
123 140 0
119 135 0
117 132 0
132 149 0
120 138 0
129 145 0
119 136 0
114 131 0
124 141 0
129 147 0
115 132 0
133 151 0
128 146 0
122 140 0
127 144 0
141 159 0
129 145 0
131 149 0
126 144 0
134 151 0
133 151 0
127 141 0
136 153 0
127 145 0
127 144 0
134 150 0
135 154 0
129 145 0
133 150 0
138 155 0
137 152 0
137 154 0
132 150 0
130 146 0
130 146 0
127 144 0
131 146 0
129 145 0
141 158 0
134 150 0
134 149 0
135 150 0
139 157 0
141 158 0
129 144 0
135 152 0
142 158 0
135 151 0
130 145 0
149 163 0
139 153 0
141 156 0
146 160 0
133 146 0
138 151 0
142 154 0
141 153 0
140 154 0
146 160 0
145 160 0
143 157 0
129 140 0
145 158 0
132 145 0
134 146 0
139 152 0
144 155 0
127 137 0
143 154 0
139 151 0
139 149 0
138 146 0
136 150 0
142 153 0
134 145 0
140 152 0
137 143 0
141 151 0
136 146 0
137 143 0
134 139 0
137 145 0
143 154 0
143 150 0
136 144 0
136 141 0
133 142 0
140 147 0
135 140 0
137 140 0
133 138 0
146 149 0
140 144 0
143 150 0
140 144 0
137 141 0
133 136 0
141 144 0
143 147 0
148 151 0
139 140 0
140 141 0
142 145 0
137 139 0
139 139 0
139 141 0
146 150 0
144 143 0
139 140 0
141 139 0
141 142 0
143 143 0
136 135 0
136 137 0
140 140 0
136 136 0
141 142 0
142 142 0
142 143 0
137 133 0
148 151 0
145 151 0
142 142 0
142 142 0
145 145 0
147 148 0
143 143 0
146 145 0
150 151 0
144 146 0
145 145 0
148 148 0
153 157 0
157 162 0
152 155 0
156 162 0
147 149 0
151 158 0
158 164 0
158 163 0
153 157 0
153 159 0
156 159 0
155 159 0
158 164 0
155 160 0
158 166 0
162 170 0
164 172 0
157 165 0
158 165 0
165 176 0
163 173 0
165 175 0
160 169 0
161 172 0
162 172 0
164 176 0
162 174 0
162 174 0
168 179 0
161 172 0
166 180 0
159 168 0
166 179 0
165 177 0
163 174 0
168 183 0
165 179 0
166 180 0
171 187 0
168 184 0
166 180 0
166 180 0
168 184 0
167 184 0
168 184 0
167 184 0
170 187 0
168 185 0
170 189 0
166 181 0
177 199 0
175 198 0
174 197 0
174 198 0
174 197 0
172 196 0
174 198 0
174 197 0
176 198 0
175 198 0
173 197 0
174 197 0
175 198 0
173 197 0
175 198 0
175 198 0
174 198 0
174 197 0
174 197 0
174 197 0
175 198 0
173 197 0
172 196 0
172 196 0
175 198 0
174 198 0
173 196 0
173 197 0
173 197 0
173 197 0
172 196 0
172 197 0
173 197 0
172 196 0
172 197 0
170 195 0
173 197 0
171 196 0
171 196 0
171 196 0
171 196 0
170 196 0
170 195 0
171 196 0
169 195 0
170 195 0
170 195 0
169 194 0
170 195 0
169 195 0
168 195 0
170 195 0
167 194 0
168 194 0
168 194 0
168 194 0
169 195 0
166 192 0
167 194 0
167 194 0
165 193 0
167 194 0
168 194 0
167 194 0
164 192 0
166 194 0
168 194 0
166 193 0
164 190 0
167 193 0
166 193 0
168 194 0
166 192 0
165 193 0
166 193 0
168 194 0
166 193 0
166 193 0
164 191 0
167 193 0
167 194 0
166 192 0
166 192 0
166 192 0
163 189 0
164 190 0
164 191 0
161 187 0
164 189 0
165 190 0
162 188 0
163 188 0
164 189 0
169 193 0
167 192 0
162 187 0
161 187 0
161 185 0
167 191 0
166 191 0
163 188 0
158 183 0
161 185 0
161 185 0
162 185 0
164 188 0
157 181 0
160 184 0
157 181 0
157 181 0
162 185 0
162 185 0
159 182 0
162 185 0
163 186 0
156 179 0
161 185 0
157 180 0
161 185 0
155 177 0
153 176 0
160 183 0
153 175 0
166 189 0
150 172 0
157 179 0
155 177 0
160 182 0
153 175 0
159 182 0
160 183 0
151 173 0
151 173 0
156 179 0
159 181 0
156 178 0
154 175 0
162 183 0
156 179 0
153 174 0
148 170 0
149 170 0
151 172 0
156 178 0
158 180 0
148 170 0
149 170 0
146 167 0
150 171 0
146 167 0
145 166 0
140 161 0
140 160 0
146 167 0
138 159 0
148 169 0
148 169 0
144 164 0
150 171 0
143 164 0
151 171 0
143 164 0
150 170 0
148 170 0
139 160 0
138 159 0
140 160 0
142 163 0
137 157 0
135 156 0
134 154 0
136 155 0
137 157 0
131 152 0
139 160 0
129 150 0
131 150 0
133 152 0
130 148 0
134 153 0
127 146 0
129 149 0
131 149 0
123 141 0
130 149 0
115 135 0
119 139 0
122 141 0
131 150 0
129 148 0
121 139 0
126 145 0
128 148 0
131 150 0
122 142 0
122 141 0
120 138 0
132 152 0
127 145 0
129 148 0
130 148 0
120 138 0
126 145 0
119 139 0
127 145 0
123 140 0
136 154 0
112 131 0
135 153 0
120 136 0
119 136 0
119 138 0
130 149 0
121 138 0
122 142 0
120 139 0
129 147 0
127 146 0
133 150 0
120 138 0
124 141 0
133 152 0
124 141 0
114 131 0
121 140 0
121 139 0
139 155 0
133 151 0
131 145 0
125 143 0
129 147 0
126 142 0
129 146 0
145 164 0
131 148 0
134 151 0
127 145 0
125 144 0
131 149 0
134 153 0
132 149 0
136 154 0
130 148 0
139 155 0
142 160 0
123 140 0
135 152 0
138 158 0
142 159 0
135 152 0
139 156 0
139 154 0
137 156 0
135 150 0
133 148 0
127 144 0
136 151 0
137 155 0
132 147 0
146 162 0
139 155 0
143 160 0
141 157 0
139 155 0
133 148 0
140 156 0
138 153 0
131 146 0
130 143 0
136 150 0
133 148 0
143 157 0
133 145 0
140 154 0
140 154 0
137 152 0
139 153 0
143 156 0
144 156 0
136 150 0
139 150 0
146 159 0
145 160 0
132 144 0
141 153 0
144 156 0
135 145 0
145 156 0
141 153 0
136 148 0
143 153 0
146 156 0
150 161 0
136 145 0
135 145 0
144 156 0
133 143 0
142 151 0
148 159 0
134 142 0
149 159 0
132 140 0
146 157 0
144 151 0
140 148 0
145 151 0
141 147 0
135 140 0
141 147 0
145 152 0
150 158 0
136 137 0
137 143 0
144 150 0
142 145 0
143 149 0
138 142 0
143 148 0
133 135 0
139 139 0
148 152 0
139 143 0
151 156 0
129 128 0
143 145 0
146 149 0
143 145 0
143 145 0
144 147 0
143 144 0
141 142 0
140 139 0
147 149 0
140 139 0
139 140 0
143 143 0
141 141 0
138 136 0
143 145 0
145 146 0
145 143 0
146 146 0
156 160 0
148 151 0
148 150 0
142 144 0
149 154 0
151 155 0
155 159 0
139 136 0
148 150 0
156 161 0
151 153 0
152 156 0
151 154 0
153 158 0
152 157 0
153 158 0
154 158 0
157 163 0
154 160 0
155 158 0
160 167 0
157 164 0
163 174 0
154 159 0
161 170 0
157 161 0
159 167 0
160 169 0
164 174 0
159 167 0
161 171 0
162 173 0
165 174 0
165 173 0
161 171 0
161 173 0
160 172 0
167 176 0
163 173 0
165 177 0
165 179 0
162 172 0
168 182 0
165 178 0
169 183 0
168 181 0
166 181 0
167 180 0
168 182 0
164 179 0
165 179 0
166 178 0
168 183 0
165 179 0
168 184 0
171 189 0
169 186 0
169 186 0
174 198 0
172 195 0
176 199 0
174 197 0
174 197 0
174 197 0
174 197 0
172 196 0
175 198 0
175 198 0
171 195 0
174 197 0
174 198 0
173 197 0
173 196 0
174 198 0
172 196 0
173 196 0
170 194 0
173 196 0
174 198 0
174 198 0
173 196 0
174 198 0
173 197 0
170 195 0
174 197 0
171 195 0
174 197 0
172 197 0
172 196 0
172 197 0
173 197 0
171 196 0
171 196 0
170 195 0
171 196 0
171 196 0
170 196 0
171 196 0
170 195 0
170 196 0
171 196 0
170 196 0
169 195 0
170 195 0
168 194 0
169 195 0
169 195 0
168 194 0
168 195 0
169 195 0
168 195 0
167 194 0
166 193 0
167 193 0
167 194 0
167 193 0
168 194 0
167 193 0
166 193 0
169 195 0
168 195 0
165 192 0
167 194 0
167 194 0
168 195 0
165 192 0
163 189 0
168 195 0
166 193 0
166 193 0
167 193 0
168 194 0
166 193 0
164 189 0
164 190 0
166 192 0
165 191 0
166 192 0
163 188 0
167 193 0
167 193 0
165 191 0
163 188 0
164 189 0
163 189 0
163 188 0
164 189 0
160 184 0
166 191 0
166 191 0
163 187 0
159 183 0
166 190 0
161 186 0
162 187 0
154 179 0
162 186 0
156 180 0
164 188 0
164 188 0
166 190 0
160 184 0
164 189 0
162 185 0
169 192 0
163 186 0
159 183 0
161 183 0
160 183 0
161 185 0
164 187 0
156 179 0
162 185 0
157 181 0
157 180 0
162 185 0
160 182 0
157 180 0
156 179 0
162 185 0
155 178 0
158 180 0
158 181 0
150 173 0
155 177 0
148 170 0
154 175 0
156 179 0
161 183 0
156 179 0
147 169 0
155 176 0
147 169 0
150 172 0
157 178 0
153 175 0
148 169 0
143 165 0
156 178 0
150 171 0
155 177 0
156 178 0
146 168 0
151 173 0
152 174 0
150 173 0
153 175 0
142 163 0
136 157 0
138 159 0
150 171 0
152 173 0
135 155 0
150 170 0
148 168 0
146 167 0
144 165 0
147 168 0
136 157 0
149 168 0
141 162 0
133 154 0
146 166 0
124 145 0
133 153 0
141 161 0
140 159 0
143 163 0
132 152 0
135 155 0
136 155 0
130 150 0
130 150 0
141 162 0
132 151 0
136 156 0
135 154 0
127 146 0
137 156 0
127 147 0
133 152 0
133 153 0
138 159 0
136 155 0
131 149 0
130 151 0
139 158 0
127 147 0
126 144 0
126 145 0
137 157 0
124 143 0
124 143 0
127 146 0
119 138 0
124 144 0
126 145 0
128 146 0
128 147 0
118 136 0
115 134 0
130 149 0
133 151 0
129 148 0
122 140 0
132 152 0
125 145 0
119 136 0
124 142 0
131 151 0
112 130 0
126 144 0
130 147 0
118 136 0
128 146 0
119 138 0
132 151 0
125 142 0
135 154 0
118 136 0
124 143 0
124 141 0
130 148 0
133 152 0
118 133 0
128 144 0
129 147 0
129 148 0
127 145 0
127 146 0
141 159 0
132 150 0
129 146 0
138 157 0
130 147 0
134 153 0
128 144 0
123 141 0
135 150 0
131 148 0
130 149 0
127 145 0
131 149 0
138 156 0
130 148 0
137 154 0
136 153 0
133 150 0
131 147 0
138 155 0
139 158 0
138 156 0
138 154 0
133 151 0
134 150 0
126 139 0
132 149 0
133 147 0
132 149 0
148 165 0
134 151 0
140 157 0
137 152 0
131 147 0
138 154 0
140 154 0
144 158 0
136 151 0
145 160 0
143 159 0
137 151 0
144 162 0
142 157 0
141 154 0
138 151 0
134 144 0
152 166 0
137 151 0
140 153 0
137 153 0
147 162 0
134 145 0
145 159 0
133 146 0
136 147 0
146 158 0
144 158 0
142 155 0
133 144 0
132 142 0
141 154 0
143 153 0
137 146 0
139 148 0
143 155 0
142 152 0
144 151 0
141 151 0
146 154 0
136 143 0
147 158 0
141 149 0
141 150 0
139 145 0
149 155 0
143 149 0
140 146 0
134 138 0
146 154 0
139 146 0
147 155 0
138 142 0
142 147 0
146 153 0
143 147 0
145 150 0
137 143 0
142 144 0
154 161 0
143 147 0
148 152 0
145 148 0
146 149 0
138 136 0
145 146 0
143 145 0
142 143 0
139 138 0
146 150 0
137 138 0
141 142 0
145 146 0
146 148 0
139 140 0
145 145 0
142 145 0
150 155 0
141 143 0
143 145 0
140 141 0
149 150 0
148 153 0
150 155 0
154 159 0
145 148 0
150 153 0
144 149 0
152 154 0
155 159 0
150 152 0
148 149 0
152 158 0
148 152 0
151 155 0
151 154 0
151 155 0
154 158 0
155 160 0
160 169 0
158 162 0
160 167 0
158 163 0
154 159 0
159 170 0
157 162 0
155 161 0
160 168 0
162 170 0
157 164 0
161 169 0
158 164 0
162 174 0
162 172 0
162 171 0
160 169 0
160 171 0
162 169 0
162 172 0
162 174 0
164 178 0
166 180 0
165 178 0
165 178 0
164 177 0
163 175 0
165 177 0
165 178 0
168 182 0
165 178 0
165 179 0
167 181 0
164 177 0
167 185 0
170 185 0
170 188 0
169 184 0
165 181 0
168 184 0
175 198 0
173 196 0
174 198 0
175 198 0
174 198 0
174 197 0
176 198 0
172 195 0
174 197 0
175 198 0
174 197 0
174 197 0
172 196 0
172 196 0
176 198 0
175 198 0
174 198 0
171 196 0
172 196 0
175 198 0
172 196 0
174 198 0
175 198 0
173 197 0
171 195 0
171 195 0
172 197 0
172 197 0
171 196 0
172 197 0
173 197 0
172 196 0
171 196 0
171 196 0
172 196 0
171 196 0
169 195 0
173 196 0
170 195 0
171 196 0
171 196 0
171 196 0
170 196 0
170 195 0
169 195 0
169 195 0
169 194 0
169 195 0
170 195 0
169 195 0
170 196 0
167 193 0
169 195 0
168 194 0
169 195 0
169 195 0
166 193 0
168 195 0
166 194 0
167 193 0
168 194 0
168 194 0
168 194 0
166 193 0
168 195 0
168 194 0
168 194 0
168 194 0
166 193 0
165 191 0
167 193 0
164 190 0
167 193 0
165 192 0
168 193 0
164 190 0
167 192 0
167 192 0
166 191 0
168 194 0
164 189 0
165 190 0
165 190 0
167 192 0
162 188 0
167 192 0
162 186 0
164 189 0
167 192 0
161 187 0
163 188 0
163 188 0
159 183 0
165 190 0
163 188 0
165 189 0
163 187 0
161 185 0
162 186 0
159 183 0
165 190 0
164 188 0
161 186 0
165 189 0
157 180 0
159 182 0
161 185 0
158 181 0
164 187 0
158 180 0
161 183 0
167 190 0
161 184 0
162 186 0
155 178 0
157 181 0
154 177 0
165 188 0
161 183 0
150 173 0
161 183 0
156 179 0
151 174 0
154 177 0
156 179 0
159 182 0
156 178 0
157 180 0
159 182 0
150 172 0
162 185 0
159 181 0
155 178 0
149 171 0
156 178 0
140 162 0
160 182 0
156 177 0
152 174 0
157 179 0
149 171 0
147 168 0
150 172 0
154 175 0
152 174 0
159 181 0
150 172 0
148 169 0
153 175 0
159 180 0
157 178 0
149 169 0
140 160 0
153 175 0
145 166 0
145 167 0
136 157 0
144 164 0
143 163 0
146 167 0
141 162 0
131 151 0
137 158 0
140 161 0
147 168 0
148 168 0
139 161 0
145 165 0
142 164 0
134 155 0
139 159 0
150 169 0
143 162 0
126 146 0
135 155 0
144 165 0
130 150 0
140 160 0
134 153 0
133 153 0
133 152 0
130 149 0
126 147 0
136 156 0
126 145 0
133 152 0
137 157 0
135 156 0
128 146 0
131 150 0
135 154 0
131 151 0
121 139 0
126 143 0
132 150 0
115 135 0
129 149 0
124 142 0
126 144 0
128 147 0
127 146 0
128 147 0
131 149 0
129 147 0
131 150 0
128 147 0
128 146 0
124 143 0
125 144 0
121 139 0
134 153 0
133 152 0
126 145 0
123 142 0
112 128 0
130 149 0
129 148 0
136 155 0
131 149 0
122 141 0
135 153 0
124 144 0
131 150 0
131 149 0
133 151 0
131 148 0
127 145 0
136 154 0
127 146 0
127 145 0
136 154 0
123 143 0
132 149 0
128 145 0
123 142 0
135 154 0
137 156 0
131 147 0
133 149 0
146 164 0
135 154 0
125 142 0
136 155 0
140 158 0
137 156 0
137 154 0
138 156 0
144 162 0
125 140 0
133 148 0
136 154 0
136 155 0
145 161 0
137 153 0
138 157 0
145 164 0
145 162 0
138 155 0
142 159 0
148 164 0
143 161 0
134 151 0
141 159 0
133 150 0
133 149 0
143 161 0
135 151 0
137 152 0
135 150 0
146 161 0
144 161 0
140 155 0
141 157 0
137 152 0
148 165 0
141 157 0
140 153 0
136 148 0
145 159 0
137 152 0
135 151 0
139 155 0
133 143 0
137 149 0
142 154 0
138 154 0
146 158 0
135 147 0
144 157 0
140 153 0
141 155 0
134 143 0
141 152 0
146 158 0
145 156 0
147 159 0
136 145 0
144 153 0
144 155 0
139 148 0
134 142 0
146 157 0
141 149 0
142 154 0
141 148 0
143 149 0
133 141 0
147 156 0
142 150 0
146 154 0
149 158 0
145 150 0
142 148 0
144 151 0
148 157 0
143 148 0
141 146 0
146 151 0
141 145 0
150 156 0
149 155 0
145 152 0
147 152 0
135 139 0
151 156 0
151 156 0
133 134 0
148 155 0
143 144 0
147 147 0
139 138 0
147 150 0
140 141 0
143 144 0
137 138 0
145 146 0
151 152 0
145 143 0
143 144 0
140 141 0
144 145 0
142 144 0
143 143 0
147 147 0
153 157 0
147 148 0
145 147 0
143 144 0
148 147 0
149 151 0
153 155 0
151 155 0
147 150 0
153 158 0
155 161 0
152 156 0
151 155 0
156 162 0
155 158 0
155 160 0
153 158 0
151 154 0
156 163 0
159 165 0
160 169 0
153 159 0
159 169 0
159 164 0
161 169 0
158 166 0
162 171 0
157 164 0
160 171 0
162 171 0
160 169 0
165 177 0
157 165 0
157 169 0
162 174 0
162 173 0
159 169 0
164 175 0
163 174 0
166 178 0
166 181 0
168 183 0
163 176 0
165 178 0
164 177 0
164 178 0
163 174 0
167 178 0
161 172 0
163 176 0
167 180 0
168 183 0
165 179 0
168 182 0
166 179 0
168 184 0
174 197 0
174 197 0
174 197 0
176 198 0
176 199 0
175 197 0
173 196 0
173 196 0
174 197 0
173 197 0
173 196 0
175 198 0
173 197 0
174 197 0
173 196 0
173 196 0
174 197 0
173 197 0
174 197 0
173 197 0
173 197 0
173 197 0
172 197 0
173 197 0
172 197 0
171 195 0
172 197 0
173 197 0
172 197 0
173 197 0
171 196 0
172 197 0
171 196 0
171 196 0
172 197 0
172 196 0
171 196 0
172 196 0
171 196 0
171 196 0
169 195 0
168 193 0
170 195 0
170 195 0
170 195 0
169 195 0
169 194 0
170 195 0
169 195 0
169 195 0
169 195 0
169 194 0
168 194 0
170 195 0
167 193 0
170 195 0
168 194 0
167 193 0
167 192 0
168 194 0
167 193 0
166 193 0
165 191 0
166 192 0
167 193 0
167 193 0
166 193 0
167 193 0
168 194 0
168 193 0
169 194 0
166 191 0
168 194 0
166 192 0
167 193 0
167 192 0
163 189 0
164 190 0
167 193 0
165 190 0
168 193 0
165 190 0
166 191 0
167 192 0
167 192 0
169 194 0
166 192 0
162 186 0
163 187 0
164 189 0
164 189 0
163 187 0
169 194 0
162 186 0
166 190 0
164 189 0
165 189 0
163 187 0
164 188 0
160 183 0
161 185 0
165 188 0
156 178 0
161 184 0
160 183 0
157 180 0
162 185 0
157 181 0
162 185 0
165 188 0
163 185 0
163 186 0
162 185 0
162 185 0
161 184 0
156 179 0
161 183 0
160 182 0
154 177 0
160 182 0
154 177 0
156 179 0
148 170 0
158 180 0
161 184 0
161 183 0
156 178 0
155 177 0
158 180 0
156 178 0
153 175 0
162 184 0
161 183 0
164 187 0
153 175 0
155 177 0
153 174 0
153 175 0
151 173 0
156 177 0
149 171 0
149 170 0
146 168 0
155 176 0
154 174 0
151 172 0
155 177 0
139 159 0
154 175 0
141 162 0
144 165 0
146 167 0
139 161 0
147 169 0
156 178 0
140 162 0
151 173 0
150 171 0
149 170 0
144 165 0
141 162 0
135 155 0
149 170 0
141 161 0
150 170 0
136 157 0
142 163 0
136 155 0
133 153 0
137 158 0
136 156 0
136 156 0
140 161 0
140 160 0
145 164 0
136 155 0
141 162 0
133 153 0
132 152 0
140 159 0
132 151 0
140 160 0
128 148 0
142 163 0
126 145 0
137 157 0
129 149 0
144 165 0
133 154 0
126 144 0
117 138 0
128 147 0
122 141 0
131 150 0
129 149 0
129 148 0
139 158 0
144 163 0
118 135 0
138 159 0
123 144 0
136 155 0
131 150 0
127 147 0
136 155 0
125 145 0
133 152 0
133 152 0
131 149 0
134 153 0
119 138 0
139 158 0
123 142 0
132 151 0
123 143 0
138 157 0
133 152 0
124 141 0
127 146 0
134 155 0
121 141 0
133 153 0
123 142 0
138 158 0
141 159 0
120 137 0
134 152 0
138 156 0
132 151 0
143 162 0
140 157 0
130 147 0
133 151 0
125 144 0
132 150 0
133 152 0
142 159 0
126 144 0
130 150 0
136 153 0
135 153 0
114 131 0
133 151 0
147 163 0
134 152 0
136 153 0
132 151 0
135 155 0
131 148 0
133 150 0
138 155 0
139 156 0
142 161 0
138 157 0
145 164 0
133 149 0
143 161 0
138 155 0
135 152 0
132 149 0
136 155 0
142 160 0
147 164 0
138 155 0
141 157 0
142 158 0
142 158 0
130 143 0
138 153 0
141 157 0
130 147 0
132 146 0
141 156 0
144 159 0
142 155 0
148 163 0
147 164 0
142 159 0
132 147 0
147 161 0
148 161 0
143 158 0
144 160 0
144 159 0
139 153 0
139 151 0
139 152 0
144 155 0
144 159 0
144 159 0
138 151 0
140 150 0
137 150 0
140 151 0
148 161 0
143 154 0
134 144 0
144 157 0
149 161 0
139 150 0
149 159 0
151 162 0
144 154 0
139 146 0
142 152 0
138 149 0
135 145 0
149 159 0
151 161 0
146 156 0
140 147 0
139 147 0
150 159 0
141 146 0
143 149 0
145 151 0
147 155 0
140 147 0
148 152 0
142 147 0
139 142 0
138 141 0
142 147 0
141 144 0
145 151 0
146 150 0
143 145 0
147 150 0
143 146 0
142 143 0
142 145 0
146 148 0
144 145 0
143 144 0
157 164 0
146 148 0
145 149 0
145 149 0
144 147 0
153 155 0
147 150 0
146 148 0
150 155 0
148 151 0
152 156 0
154 156 0
153 158 0
152 155 0
151 151 0
155 160 0
155 160 0
147 149 0
153 155 0
154 160 0
152 156 0
149 151 0
156 160 0
154 158 0
155 158 0
154 161 0
158 165 0
157 162 0
162 168 0
159 164 0
153 157 0
158 165 0
162 170 0
159 166 0
160 169 0
159 166 0
157 164 0
158 166 0
161 169 0
163 174 0
160 167 0
160 169 0
163 177 0
161 171 0
165 175 0
163 174 0
161 169 0
159 170 0
159 166 0
165 175 0
164 175 0
160 171 0
165 173 0
167 183 0
166 177 0
161 173 0
164 176 0
166 181 0
166 180 0
164 177 0
166 179 0
165 179 0
171 187 0
167 183 0
164 178 0
167 183 0
174 197 0
174 197 0
175 198 0
176 198 0
174 198 0
171 195 0
173 196 0
172 196 0
174 197 0
173 197 0
173 197 0
174 197 0
172 197 0
172 196 0
174 197 0
174 197 0
174 197 0
174 197 0
173 197 0
173 197 0
172 197 0
172 196 0
174 198 0
172 196 0
173 197 0
174 197 0
172 197 0
172 196 0
173 197 0
171 196 0
170 196 0
172 197 0
171 196 0
169 195 0
173 197 0
171 196 0
170 196 0
170 195 0
170 195 0
171 196 0
170 196 0
168 194 0
169 194 0
170 195 0
169 194 0
170 195 0
168 194 0
169 195 0
171 196 0
168 195 0
167 194 0
166 192 0
169 194 0
169 195 0
166 193 0
169 195 0
169 195 0
166 193 0
169 195 0
165 192 0
170 195 0
170 195 0
169 194 0
169 195 0
169 194 0
167 193 0
164 191 0
165 191 0
167 193 0
168 192 0
167 193 0
169 194 0
165 191 0
167 192 0
166 191 0
165 190 0
165 190 0
166 191 0
166 192 0
159 184 0
165 189 0
165 190 0
164 189 0
166 192 0
165 190 0
167 191 0
163 187 0
164 187 0
166 190 0
166 189 0
160 184 0
166 191 0
156 180 0
158 182 0
161 185 0
165 189 0
157 180 0
166 191 0
159 183 0
168 191 0
168 191 0
166 189 0
167 190 0
156 179 0
157 180 0
164 187 0
159 182 0
169 191 0
167 188 0
161 184 0
160 183 0
156 179 0
159 182 0
154 176 0
165 188 0
159 182 0
161 184 0
160 182 0
159 181 0
156 179 0
157 179 0
157 179 0
158 180 0
156 178 0
160 182 0
156 178 0
160 183 0
152 174 0
158 181 0
153 176 0
156 178 0
160 182 0
162 184 0
154 177 0
156 178 0
151 173 0
154 176 0
150 172 0
149 171 0
149 169 0
158 180 0
152 173 0
152 174 0
149 171 0
153 175 0
149 170 0
144 165 0
155 176 0
144 165 0
147 167 0
149 169 0
149 170 0
143 163 0
154 175 0
154 175 0
148 170 0
146 167 0
147 169 0
146 167 0
150 171 0
151 173 0
133 154 0
135 157 0
139 159 0
144 165 0
143 164 0
147 168 0
151 172 0
142 164 0
137 158 0
133 154 0
142 162 0
135 156 0
141 161 0
135 156 0
137 157 0
138 158 0
136 156 0
137 157 0
142 162 0
140 160 0
142 162 0
129 150 0
149 169 0
134 154 0
145 165 0
135 156 0
132 151 0
124 143 0
144 165 0
136 155 0
137 158 0
141 161 0
135 153 0
132 151 0
124 143 0
127 146 0
136 158 0
127 146 0
129 148 0
130 149 0
127 145 0
128 148 0
116 135 0
130 147 0
129 148 0
134 153 0
131 150 0
133 154 0
126 145 0
129 147 0
135 153 0
136 154 0
136 156 0
126 146 0
124 142 0
132 149 0
133 152 0
141 159 0
139 157 0
134 153 0
129 148 0
128 147 0
134 153 0
132 152 0
130 148 0
128 147 0
139 157 0
133 151 0
136 155 0
137 156 0
131 149 0
136 155 0
128 147 0
131 151 0
140 158 0
127 146 0
135 153 0
138 157 0
133 152 0
145 164 0
137 156 0
131 149 0
145 162 0
129 147 0
127 142 0
133 149 0
137 156 0
145 164 0
139 157 0
133 151 0
138 157 0
138 156 0
146 164 0
137 156 0
145 162 0
142 159 0
136 153 0
138 154 0
140 158 0
132 147 0
136 153 0
139 157 0
143 159 0
130 148 0
132 147 0
141 156 0
133 151 0
141 157 0
144 161 0
142 157 0
139 156 0
139 155 0
139 153 0
140 158 0
141 156 0
141 157 0
139 153 0
145 160 0
149 167 0
145 159 0
147 160 0
143 157 0
138 149 0
142 156 0
142 156 0
140 153 0
149 162 0
150 164 0
138 151 0
149 162 0
141 150 0
146 158 0
142 154 0
148 161 0
148 159 0
138 149 0
143 156 0
146 157 0
145 156 0
145 158 0
150 163 0
146 158 0
146 155 0
141 151 0
150 159 0
142 149 0
144 152 0
142 153 0
146 155 0
151 162 0
142 148 0
147 157 0
151 159 0
144 150 0
140 150 0
144 152 0
140 141 0
149 156 0
151 158 0
148 154 0
138 140 0
142 146 0
145 152 0
144 148 0
138 140 0
147 151 0
143 149 0
145 149 0
142 147 0
143 148 0
146 152 0
148 154 0
144 147 0
147 152 0
149 155 0
146 150 0
146 150 0
147 150 0
151 156 0
146 152 0
148 150 0
150 154 0
157 165 0
151 157 0
144 143 0
153 154 0
141 141 0
151 153 0
154 158 0
155 161 0
151 155 0
152 157 0
153 155 0
154 160 0
152 155 0
154 159 0
156 161 0
146 149 0
153 154 0
157 162 0
159 165 0
154 158 0
160 168 0
160 169 0
153 158 0
158 165 0
154 158 0
152 159 0
158 165 0
161 168 0
157 165 0
156 162 0
161 170 0
157 165 0
161 170 0
162 171 0
163 173 0
162 171 0
163 174 0
163 174 0
161 173 0
162 174 0
165 176 0
163 174 0
162 172 0
165 178 0
162 174 0
162 171 0
166 179 0
164 177 0
165 179 0
163 175 0
165 180 0
167 181 0
166 181 0
168 182 0
168 183 0
166 183 0
168 184 0
175 198 0
174 196 0
175 198 0
175 198 0
174 198 0
174 197 0
173 197 0
174 198 0
173 197 0
174 198 0
172 196 0
173 197 0
173 197 0
174 197 0
172 197 0
173 196 0
174 197 0
172 196 0
172 196 0
172 196 0
173 197 0
174 198 0
172 197 0
172 197 0
171 196 0
173 197 0
170 195 0
174 197 0
172 197 0
170 196 0
174 197 0
173 197 0
171 196 0
172 197 0
171 196 0
172 197 0
173 197 0
170 196 0
170 195 0
169 195 0
171 196 0
168 194 0
170 195 0
170 195 0
171 196 0
171 196 0
169 194 0
168 194 0
170 195 0
169 195 0
169 195 0
170 195 0
169 195 0
169 194 0
169 195 0
167 193 0
168 194 0
168 194 0
168 194 0
170 195 0
165 191 0
168 194 0
167 191 0
168 194 0
167 193 0
169 194 0
166 192 0
167 193 0
166 192 0
167 193 0
166 192 0
168 194 0
166 192 0
169 194 0
163 189 0
169 194 0
170 194 0
165 191 0
165 189 0
168 194 0
165 189 0
159 184 0
167 191 0
160 185 0
163 187 0
166 190 0
167 191 0
165 190 0
162 186 0
160 184 0
166 189 0
165 188 0
166 190 0
162 186 0
165 188 0
163 188 0
165 189 0
165 188 0
164 187 0
161 184 0
161 185 0
152 175 0
164 188 0
159 182 0
159 181 0
158 181 0
157 180 0
160 183 0
160 183 0
162 184 0
162 186 0
161 183 0
157 181 0
164 186 0
162 184 0
154 176 0
160 183 0
157 181 0
161 183 0
162 184 0
159 182 0
156 178 0
159 182 0
158 181 0
155 177 0
160 183 0
160 182 0
159 182 0
151 173 0
155 178 0
153 175 0
149 171 0
152 175 0
158 180 0
153 175 0
156 177 0
143 165 0
146 168 0
149 170 0
158 180 0
161 184 0
149 171 0
158 179 0
154 175 0
152 175 0
161 183 0
155 176 0
147 168 0
148 170 0
142 163 0
147 169 0
154 175 0
143 164 0
145 165 0
147 167 0
149 170 0
151 172 0
150 171 0
141 163 0
148 169 0
153 173 0
144 165 0
141 161 0
148 169 0
146 166 0
143 164 0
148 169 0
139 159 0
140 161 0
131 153 0
140 161 0
142 162 0
147 167 0
139 160 0
133 152 0
127 147 0
143 163 0
140 160 0
123 145 0
145 165 0
140 161 0
136 157 0
141 162 0
142 163 0
130 151 0
135 155 0
134 154 0
132 151 0
138 158 0
136 155 0
144 165 0
141 161 0
136 156 0
134 154 0
123 142 0
135 155 0
131 152 0
141 161 0
136 156 0
120 138 0
137 157 0
130 148 0
123 141 0
128 148 0
132 150 0
140 159 0
135 155 0
136 157 0
141 160 0
136 155 0
138 157 0
132 150 0
141 162 0
136 156 0
131 150 0
135 152 0
140 159 0
144 163 0
126 144 0
136 155 0
131 149 0
131 149 0
126 146 0
137 156 0
133 152 0
132 149 0
147 167 0
131 150 0
133 152 0
132 151 0
135 153 0
142 159 0
141 159 0
132 151 0
132 149 0
123 141 0
141 160 0
134 151 0
133 150 0
138 156 0
143 161 0
127 143 0
139 157 0
131 149 0
133 152 0
137 156 0
138 156 0
140 159 0
136 153 0
141 159 0
135 153 0
146 166 0
134 152 0
143 160 0
137 154 0
145 163 0
143 161 0
141 159 0
134 152 0
140 156 0
150 167 0
139 155 0
140 159 0
142 161 0
136 156 0
144 162 0
144 157 0
144 159 0
140 154 0
142 159 0
140 157 0
137 155 0
140 157 0
145 163 0
144 160 0
134 145 0
139 155 0
141 157 0
148 164 0
147 162 0
147 162 0
146 162 0
135 149 0
147 163 0
137 152 0
145 157 0
145 159 0
145 157 0
149 161 0
151 165 0
141 155 0
135 150 0
140 153 0
137 149 0
150 164 0
144 158 0
137 147 0
147 157 0
155 167 0
149 161 0
138 148 0
134 145 0
144 156 0
146 155 0
142 152 0
143 156 0
149 159 0
148 160 0
144 153 0
157 167 0
139 146 0
143 154 0
144 153 0
141 147 0
150 160 0
149 156 0
141 150 0
148 157 0
146 155 0
145 152 0
147 154 0
150 158 0
142 147 0
146 153 0
147 154 0
151 157 0
151 156 0
148 153 0
145 152 0
148 155 0
150 156 0
147 151 0
143 148 0
152 157 0
146 148 0
139 142 0
142 145 0
148 152 0
153 159 0
145 149 0
151 156 0
151 157 0
149 154 0
147 150 0
150 155 0
150 156 0
144 145 0
146 148 0
151 156 0
150 153 0
153 157 0
155 159 0
152 156 0
149 154 0
156 163 0
152 154 0
148 150 0
154 160 0
157 162 0
158 166 0
153 158 0
157 164 0
156 162 0
155 162 0
158 165 0
154 160 0
159 166 0
154 161 0
158 165 0
161 169 0
160 166 0
163 170 0
162 169 0
160 167 0
162 170 0
161 168 0
158 165 0
165 176 0
162 172 0
165 176 0
161 170 0
164 174 0
161 170 0
164 174 0
167 178 0
162 174 0
165 178 0
160 169 0
165 176 0
170 185 0
163 178 0
165 179 0
166 178 0
164 177 0
165 179 0
165 178 0
161 172 0
166 179 0
169 184 0
166 181 0
175 197 0
175 198 0
175 198 0
175 198 0
175 198 0
173 196 0
171 195 0
174 197 0
175 198 0
175 197 0
174 198 0
174 198 0
175 198 0
174 197 0
172 196 0
176 198 0
173 197 0
172 196 0
174 197 0
173 197 0
173 197 0
174 198 0
172 196 0
173 197 0
173 197 0
172 196 0
170 195 0
172 197 0
172 197 0
171 196 0
172 196 0
171 196 0
171 196 0
171 195 0
171 196 0
171 196 0
170 195 0
170 195 0
170 195 0
170 195 0
170 195 0
170 195 0
171 196 0
172 196 0
169 195 0
170 195 0
169 195 0
168 194 0
168 194 0
167 193 0
168 194 0
171 196 0
167 193 0
170 195 0
166 191 0
168 193 0
171 196 0
167 193 0
171 195 0
168 194 0
166 192 0
167 193 0
169 195 0
169 195 0
167 192 0
169 194 0
168 193 0
165 190 0
168 193 0
165 189 0
163 188 0
166 191 0
166 191 0
165 190 0
165 190 0
167 192 0
164 189 0
167 192 0
166 190 0
169 193 0
164 189 0
165 189 0
164 188 0
166 190 0
171 194 0
165 188 0
165 189 0
169 193 0
169 193 0
159 183 0
167 191 0
166 191 0
157 181 0
166 189 0
164 188 0
161 184 0
164 187 0
162 185 0
162 185 0
161 185 0
157 180 0
156 179 0
164 188 0
161 183 0
160 183 0
156 179 0
157 181 0
161 183 0
161 183 0
159 183 0
164 187 0
160 182 0
162 185 0
156 179 0
157 179 0
163 187 0
152 174 0
157 180 0
158 180 0
148 170 0
152 175 0
164 187 0
158 181 0
158 181 0
165 187 0
158 180 0
159 180 0
157 179 0
153 175 0
148 169 0
153 176 0
150 172 0
152 174 0
154 176 0
149 171 0
155 176 0
157 179 0
146 168 0
152 174 0
154 176 0
153 174 0
156 178 0
154 176 0
150 172 0
146 167 0
147 169 0
157 177 0
152 174 0
145 167 0
143 163 0
152 175 0
154 176 0
143 163 0
155 175 0
141 163 0
143 164 0
141 162 0
151 172 0
147 168 0
140 160 0
144 165 0
145 166 0
144 164 0
147 168 0
145 165 0
149 170 0
140 160 0
147 168 0
143 165 0
148 169 0
141 162 0
143 164 0
144 163 0
137 158 0
147 167 0
137 157 0
134 155 0
137 157 0
146 167 0
135 155 0
132 152 0
144 165 0
142 162 0
132 151 0
136 155 0
139 158 0
145 166 0
136 155 0
142 162 0
136 156 0
123 141 0
134 152 0
137 158 0
133 154 0
140 159 0
137 157 0
126 145 0
135 155 0
137 158 0
138 158 0
134 153 0
139 157 0
132 150 0
126 146 0
138 159 0
125 144 0
132 150 0
128 148 0
133 153 0
128 146 0
141 159 0
137 156 0
133 151 0
133 153 0
130 149 0
127 145 0
132 151 0
136 156 0
137 156 0
129 147 0
123 142 0
134 153 0
138 158 0
133 152 0
132 152 0
131 150 0
139 160 0
132 149 0
132 151 0
131 149 0
145 164 0
129 145 0
127 146 0
135 154 0
135 153 0
140 159 0
137 154 0
142 161 0
140 158 0
147 168 0
132 150 0
136 156 0
143 162 0
135 154 0
129 145 0
137 154 0
145 163 0
143 162 0
136 155 0
137 156 0
139 157 0
138 157 0
142 162 0
141 159 0
138 155 0
139 156 0
148 165 0
139 156 0
143 161 0
145 165 0
127 145 0
145 162 0
142 160 0
155 173 0
131 147 0
148 165 0
144 163 0
147 165 0
144 162 0
146 163 0
143 160 0
148 167 0
139 155 0
148 165 0
144 156 0
146 163 0
142 159 0
142 158 0
144 158 0
139 155 0
145 158 0
133 148 0
152 166 0
142 156 0
148 163 0
141 155 0
138 152 0
141 157 0
138 151 0
140 155 0
147 164 0
149 164 0
147 160 0
148 160 0
146 160 0
149 161 0
144 158 0
145 157 0
153 165 0
150 164 0
143 156 0
140 152 0
147 161 0
151 164 0
146 158 0
148 162 0
139 153 0
146 155 0
151 163 0
147 160 0
147 159 0
147 158 0
144 153 0
138 148 0
147 157 0
141 146 0
156 166 0
155 162 0
145 154 0
142 150 0
153 162 0
133 141 0
153 163 0
140 146 0
143 151 0
149 157 0
154 160 0
150 158 0
141 145 0
154 161 0
158 166 0
150 156 0
143 149 0
149 154 0
144 149 0
147 152 0
152 158 0
152 158 0
153 158 0
146 148 0
153 159 0
151 156 0
151 156 0
151 157 0
152 157 0
151 158 0
148 150 0
143 144 0
153 159 0
152 157 0
150 153 0
158 167 0
157 162 0
152 155 0
151 156 0
153 158 0
155 163 0
149 151 0
152 154 0
152 157 0
147 151 0
153 158 0
158 165 0
153 159 0
158 164 0
157 164 0
154 161 0
156 160 0
156 163 0
155 159 0
153 158 0
156 163 0
160 166 0
158 164 0
158 166 0
163 173 0
162 171 0
161 170 0
162 171 0
162 174 0
162 171 0
163 173 0
164 174 0
162 175 0
163 172 0
162 173 0
166 176 0
165 178 0
164 174 0
163 174 0
168 183 0
164 175 0
163 175 0
168 179 0
166 179 0
165 178 0
169 184 0
165 178 0
161 171 0
167 180 0
172 195 0
175 197 0
175 198 0
175 198 0
174 197 0
175 198 0
175 198 0
175 198 0
174 198 0
173 197 0
174 198 0
175 198 0
173 197 0
173 197 0
175 198 0
173 197 0
174 197 0
173 197 0
174 198 0
173 197 0
172 197 0
172 197 0
172 196 0
172 197 0
172 196 0
172 195 0
173 197 0
171 196 0
170 195 0
172 196 0
171 196 0
171 196 0
171 196 0
171 196 0
171 196 0
170 195 0
171 196 0
171 196 0
171 196 0
170 196 0
172 196 0
169 195 0
165 191 0
171 196 0
170 195 0
170 195 0
170 196 0
171 196 0
169 194 0
166 191 0
169 195 0
167 193 0
171 196 0
168 194 0
170 195 0
170 195 0
170 196 0
167 193 0
167 192 0
169 194 0
168 194 0
165 190 0
169 195 0
166 191 0
168 193 0
169 193 0
166 192 0
168 193 0
168 193 0
168 193 0
164 189 0
166 191 0
166 191 0
166 191 0
166 190 0
164 189 0
165 190 0
165 190 0
163 187 0
168 193 0
166 190 0
166 190 0
167 192 0
166 190 0
166 190 0
167 191 0
166 190 0
165 188 0
168 192 0
166 190 0
160 184 0
164 188 0
162 185 0
162 185 0
163 186 0
163 186 0
162 186 0
167 189 0
164 188 0
161 184 0
163 186 0
167 190 0
165 189 0
161 183 0
163 186 0
164 187 0
164 188 0
164 186 0
158 181 0
158 181 0
163 185 0
158 181 0
154 176 0
159 182 0
159 181 0
158 181 0
162 185 0
161 184 0
154 177 0
159 181 0
153 176 0
159 182 0
164 185 0
156 177 0
163 185 0
156 179 0
161 184 0
148 171 0
162 184 0
152 175 0
155 178 0
150 171 0
156 178 0
158 180 0
150 172 0
152 173 0
161 184 0
152 173 0
157 178 0
158 179 0
149 170 0
147 168 0
153 175 0
151 173 0
144 166 0
141 161 0
155 176 0
147 168 0
151 173 0
151 173 0
146 167 0
151 170 0
151 172 0
140 161 0
150 172 0
142 163 0
156 177 0
140 161 0
148 169 0
146 167 0
156 177 0
154 175 0
146 167 0
140 161 0
139 160 0
128 149 0
144 164 0
143 164 0
149 170 0
149 170 0
140 161 0
139 161 0
140 160 0
145 167 0
147 168 0
149 170 0
136 156 0
130 151 0
138 159 0
143 164 0
134 154 0
148 168 0
142 161 0
136 156 0
143 163 0
125 146 0
130 151 0
145 165 0
134 154 0
137 158 0
133 153 0
135 154 0
134 153 0
138 157 0
126 146 0
122 140 0
133 152 0
142 162 0
128 150 0
133 151 0
140 160 0
137 158 0
141 161 0
130 151 0
137 156 0
143 163 0
139 161 0
127 146 0
132 152 0
135 155 0
139 159 0
135 154 0
133 154 0
133 153 0
140 158 0
129 149 0
130 149 0
130 148 0
142 162 0
144 165 0
130 150 0
130 150 0
143 162 0
139 158 0
136 155 0
134 151 0
131 151 0
141 162 0
138 154 0
136 155 0
127 145 0
145 164 0
137 156 0
137 155 0
141 160 0
139 157 0
140 159 0
140 158 0
138 155 0
143 161 0
140 159 0
142 162 0
135 155 0
133 151 0
143 161 0
140 158 0
137 157 0
143 162 0
141 160 0
146 164 0
140 158 0
140 159 0
141 161 0
146 163 0
135 153 0
135 153 0
132 152 0
142 159 0
146 164 0
148 166 0
142 160 0
143 161 0
148 166 0
143 162 0
135 153 0
138 153 0
134 150 0
138 154 0
144 162 0
139 154 0
145 162 0
137 153 0
152 171 0
142 158 0
146 162 0
145 161 0
152 168 0
141 158 0
145 162 0
147 161 0
146 160 0
147 161 0
135 151 0
142 158 0
146 162 0
144 157 0
142 158 0
146 160 0
143 159 0
149 164 0
149 162 0
145 159 0
151 164 0
142 155 0
151 165 0
152 167 0
138 148 0
146 158 0
140 153 0
148 160 0
148 161 0
138 153 0
147 159 0
144 157 0
145 153 0
145 156 0
154 165 0
140 151 0
139 149 0
152 166 0
149 162 0
144 156 0
151 161 0
146 155 0
145 153 0
142 149 0
149 159 0
150 159 0
148 156 0
143 148 0
151 160 0
148 157 0
147 154 0
150 158 0
147 155 0
146 154 0
150 160 0
145 152 0
149 156 0
152 159 0
143 149 0
150 157 0
144 151 0
148 155 0
147 153 0
153 159 0
145 150 0
156 163 0
153 158 0
146 148 0
155 160 0
154 160 0
147 153 0
149 154 0
151 156 0
158 164 0
149 154 0
148 154 0
153 157 0
155 160 0
150 156 0
145 146 0
156 164 0
151 156 0
148 153 0
147 150 0
157 164 0
150 154 0
149 156 0
157 164 0
159 165 0
151 155 0
155 160 0
157 163 0
157 162 0
147 152 0
152 155 0
156 163 0
156 161 0
165 174 0
159 166 0
160 169 0
160 170 0
158 163 0
159 168 0
158 166 0
160 166 0
158 165 0
162 170 0
158 168 0
162 173 0
160 170 0
157 164 0
164 174 0
165 178 0
165 175 0
162 171 0
166 178 0
163 173 0
166 179 0
164 179 0
162 172 0
164 174 0
168 180 0
169 182 0
166 178 0
167 181 0
164 175 0
168 183 0
166 180 0
175 198 0
174 197 0
174 198 0
173 196 0
174 198 0
173 197 0
174 197 0
174 198 0
175 198 0
174 197 0
175 198 0
175 198 0
174 197 0
174 197 0
173 197 0
173 197 0
173 197 0
173 197 0
172 196 0
174 197 0
172 196 0
172 196 0
173 197 0
172 197 0
174 197 0
172 197 0
173 197 0
172 196 0
171 196 0
172 196 0
172 196 0
171 196 0
171 195 0
173 197 0
173 197 0
173 197 0
170 196 0
171 196 0
172 196 0
170 195 0
169 194 0
171 195 0
169 194 0
170 195 0
169 194 0
169 194 0
172 196 0
170 195 0
168 193 0
170 195 0
169 195 0
170 196 0
169 194 0
168 193 0
171 195 0
167 193 0
171 196 0
169 194 0
167 192 0
167 192 0
164 189 0
170 195 0
167 193 0
164 189 0
169 194 0
167 192 0
168 193 0
165 190 0
169 193 0
170 194 0
169 194 0
165 189 0
168 193 0
168 192 0
168 192 0
168 192 0
167 191 0
166 191 0
163 187 0
162 186 0
161 185 0
170 194 0
166 190 0
167 190 0
164 188 0
167 190 0
167 191 0
163 186 0
163 186 0
161 185 0
164 188 0
167 190 0
167 191 0
161 185 0
165 189 0
158 181 0
161 183 0
164 187 0
166 188 0
161 183 0
158 181 0
161 183 0
165 188 0
162 185 0
159 182 0
158 181 0
162 185 0
164 187 0
159 182 0
155 178 0
154 177 0
157 180 0
160 181 0
161 184 0
159 181 0
158 180 0
167 189 0
156 178 0
156 178 0
158 181 0
159 181 0
152 175 0
158 180 0
157 179 0
159 182 0
154 176 0
156 179 0
156 179 0
158 181 0
145 167 0
148 169 0
157 180 0
151 173 0
149 171 0
155 177 0
161 184 0
158 180 0
150 173 0
149 172 0
151 173 0
155 176 0
151 172 0
158 180 0
149 170 0
149 171 0
145 167 0
149 170 0
152 172 0
149 170 0
142 164 0
149 170 0
148 169 0
153 175 0
157 179 0
143 164 0
151 171 0
146 167 0
151 173 0
147 169 0
142 162 0
138 160 0
145 167 0
139 161 0
143 164 0
141 162 0
151 172 0
145 166 0
147 168 0
150 172 0
138 159 0
149 169 0
140 160 0
144 165 0
135 157 0
146 167 0
129 150 0
147 168 0
149 170 0
152 173 0
153 175 0
139 159 0
130 149 0
143 164 0
146 167 0
137 158 0
135 155 0
134 155 0
129 149 0
133 154 0
138 158 0
144 164 0
141 161 0
137 157 0
139 159 0
133 154 0
139 159 0
139 157 0
144 163 0
146 166 0
135 156 0
139 159 0
133 152 0
129 149 0
128 147 0
132 150 0
139 160 0
130 149 0
132 153 0
140 162 0
133 151 0
136 156 0
128 148 0
128 148 0
128 147 0
131 150 0
135 155 0
139 161 0
140 160 0
132 151 0
136 155 0
134 155 0
146 165 0
136 157 0
146 165 0
134 153 0
132 152 0
141 161 0
133 152 0
137 156 0
140 159 0
137 155 0
138 158 0
132 151 0
146 167 0
130 148 0
142 160 0
139 159 0
131 153 0
142 160 0
138 158 0
142 160 0
143 162 0
139 157 0
137 154 0
135 153 0
136 154 0
127 145 0
141 159 0
140 159 0
141 162 0
146 166 0
146 162 0
134 151 0
144 161 0
140 158 0
148 167 0
134 153 0
137 156 0
144 160 0
147 165 0
146 163 0
148 167 0
147 166 0
145 163 0
144 161 0
145 160 0
139 156 0
146 164 0
136 154 0
133 151 0
143 159 0
141 157 0
147 163 0
144 160 0
144 161 0
143 161 0
146 164 0
143 161 0
142 158 0
147 165 0
153 170 0
145 161 0
146 163 0
151 168 0
146 160 0
154 170 0
140 154 0
147 164 0
146 162 0
142 156 0
144 160 0
143 156 0
142 154 0
152 167 0
145 160 0
144 157 0
150 162 0
147 161 0
150 164 0
143 154 0
148 160 0
151 165 0
142 154 0
145 155 0
146 159 0
149 163 0
146 157 0
146 158 0
157 170 0
148 156 0
145 153 0
148 160 0
146 159 0
144 153 0
144 152 0
146 159 0
150 160 0
146 157 0
141 149 0
144 151 0
151 163 0
145 154 0
147 154 0
142 149 0
152 161 0
149 157 0
154 163 0
152 161 0
143 149 0
146 153 0
142 148 0
143 148 0
155 162 0
152 161 0
150 157 0
155 161 0
149 156 0
151 156 0
153 159 0
153 159 0
151 156 0
149 155 0
145 150 0
155 161 0
152 157 0
154 159 0
152 159 0
156 161 0
152 158 0
153 159 0
155 162 0
152 157 0
153 159 0
151 156 0
154 158 0
150 154 0
150 154 0
154 160 0
156 163 0
152 158 0
151 156 0
153 158 0
157 163 0
155 164 0
157 163 0
157 164 0
157 161 0
155 164 0
161 170 0
159 165 0
153 159 0
157 164 0
161 166 0
154 158 0
151 158 0
159 167 0
161 170 0
161 171 0
157 166 0
161 170 0
160 168 0
160 167 0
161 170 0
162 174 0
163 172 0
161 170 0
160 169 0
166 177 0
159 168 0
162 172 0
167 180 0
165 178 0
163 175 0
162 174 0
165 180 0
164 175 0
166 178 0
164 176 0
164 178 0
165 178 0
174 198 0
173 197 0
175 198 0
174 198 0
174 198 0
173 197 0
171 195 0
174 198 0
176 198 0
174 198 0
173 197 0
174 198 0
173 197 0
172 196 0
174 197 0
173 197 0
173 197 0
172 196 0
173 197 0
171 195 0
173 197 0
173 197 0
173 196 0
171 196 0
174 197 0
172 196 0
172 196 0
168 193 0
172 197 0
171 196 0
172 197 0
173 197 0
172 196 0
169 195 0
170 195 0
171 195 0
172 197 0
170 196 0
170 195 0
172 196 0
169 194 0
171 196 0
170 195 0
169 194 0
169 195 0
170 196 0
170 195 0
171 196 0
170 196 0
169 194 0
169 195 0
169 194 0
169 194 0
169 194 0
170 195 0
168 194 0
168 193 0
170 195 0
167 191 0
165 189 0
168 193 0
170 195 0
167 192 0
170 195 0
168 193 0
168 193 0
168 192 0
170 195 0
169 193 0
165 190 0
167 192 0
164 189 0
166 190 0
163 187 0
168 192 0
162 187 0
166 190 0
167 191 0
167 190 0
169 194 0
167 191 0
166 190 0
166 190 0
168 192 0
168 191 0
170 194 0
165 189 0
161 184 0
164 187 0
165 188 0
165 189 0
165 189 0
166 189 0
161 185 0
168 191 0
166 189 0
161 184 0
165 188 0
165 188 0
166 189 0
164 187 0
163 186 0
151 175 0
161 184 0
163 186 0
160 182 0
161 184 0
159 182 0
157 179 0
160 183 0
164 187 0
154 178 0
164 185 0
158 180 0
151 174 0
163 184 0
165 187 0
159 180 0
163 186 0
157 179 0
160 183 0
148 170 0
151 173 0
158 180 0
165 188 0
151 173 0
157 179 0
162 184 0
146 169 0
156 178 0
158 180 0
163 184 0
150 173 0
155 178 0
152 173 0
153 175 0
153 174 0
157 180 0
156 179 0
157 179 0
150 172 0
157 180 0
153 173 0
149 171 0
148 169 0
153 176 0
152 174 0
151 173 0
145 166 0
143 164 0
153 175 0
149 169 0
149 169 0
150 170 0
142 162 0
148 169 0
147 168 0
144 165 0
155 175 0
144 166 0
146 166 0
135 155 0
145 166 0
148 168 0
151 172 0
140 162 0
144 164 0
144 164 0
146 167 0
145 166 0
143 165 0
145 164 0
138 158 0
141 162 0
144 165 0
147 167 0
148 167 0
144 165 0
140 161 0
136 158 0
128 148 0
135 155 0
128 148 0
139 158 0
143 164 0
143 163 0
141 160 0
132 152 0
141 161 0
136 156 0
132 151 0
143 163 0
135 154 0
140 160 0
142 163 0
142 162 0
139 158 0
130 149 0
132 152 0
142 162 0
140 160 0
138 157 0
142 162 0
142 162 0
138 158 0
139 159 0
131 151 0
144 163 0
140 160 0
132 153 0
139 157 0
140 161 0
134 153 0
128 147 0
138 157 0
147 168 0
138 158 0
135 155 0
136 157 0
140 160 0
138 157 0
134 154 0
127 147 0
134 153 0
141 160 0
136 156 0
135 156 0
138 156 0
124 143 0
134 151 0
137 157 0
134 153 0
137 156 0
137 156 0
140 160 0
137 157 0
147 167 0
144 161 0
139 158 0
140 157 0
138 157 0
147 169 0
143 160 0
129 147 0
141 160 0
145 165 0
146 165 0
147 168 0
137 156 0
134 151 0
137 158 0
139 159 0
133 151 0
141 160 0
145 163 0
135 152 0
136 154 0
145 165 0
143 160 0
146 162 0
142 160 0
141 159 0
141 161 0
137 154 0
139 159 0
146 164 0
145 163 0
145 163 0
138 154 0
137 152 0
140 157 0
144 161 0
146 165 0
146 161 0
143 161 0
136 154 0
143 159 0
136 153 0
146 163 0
149 168 0
139 156 0
144 162 0
145 161 0
145 160 0
144 160 0
152 166 0
147 165 0
150 162 0
151 168 0
145 163 0
147 162 0
139 155 0
145 160 0
147 161 0
146 161 0
140 153 0
149 166 0
155 169 0
142 155 0
151 164 0
149 164 0
145 157 0
147 162 0
142 155 0
148 160 0
149 161 0
149 160 0
149 161 0
151 164 0
148 162 0
155 168 0
148 159 0
144 154 0
145 157 0
142 156 0
143 153 0
151 162 0
152 164 0
146 157 0
159 172 0
146 157 0
144 151 0
149 158 0
147 157 0
146 153 0
153 162 0
158 167 0
156 166 0
152 162 0
147 155 0
144 150 0
156 166 0
151 158 0
156 166 0
145 152 0
155 163 0
152 159 0
151 155 0
152 162 0
148 154 0
156 164 0
152 158 0
148 152 0
156 163 0
153 159 0
154 161 0
154 161 0
158 165 0
150 157 0
153 160 0
152 156 0
146 150 0
149 152 0
151 157 0
155 162 0
157 167 0
151 154 0
151 155 0
153 160 0
156 164 0
161 169 0
159 166 0
158 165 0
155 161 0
153 160 0
155 163 0
155 160 0
158 168 0
162 170 0
163 172 0
155 161 0
158 167 0
156 163 0
159 168 0
157 162 0
157 166 0
160 166 0
158 165 0
156 163 0
159 168 0
159 167 0
158 165 0
164 175 0
164 177 0
163 176 0
164 175 0
158 166 0
164 178 0
161 172 0
163 174 0
163 172 0
167 180 0
165 175 0
162 173 0
168 182 0
165 180 0
163 174 0
163 175 0
164 175 0
169 183 0
174 197 0
176 199 0
174 198 0
172 196 0
174 197 0
175 198 0
175 198 0
173 197 0
175 198 0
174 198 0
174 197 0
174 197 0
174 197 0
172 196 0
173 197 0
173 197 0
175 198 0
173 197 0
173 197 0
172 196 0
172 197 0
171 196 0
172 196 0
172 196 0
172 195 0
172 196 0
172 196 0
172 196 0
169 194 0
174 197 0
173 197 0
171 196 0
172 196 0
170 195 0
172 197 0
171 195 0
172 196 0
170 195 0
171 196 0
170 194 0
169 194 0
170 195 0
169 194 0
171 196 0
171 196 0
169 194 0
167 192 0
169 194 0
171 196 0
169 193 0
171 196 0
168 193 0
168 193 0
170 195 0
167 191 0
171 195 0
168 193 0
167 191 0
166 190 0
172 196 0
170 194 0
170 194 0
169 193 0
168 192 0
170 195 0
168 193 0
171 195 0
158 182 0
165 189 0
169 192 0
167 191 0
168 193 0
165 189 0
166 190 0
164 189 0
166 189 0
164 188 0
167 191 0
167 190 0
167 190 0
169 193 0
167 191 0
160 184 0
167 191 0
164 188 0
165 189 0
166 190 0
163 186 0
163 185 0
167 190 0
160 183 0
162 185 0
161 183 0
162 185 0
164 187 0
160 183 0
166 189 0
165 187 0
164 186 0
169 192 0
164 187 0
168 190 0
159 182 0
160 183 0
160 182 0
159 182 0
164 187 0
156 179 0
162 185 0
164 186 0
161 185 0
165 188 0
158 180 0
156 179 0
163 186 0
158 181 0
163 185 0
162 184 0
161 184 0
163 185 0
160 182 0
163 185 0
159 182 0
158 180 0
158 180 0
159 181 0
160 182 0
162 185 0
156 179 0
159 181 0
152 174 0
159 181 0
156 179 0
150 172 0
159 181 0
156 179 0
155 177 0
157 178 0
152 174 0
152 174 0
152 175 0
154 175 0
157 179 0
163 186 0
145 165 0
150 171 0
152 174 0
153 175 0
153 175 0
154 177 0
150 173 0
149 170 0
151 171 0
150 172 0
156 178 0
150 172 0
153 173 0
148 170 0
142 163 0
151 172 0
144 165 0
143 165 0
139 159 0
153 173 0
147 168 0
154 175 0
137 158 0
139 160 0
141 161 0
146 166 0
136 157 0
143 164 0
141 161 0
147 168 0
139 160 0
147 167 0
145 165 0
138 160 0
142 161 0
141 161 0
153 175 0
138 158 0
143 164 0
143 164 0
146 165 0
141 160 0
154 175 0
134 154 0
134 154 0
140 161 0
140 161 0
141 161 0
146 167 0
142 163 0
136 158 0
140 159 0
137 155 0
138 159 0
132 152 0
144 165 0
141 162 0
130 150 0
132 153 0
143 163 0
141 161 0
135 155 0
134 151 0
140 161 0
144 163 0
143 164 0
139 159 0
137 157 0
138 159 0
144 164 0
138 159 0
134 153 0
142 162 0
145 165 0
130 150 0
143 163 0
141 159 0
134 154 0
136 156 0
146 166 0
136 157 0
136 156 0
150 171 0
142 162 0
139 160 0
141 163 0
141 161 0
142 160 0
134 153 0
145 163 0
139 157 0
140 158 0
138 157 0
139 158 0
138 156 0
144 163 0
136 155 0
150 169 0
144 164 0
144 163 0
136 157 0
134 153 0
145 164 0
150 169 0
144 163 0
134 153 0
141 161 0
148 167 0
137 154 0
138 156 0
138 158 0
147 165 0
143 162 0
146 166 0
145 166 0
144 161 0
145 163 0
150 168 0
140 158 0
140 157 0
134 149 0
148 167 0
146 164 0
149 168 0
148 167 0
144 162 0
147 164 0
158 176 0
146 163 0
142 159 0
140 157 0
142 159 0
140 155 0
143 160 0
144 162 0
145 162 0
143 158 0
141 155 0
140 156 0
151 168 0
142 157 0
141 155 0
150 164 0
146 161 0
151 167 0
139 157 0
143 158 0
153 168 0
143 161 0
157 174 0
153 169 0
152 167 0
151 166 0
145 160 0
152 165 0
140 153 0
151 164 0
152 165 0
147 161 0
147 160 0
150 161 0
152 164 0
142 154 0
145 157 0
146 157 0
149 162 0
148 160 0
148 158 0
146 156 0
150 162 0
137 149 0
147 157 0
145 157 0
148 158 0
153 162 0
146 155 0
151 162 0
151 161 0
149 156 0
147 157 0
151 164 0
153 164 0
146 155 0
156 166 0
146 156 0
153 163 0
142 149 0
148 155 0
149 157 0
145 151 0
145 154 0
151 160 0
150 158 0
153 163 0
160 169 0
151 159 0
156 161 0
156 164 0
153 162 0
149 152 0
154 161 0
156 163 0
149 156 0
158 165 0
156 163 0
158 166 0
155 162 0
156 164 0
151 157 0
154 161 0
158 167 0
152 159 0
157 165 0
151 157 0
152 159 0
158 166 0
152 161 0
156 163 0
154 161 0
155 162 0
157 165 0
158 163 0
160 169 0
158 166 0
155 161 0
157 164 0
157 165 0
159 167 0
158 164 0
159 168 0
162 171 0
162 170 0
159 169 0
158 164 0
165 173 0
161 171 0
161 172 0
159 165 0
160 170 0
164 176 0
164 175 0
161 171 0
164 174 0
160 171 0
165 179 0
163 174 0
166 177 0
163 175 0
161 171 0
164 175 0
163 175 0
164 174 0
163 175 0
162 174 0
165 178 0
164 176 0
175 198 0
175 198 0
173 197 0
174 197 0
174 197 0
174 198 0
174 198 0
173 196 0
173 197 0
173 197 0
173 197 0
173 197 0
176 198 0
174 198 0
172 196 0
174 198 0
174 197 0
173 197 0
172 196 0
171 195 0
173 197 0
173 197 0
172 197 0
173 197 0
173 197 0
172 196 0
171 196 0
171 195 0
174 198 0
170 195 0
171 196 0
171 196 0
171 196 0
171 196 0
170 195 0
170 194 0
169 194 0
169 194 0
173 197 0
170 195 0
167 192 0
170 194 0
171 196 0
172 196 0
170 195 0
170 195 0
171 196 0
171 195 0
170 194 0
168 192 0
168 192 0
171 195 0
169 194 0
168 193 0
169 193 0
167 191 0
170 194 0
168 191 0
169 193 0
168 193 0
165 189 0
166 190 0
166 190 0
170 194 0
166 192 0
169 194 0
169 194 0
167 192 0
167 191 0
164 188 0
165 189 0
167 192 0
166 190 0
167 191 0
168 193 0
167 190 0
171 194 0
163 187 0
161 185 0
170 194 0
170 194 0
167 190 0
168 191 0
169 193 0
163 186 0
160 184 0
169 192 0
166 189 0
161 184 0
166 189 0
165 188 0
166 189 0
170 193 0
166 189 0
165 188 0
164 188 0
163 185 0
165 187 0
157 180 0
157 179 0
166 189 0
159 182 0
164 187 0
163 185 0
160 183 0
164 186 0
165 188 0
162 184 0
162 185 0
166 189 0
158 180 0
162 185 0
163 186 0
158 182 0
160 182 0
158 180 0
160 183 0
151 172 0
161 183 0
153 176 0
157 180 0
158 180 0
154 176 0
162 185 0
157 180 0
156 178 0
160 182 0
154 176 0
159 181 0
162 184 0
154 177 0
158 180 0
151 173 0
158 180 0
149 171 0
144 166 0
149 170 0
155 177 0
152 174 0
157 179 0
149 170 0
157 179 0
155 177 0
156 178 0
147 168 0
147 168 0
154 175 0
154 177 0
158 179 0
151 174 0
148 169 0
149 169 0
153 174 0
156 177 0
157 178 0
150 171 0
150 171 0
140 161 0
143 165 0
148 169 0
151 173 0
150 171 0
153 173 0
148 168 0
152 174 0
150 171 0
144 164 0
146 166 0
150 171 0
139 160 0
147 168 0
146 167 0
139 159 0
144 163 0
149 171 0
147 168 0
146 167 0
145 166 0
130 151 0
136 156 0
139 160 0
139 161 0
147 167 0
146 167 0
144 164 0
137 158 0
143 163 0
155 176 0
140 161 0
139 161 0
141 162 0
139 160 0
143 164 0
148 170 0
146 165 0
138 157 0
133 153 0
134 153 0
143 164 0
141 162 0
138 158 0
136 156 0
140 161 0
132 151 0
149 170 0
142 162 0
136 155 0
135 157 0
133 152 0
144 162 0
137 156 0
135 155 0
137 157 0
137 156 0
141 160 0
138 158 0
142 160 0
151 171 0
131 152 0
131 151 0
141 162 0
137 156 0
140 159 0
137 157 0
139 158 0
147 167 0
142 161 0
136 156 0
145 165 0
140 160 0
143 161 0
141 160 0
139 159 0
143 162 0
141 161 0
139 159 0
145 164 0
148 167 0
140 160 0
140 158 0
139 159 0
145 164 0
143 163 0
144 163 0
138 157 0
130 149 0
143 162 0
143 163 0
146 165 0
136 155 0
145 164 0
141 160 0
151 171 0
144 164 0
140 160 0
134 153 0
139 157 0
144 164 0
142 161 0
141 159 0
145 162 0
145 161 0
144 161 0
147 167 0
139 157 0
146 166 0
148 165 0
142 160 0
145 164 0
158 177 0
142 159 0
144 162 0
138 156 0
150 169 0
146 162 0
146 163 0
144 161 0
146 163 0
142 158 0
150 167 0
147 160 0
149 165 0
146 163 0
143 160 0
149 165 0
144 161 0
149 166 0
150 166 0
146 166 0
142 157 0
147 163 0
149 165 0
155 169 0
151 167 0
138 150 0
146 162 0
151 165 0
147 162 0
145 155 0
147 162 0
146 161 0
148 162 0
146 161 0
144 157 0
157 172 0
151 165 0
157 172 0
147 159 0
151 161 0
140 152 0
148 161 0
149 162 0
150 165 0
152 162 0
154 169 0
147 160 0
155 167 0
147 158 0
149 161 0
151 164 0
144 154 0
154 167 0
148 160 0
150 163 0
158 170 0
151 162 0
153 163 0
142 151 0
150 159 0
150 160 0
153 165 0
146 154 0
155 165 0
146 156 0
149 160 0
152 158 0
150 160 0
144 149 0
152 160 0
154 162 0
153 160 0
149 156 0
158 170 0
151 158 0
151 158 0
147 150 0
148 156 0
159 170 0
153 162 0
152 160 0
151 160 0
153 159 0
152 158 0
157 164 0
151 158 0
157 166 0
156 163 0
159 170 0
153 159 0
155 163 0
153 158 0
156 163 0
154 161 0
153 158 0
158 165 0
156 166 0
157 165 0
156 162 0
158 168 0
158 168 0
156 163 0
159 166 0
162 173 0
160 167 0
158 166 0
158 167 0
160 170 0
159 167 0
160 168 0
166 178 0
164 174 0
165 173 0
162 171 0
160 167 0
160 170 0
166 178 0
160 169 0
161 169 0
163 175 0
158 168 0
157 166 0
165 176 0
162 170 0
166 180 0
161 171 0
167 180 0
164 176 0
161 173 0
162 171 0
164 176 0
174 197 0
174 198 0
175 198 0
174 197 0
172 196 0
173 197 0
172 195 0
175 198 0
173 197 0
173 197 0
173 197 0
172 196 0
173 197 0
172 196 0
174 197 0
172 196 0
172 196 0
172 197 0
172 197 0
172 196 0
170 195 0
173 197 0
172 196 0
171 196 0
172 197 0
172 196 0
172 197 0
170 194 0
172 196 0
171 196 0
171 195 0
173 197 0
173 197 0
169 195 0
172 197 0
171 196 0
167 192 0
169 193 0
170 195 0
173 197 0
170 195 0
171 195 0
169 193 0
170 195 0
172 196 0
170 195 0
170 195 0
169 193 0
170 194 0
165 190 0
171 195 0
169 194 0
167 192 0
169 194 0
169 193 0
172 196 0
170 195 0
170 193 0
168 193 0
169 193 0
170 194 0
172 196 0
167 191 0
169 193 0
168 192 0
169 193 0
171 195 0
165 189 0
168 191 0
165 189 0
165 189 0
165 189 0
167 191 0
166 190 0
169 192 0
166 190 0
162 186 0
169 192 0
166 190 0
164 188 0
161 185 0
170 193 0
170 194 0
165 189 0
166 189 0
164 187 0
163 186 0
164 187 0
167 189 0
162 185 0
163 186 0
162 185 0
164 187 0
166 189 0
163 186 0
163 186 0
163 186 0
160 184 0
160 182 0
168 191 0
163 186 0
170 193 0
164 187 0
160 183 0
162 184 0
160 182 0
163 185 0
157 180 0
164 186 0
162 185 0
165 189 0
163 185 0
164 186 0
159 181 0
164 187 0
160 183 0
155 177 0
161 184 0
161 183 0
160 182 0
160 182 0
162 185 0
165 187 0
164 188 0
151 172 0
161 182 0
159 182 0
159 180 0
154 176 0
160 183 0
157 179 0
154 177 0
156 178 0
151 174 0
157 178 0
150 172 0
158 180 0
156 178 0
155 177 0
158 180 0
157 178 0
148 170 0
153 174 0
150 171 0
152 174 0
149 171 0
149 170 0
158 180 0
151 173 0
153 174 0
145 167 0
149 171 0
150 171 0
153 173 0
140 161 0
155 176 0
152 172 0
148 169 0
151 173 0
147 168 0
151 172 0
151 171 0
156 177 0
154 176 0
147 168 0
148 168 0
153 174 0
147 167 0
151 172 0
142 164 0
151 173 0
151 171 0
149 168 0
146 166 0
148 169 0
140 160 0
143 164 0
147 168 0
147 169 0
148 169 0
142 164 0
139 160 0
149 168 0
145 166 0
142 163 0
150 172 0
142 162 0
146 167 0
142 162 0
140 162 0
130 152 0
145 165 0
137 157 0
148 170 0
138 158 0
134 155 0
138 157 0
141 160 0
137 158 0
139 159 0
132 152 0
138 157 0
146 166 0
141 161 0
134 153 0
140 158 0
143 162 0
147 168 0
144 163 0
140 160 0
143 163 0
142 161 0
135 154 0
145 165 0
135 154 0
139 158 0
127 147 0
140 161 0
135 155 0
134 152 0
131 150 0
140 160 0
132 153 0
142 161 0
141 160 0
134 154 0
141 159 0
144 163 0
142 162 0
139 158 0
145 165 0
136 155 0
146 165 0
137 156 0
135 152 0
136 154 0
127 148 0
138 157 0
143 163 0
143 163 0
140 161 0
140 160 0
141 159 0
143 162 0
141 160 0
137 156 0
150 169 0
150 169 0
147 167 0
137 158 0
145 165 0
146 164 0
138 156 0
145 162 0
145 164 0
138 157 0
140 160 0
149 167 0
141 156 0
153 173 0
147 166 0
141 160 0
138 156 0
143 161 0
141 158 0
137 156 0
145 162 0
141 158 0
152 169 0
143 159 0
146 164 0
141 160 0
139 156 0
151 168 0
141 160 0
145 162 0
144 162 0
150 167 0
149 165 0
147 164 0
145 162 0
143 162 0
154 172 0
141 158 0
139 156 0
145 160 0
148 165 0
137 154 0
144 160 0
148 165 0
154 170 0
153 170 0
148 163 0
148 164 0
148 164 0
136 151 0
150 164 0
146 161 0
149 163 0
144 156 0
141 156 0
147 161 0
144 159 0
149 165 0
149 160 0
151 164 0
147 161 0
153 169 0
146 161 0
148 160 0
149 162 0
154 169 0
154 168 0
153 166 0
150 165 0
149 159 0
152 166 0
155 168 0
148 159 0
151 164 0
154 168 0
143 156 0
152 163 0
158 170 0
150 162 0
150 161 0
150 159 0
147 157 0
154 164 0
151 162 0
154 164 0
151 163 0
148 156 0
155 164 0
148 156 0
150 160 0
148 156 0
156 168 0
152 161 0
153 162 0
145 154 0
155 162 0
153 163 0
154 163 0
152 159 0
154 162 0
154 158 0
158 167 0
148 154 0
150 158 0
157 164 0
150 156 0
146 152 0
158 168 0
151 157 0
156 161 0
157 165 0
150 156 0
157 164 0
157 163 0
157 165 0
157 166 0
151 158 0
157 163 0
156 162 0
157 164 0
156 164 0
156 164 0
153 159 0
158 165 0
159 164 0
162 172 0
157 165 0
157 166 0
162 174 0
158 168 0
161 171 0
159 166 0
159 168 0
160 167 0
162 172 0
158 166 0
164 173 0
164 175 0
164 174 0
163 173 0
165 176 0
165 177 0
164 175 0
160 170 0
163 174 0
166 177 0
162 172 0
162 173 0
164 176 0
163 175 0
163 173 0
161 171 0
164 174 0
163 177 0
174 197 0
174 198 0
175 198 0
172 197 0
172 197 0
172 196 0
174 198 0
174 198 0
172 196 0
175 198 0
172 197 0
172 196 0
173 196 0
172 196 0
173 196 0
173 197 0
171 194 0
172 197 0
174 198 0
172 197 0
172 197 0
172 196 0
170 194 0
172 196 0
173 197 0
171 196 0
172 196 0
172 197 0
171 195 0
170 194 0
172 197 0
171 195 0
172 196 0
167 191 0
170 194 0
170 195 0
171 196 0
171 196 0
169 194 0
171 195 0
169 193 0
171 195 0
172 197 0
171 195 0
172 196 0
170 194 0
170 195 0
171 195 0
170 194 0
168 192 0
171 195 0
167 191 0
171 196 0
169 194 0
171 196 0
172 195 0
168 193 0
171 195 0
168 192 0
171 195 0
168 192 0
169 193 0
169 193 0
169 193 0
168 192 0
165 189 0
165 189 0
166 190 0
167 190 0
169 193 0
169 193 0
164 188 0
166 190 0
167 191 0
168 192 0
169 193 0
160 183 0
166 189 0
166 190 0
163 186 0
166 189 0
167 191 0
168 191 0
167 191 0
166 190 0
163 186 0
162 185 0
165 188 0
165 189 0
162 185 0
164 187 0
164 187 0
165 188 0
159 182 0
164 187 0
163 186 0
165 187 0
159 182 0
167 190 0
160 182 0
156 179 0
162 185 0
164 187 0
161 184 0
163 186 0
162 185 0
165 188 0
157 179 0
156 179 0
159 182 0
162 184 0
156 178 0
165 188 0
160 183 0
159 182 0
161 183 0
158 179 0
162 184 0
155 177 0
161 183 0
159 183 0
162 184 0
161 184 0
155 177 0
151 174 0
152 175 0
157 179 0
162 184 0
152 174 0
160 182 0
154 176 0
156 177 0
153 175 0
153 176 0
152 174 0
158 180 0
155 177 0
157 180 0
149 171 0
153 174 0
156 178 0
148 171 0
156 178 0
155 176 0
155 176 0
156 179 0
155 179 0
146 168 0
153 175 0
157 179 0
146 167 0
147 169 0
160 181 0
154 176 0
145 166 0
150 171 0
148 169 0
146 168 0
152 172 0
145 165 0
152 174 0
145 166 0
156 178 0
147 168 0
145 166 0
150 172 0
145 166 0
148 168 0
154 177 0
143 164 0
146 167 0
143 165 0
139 161 0
148 169 0
140 161 0
148 169 0
142 163 0
142 163 0
141 162 0
142 162 0
146 166 0
143 164 0
149 169 0
149 171 0
150 170 0
141 161 0
145 166 0
154 174 0
143 163 0
144 167 0
141 163 0
131 152 0
136 157 0
135 154 0
148 169 0
130 151 0
135 156 0
143 163 0
144 164 0
134 154 0
136 156 0
141 161 0
139 160 0
150 170 0
133 154 0
139 158 0
144 163 0
136 156 0
140 162 0
147 167 0
137 156 0
137 158 0
140 159 0
130 150 0
141 162 0
135 156 0
139 158 0
143 163 0
133 154 0
135 155 0
147 169 0
146 167 0
148 167 0
123 142 0
143 162 0
145 163 0
143 163 0
142 163 0
142 161 0
144 164 0
140 158 0
150 169 0
145 165 0
144 164 0
156 177 0
139 157 0
144 164 0
139 156 0
146 165 0
144 164 0
141 161 0
138 158 0
136 155 0
148 166 0
144 162 0
140 160 0
151 170 0
140 159 0
136 153 0
141 160 0
146 166 0
140 158 0
145 164 0
143 162 0
144 163 0
147 166 0
150 170 0
138 155 0
138 158 0
143 162 0
153 173 0
144 162 0
145 165 0
144 163 0
148 167 0
150 170 0
154 173 0
150 170 0
148 167 0
145 164 0
144 159 0
146 165 0
140 159 0
150 168 0
143 160 0
145 164 0
148 165 0
151 170 0
141 160 0
140 157 0
151 168 0
147 165 0
141 156 0
146 163 0
147 164 0
147 165 0
151 166 0
149 166 0
147 164 0
156 174 0
146 161 0
148 163 0
147 164 0
147 161 0
155 170 0
141 155 0
145 161 0
147 161 0
149 167 0
157 174 0
149 163 0
151 166 0
147 163 0
144 157 0
145 158 0
150 161 0
147 161 0
140 153 0
153 167 0
151 167 0
145 162 0
152 166 0
139 150 0
148 161 0
152 165 0
153 168 0
147 160 0
154 165 0
146 158 0
155 168 0
153 164 0
149 159 0
149 158 0
141 153 0
150 161 0
150 160 0
151 166 0
152 163 0
156 167 0
154 165 0
155 166 0
152 163 0
148 157 0
143 151 0
148 157 0
150 161 0
153 163 0
152 161 0
153 161 0
154 163 0
156 165 0
152 163 0
153 161 0
149 157 0
151 162 0
149 158 0
154 163 0
151 159 0
156 168 0
156 163 0
152 160 0
153 160 0
161 170 0
153 161 0
154 162 0
152 158 0
156 164 0
162 172 0
159 167 0
158 164 0
158 167 0
155 163 0
158 169 0
160 169 0
153 157 0
157 166 0
161 170 0
156 166 0
157 165 0
155 160 0
160 169 0
155 164 0
157 164 0
161 169 0
160 170 0
164 178 0
161 171 0
163 174 0
156 163 0
158 165 0
160 170 0
162 173 0
165 176 0
159 167 0
160 171 0
162 171 0
166 178 0
164 175 0
165 176 0
163 174 0
159 170 0
159 171 0
163 175 0
165 178 0
161 171 0
161 172 0
164 176 0
167 178 0
163 175 0
161 170 0
174 197 0
174 198 0
174 198 0
172 195 0
173 197 0
172 196 0
171 196 0
172 197 0
173 197 0
173 197 0
174 198 0
174 197 0
174 198 0
173 197 0
173 196 0
172 196 0
173 197 0
170 194 0
171 196 0
172 196 0
172 196 0
172 196 0
171 195 0
173 197 0
169 194 0
172 197 0
171 195 0
171 195 0
170 195 0
171 196 0
169 194 0
171 195 0
170 195 0
170 195 0
171 195 0
170 195 0
171 196 0
170 194 0
169 194 0
170 195 0
170 195 0
167 192 0
168 191 0
171 196 0
170 194 0
167 192 0
168 193 0
171 195 0
173 196 0
168 192 0
168 192 0
169 194 0
169 194 0
170 194 0
167 192 0
168 192 0
167 191 0
169 193 0
167 192 0
170 194 0
167 190 0
170 194 0
170 194 0
169 193 0
168 193 0
168 192 0
166 190 0
170 194 0
168 192 0
166 190 0
164 187 0
167 191 0
169 193 0
157 181 0
169 193 0
166 190 0
167 191 0
170 193 0
167 190 0
165 188 0
164 188 0
165 189 0
163 187 0
163 186 0
166 190 0
159 182 0
162 184 0
165 188 0
166 190 0
166 189 0
171 194 0
165 189 0
167 191 0
168 190 0
163 186 0
164 187 0
163 187 0
166 189 0
165 189 0
161 184 0
162 185 0
166 188 0
162 185 0
162 185 0
160 183 0
161 184 0
162 184 0
163 185 0
163 185 0
159 181 0
158 180 0
153 175 0
160 182 0
158 180 0
161 183 0
157 179 0
158 180 0
157 180 0
158 180 0
159 182 0
156 179 0
156 179 0
154 176 0
154 176 0
161 183 0
150 171 0
158 179 0
152 174 0
158 180 0
153 175 0
155 177 0
156 178 0
163 185 0
148 171 0
160 180 0
152 174 0
155 177 0
160 181 0
154 175 0
146 167 0
161 183 0
144 166 0
152 174 0
145 166 0
155 176 0
154 175 0
154 177 0
156 177 0
153 176 0
147 169 0
148 170 0
153 173 0
150 172 0
146 167 0
149 170 0
154 175 0
152 174 0
146 168 0
155 176 0
154 176 0
157 178 0
153 174 0
151 172 0
154 176 0
153 173 0
151 172 0
152 173 0
140 162 0
147 169 0
152 174 0
152 175 0
146 167 0
149 170 0
146 168 0
145 166 0
142 163 0
155 176 0
139 160 0
149 170 0
140 161 0
145 166 0
141 161 0
146 168 0
150 170 0
131 153 0
148 168 0
142 162 0
141 162 0
145 165 0
143 164 0
142 163 0
150 171 0
140 160 0
142 162 0
141 162 0
137 157 0
141 162 0
149 169 0
145 167 0
147 168 0
150 171 0
152 172 0
143 161 0
142 162 0
141 162 0
138 158 0
145 166 0
140 160 0
140 160 0
138 157 0
138 158 0
144 163 0
141 161 0
139 158 0
132 153 0
148 168 0
146 166 0
136 156 0
146 167 0
141 162 0
138 159 0
138 157 0
137 155 0
139 158 0
145 167 0
144 164 0
143 163 0
143 162 0
140 160 0
141 161 0
152 172 0
139 159 0
143 163 0
141 162 0
135 154 0
148 167 0
145 166 0
142 160 0
138 157 0
141 159 0
140 158 0
148 168 0
141 158 0
145 165 0
127 147 0
152 170 0
140 160 0
137 155 0
147 166 0
144 164 0
139 159 0
144 165 0
148 167 0
143 161 0
142 162 0
148 168 0
153 172 0
143 162 0
146 165 0
146 165 0
148 166 0
140 159 0
148 167 0
143 163 0
146 164 0
144 164 0
142 161 0
147 166 0
146 165 0
146 164 0
148 166 0
150 168 0
142 161 0
144 162 0
148 168 0
150 167 0
147 167 0
140 158 0
150 166 0
146 163 0
144 161 0
148 164 0
144 161 0
146 162 0
151 168 0
146 163 0
146 162 0
153 171 0
143 161 0
146 163 0
149 165 0
150 167 0
153 169 0
149 162 0
146 162 0
137 151 0
152 168 0
148 162 0
147 163 0
154 169 0
148 164 0
150 166 0
157 171 0
153 168 0
155 169 0
147 161 0
149 164 0
149 164 0
146 159 0
152 165 0
149 164 0
148 163 0
143 154 0
150 162 0
152 167 0
158 173 0
153 168 0
150 163 0
152 166 0
151 166 0
151 165 0
157 170 0
151 164 0
150 162 0
154 166 0
147 158 0
153 163 0
152 163 0
153 165 0
154 167 0
149 158 0
151 158 0
154 166 0
156 167 0
151 160 0
151 161 0
151 163 0
151 163 0
154 163 0
149 159 0
153 166 0
149 161 0
153 162 0
155 164 0
155 168 0
159 170 0
154 164 0
151 158 0
153 161 0
160 169 0
158 169 0
156 165 0
156 163 0
154 165 0
158 166 0
157 168 0
159 172 0
161 171 0
152 158 0
155 162 0
154 162 0
155 163 0
158 167 0
152 159 0
159 166 0
158 164 0
159 166 0
157 163 0
158 167 0
158 164 0
160 167 0
156 165 0
159 171 0
160 172 0
160 167 0
158 168 0
160 168 0
162 172 0
160 171 0
158 169 0
162 172 0
162 174 0
158 165 0
157 163 0
157 164 0
158 166 0
164 175 0
165 177 0
162 175 0
161 171 0
161 172 0
156 166 0
168 183 0
163 178 0
161 172 0
161 171 0
165 176 0
157 168 0
167 178 0
164 175 0
174 198 0
174 197 0
174 197 0
173 197 0
174 197 0
174 197 0
172 197 0
172 196 0
172 196 0
173 197 0
173 197 0
173 197 0
172 196 0
174 197 0
173 197 0
171 194 0
173 196 0
172 197 0
171 196 0
169 194 0
172 197 0
171 195 0
172 197 0
171 195 0
171 195 0
170 195 0
172 196 0
171 195 0
170 195 0
172 196 0
172 196 0
171 195 0
170 194 0
171 195 0
170 194 0
173 197 0
170 194 0
170 194 0
172 196 0
172 196 0
173 197 0
170 194 0
171 195 0
171 195 0
170 194 0
171 195 0
171 194 0
169 192 0
170 194 0
167 192 0
169 193 0
170 193 0
169 194 0
170 194 0
166 190 0
168 192 0
171 195 0
168 192 0
170 193 0
170 194 0
168 192 0
169 193 0
166 191 0
169 192 0
168 192 0
164 188 0
167 190 0
169 192 0
167 190 0
169 193 0
163 187 0
165 189 0
164 187 0
166 189 0
160 184 0
167 190 0
167 190 0
166 190 0
171 194 0
166 189 0
172 194 0
164 187 0
168 191 0
169 193 0
167 190 0
163 186 0
169 192 0
167 190 0
168 191 0
162 185 0
161 183 0
163 186 0
158 181 0
159 181 0
159 183 0
163 186 0
166 189 0
166 190 0
171 193 0
158 180 0
165 188 0
158 181 0
163 186 0
166 189 0
159 181 0
162 186 0
167 190 0
164 187 0
158 179 0
158 180 0
164 186 0
160 182 0
157 179 0
160 182 0
162 186 0
159 180 0
158 180 0
156 179 0
159 181 0
161 183 0
161 183 0
162 185 0
150 173 0
147 170 0
162 184 0
158 180 0
154 177 0
152 174 0
160 182 0
159 181 0
160 182 0
161 184 0
156 177 0
159 181 0
156 179 0
157 178 0
156 178 0
164 186 0
154 177 0
154 175 0
160 182 0
148 169 0
154 175 0
154 175 0
155 177 0
155 177 0
158 180 0
149 171 0
151 173 0
159 180 0
155 176 0
154 176 0
148 169 0
144 165 0
153 176 0
146 167 0
152 173 0
152 173 0
151 172 0
147 169 0
148 169 0
154 176 0
147 168 0
143 165 0
149 171 0
149 171 0
149 171 0
147 169 0
149 170 0
152 173 0
148 168 0
155 176 0
152 173 0
144 165 0
141 162 0
150 171 0
154 175 0
144 165 0
144 165 0
146 167 0
147 169 0
136 156 0
153 174 0
141 160 0
143 163 0
142 163 0
137 157 0
149 170 0
138 158 0
146 166 0
140 162 0
142 163 0
147 169 0
138 158 0
140 160 0
141 161 0
141 160 0
138 160 0
141 162 0
140 161 0
143 163 0
142 161 0
146 166 0
144 164 0
149 169 0
139 159 0
141 161 0
142 162 0
146 167 0
150 171 0
145 166 0
137 159 0
135 154 0
137 156 0
146 167 0
130 151 0
140 160 0
137 158 0
141 163 0
139 160 0
141 160 0
136 157 0
151 171 0
148 169 0
155 176 0
145 166 0
141 161 0
141 161 0
140 161 0
133 151 0
150 170 0
140 159 0
136 158 0
141 162 0
140 157 0
141 160 0
140 160 0
143 161 0
146 166 0
139 159 0
144 164 0
151 171 0
145 166 0
141 160 0
143 163 0
138 157 0
144 164 0
139 158 0
139 159 0
152 172 0
153 173 0
140 160 0
149 170 0
148 167 0
144 164 0
148 166 0
142 160 0
148 166 0
148 168 0
149 168 0
142 162 0
149 168 0
147 166 0
148 167 0
141 159 0
144 162 0
147 164 0
139 158 0
144 162 0
138 157 0
145 163 0
147 165 0
147 167 0
146 164 0
152 171 0
150 169 0
150 167 0
145 161 0
149 168 0
144 161 0
142 162 0
155 171 0
147 164 0
150 168 0
154 172 0
143 160 0
146 162 0
145 159 0
156 175 0
148 166 0
141 155 0
151 168 0
144 160 0
150 165 0
153 171 0
156 170 0
144 162 0
143 159 0
142 156 0
150 164 0
150 163 0
151 168 0
139 158 0
150 167 0
149 162 0
148 161 0
145 161 0
151 166 0
150 163 0
144 160 0
154 168 0
147 159 0
154 169 0
145 160 0
152 165 0
147 160 0
147 160 0
153 165 0
155 166 0
155 169 0
155 167 0
153 166 0
154 166 0
149 163 0
150 160 0
151 164 0
156 170 0
151 163 0
147 157 0
156 171 0
151 160 0
150 161 0
153 164 0
155 168 0
153 164 0
156 165 0
148 159 0
159 173 0
153 163 0
154 166 0
156 165 0
154 162 0
158 167 0
150 160 0
155 166 0
154 163 0
153 163 0
154 164 0
153 163 0
152 160 0
151 162 0
154 164 0
152 160 0
155 165 0
151 159 0
157 167 0
158 168 0
156 165 0
158 168 0
154 161 0
160 170 0
152 161 0
157 166 0
158 169 0
156 164 0
159 167 0
158 168 0
156 166 0
157 166 0
154 163 0
161 172 0
157 165 0
155 163 0
163 173 0
154 160 0
161 170 0
162 171 0
161 169 0
159 168 0
157 166 0
159 169 0
162 172 0
161 169 0
160 170 0
161 174 0
165 177 0
156 166 0
163 174 0
163 176 0
162 173 0
167 177 0
158 169 0
163 174 0
164 178 0
163 175 0
163 175 0
164 175 0
164 175 0
164 176 0
163 174 0
174 197 0
174 197 0
172 196 0
174 198 0
175 198 0
173 196 0
173 197 0
175 198 0
173 197 0
172 196 0
172 196 0
172 196 0
173 197 0
172 196 0
171 195 0
173 197 0
172 196 0
173 197 0
171 195 0
171 195 0
172 196 0
172 196 0
172 196 0
170 195 0
173 196 0
172 197 0
171 195 0
172 196 0
169 194 0
172 196 0
172 197 0
169 193 0
171 195 0
171 196 0
172 197 0
172 196 0
170 194 0
171 195 0
169 193 0
170 194 0
166 191 0
169 193 0
170 194 0
171 195 0
171 195 0
169 193 0
170 194 0
170 194 0
170 194 0
170 194 0
173 196 0
169 193 0
170 194 0
170 193 0
170 194 0
167 191 0
170 194 0
169 193 0
169 192 0
171 195 0
165 188 0
164 188 0
168 192 0
168 192 0
168 192 0
164 188 0
169 192 0
167 190 0
163 187 0
167 191 0
167 191 0
165 187 0
167 190 0
163 186 0
169 192 0
162 185 0
166 190 0
166 190 0
164 187 0
162 185 0
162 185 0
159 183 0
166 188 0
168 191 0
166 189 0
170 194 0
167 190 0
160 183 0
164 187 0
165 188 0
160 182 0
163 186 0
166 189 0
165 188 0
160 182 0
161 185 0
168 191 0
164 187 0
164 186 0
164 187 0
164 188 0
161 183 0
156 179 0
154 176 0
159 182 0
157 179 0
155 177 0
164 186 0
164 186 0
167 189 0
165 187 0
163 185 0
159 183 0
165 187 0
159 182 0
169 191 0
154 176 0
162 184 0
162 184 0
162 184 0
153 176 0
154 176 0
159 180 0
157 179 0
158 180 0
156 179 0
158 181 0
156 177 0
166 189 0
155 177 0
156 178 0
155 178 0
162 184 0
156 179 0
153 175 0
162 183 0
157 179 0
157 179 0
158 180 0
156 178 0
153 175 0
161 183 0
156 177 0
158 180 0
154 175 0
149 171 0
154 177 0
155 177 0
150 170 0
146 168 0
150 172 0
150 172 0
154 176 0
146 168 0
150 172 0
152 172 0
155 176 0
153 175 0
146 168 0
145 167 0
154 175 0
157 178 0
153 175 0
147 169 0
156 177 0
155 176 0
149 171 0
152 173 0
145 166 0
146 167 0
138 159 0
148 170 0
149 170 0
140 160 0
151 171 0
152 172 0
143 164 0
154 175 0
141 163 0
148 170 0
150 170 0
144 165 0
151 172 0
154 176 0
142 165 0
151 172 0
142 164 0
138 159 0
138 159 0
145 167 0
144 165 0
144 165 0
145 167 0
150 170 0
149 170 0
137 157 0
141 161 0
147 168 0
142 164 0
145 166 0
145 164 0
138 157 0
140 161 0
135 156 0
154 176 0
153 173 0
136 156 0
134 156 0
155 177 0
144 165 0
139 160 0
144 165 0
139 159 0
140 162 0
137 158 0
140 160 0
140 161 0
139 159 0
153 173 0
137 157 0
147 168 0
141 161 0
145 165 0
138 158 0
147 168 0
146 166 0
148 167 0
147 168 0
144 163 0
144 163 0
142 162 0
141 161 0
147 166 0
140 158 0
145 164 0
141 160 0
144 163 0
149 168 0
149 169 0
146 166 0
133 151 0
141 161 0
141 160 0
147 168 0
147 168 0
150 168 0
148 168 0
145 164 0
145 165 0
146 165 0
144 163 0
150 170 0
136 156 0
148 167 0
150 170 0
143 162 0
142 159 0
144 163 0
147 166 0
144 162 0
151 172 0
152 170 0
147 165 0
143 162 0
156 175 0
153 172 0
148 167 0
150 169 0
147 166 0
156 175 0
143 159 0
145 163 0
150 168 0
138 155 0
152 171 0
154 172 0
150 168 0
154 173 0
153 170 0
150 167 0
147 165 0
142 160 0
147 162 0
142 160 0
149 166 0
154 172 0
152 168 0
145 159 0
149 168 0
147 165 0
150 166 0
140 158 0
149 167 0
148 164 0
146 162 0
147 163 0
152 168 0
151 168 0
154 172 0
148 163 0
148 161 0
147 159 0
147 162 0
154 170 0
143 160 0
151 167 0
147 160 0
150 165 0
152 167 0
149 163 0
147 159 0
151 167 0
146 161 0
148 162 0
150 167 0
154 166 0
150 162 0
156 173 0
154 168 0
156 168 0
147 161 0
155 166 0
151 165 0
153 165 0
158 172 0
155 170 0
157 170 0
152 163 0
152 166 0
153 165 0
151 163 0
151 163 0
156 167 0
155 168 0
150 161 0
148 158 0
153 165 0
148 160 0
154 166 0
156 167 0
152 162 0
155 166 0
147 154 0
158 169 0
154 165 0
159 170 0
156 165 0
157 170 0
157 166 0
155 167 0
152 159 0
153 162 0
153 163 0
158 167 0
155 164 0
157 168 0
148 158 0
157 166 0
157 168 0
154 163 0
157 165 0
155 162 0
158 165 0
156 166 0
154 163 0
158 168 0
156 165 0
155 162 0
155 162 0
157 166 0
159 169 0
159 167 0
155 162 0
159 168 0
161 170 0
159 171 0
162 174 0
166 176 0
156 163 0
160 167 0
158 169 0
163 174 0
159 166 0
158 166 0
161 170 0
156 164 0
159 170 0
159 168 0
164 177 0
161 172 0
162 174 0
163 173 0
161 172 0
158 165 0
165 179 0
161 173 0
164 175 0
168 181 0
163 175 0
161 171 0
175 198 0
174 198 0
173 197 0
175 198 0
174 197 0
172 196 0
173 197 0
173 197 0
173 197 0
173 197 0
174 197 0
174 197 0
173 197 0
171 195 0
172 196 0
173 197 0
172 196 0
171 195 0
172 197 0
171 196 0
171 194 0
172 196 0
173 197 0
174 197 0
172 196 0
171 195 0
171 195 0
173 197 0
172 196 0
172 196 0
173 197 0
170 194 0
171 195 0
172 196 0
170 194 0
171 195 0
169 194 0
171 195 0
169 192 0
170 194 0
170 194 0
169 193 0
170 194 0
166 189 0
169 194 0
170 195 0
169 193 0
170 194 0
167 191 0
169 193 0
165 189 0
170 194 0
173 196 0
169 193 0
168 192 0
169 193 0
171 195 0
171 195 0
171 194 0
167 191 0
169 192 0
166 190 0
170 193 0
170 194 0
167 190 0
162 185 0
165 188 0
166 190 0
168 192 0
167 190 0
169 193 0
167 191 0
165 188 0
167 191 0
168 192 0
167 191 0
163 186 0
165 188 0
168 191 0
165 188 0
166 189 0
164 188 0
164 186 0
168 192 0
165 188 0
165 188 0
163 186 0
163 186 0
166 190 0
167 190 0
165 187 0
162 185 0
164 187 0
165 188 0
167 189 0
167 190 0
162 184 0
162 185 0
162 184 0
164 186 0
160 183 0
157 179 0
169 192 0
161 184 0
166 189 0
158 181 0
164 187 0
160 183 0
157 179 0
160 183 0
161 183 0
161 183 0
154 176 0
164 187 0
160 183 0
161 183 0
163 186 0
159 182 0
161 182 0
157 179 0
161 183 0
158 179 0
155 178 0
164 187 0
159 182 0
149 170 0
164 186 0
156 178 0
158 181 0
151 172 0
159 181 0
157 178 0
159 182 0
155 177 0
156 177 0
162 183 0
153 175 0
160 183 0
154 176 0
159 181 0
149 171 0
153 174 0
152 173 0
151 173 0
154 175 0
153 175 0
162 184 0
157 179 0
157 179 0
153 175 0
154 176 0
152 174 0
149 171 0
157 180 0
144 166 0
150 171 0
146 168 0
160 182 0
149 170 0
149 170 0
149 170 0
153 174 0
158 180 0
148 170 0
147 168 0
147 168 0
143 164 0
155 176 0
157 178 0
141 163 0
145 166 0
151 172 0
157 179 0
148 168 0
150 171 0
150 171 0
147 167 0
155 176 0
146 167 0
145 166 0
145 167 0
154 174 0
154 175 0
145 166 0
143 164 0
143 164 0
150 171 0
146 167 0
147 167 0
142 163 0
144 165 0
144 165 0
141 162 0
142 164 0
156 177 0
142 164 0
143 164 0
134 154 0
142 164 0
150 171 0
147 169 0
143 162 0
140 160 0
142 163 0
142 164 0
141 161 0
141 161 0
140 160 0
145 166 0
143 164 0
143 164 0
154 175 0
151 171 0
145 164 0
147 166 0
143 164 0
144 164 0
146 167 0
145 165 0
138 160 0
146 168 0
141 161 0
151 171 0
151 171 0
137 157 0
131 151 0
135 154 0
154 174 0
150 170 0
144 165 0
149 169 0
144 165 0
148 168 0
139 158 0
147 167 0
147 168 0
140 160 0
149 169 0
151 172 0
136 156 0
129 149 0
143 163 0
149 170 0
150 171 0
140 158 0
149 169 0
144 163 0
147 166 0
144 164 0
147 167 0
134 151 0
151 171 0
137 157 0
150 168 0
148 166 0
145 164 0
148 167 0
142 163 0
142 161 0
147 168 0
146 165 0
154 174 0
149 168 0
145 164 0
143 160 0
154 173 0
155 172 0
139 155 0
153 172 0
144 162 0
146 167 0
143 161 0
145 164 0
146 164 0
140 157 0
153 170 0
146 166 0
148 167 0
148 165 0
145 164 0
155 173 0
147 164 0
149 169 0
154 171 0
146 163 0
146 164 0
147 165 0
149 166 0
142 157 0
154 172 0
151 169 0
155 173 0
152 170 0
152 169 0
147 162 0
146 161 0
154 170 0
152 169 0
148 163 0
148 163 0
154 169 0
145 162 0
153 170 0
147 158 0
152 167 0
147 159 0
150 166 0
149 165 0
145 159 0
150 165 0
151 166 0
154 170 0
147 161 0
156 171 0
150 164 0
143 154 0
152 167 0
155 168 0
152 165 0
151 166 0
148 161 0
151 164 0
154 169 0
152 165 0
149 159 0
155 168 0
157 170 0
148 164 0
154 167 0
150 164 0
158 172 0
159 172 0
150 161 0
159 173 0
157 168 0
151 164 0
148 160 0
158 169 0
160 173 0
160 173 0
150 162 0
156 167 0
153 166 0
148 156 0
145 153 0
160 172 0
156 167 0
156 165 0
156 168 0
154 163 0
156 168 0
153 161 0
156 164 0
158 167 0
153 161 0
158 168 0
155 160 0
162 172 0
159 171 0
155 164 0
157 168 0
157 167 0
158 165 0
156 166 0
160 170 0
157 167 0
163 173 0
161 172 0
160 172 0
154 162 0
160 170 0
163 173 0
157 166 0
160 169 0
159 170 0
157 165 0
164 174 0
159 168 0
155 165 0
162 174 0
159 168 0
154 163 0
160 166 0
162 171 0
159 170 0
163 174 0
163 174 0
162 173 0
160 167 0
159 169 0
160 167 0
165 177 0
161 172 0
164 174 0
165 174 0
162 173 0
164 176 0
161 171 0
159 168 0
168 181 0
174 197 0
174 198 0
174 198 0
173 197 0
172 196 0
173 197 0
173 197 0
173 197 0
175 198 0
174 198 0
172 196 0
173 196 0
173 197 0
173 197 0
173 196 0
174 197 0
172 195 0
174 197 0
170 194 0
171 195 0
173 197 0
174 197 0
172 196 0
172 196 0
171 195 0
171 195 0
173 196 0
171 195 0
172 196 0
171 195 0
172 196 0
171 195 0
170 193 0
170 194 0
171 195 0
170 194 0
168 193 0
171 195 0
171 196 0
170 194 0
172 196 0
170 194 0
168 191 0
171 194 0
170 195 0
169 192 0
173 197 0
170 194 0
168 192 0
166 190 0
174 197 0
171 195 0
172 196 0
168 192 0
168 191 0
171 195 0
168 192 0
170 194 0
169 193 0
170 194 0
168 191 0
171 194 0
169 193 0
169 193 0
167 191 0
166 190 0
169 192 0
168 191 0
166 190 0
164 188 0
163 187 0
166 188 0
167 190 0
168 192 0
163 185 0
165 189 0
163 187 0
164 188 0
168 191 0
169 192 0
166 189 0
167 190 0
165 187 0
166 189 0
164 187 0
163 187 0
162 184 0
160 183 0
164 186 0
161 183 0
160 183 0
163 185 0
163 186 0
163 186 0
158 181 0
166 189 0
156 178 0
165 188 0
165 187 0
159 182 0
164 186 0
164 186 0
170 192 0
164 186 0
156 179 0
161 184 0
162 185 0
159 182 0
163 185 0
164 186 0
167 189 0
163 185 0
162 183 0
159 182 0
160 182 0
166 188 0
162 184 0
160 183 0
166 188 0
161 184 0
163 185 0
159 182 0
158 180 0
159 182 0
156 178 0
157 180 0
161 183 0
159 181 0
161 183 0
161 183 0
153 175 0
162 184 0
157 180 0
162 184 0
159 181 0
160 182 0
155 177 0
161 183 0
159 182 0
163 184 0
148 171 0
157 178 0
156 177 0
148 169 0
160 182 0
150 172 0
157 179 0
154 175 0
158 180 0
152 175 0
156 177 0
157 178 0
153 175 0
157 178 0
151 172 0
145 167 0
145 166 0
148 170 0
155 176 0
154 176 0
145 168 0
143 165 0
145 167 0
151 173 0
154 175 0
148 170 0
156 179 0
148 170 0
154 176 0
151 173 0
154 175 0
149 170 0
141 163 0
142 162 0
147 169 0
147 169 0
154 176 0
150 171 0
148 170 0
139 160 0
148 169 0
145 166 0
142 164 0
145 166 0
144 164 0
145 167 0
146 167 0
151 173 0
152 173 0
152 172 0
143 163 0
140 162 0
153 173 0
150 172 0
142 162 0
145 164 0
142 162 0
148 169 0
138 157 0
144 166 0
145 166 0
141 162 0
150 170 0
147 168 0
147 167 0
150 172 0
141 162 0
143 163 0
149 171 0
134 154 0
134 155 0
144 165 0
140 161 0
147 167 0
141 161 0
140 161 0
134 153 0
139 159 0
134 153 0
141 161 0
152 172 0
148 167 0
144 167 0
147 167 0
142 161 0
141 161 0
144 164 0
145 166 0
148 169 0
146 167 0
143 163 0
145 167 0
146 166 0
147 167 0
148 169 0
151 172 0
139 157 0
148 166 0
145 166 0
151 173 0
149 170 0
148 168 0
141 159 0
139 158 0
137 158 0
146 166 0
148 168 0
141 160 0
150 171 0
146 167 0
146 165 0
143 163 0
147 166 0
145 166 0
141 159 0
150 171 0
147 167 0
145 164 0
154 174 0
145 164 0
140 159 0
149 167 0
147 167 0
153 172 0
146 164 0
146 167 0
147 167 0
146 165 0
146 166 0
140 158 0
149 167 0
144 162 0
146 165 0
144 161 0
147 165 0
154 172 0
145 163 0
149 168 0
146 165 0
149 168 0
158 176 0
148 164 0
151 169 0
149 167 0
150 169 0
147 166 0
145 162 0
149 168 0
152 170 0
153 172 0
154 172 0
157 174 0
150 167 0
149 166 0
151 168 0
150 168 0
161 178 0
148 164 0
149 165 0
155 172 0
141 158 0
152 170 0
146 162 0
151 168 0
151 168 0
149 163 0
155 169 0
152 168 0
147 162 0
150 165 0
156 171 0
150 165 0
149 164 0
154 170 0
145 161 0
161 178 0
148 162 0
154 167 0
147 159 0
151 165 0
146 159 0
152 167 0
149 161 0
154 168 0
153 168 0
151 166 0
155 170 0
146 160 0
147 157 0
152 166 0
154 165 0
156 168 0
153 167 0
159 171 0
150 160 0
152 163 0
155 170 0
155 167 0
150 162 0
156 168 0
151 162 0
151 161 0
153 166 0
159 169 0
153 162 0
154 163 0
157 167 0
150 163 0
154 164 0
153 166 0
164 175 0
160 170 0
159 169 0
157 166 0
155 164 0
160 171 0
158 170 0
148 157 0
156 169 0
155 166 0
160 171 0
159 171 0
155 163 0
162 173 0
163 173 0
157 166 0
158 168 0
156 168 0
160 169 0
162 169 0
154 162 0
158 170 0
160 171 0
157 167 0
159 168 0
162 173 0
163 175 0
163 175 0
158 170 0
160 168 0
160 171 0
162 171 0
162 173 0
162 175 0
163 175 0
159 168 0
162 172 0
159 170 0
162 168 0
156 163 0
158 169 0
163 173 0
158 168 0
163 173 0
165 178 0
165 176 0
164 177 0
163 171 0
165 177 0
162 176 0
174 197 0
175 197 0
174 197 0
172 196 0
170 194 0
174 198 0
174 198 0
173 196 0
174 197 0
173 197 0
174 197 0
173 197 0
174 197 0
173 197 0
174 197 0
172 196 0
171 194 0
173 197 0
172 195 0
174 197 0
171 195 0
171 195 0
172 196 0
172 196 0
170 194 0
174 197 0
173 197 0
172 196 0
170 194 0
167 191 0
172 196 0
173 197 0
173 196 0
166 190 0
168 192 0
172 196 0
170 194 0
171 195 0
168 192 0
170 194 0
172 194 0
168 192 0
171 194 0
172 196 0
169 193 0
170 193 0
171 195 0
168 192 0
168 191 0
170 193 0
167 190 0
165 189 0
169 193 0
168 191 0
172 196 0
165 189 0
167 191 0
169 193 0
167 191 0
171 195 0
163 187 0
170 194 0
168 190 0
169 192 0
163 186 0
169 193 0
170 193 0
164 188 0
168 191 0
163 186 0
169 192 0
165 189 0
169 192 0
168 192 0
168 191 0
162 186 0
166 189 0
171 194 0
168 190 0
168 191 0
163 186 0
165 188 0
161 184 0
161 184 0
163 186 0
161 184 0
164 187 0
167 190 0
165 188 0
161 184 0
165 189 0
162 185 0
163 185 0
164 187 0
167 190 0
162 185 0
163 186 0
160 183 0
167 190 0
165 187 0
169 192 0
164 187 0
163 187 0
161 183 0
160 182 0
162 184 0
162 185 0
165 187 0
163 186 0
162 185 0
159 181 0
160 183 0
158 180 0
166 188 0
162 183 0
161 183 0
159 181 0
159 181 0
158 180 0
153 176 0
158 181 0
161 183 0
157 180 0
158 180 0
158 180 0
159 181 0
159 180 0
161 184 0
159 182 0
155 177 0
164 185 0
160 183 0
161 184 0
151 174 0
153 174 0
153 175 0
161 183 0
157 179 0
160 183 0
153 176 0
153 174 0
150 172 0
153 176 0
157 178 0
156 178 0
159 181 0
151 173 0
159 180 0
157 179 0
154 176 0
151 173 0
152 173 0
158 180 0
148 170 0
149 172 0
151 173 0
152 173 0
150 172 0
164 186 0
149 171 0
151 173 0
156 178 0
158 181 0
158 181 0
142 163 0
155 176 0
147 167 0
157 180 0
134 155 0
155 176 0
149 170 0
144 166 0
156 178 0
152 173 0
145 166 0
150 171 0
147 167 0
151 174 0
155 175 0
157 180 0
148 169 0
140 160 0
147 168 0
150 170 0
151 172 0
146 168 0
145 166 0
141 162 0
150 171 0
150 170 0
149 170 0
152 173 0
150 172 0
147 168 0
150 171 0
148 170 0
151 172 0
149 171 0
142 162 0
152 173 0
148 170 0
149 170 0
142 162 0
144 164 0
143 163 0
149 170 0
148 168 0
137 157 0
148 168 0
137 158 0
145 165 0
146 165 0
148 169 0
148 168 0
153 173 0
154 175 0
147 169 0
146 166 0
149 169 0
148 168 0
148 169 0
142 162 0
149 170 0
139 159 0
147 167 0
142 163 0
149 170 0
146 166 0
145 165 0
141 161 0
142 162 0
145 165 0
151 169 0
156 176 0
150 170 0
149 170 0
144 165 0
153 171 0
140 159 0
147 166 0
142 163 0
141 160 0
153 173 0
144 164 0
151 172 0
148 169 0
144 163 0
143 161 0
145 164 0
147 165 0
138 156 0
143 162 0
149 170 0
147 166 0
141 160 0
141 162 0
148 168 0
150 168 0
149 169 0
147 166 0
154 173 0
149 168 0
147 165 0
150 169 0
149 169 0
150 169 0
142 160 0
145 163 0
150 170 0
149 167 0
150 170 0
148 166 0
143 161 0
143 162 0
145 163 0
151 170 0
151 169 0
153 171 0
142 159 0
151 169 0
146 164 0
139 157 0
148 168 0
150 168 0
151 167 0
149 166 0
148 166 0
154 172 0
153 171 0
152 169 0
152 169 0
152 170 0
152 171 0
146 164 0
146 163 0
151 167 0
145 163 0
155 172 0
151 170 0
150 165 0
150 167 0
144 161 0
150 168 0
151 169 0
154 172 0
152 166 0
146 162 0
151 167 0
153 168 0
149 163 0
159 175 0
155 172 0
147 162 0
153 168 0
152 165 0
154 167 0
156 168 0
148 164 0
157 173 0
149 164 0
151 167 0
157 173 0
158 173 0
154 168 0
146 160 0
153 167 0
152 165 0
151 165 0
150 163 0
151 163 0
146 157 0
155 167 0
155 168 0
153 167 0
155 167 0
152 165 0
157 169 0
151 164 0
156 171 0
156 169 0
157 170 0
153 164 0
154 165 0
158 172 0
150 162 0
153 165 0
154 167 0
156 169 0
155 167 0
155 165 0
157 169 0
155 166 0
159 170 0
154 166 0
155 163 0
162 173 0
157 165 0
159 169 0
155 164 0
157 166 0
156 166 0
157 169 0
159 173 0
160 171 0
155 165 0
153 163 0
156 163 0
158 167 0
162 171 0
157 167 0
157 166 0
164 176 0
156 165 0
161 173 0
162 172 0
162 171 0
156 164 0
159 169 0
163 172 0
155 164 0
166 178 0
160 170 0
154 162 0
157 165 0
157 165 0
160 170 0
160 170 0
158 168 0
159 170 0
162 171 0
157 165 0
163 175 0
163 176 0
162 174 0
161 170 0
164 177 0
161 170 0
162 172 0
164 174 0
162 175 0
174 197 0
174 198 0
173 197 0
174 198 0
174 197 0
173 196 0
172 196 0
173 197 0
171 195 0
170 195 0
171 195 0
172 196 0
172 196 0
173 197 0
171 194 0
173 197 0
171 196 0
171 195 0
172 196 0
173 197 0
171 196 0
172 196 0
171 195 0
171 195 0
169 193 0
172 196 0
170 194 0
171 194 0
172 197 0
171 195 0
170 194 0
171 195 0
173 197 0
173 196 0
170 193 0
173 196 0
168 191 0
169 193 0
170 194 0
170 194 0
169 193 0
171 196 0
172 195 0
170 194 0
169 193 0
171 195 0
168 192 0
167 191 0
171 194 0
170 193 0
170 194 0
166 189 0
166 189 0
166 190 0
169 193 0
166 190 0
169 192 0
164 187 0
169 192 0
169 192 0
168 191 0
168 192 0
168 191 0
163 187 0
169 192 0
168 191 0
170 194 0
167 191 0
165 188 0
169 192 0
169 193 0
166 189 0
167 190 0
168 191 0
169 192 0
166 188 0
163 185 0
165 188 0
163 186 0
168 191 0
165 187 0
167 190 0
168 190 0
163 186 0
165 188 0
167 190 0
165 189 0
170 193 0
160 183 0
161 183 0
160 183 0
167 189 0
160 183 0
153 176 0
169 191 0
163 186 0
162 185 0
163 186 0
163 186 0
160 183 0
160 182 0
160 183 0
159 182 0
166 188 0
157 180 0
162 185 0
164 185 0
162 184 0
159 181 0
164 186 0
163 186 0
159 181 0
159 182 0
165 187 0
160 182 0
162 185 0
162 184 0
160 182 0
162 184 0
160 183 0
166 189 0
157 179 0
162 185 0
160 182 0
162 184 0
160 182 0
160 183 0
162 184 0
161 183 0
158 180 0
161 182 0
149 171 0
152 175 0
159 180 0
151 172 0
159 181 0
150 171 0
155 176 0
158 180 0
154 176 0
161 182 0
153 175 0
159 181 0
152 173 0
158 180 0
155 177 0
156 178 0
149 171 0
158 179 0
153 176 0
149 171 0
155 177 0
155 176 0
155 177 0
154 176 0
156 178 0
152 174 0
141 163 0
154 176 0
152 174 0
151 173 0
150 172 0
149 170 0
153 175 0
153 174 0
150 172 0
146 167 0
151 172 0
151 172 0
144 165 0
153 176 0
151 172 0
145 166 0
153 175 0
151 174 0
149 171 0
149 171 0
150 171 0
148 169 0
155 175 0
148 170 0
149 171 0
151 171 0
142 163 0
152 172 0
147 168 0
155 177 0
152 173 0
152 171 0
148 170 0
152 174 0
138 158 0
147 168 0
155 177 0
143 164 0
153 175 0
147 170 0
151 172 0
148 169 0
139 160 0
146 167 0
147 168 0
143 165 0
148 169 0
150 170 0
145 167 0
148 168 0
144 164 0
157 176 0
139 160 0
142 164 0
135 156 0
150 171 0
143 163 0
137 157 0
150 171 0
143 161 0
156 178 0
150 172 0
147 167 0
145 166 0
143 162 0
145 165 0
149 170 0
138 159 0
143 163 0
151 171 0
147 169 0
144 163 0
154 174 0
149 170 0
142 164 0
142 162 0
145 164 0
146 167 0
154 176 0
147 168 0
143 160 0
145 165 0
148 169 0
140 159 0
147 167 0
147 167 0
153 173 0
148 168 0
149 170 0
150 171 0
142 161 0
152 171 0
145 166 0
144 164 0
156 174 0
150 170 0
154 174 0
149 169 0
156 175 0
150 169 0
145 162 0
143 163 0
146 166 0
144 164 0
147 167 0
150 169 0
150 170 0
152 173 0
147 166 0
144 162 0
148 165 0
149 167 0
155 174 0
150 168 0
152 172 0
151 169 0
145 163 0
156 175 0
151 170 0
159 177 0
148 168 0
144 163 0
157 177 0
148 167 0
154 172 0
146 163 0
153 171 0
153 172 0
145 162 0
155 174 0
157 175 0
150 166 0
158 175 0
155 172 0
157 176 0
152 170 0
157 174 0
155 174 0
145 163 0
151 170 0
144 160 0
151 167 0
147 167 0
148 168 0
149 165 0
151 167 0
158 176 0
150 163 0
152 169 0
156 173 0
156 173 0
145 160 0
149 165 0
148 166 0
153 166 0
148 163 0
157 174 0
149 163 0
157 173 0
151 163 0
149 164 0
148 165 0
143 155 0
148 164 0
152 167 0
159 171 0
157 173 0
152 167 0
149 163 0
153 168 0
144 158 0
150 162 0
152 167 0
158 173 0
154 166 0
159 172 0
157 171 0
154 166 0
153 167 0
149 160 0
150 162 0
156 170 0
152 163 0
158 174 0
157 171 0
158 171 0
154 166 0
153 164 0
153 163 0
156 169 0
153 166 0
157 171 0
151 160 0
160 172 0
155 167 0
160 171 0
162 172 0
155 166 0
158 168 0
156 167 0
159 171 0
157 169 0
159 172 0
158 169 0
156 165 0
159 171 0
160 172 0
156 168 0
161 172 0
159 167 0
153 164 0
163 174 0
155 166 0
159 169 0
156 165 0
162 171 0
156 167 0
163 172 0
154 163 0
161 168 0
162 174 0
163 176 0
155 166 0
161 173 0
161 173 0
155 166 0
162 173 0
158 168 0
161 171 0
160 168 0
159 170 0
161 172 0
159 169 0
160 172 0
163 174 0
162 171 0
165 178 0
157 167 0
165 178 0
165 179 0
163 175 0
161 172 0
162 173 0
174 198 0
172 195 0
173 197 0
172 197 0
174 198 0
172 196 0
172 196 0
173 197 0
171 194 0
169 193 0
173 197 0
173 196 0
171 195 0
171 195 0
170 193 0
172 195 0
172 196 0
169 193 0
173 197 0
170 195 0
173 197 0
174 197 0
173 195 0
172 196 0
171 195 0
171 195 0
168 192 0
171 195 0
171 195 0
169 193 0
169 193 0
169 192 0
171 195 0
170 194 0
171 195 0
167 190 0
170 194 0
172 196 0
170 194 0
169 193 0
170 193 0
169 193 0
167 190 0
166 190 0
171 195 0
167 191 0
172 195 0
168 192 0
170 193 0
166 190 0
169 194 0
165 188 0
169 192 0
170 193 0
168 191 0
169 192 0
166 189 0
167 190 0
165 188 0
166 190 0
164 188 0
165 189 0
170 193 0
170 193 0
165 188 0
164 186 0
163 186 0
170 192 0
170 193 0
167 190 0
168 192 0
161 185 0
164 186 0
164 186 0
164 187 0
164 187 0
162 185 0
163 186 0
169 192 0
163 186 0
168 191 0
163 186 0
163 186 0
166 189 0
166 189 0
162 184 0
163 185 0
167 190 0
166 189 0
165 187 0
165 187 0
161 185 0
160 183 0
164 186 0
163 185 0
161 183 0
163 186 0
167 191 0
159 181 0
165 187 0
166 187 0
163 185 0
165 187 0
154 176 0
162 184 0
161 184 0
164 186 0
164 186 0
156 178 0
163 186 0
158 180 0
156 179 0
163 186 0
153 176 0
158 181 0
160 181 0
154 177 0
163 185 0
155 178 0
156 178 0
162 185 0
164 185 0
150 172 0
160 182 0
163 185 0
161 183 0
151 172 0
160 182 0
150 172 0
149 171 0
157 179 0
153 175 0
154 177 0
159 181 0
151 172 0
159 181 0
154 175 0
165 187 0
158 180 0
158 181 0
158 179 0
160 182 0
155 177 0
154 177 0
149 170 0
161 183 0
157 180 0
163 186 0
155 177 0
157 178 0
146 168 0
153 175 0
154 175 0
155 176 0
148 170 0
154 176 0
156 178 0
151 174 0
157 178 0
150 171 0
150 171 0
151 174 0
149 170 0
163 183 0
152 175 0
153 174 0
161 183 0
150 172 0
158 180 0
154 174 0
149 170 0
153 175 0
155 177 0
145 166 0
152 174 0
145 165 0
148 170 0
143 165 0
153 174 0
152 173 0
142 164 0
150 172 0
148 170 0
153 175 0
154 174 0
146 167 0
150 171 0
152 173 0
154 174 0
153 175 0
146 168 0
141 161 0
139 160 0
147 169 0
147 167 0
142 163 0
147 170 0
148 167 0
143 165 0
145 165 0
145 167 0
156 177 0
148 168 0
145 166 0
146 168 0
145 166 0
153 174 0
147 168 0
147 168 0
150 171 0
154 174 0
141 161 0
144 163 0
139 160 0
144 162 0
150 172 0
148 170 0
148 169 0
148 170 0
144 165 0
154 174 0
145 166 0
150 171 0
149 168 0
147 167 0
153 175 0
146 166 0
144 164 0
142 162 0
150 171 0
145 164 0
151 173 0
149 170 0
147 166 0
139 159 0
144 164 0
144 164 0
146 165 0
143 163 0
144 163 0
149 169 0
149 170 0
144 164 0
151 173 0
149 169 0
147 168 0
146 167 0
149 171 0
150 170 0
147 167 0
150 172 0
146 166 0
148 168 0
151 170 0
152 171 0
149 169 0
147 167 0
155 177 0
148 168 0
146 167 0
150 168 0
158 177 0
140 159 0
149 169 0
152 173 0
146 164 0
150 169 0
151 169 0
152 171 0
146 165 0
152 173 0
150 170 0
156 175 0
148 167 0
155 175 0
155 172 0
151 170 0
151 170 0
153 171 0
157 176 0
154 173 0
153 171 0
153 169 0
152 169 0
152 170 0
154 173 0
158 177 0
155 171 0
147 164 0
158 177 0
158 177 0
154 171 0
156 174 0
150 166 0
151 167 0
148 165 0
148 166 0
153 171 0
156 175 0
157 176 0
153 171 0
152 168 0
156 174 0
156 174 0
156 172 0
153 170 0
151 168 0
148 166 0
156 174 0
149 163 0
145 162 0
156 172 0
150 165 0
147 161 0
154 171 0
153 170 0
153 170 0
145 160 0
156 172 0
140 153 0
152 165 0
155 170 0
148 161 0
153 171 0
155 169 0
148 162 0
159 174 0
152 168 0
151 168 0
159 170 0
146 161 0
153 166 0
158 172 0
155 170 0
158 173 0
149 163 0
156 168 0
153 169 0
160 173 0
157 173 0
156 169 0
152 164 0
156 168 0
155 168 0
152 164 0
156 168 0
149 161 0
156 169 0
157 168 0
157 170 0
152 166 0
159 170 0
155 166 0
153 163 0
152 164 0
159 172 0
156 167 0
158 171 0
161 171 0
154 167 0
156 167 0
156 168 0
159 171 0
160 171 0
156 169 0
167 179 0
156 168 0
158 169 0
159 168 0
163 176 0
162 174 0
159 169 0
161 172 0
158 168 0
159 170 0
164 178 0
158 169 0
164 175 0
166 177 0
157 166 0
161 174 0
160 170 0
163 175 0
164 177 0
163 174 0
161 173 0
165 179 0
160 170 0
162 174 0
166 177 0
161 174 0
166 180 0
161 173 0
162 174 0
158 166 0
161 171 0
162 173 0
159 170 0
167 180 0
164 175 0
172 195 0
172 196 0
172 195 0
174 197 0
174 198 0
172 197 0
173 196 0
172 195 0
173 196 0
172 196 0
172 196 0
174 198 0
173 197 0
171 194 0
173 196 0
172 196 0
172 195 0
172 195 0
171 193 0
172 196 0
172 196 0
173 197 0
172 196 0
172 195 0
171 194 0
172 196 0
171 195 0
170 194 0
168 191 0
169 193 0
169 193 0
172 196 0
170 194 0
173 197 0
167 190 0
170 193 0
171 195 0
173 197 0
170 194 0
172 196 0
170 194 0
170 193 0
170 193 0
170 194 0
172 196 0
170 193 0
173 196 0
169 192 0
169 194 0
169 193 0
169 193 0
169 192 0
163 186 0
171 194 0
166 189 0
171 194 0
167 191 0
165 189 0
169 191 0
169 192 0
164 187 0
165 188 0
167 190 0
167 190 0
170 193 0
167 190 0
168 192 0
165 189 0
168 191 0
166 188 0
169 193 0
169 191 0
164 187 0
166 189 0
167 189 0
170 193 0
166 189 0
168 192 0
165 188 0
168 191 0
168 191 0
170 193 0
162 185 0
162 185 0
168 191 0
166 188 0
165 187 0
165 187 0
165 188 0
167 190 0
170 192 0
163 186 0
162 185 0
166 189 0
169 192 0
165 188 0
161 183 0
157 180 0
163 187 0
164 186 0
164 187 0
161 184 0
164 187 0
161 184 0
166 189 0
161 185 0
161 184 0
155 177 0
163 186 0
161 184 0
159 180 0
167 189 0
159 181 0
162 184 0
157 180 0
161 183 0
162 184 0
156 178 0
157 179 0
162 183 0
157 179 0
161 184 0
157 180 0
153 175 0
163 186 0
156 178 0
149 172 0
160 182 0
156 178 0
158 181 0
157 180 0
158 179 0
157 179 0
161 182 0
157 180 0
156 178 0
161 183 0
152 174 0
151 173 0
148 170 0
159 181 0
156 178 0
157 180 0
157 180 0
152 174 0
157 178 0
151 172 0
158 180 0
150 172 0
156 178 0
154 175 0
155 176 0
154 175 0
150 171 0
151 173 0
151 172 0
152 173 0
141 163 0
153 174 0
154 175 0
151 174 0
154 175 0
150 172 0
151 173 0
159 180 0
157 178 0
157 178 0
156 177 0
158 181 0
151 172 0
152 173 0
154 175 0
158 180 0
152 174 0
149 170 0
154 176 0
147 170 0
151 171 0
149 171 0
144 163 0
155 177 0
147 169 0
136 155 0
140 161 0
148 170 0
150 172 0
144 165 0
149 170 0
147 169 0
149 171 0
149 170 0
152 173 0
152 173 0
150 173 0
151 173 0
149 171 0
143 164 0
145 165 0
150 171 0
140 161 0
148 170 0
152 172 0
143 163 0
134 156 0
142 161 0
148 168 0
146 168 0
147 168 0
143 164 0
144 166 0
147 169 0
149 171 0
149 170 0
146 167 0
137 157 0
148 169 0
144 165 0
144 164 0
147 168 0
146 167 0
146 167 0
153 175 0
147 167 0
147 166 0
150 171 0
145 168 0
146 166 0
148 169 0
142 162 0
153 175 0
143 164 0
147 169 0
153 175 0
146 166 0
149 169 0
140 161 0
147 167 0
142 162 0
147 167 0
144 163 0
143 164 0
151 171 0
147 169 0
136 155 0
149 169 0
141 161 0
150 171 0
146 165 0
152 173 0
155 175 0
148 168 0
155 175 0
150 168 0
148 167 0
150 169 0
149 168 0
143 164 0
153 174 0
150 170 0
151 171 0
144 162 0
151 169 0
147 168 0
143 163 0
148 166 0
148 167 0
149 169 0
149 170 0
147 167 0
144 163 0
146 167 0
144 160 0
149 167 0
148 168 0
148 168 0
149 167 0
151 170 0
154 172 0
137 156 0
151 168 0
152 171 0
152 170 0
149 168 0
152 169 0
151 170 0
150 168 0
157 177 0
156 174 0
151 166 0
144 162 0
155 173 0
154 170 0
151 168 0
156 175 0
154 173 0
149 166 0
149 166 0
154 171 0
156 175 0
157 174 0
152 166 0
155 172 0
155 172 0
159 178 0
156 174 0
154 173 0
159 175 0
149 167 0
153 169 0
150 166 0
151 166 0
155 171 0
150 167 0
151 166 0
157 173 0
150 165 0
153 170 0
148 162 0
155 169 0
151 166 0
152 168 0
158 176 0
155 168 0
156 172 0
157 171 0
154 170 0
157 173 0
159 175 0
159 173 0
159 174 0
155 168 0
156 171 0
157 174 0
159 172 0
152 165 0
150 162 0
152 165 0
155 168 0
154 166 0
156 168 0
152 165 0
148 162 0
154 169 0
150 161 0
160 174 0
152 167 0
160 176 0
152 165 0
157 171 0
155 166 0
155 166 0
156 167 0
160 173 0
160 172 0
152 164 0
156 170 0
154 166 0
152 160 0
155 168 0
160 173 0
158 170 0
157 167 0
149 158 0
159 172 0
157 167 0
157 168 0
159 171 0
165 180 0
150 158 0
163 179 0
163 175 0
154 163 0
161 175 0
160 169 0
162 174 0
161 172 0
159 172 0
161 172 0
158 167 0
163 176 0
161 172 0
156 167 0
159 171 0
164 177 0
161 172 0
164 177 0
160 172 0
161 172 0
159 169 0
160 169 0
157 166 0
165 176 0
158 166 0
157 167 0
164 176 0
166 180 0
161 171 0
162 175 0
161 174 0
163 175 0
172 196 0
176 198 0
169 192 0
174 197 0
173 196 0
174 197 0
173 196 0
171 194 0
174 198 0
173 197 0
173 196 0
173 196 0
173 196 0
174 198 0
172 196 0
173 197 0
174 197 0
170 194 0
172 196 0
169 193 0
171 195 0
170 194 0
173 197 0
171 194 0
171 194 0
172 196 0
172 195 0
173 196 0
173 197 0
172 196 0
166 190 0
169 194 0
171 194 0
171 195 0
172 196 0
171 195 0
172 195 0
169 193 0
168 191 0
167 191 0
170 193 0
169 193 0
166 189 0
170 194 0
167 190 0
168 191 0
172 195 0
167 190 0
170 194 0
166 189 0
165 189 0
168 190 0
168 191 0
171 194 0
168 191 0
172 195 0
171 194 0
165 188 0
162 185 0
166 189 0
167 191 0
166 190 0
170 192 0
168 191 0
167 190 0
166 189 0
169 192 0
165 187 0
171 194 0
163 187 0
162 185 0
170 193 0
166 188 0
169 192 0
163 186 0
163 186 0
167 190 0
164 187 0
170 192 0
165 187 0
166 189 0
162 185 0
165 188 0
171 194 0
162 185 0
168 190 0
167 189 0
168 190 0
163 185 0
164 186 0
164 187 0
164 187 0
164 187 0
161 183 0
167 190 0
165 188 0
166 188 0
164 185 0
162 185 0
159 182 0
166 189 0
156 179 0
161 183 0
164 187 0
166 188 0
161 183 0
161 184 0
166 188 0
159 182 0
157 180 0
162 185 0
166 189 0
163 187 0
158 181 0
159 182 0
160 182 0
159 182 0
158 181 0
156 178 0
164 186 0
158 181 0
165 187 0
159 181 0
160 182 0
160 183 0
159 181 0
155 177 0
152 173 0
156 178 0
161 183 0
151 172 0
158 180 0
160 181 0
154 175 0
159 181 0
159 180 0
154 174 0
153 176 0
149 170 0
152 175 0
162 183 0
156 178 0
157 179 0
158 179 0
150 172 0
152 174 0
159 181 0
152 175 0
162 184 0
157 180 0
153 175 0
159 179 0
156 177 0
154 176 0
138 160 0
163 184 0
150 172 0
155 177 0
164 185 0
154 175 0
154 176 0
149 170 0
149 171 0
150 171 0
145 167 0
152 174 0
159 181 0
146 168 0
149 170 0
150 171 0
146 168 0
151 172 0
153 175 0
149 173 0
156 176 0
145 167 0
151 173 0
154 177 0
148 169 0
153 174 0
159 180 0
159 180 0
151 173 0
143 163 0
150 172 0
151 173 0
158 180 0
147 168 0
150 171 0
143 163 0
153 174 0
145 168 0
143 164 0
149 170 0
157 178 0
142 163 0
140 161 0
153 175 0
152 173 0
144 166 0
151 171 0
145 166 0
148 169 0
156 176 0
143 162 0
148 171 0
145 165 0
138 157 0
146 166 0
148 170 0
146 168 0
141 160 0
146 167 0
145 167 0
146 169 0
147 168 0
148 167 0
147 169 0
145 166 0
148 168 0
152 173 0
143 165 0
150 171 0
144 165 0
141 162 0
150 171 0
145 166 0
146 165 0
151 171 0
150 172 0
152 170 0
149 168 0
147 168 0
150 170 0
147 168 0
138 157 0
148 170 0
147 167 0
145 166 0
147 168 0
153 173 0
146 166 0
144 162 0
153 174 0
143 165 0
149 168 0
147 168 0
155 175 0
149 170 0
147 168 0
148 168 0
143 164 0
148 167 0
155 174 0
149 170 0
146 165 0
157 178 0
147 167 0
150 169 0
143 161 0
154 174 0
143 162 0
145 164 0
148 168 0
154 173 0
143 161 0
143 162 0
152 172 0
156 174 0
149 170 0
153 174 0
152 171 0
153 174 0
154 173 0
153 173 0
146 166 0
143 162 0
142 161 0
152 167 0
152 169 0
156 175 0
144 162 0
151 170 0
155 174 0
150 167 0
152 168 0
155 171 0
149 167 0
154 171 0
144 161 0
149 167 0
158 175 0
150 168 0
152 170 0
156 176 0
151 166 0
156 173 0
157 174 0
154 170 0
156 174 0
145 162 0
155 174 0
150 165 0
154 171 0
158 174 0
149 167 0
159 177 0
154 171 0
152 171 0
155 171 0
159 175 0
152 169 0
150 168 0
156 171 0
154 171 0
152 168 0
146 161 0
158 174 0
153 168 0
151 169 0
154 166 0
150 165 0
154 170 0
150 166 0
150 166 0
153 170 0
156 171 0
150 164 0
163 182 0
156 174 0
158 170 0
157 171 0
158 176 0
155 169 0
156 170 0
152 165 0
146 161 0
153 168 0
157 171 0
154 168 0
157 171 0
160 176 0
159 171 0
156 170 0
157 172 0
153 167 0
155 168 0
155 167 0
157 170 0
157 170 0
159 172 0
157 171 0
160 172 0
160 171 0
157 173 0
158 171 0
160 172 0
157 169 0
161 174 0
157 168 0
156 167 0
156 167 0
153 164 0
159 170 0
157 166 0
157 167 0
161 173 0
161 173 0
160 172 0
161 175 0
158 169 0
155 167 0
158 170 0
150 161 0
165 177 0
160 170 0
155 166 0
157 168 0
164 179 0
160 172 0
164 176 0
163 174 0
163 178 0
158 167 0
160 169 0
161 176 0
158 169 0
160 172 0
161 173 0
162 175 0
162 174 0
156 165 0
164 177 0
163 174 0
160 171 0
161 174 0
164 177 0
160 172 0
165 178 0
161 175 0
173 196 0
175 198 0
175 198 0
170 194 0
174 197 0
170 195 0
171 195 0
172 196 0
170 193 0
172 196 0
172 196 0
174 197 0
171 194 0
173 196 0
171 195 0
172 195 0
170 193 0
173 196 0
172 196 0
170 194 0
170 194 0
169 193 0
171 195 0
173 197 0
171 194 0
171 194 0
173 196 0
170 194 0
174 197 0
172 196 0
173 197 0
172 196 0
171 194 0
172 196 0
169 192 0
172 195 0
170 194 0
166 189 0
171 195 0
171 195 0
171 194 0
169 193 0
169 192 0
169 193 0
168 191 0
167 190 0
169 193 0
166 189 0
170 193 0
170 193 0
173 196 0
170 194 0
165 188 0
169 193 0
166 189 0
164 186 0
167 190 0
168 192 0
163 186 0
167 189 0
170 194 0
173 195 0
167 190 0
164 187 0
170 193 0
165 188 0
171 193 0
167 190 0
167 190 0
167 190 0
166 190 0
166 189 0
163 186 0
162 185 0
164 187 0
167 189 0
164 187 0
167 190 0
163 186 0
163 186 0
164 186 0
167 191 0
167 190 0
163 185 0
162 186 0
161 185 0
163 186 0
163 185 0
164 186 0
160 182 0
159 182 0
160 182 0
166 189 0
160 182 0
158 180 0
162 184 0
162 185 0
167 189 0
156 180 0
164 186 0
159 181 0
165 188 0
165 188 0
163 186 0
166 188 0
158 180 0
157 180 0
163 185 0
162 184 0
163 185 0
162 185 0
163 185 0
159 182 0
164 186 0
159 182 0
159 181 0
160 183 0
157 179 0
152 174 0
154 177 0
156 179 0
160 181 0
155 178 0
157 178 0
155 178 0
165 187 0
153 174 0
158 180 0
154 176 0
162 184 0
161 182 0
156 177 0
158 181 0
161 183 0
160 183 0
157 179 0
153 176 0
151 172 0
159 181 0
154 176 0
160 183 0
158 179 0
156 178 0
147 169 0
155 178 0
160 183 0
161 184 0
150 171 0
150 171 0
151 173 0
149 170 0
156 177 0
157 178 0
156 178 0
154 175 0
159 181 0
157 180 0
153 176 0
154 177 0
147 169 0
137 159 0
156 178 0
143 164 0
156 178 0
154 175 0
150 172 0
149 171 0
151 173 0
154 175 0
154 176 0
153 174 0
145 167 0
154 176 0
145 167 0
153 175 0
156 178 0
154 176 0
157 179 0
145 167 0
149 170 0
153 175 0
147 168 0
157 179 0
154 177 0
147 169 0
149 172 0
153 174 0
147 168 0
147 169 0
143 164 0
152 175 0
149 170 0
147 169 0
146 168 0
156 177 0
141 162 0
159 179 0
147 168 0
145 166 0
146 167 0
147 168 0
156 175 0
148 169 0
139 160 0
150 171 0
155 177 0
142 163 0
151 172 0
148 169 0
145 167 0
146 168 0
143 163 0
139 158 0
154 174 0
152 173 0
149 170 0
145 167 0
151 171 0
149 170 0
148 169 0
148 169 0
139 160 0
156 176 0
150 171 0
153 174 0
150 170 0
153 174 0
153 172 0
148 169 0
151 171 0
150 170 0
147 167 0
150 170 0
152 173 0
147 167 0
146 167 0
146 166 0
149 168 0
145 163 0
147 168 0
146 168 0
142 162 0
146 168 0
146 168 0
144 163 0
146 166 0
149 168 0
149 169 0
145 163 0
148 168 0
154 175 0
154 174 0
156 177 0
142 160 0
153 173 0
140 159 0
153 172 0
145 164 0
147 167 0
156 177 0
146 166 0
146 167 0
141 161 0
148 168 0
148 167 0
151 171 0
150 170 0
145 164 0
148 165 0
145 164 0
154 174 0
151 168 0
166 186 0
147 165 0
157 179 0
153 172 0
151 170 0
156 176 0
153 172 0
151 169 0
156 174 0
153 173 0
146 166 0
151 171 0
150 167 0
155 174 0
155 174 0
149 169 0
156 175 0
152 170 0
148 167 0
156 176 0
152 171 0
154 172 0
153 172 0
159 177 0
158 180 0
154 172 0
153 171 0
150 166 0
156 174 0
153 170 0
145 161 0
152 170 0
157 177 0
148 163 0
154 174 0
153 171 0
147 162 0
155 172 0
153 172 0
152 168 0
152 167 0
148 165 0
153 170 0
157 175 0
156 173 0
150 166 0
152 168 0
156 171 0
148 164 0
155 173 0
156 172 0
157 174 0
156 172 0
162 179 0
153 169 0
151 164 0
151 165 0
154 170 0
163 180 0
161 175 0
154 169 0
157 171 0
157 173 0
157 171 0
152 167 0
154 168 0
147 160 0
154 167 0
154 169 0
153 168 0
154 168 0
156 169 0
159 175 0
150 162 0
146 159 0
157 173 0
156 168 0
162 177 0
159 173 0
159 174 0
159 172 0
160 175 0
155 166 0
159 173 0
161 174 0
159 172 0
159 170 0
157 171 0
154 168 0
160 176 0
155 167 0
158 173 0
154 165 0
163 178 0
161 173 0
160 174 0
158 170 0
158 170 0
159 171 0
154 162 0
159 171 0
161 173 0
157 168 0
165 176 0
160 172 0
161 174 0
164 177 0
163 172 0
159 170 0
159 172 0
164 178 0
162 175 0
162 175 0
164 176 0
158 170 0
161 172 0
165 176 0
159 171 0
161 174 0
166 178 0
163 176 0
160 173 0
161 175 0
164 176 0
164 177 0
159 168 0
164 178 0
164 176 0
172 195 0
172 196 0
170 194 0
173 196 0
173 197 0
171 194 0
172 195 0
173 196 0
172 195 0
173 197 0
173 196 0
174 197 0
172 196 0
172 196 0
173 196 0
173 196 0
168 192 0
170 194 0
168 191 0
171 194 0
172 195 0
173 196 0
171 194 0
171 195 0
170 193 0
171 194 0
172 194 0
170 194 0
173 196 0
172 196 0
172 196 0
170 193 0
169 192 0
164 187 0
170 192 0
171 194 0
168 191 0
173 196 0
169 193 0
170 192 0
168 191 0
169 193 0
167 191 0
165 188 0
170 194 0
167 191 0
172 196 0
170 193 0
166 189 0
171 194 0
165 187 0
170 194 0
167 191 0
167 191 0
169 193 0
168 191 0
167 190 0
167 189 0
168 192 0
167 190 0
164 188 0
166 189 0
169 192 0
166 189 0
167 190 0
166 189 0
167 190 0
165 188 0
168 191 0
167 189 0
169 192 0
166 189 0
165 188 0
165 188 0
166 189 0
165 187 0
166 188 0
162 184 0
164 186 0
159 182 0
163 186 0
167 190 0
165 189 0
164 188 0
165 187 0
163 184 0
164 186 0
163 186 0
165 187 0
165 187 0
160 183 0
168 190 0
167 190 0
161 183 0
167 189 0
161 183 0
167 190 0
160 182 0
163 185 0
164 187 0
164 187 0
163 185 0
164 187 0
161 184 0
155 176 0
163 185 0
157 180 0
163 185 0
158 180 0
158 180 0
164 185 0
161 184 0
164 186 0
162 184 0
164 187 0
158 181 0
156 179 0
162 183 0
158 180 0
169 191 0
157 179 0
163 185 0
156 179 0
158 180 0
159 181 0
156 177 0
156 179 0
160 183 0
157 179 0
156 178 0
159 181 0
156 178 0
150 173 0
154 177 0
159 182 0
157 179 0
152 174 0
161 183 0
154 176 0
153 175 0
156 179 0
153 175 0
154 176 0
154 176 0
159 181 0
158 180 0
156 178 0
152 174 0
150 173 0
157 179 0
160 181 0
154 176 0
156 177 0
157 179 0
154 177 0
156 177 0
150 171 0
158 179 0
153 174 0
154 175 0
154 176 0
146 167 0
156 176 0
152 173 0
146 166 0
145 166 0
158 179 0
149 170 0
156 178 0
161 183 0
153 174 0
155 177 0
150 171 0
153 174 0
149 169 0
147 170 0
147 168 0
150 171 0
150 171 0
144 165 0
153 175 0
148 169 0
149 171 0
144 166 0
151 172 0
152 173 0
144 165 0
146 168 0
145 168 0
148 168 0
150 170 0
142 162 0
149 171 0
151 172 0
153 176 0
146 167 0
149 170 0
150 172 0
146 167 0
157 177 0
141 162 0
155 176 0
146 167 0
148 169 0
153 174 0
149 169 0
151 173 0
151 172 0
147 166 0
145 167 0
148 169 0
148 169 0
149 171 0
141 161 0
145 166 0
140 160 0
147 169 0
144 165 0
155 177 0
147 168 0
145 165 0
158 179 0
148 167 0
142 163 0
148 170 0
147 166 0
141 161 0
148 168 0
152 173 0
148 167 0
152 172 0
146 168 0
145 166 0
138 158 0
157 177 0
150 171 0
154 176 0
136 157 0
144 165 0
151 171 0
148 170 0
152 172 0
150 171 0
153 172 0
157 176 0
145 166 0
151 173 0
144 163 0
151 172 0
152 173 0
145 166 0
154 174 0
148 165 0
144 165 0
155 175 0
147 167 0
145 166 0
153 173 0
155 177 0
148 168 0
153 172 0
153 173 0
152 171 0
152 172 0
147 167 0
148 168 0
153 173 0
152 172 0
143 162 0
154 174 0
147 167 0
154 173 0
149 166 0
150 168 0
151 170 0
146 167 0
157 176 0
152 173 0
150 170 0
146 165 0
152 171 0
147 164 0
153 174 0
148 169 0
147 166 0
153 173 0
150 170 0
152 173 0
151 169 0
149 170 0
147 166 0
155 173 0
148 167 0
156 173 0
151 171 0
149 168 0
157 175 0
152 171 0
152 170 0
148 166 0
154 172 0
160 177 0
148 165 0
160 179 0
160 177 0
153 170 0
157 176 0
151 169 0
153 172 0
155 172 0
155 173 0
155 173 0
153 170 0
153 169 0
150 166 0
157 173 0
153 170 0
153 169 0
159 177 0
152 168 0
156 171 0
155 172 0
153 169 0
153 169 0
152 169 0
155 170 0
154 170 0
161 176 0
158 172 0
155 170 0
155 169 0
155 170 0
154 169 0
148 163 0
154 172 0
152 169 0
150 162 0
159 174 0
151 165 0
156 169 0
158 173 0
158 173 0
155 171 0
156 170 0
158 171 0
160 176 0
154 168 0
155 171 0
157 173 0
153 163 0
161 174 0
155 169 0
156 168 0
156 169 0
153 163 0
157 171 0
160 174 0
159 171 0
154 167 0
159 169 0
161 173 0
159 171 0
155 171 0
153 165 0
158 170 0
163 176 0
161 175 0
156 169 0
158 172 0
161 173 0
153 166 0
161 174 0
158 169 0
163 173 0
159 174 0
159 169 0
165 177 0
160 171 0
159 173 0
154 167 0
157 168 0
157 169 0
155 164 0
163 175 0
158 169 0
161 175 0
167 180 0
159 171 0
165 178 0
163 176 0
165 179 0
159 171 0
162 175 0
163 177 0
161 172 0
162 171 0
162 171 0
163 174 0
160 173 0
164 178 0
172 196 0
171 195 0
172 196 0
173 196 0
172 195 0
174 198 0
172 196 0
170 194 0
171 194 0
172 196 0
173 196 0
170 194 0
172 195 0
173 196 0
174 197 0
171 194 0
174 197 0
172 195 0
171 195 0
173 197 0
173 196 0
171 195 0
171 195 0
170 195 0
172 195 0
172 196 0
173 196 0
165 189 0
167 191 0
169 192 0
171 195 0
168 191 0
169 192 0
170 194 0
169 193 0
173 196 0
172 195 0
173 196 0
171 194 0
165 189 0
168 192 0
168 191 0
167 190 0
165 188 0
170 193 0
168 191 0
167 190 0
166 188 0
165 188 0
169 191 0
168 191 0
168 192 0
165 188 0
166 190 0
167 190 0
172 195 0
167 191 0
167 190 0
172 194 0
164 187 0
165 189 0
165 188 0
166 189 0
164 186 0
167 190 0
164 187 0
169 192 0
173 195 0
165 189 0
167 190 0
172 195 0
168 191 0
166 189 0
167 190 0
168 191 0
165 188 0
165 188 0
159 182 0
168 190 0
167 189 0
163 185 0
164 188 0
162 184 0
168 190 0
165 188 0
159 182 0
168 190 0
166 189 0
166 189 0
162 185 0
166 189 0
158 181 0
161 184 0
163 186 0
166 189 0
163 186 0
160 183 0
162 185 0
162 186 0
160 183 0
164 187 0
161 184 0
161 183 0
163 186 0
160 182 0
161 183 0
168 191 0
163 186 0
161 182 0
165 188 0
160 182 0
162 185 0
157 180 0
163 186 0
160 182 0
159 181 0
164 186 0
160 182 0
154 177 0
159 181 0
158 180 0
162 184 0
157 180 0
165 187 0
160 183 0
153 176 0
155 177 0
163 185 0
162 184 0
151 173 0
160 182 0
161 182 0
154 174 0
161 183 0
153 176 0
157 179 0
158 181 0
157 180 0
150 172 0
154 176 0
159 180 0
157 178 0
157 179 0
157 179 0
157 179 0
158 179 0
155 176 0
151 173 0
154 176 0
160 181 0
162 184 0
154 176 0
156 179 0
151 172 0
150 173 0
155 177 0
148 169 0
161 184 0
150 170 0
156 178 0
156 178 0
153 174 0
152 174 0
151 173 0
155 176 0
149 170 0
152 174 0
150 172 0
151 173 0
147 170 0
154 175 0
155 177 0
144 166 0
152 174 0
146 168 0
156 177 0
152 173 0
153 175 0
157 177 0
158 180 0
156 177 0
148 169 0
154 177 0
154 175 0
145 165 0
152 174 0
147 168 0
149 170 0
142 163 0
156 177 0
147 168 0
148 169 0
140 161 0
149 169 0
152 173 0
148 170 0
147 169 0
151 172 0
151 173 0
150 171 0
152 173 0
149 171 0
141 161 0
150 171 0
143 164 0
142 162 0
147 167 0
138 158 0
154 175 0
153 174 0
154 174 0
144 165 0
149 171 0
148 169 0
152 172 0
145 165 0
144 164 0
153 173 0
152 174 0
152 173 0
149 170 0
146 164 0
151 170 0
147 168 0
152 173 0
154 174 0
149 168 0
152 174 0
150 170 0
142 162 0
151 172 0
151 173 0
146 166 0
147 168 0
145 165 0
149 170 0
141 161 0
147 167 0
152 174 0
149 169 0
151 172 0
150 170 0
152 172 0
154 174 0
153 174 0
150 171 0
148 168 0
155 174 0
143 164 0
151 172 0
149 169 0
155 175 0
150 171 0
152 173 0
153 171 0
153 173 0
154 173 0
152 172 0
157 179 0
148 167 0
149 171 0
152 172 0
149 168 0
145 166 0
143 163 0
155 175 0
150 169 0
151 172 0
153 173 0
146 165 0
152 173 0
143 162 0
157 177 0
148 169 0
153 174 0
155 175 0
153 173 0
146 166 0
151 171 0
152 171 0
156 177 0
147 165 0
153 173 0
156 175 0
154 176 0
155 172 0
156 175 0
156 174 0
149 168 0
152 171 0
152 172 0
149 168 0
156 176 0
142 158 0
148 165 0
156 175 0
153 171 0
153 169 0
151 167 0
160 178 0
155 174 0
157 176 0
151 170 0
150 168 0
153 172 0
153 171 0
149 167 0
155 173 0
153 171 0
160 179 0
153 170 0
152 169 0
149 166 0
157 174 0
152 171 0
151 168 0
154 171 0
156 173 0
148 164 0
149 163 0
157 172 0
152 168 0
159 175 0
158 174 0
148 162 0
155 172 0
155 172 0
154 167 0
155 169 0
159 175 0
156 171 0
156 173 0
158 172 0
158 173 0
155 169 0
157 171 0
158 175 0
159 175 0
155 170 0
158 175 0
153 167 0
156 169 0
157 173 0
156 168 0
158 171 0
157 173 0
157 171 0
153 166 0
152 165 0
158 173 0
160 173 0
157 174 0
154 171 0
154 166 0
161 174 0
154 168 0
153 164 0
156 168 0
160 174 0
155 168 0
154 166 0
160 174 0
160 174 0
162 175 0
160 173 0
156 170 0
161 174 0
161 175 0
156 167 0
156 166 0
160 173 0
159 171 0
162 176 0
160 172 0
159 171 0
163 175 0
157 169 0
152 162 0
163 177 0
163 176 0
160 174 0
161 172 0
162 175 0
159 169 0
160 170 0
160 171 0
165 179 0
162 175 0
160 171 0
167 180 0
165 177 0
162 173 0
165 180 0
160 174 0
159 170 0
159 171 0
159 169 0
159 172 0
161 171 0
161 174 0
175 197 0
173 196 0
171 195 0
171 195 0
173 196 0
173 196 0
172 196 0
171 194 0
173 197 0
173 196 0
171 195 0
173 196 0
170 194 0
172 195 0
171 193 0
173 196 0
173 196 0
169 193 0
172 196 0
167 190 0
167 190 0
172 195 0
171 194 0
174 197 0
169 192 0
170 193 0
171 194 0
171 195 0
172 195 0
175 198 0
172 195 0
170 193 0
163 186 0
170 193 0
171 194 0
171 194 0
168 191 0
171 194 0
171 194 0
167 190 0
169 192 0
165 189 0
170 193 0
171 194 0
166 189 0
172 195 0
166 189 0
170 193 0
168 192 0
171 193 0
171 194 0
162 186 0
169 191 0
170 193 0
160 183 0
172 195 0
171 194 0
166 189 0
168 192 0
167 190 0
171 193 0
168 191 0
167 190 0
169 192 0
167 190 0
167 189 0
163 186 0
164 187 0
170 193 0
165 187 0
163 186 0
164 188 0
168 191 0
165 188 0
169 192 0
164 187 0
164 187 0
169 191 0
163 186 0
165 188 0
163 186 0
162 185 0
167 189 0
165 188 0
169 192 0
163 185 0
169 192 0
168 191 0
162 185 0
160 183 0
162 184 0
161 184 0
166 189 0
165 188 0
166 186 0
166 189 0
162 185 0
165 188 0
159 182 0
160 182 0
162 185 0
161 184 0
162 184 0
162 185 0
163 185 0
159 181 0
159 182 0
157 178 0
155 178 0
157 180 0
165 187 0
158 181 0
164 187 0
160 182 0
154 176 0
160 183 0
154 177 0
154 176 0
164 185 0
162 184 0
166 188 0
164 187 0
162 183 0
161 183 0
159 182 0
157 179 0
158 181 0
162 185 0
153 176 0
159 181 0
157 179 0
157 179 0
155 178 0
161 183 0
149 171 0
154 176 0
155 177 0
162 184 0
166 188 0
152 175 0
156 178 0
161 184 0
154 176 0
164 186 0
152 174 0
155 177 0
158 179 0
160 182 0
158 180 0
157 179 0
155 177 0
159 180 0
158 180 0
161 182 0
160 181 0
149 170 0
162 184 0
162 184 0
153 175 0
151 172 0
159 181 0
147 168 0
156 178 0
152 174 0
153 175 0
152 174 0
148 169 0
154 175 0
152 173 0
144 165 0
152 172 0
152 174 0
144 166 0
157 180 0
151 172 0
156 177 0
156 178 0
146 167 0
148 170 0
157 178 0
152 172 0
152 174 0
152 174 0
153 175 0
148 170 0
152 174 0
147 168 0
156 178 0
146 167 0
147 170 0
151 171 0
148 167 0
154 176 0
148 170 0
148 169 0
154 176 0
149 169 0
153 174 0
156 178 0
152 173 0
156 176 0
148 168 0
154 175 0
151 173 0
146 167 0
149 170 0
147 168 0
151 172 0
144 165 0
148 167 0
154 175 0
149 169 0
141 162 0
147 170 0
146 167 0
141 163 0
152 173 0
151 173 0
155 176 0
151 171 0
147 169 0
147 169 0
150 170 0
147 168 0
141 162 0
149 170 0
145 164 0
148 170 0
156 177 0
148 169 0
151 172 0
148 169 0
155 175 0
157 177 0
158 180 0
146 166 0
154 175 0
151 170 0
151 172 0
152 175 0
149 171 0
146 168 0
148 169 0
152 170 0
151 173 0
153 174 0
151 171 0
151 171 0
151 171 0
152 171 0
144 164 0
147 167 0
146 167 0
146 166 0
148 167 0
150 170 0
151 172 0
153 172 0
152 172 0
155 177 0
156 175 0
151 171 0
149 169 0
154 175 0
148 167 0
151 173 0
153 172 0
144 164 0
153 172 0
151 171 0
145 164 0
155 176 0
150 169 0
151 173 0
150 172 0
159 178 0
146 164 0
155 175 0
148 167 0
153 172 0
150 168 0
152 170 0
150 169 0
157 177 0
156 176 0
151 173 0
152 171 0
149 167 0
153 171 0
143 164 0
155 173 0
159 179 0
151 170 0
155 175 0
145 163 0
152 173 0
155 173 0
151 170 0
156 176 0
154 172 0
151 169 0
148 168 0
151 167 0
155 172 0
146 164 0
155 176 0
155 173 0
154 171 0
153 172 0
160 179 0
152 169 0
150 168 0
154 172 0
149 167 0
161 179 0
157 174 0
155 172 0
151 168 0
153 171 0
148 166 0
159 174 0
154 171 0
156 174 0
158 175 0
157 173 0
157 172 0
158 176 0
156 174 0
153 166 0
152 167 0
154 173 0
154 168 0
154 170 0
153 168 0
163 179 0
157 173 0
152 168 0
155 167 0
159 176 0
151 167 0
153 168 0
154 169 0
153 169 0
155 168 0
154 170 0
153 164 0
160 174 0
163 181 0
159 173 0
160 177 0
161 177 0
159 172 0
153 167 0
162 177 0
159 173 0
155 170 0
162 177 0
159 172 0
158 173 0
155 167 0
157 170 0
153 165 0
156 170 0
159 172 0
159 172 0
160 173 0
158 172 0
161 175 0
159 172 0
154 165 0
160 174 0
156 168 0
158 169 0
159 173 0
165 179 0
156 168 0
157 170 0
159 172 0
162 176 0
159 172 0
158 172 0
155 165 0
161 173 0
159 171 0
157 167 0
158 170 0
165 179 0
162 175 0
165 178 0
160 170 0
159 171 0
161 172 0
166 179 0
160 173 0
158 169 0
162 175 0
164 176 0
165 179 0
162 174 0
166 179 0
173 196 0
172 196 0
173 196 0
174 197 0
173 196 0
173 197 0
170 193 0
174 197 0
172 195 0
171 195 0
172 196 0
172 195 0
173 196 0
173 196 0
173 196 0
172 196 0
170 193 0
174 198 0
171 195 0
171 194 0
169 193 0
173 196 0
171 195 0
172 196 0
170 193 0
171 194 0
169 192 0
171 194 0
172 195 0
170 193 0
173 196 0
170 193 0
170 193 0
170 193 0
170 194 0
168 192 0
170 193 0
168 190 0
169 193 0
170 194 0
172 195 0
169 192 0
169 193 0
170 194 0
170 192 0
172 195 0
173 196 0
170 193 0
168 191 0
172 194 0
169 192 0
167 190 0
168 192 0
171 194 0
168 191 0
169 191 0
168 190 0
165 189 0
163 186 0
169 193 0
170 192 0
170 193 0
167 190 0
166 188 0
174 196 0
170 193 0
167 190 0
169 192 0
165 188 0
169 192 0
167 189 0
165 188 0
165 188 0
162 184 0
167 190 0
168 191 0
164 186 0
168 191 0
166 189 0
164 187 0
166 189 0
161 184 0
165 189 0
164 187 0
161 184 0
165 187 0
161 184 0
166 188 0
163 185 0
163 185 0
164 186 0
157 179 0
164 186 0
164 187 0
165 188 0
157 178 0
162 185 0
165 188 0
165 188 0
160 182 0
160 182 0
165 187 0
166 189 0
155 177 0
161 182 0
166 188 0
161 184 0
165 187 0
162 185 0
159 182 0
162 185 0
160 181 0
159 182 0
163 184 0
165 187 0
158 181 0
165 188 0
155 178 0
164 188 0
165 188 0
162 184 0
157 178 0
152 174 0
163 184 0
159 181 0
159 181 0
155 177 0
161 184 0
161 183 0
163 186 0
158 179 0
157 180 0
160 182 0
157 179 0
155 179 0
153 175 0
157 179 0
157 179 0
155 176 0
152 174 0
152 175 0
152 173 0
155 177 0
159 181 0
155 177 0
157 178 0
157 180 0
153 175 0
163 185 0
157 179 0
157 179 0
153 175 0
154 175 0
155 177 0
158 180 0
152 174 0
155 176 0
154 175 0
154 175 0
154 176 0
152 172 0
154 176 0
151 172 0
156 178 0
155 177 0
153 175 0
155 177 0
150 172 0
149 171 0
157 178 0
150 171 0
158 181 0
153 174 0
149 171 0
147 169 0
143 164 0
150 172 0
154 176 0
151 173 0
156 178 0
156 177 0
149 171 0
149 170 0
149 171 0
157 180 0
140 161 0
152 174 0
154 176 0
155 175 0
149 171 0
154 176 0
157 178 0
151 174 0
151 174 0
160 181 0
150 170 0
151 172 0
149 171 0
148 168 0
150 172 0
154 176 0
148 170 0
151 172 0
151 173 0
145 166 0
154 174 0
145 167 0
157 179 0
146 167 0
146 166 0
150 170 0
146 167 0
152 173 0
157 178 0
153 175 0
152 173 0
156 176 0
148 169 0
143 164 0
148 169 0
149 170 0
149 171 0
153 175 0
158 179 0
149 171 0
154 175 0
155 176 0
148 170 0
153 174 0
149 170 0
156 175 0
152 172 0
141 162 0
151 172 0
148 169 0
158 179 0
142 162 0
144 164 0
150 172 0
149 169 0
152 171 0
148 166 0
145 166 0
145 164 0
149 170 0
151 171 0
150 171 0
147 167 0
145 165 0
156 178 0
154 175 0
152 173 0
149 168 0
153 175 0
156 176 0
149 168 0
143 163 0
152 171 0
155 174 0
153 171 0
162 182 0
153 174 0
154 174 0
153 174 0
157 177 0
148 168 0
153 172 0
147 167 0
154 175 0
155 175 0
154 174 0
148 168 0
155 175 0
155 176 0
151 169 0
153 172 0
157 177 0
158 177 0
152 173 0
149 169 0
152 172 0
153 172 0
148 165 0
156 178 0
157 174 0
157 177 0
153 172 0
151 170 0
145 164 0
144 162 0
151 170 0
149 166 0
157 174 0
152 169 0
149 166 0
156 175 0
153 171 0
155 174 0
151 168 0
153 171 0
150 168 0
150 169 0
154 172 0
148 166 0
159 176 0
153 170 0
153 169 0
160 178 0
151 168 0
150 168 0
149 168 0
149 168 0
151 167 0
157 177 0
153 170 0
150 168 0
158 176 0
156 172 0
154 170 0
154 172 0
157 174 0
154 168 0
157 170 0
158 176 0
157 172 0
156 169 0
159 175 0
151 166 0
158 175 0
155 170 0
156 172 0
150 165 0
151 169 0
154 171 0
150 166 0
153 172 0
156 170 0
152 168 0
156 172 0
161 175 0
158 173 0
155 167 0
155 173 0
160 175 0
158 173 0
153 169 0
158 173 0
153 169 0
158 172 0
155 167 0
162 179 0
156 173 0
159 173 0
161 176 0
156 170 0
157 171 0
163 179 0
155 171 0
162 174 0
159 172 0
156 170 0
155 169 0
160 173 0
163 177 0
157 171 0
161 174 0
162 176 0
159 171 0
162 174 0
162 176 0
159 172 0
157 169 0
163 179 0
162 174 0
158 175 0
159 171 0
159 171 0
160 171 0
156 168 0
156 168 0
162 174 0
162 174 0
156 169 0
157 169 0
162 174 0
162 178 0
159 172 0
162 177 0
162 174 0
166 180 0
160 174 0
157 170 0
163 178 0
163 177 0
161 173 0
162 174 0
158 172 0
155 167 0
162 176 0
160 171 0
171 194 0
173 197 0
172 195 0
172 195 0
172 196 0
170 194 0
172 196 0
171 194 0
173 196 0
173 196 0
172 195 0
174 197 0
172 194 0
173 196 0
173 196 0
168 192 0
169 193 0
173 196 0
173 196 0
173 196 0
174 197 0
171 194 0
169 192 0
166 189 0
172 195 0
173 196 0
167 190 0
169 191 0
169 193 0
170 193 0
168 192 0
171 193 0
169 192 0
168 191 0
167 190 0
169 192 0
172 195 0
167 190 0
171 194 0
169 192 0
170 193 0
167 190 0
166 189 0
165 188 0
170 193 0
169 193 0
167 191 0
167 190 0
164 187 0
169 192 0
172 195 0
167 190 0
169 192 0
171 195 0
163 187 0
169 192 0
171 194 0
167 191 0
165 188 0
166 189 0
169 191 0
165 189 0
166 189 0
165 189 0
166 188 0
164 186 0
165 189 0
165 187 0
167 190 0
161 184 0
163 186 0
166 188 0
168 190 0
161 183 0
169 192 0
168 191 0
165 189 0
169 192 0
165 187 0
160 183 0
162 184 0
165 187 0
167 190 0
163 184 0
165 187 0
168 191 0
162 185 0
167 191 0
165 186 0
164 187 0
164 187 0
166 189 0
166 189 0
164 187 0
165 188 0
164 186 0
168 191 0
163 185 0
165 188 0
165 188 0
168 190 0
159 183 0
157 179 0
159 181 0
161 183 0
166 188 0
161 182 0
164 186 0
159 182 0
163 186 0
160 182 0
156 179 0
165 187 0
165 187 0
161 183 0
168 191 0
158 181 0
169 191 0
165 187 0
156 179 0
158 180 0
154 175 0
159 181 0
162 184 0
163 184 0
158 181 0
160 181 0
157 178 0
167 189 0
159 181 0
151 173 0
154 176 0
161 183 0
157 178 0
158 179 0
154 176 0
148 169 0
158 180 0
164 186 0
153 176 0
155 177 0
150 173 0
154 175 0
155 177 0
155 176 0
157 178 0
155 177 0
158 178 0
159 180 0
151 174 0
150 172 0
158 178 0
159 181 0
162 183 0
151 173 0
163 186 0
156 178 0
154 177 0
156 178 0
144 165 0
145 167 0
151 173 0
152 174 0
143 166 0
161 183 0
155 177 0
153 175 0
146 168 0
151 172 0
155 177 0
156 178 0
149 170 0
153 175 0
149 171 0
148 169 0
150 171 0
154 175 0
146 167 0
152 173 0
154 176 0
157 179 0
153 175 0
154 175 0
152 173 0
154 175 0
155 177 0
154 177 0
149 171 0
156 177 0
148 169 0
143 163 0
153 174 0
157 180 0
150 169 0
154 175 0
153 174 0
155 175 0
151 171 0
146 168 0
145 167 0
154 177 0
144 166 0
158 180 0
149 171 0
151 172 0
144 166 0
144 164 0
159 181 0
149 171 0
152 173 0
153 176 0
153 174 0
143 163 0
152 173 0
157 177 0
141 164 0
151 171 0
146 167 0
148 170 0
156 178 0
158 179 0
146 166 0
157 179 0
155 176 0
146 167 0
149 169 0
152 172 0
156 177 0
149 169 0
155 176 0
149 169 0
150 173 0
158 178 0
153 175 0
149 169 0
150 169 0
149 170 0
152 174 0
160 181 0
150 171 0
156 177 0
152 173 0
151 170 0
149 169 0
148 169 0
157 178 0
142 161 0
155 176 0
148 167 0
157 177 0
149 168 0
153 174 0
154 173 0
152 173 0
153 172 0
155 173 0
149 169 0
145 166 0
152 173 0
145 165 0
155 175 0
150 171 0
148 169 0
148 169 0
146 165 0
156 176 0
149 171 0
156 177 0
153 171 0
155 176 0
151 169 0
155 174 0
144 163 0
155 174 0
150 169 0
162 182 0
155 174 0
156 176 0
153 173 0
157 178 0
149 168 0
145 164 0
149 170 0
156 175 0
151 170 0
153 172 0
160 180 0
157 178 0
160 179 0
150 168 0
154 172 0
148 167 0
148 166 0
152 173 0
150 169 0
155 175 0
155 173 0
156 175 0
151 167 0
160 179 0
150 166 0
150 168 0
144 163 0
157 175 0
149 168 0
155 172 0
153 168 0
157 176 0
155 174 0
153 170 0
155 172 0
158 177 0
152 172 0
151 170 0
154 171 0
156 174 0
153 171 0
155 171 0
150 167 0
147 164 0
154 171 0
156 175 0
159 178 0
156 173 0
157 172 0
157 173 0
153 169 0
152 168 0
161 178 0
154 172 0
151 166 0
152 169 0
158 175 0
163 180 0
159 175 0
156 174 0
155 170 0
154 172 0
159 177 0
163 181 0
156 171 0
155 170 0
157 171 0
156 170 0
160 176 0
151 165 0
156 169 0
158 171 0
161 176 0
157 173 0
157 171 0
155 170 0
155 169 0
157 172 0
154 167 0
157 168 0
158 174 0
161 175 0
157 172 0
159 173 0
150 160 0
158 171 0
157 170 0
159 173 0
157 170 0
158 171 0
155 163 0
162 177 0
162 175 0
154 168 0
154 168 0
162 176 0
163 181 0
161 176 0
160 172 0
161 173 0
160 172 0
159 174 0
158 172 0
158 171 0
160 173 0
163 177 0
162 176 0
159 173 0
162 175 0
161 175 0
164 180 0
160 172 0
162 177 0
164 177 0
160 173 0
163 177 0
164 178 0
166 181 0
159 172 0
161 172 0
163 176 0
160 173 0
159 171 0
159 170 0
170 194 0
174 197 0
173 196 0
169 193 0
174 197 0
175 198 0
172 196 0
170 193 0
171 195 0
171 195 0
166 189 0
169 193 0
171 194 0
172 196 0
170 194 0
171 194 0
173 196 0
173 196 0
170 194 0
172 195 0
171 193 0
168 192 0
172 195 0
171 194 0
169 192 0
172 196 0
171 194 0
174 197 0
171 195 0
171 193 0
169 192 0
172 195 0
171 194 0
170 194 0
170 193 0
166 189 0
167 191 0
165 188 0
169 192 0
170 193 0
167 190 0
168 191 0
170 193 0
169 192 0
169 192 0
168 191 0
169 192 0
167 189 0
169 192 0
171 194 0
172 195 0
168 191 0
168 192 0
162 186 0
169 192 0
171 194 0
170 193 0
169 191 0
166 189 0
168 191 0
167 190 0
162 184 0
166 189 0
168 190 0
164 187 0
166 189 0
167 190 0
168 191 0
162 184 0
170 192 0
165 188 0
171 193 0
167 189 0
167 188 0
172 194 0
166 188 0
165 188 0
170 193 0
166 189 0
164 186 0
169 191 0
166 189 0
162 184 0
161 183 0
168 191 0
164 186 0
162 185 0
168 191 0
164 187 0
165 188 0
162 186 0
165 188 0
161 184 0
164 187 0
165 188 0
168 190 0
165 189 0
163 186 0
165 188 0
162 186 0
160 182 0
161 184 0
162 184 0
162 183 0
165 188 0
160 182 0
163 185 0
159 181 0
166 188 0
162 185 0
162 184 0
162 185 0
162 185 0
157 180 0
159 183 0
161 183 0
157 179 0
161 183 0
162 184 0
158 180 0
155 177 0
161 184 0
165 188 0
159 181 0
166 189 0
156 179 0
158 180 0
159 182 0
153 175 0
164 185 0
160 182 0
158 181 0
166 189 0
159 182 0
157 180 0
158 181 0
157 179 0
157 178 0
160 182 0
152 174 0
164 186 0
163 184 0
157 180 0
155 177 0
158 180 0
160 181 0
158 180 0
159 181 0
165 187 0
154 176 0
162 184 0
154 177 0
154 176 0
150 172 0
156 179 0
148 170 0
157 179 0
143 166 0
155 178 0
155 177 0
151 172 0
157 179 0
151 173 0
158 179 0
153 175 0
156 178 0
152 173 0
146 168 0
150 171 0
151 174 0
155 176 0
158 180 0
153 175 0
153 175 0
153 176 0
156 177 0
150 171 0
146 167 0
151 172 0
154 176 0
157 178 0
155 176 0
150 172 0
147 169 0
151 171 0
156 178 0
148 168 0
154 175 0
150 171 0
148 170 0
154 174 0
149 170 0
156 177 0
148 170 0
149 169 0
150 172 0
152 175 0
152 174 0
151 173 0
146 168 0
154 176 0
146 167 0
153 175 0
148 169 0
153 174 0
156 177 0
148 169 0
158 179 0
155 177 0
148 170 0
157 179 0
148 169 0
150 170 0
155 176 0
149 171 0
155 177 0
152 173 0
154 175 0
147 169 0
152 173 0
154 175 0
145 166 0
151 173 0
152 172 0
157 176 0
155 176 0
151 172 0
149 170 0
151 172 0
150 170 0
157 178 0
146 168 0
154 174 0
154 174 0
148 170 0
157 179 0
141 161 0
151 172 0
148 170 0
152 173 0
153 174 0
153 173 0
146 165 0
152 173 0
144 165 0
151 173 0
144 165 0
149 168 0
135 156 0
156 175 0
152 174 0
152 174 0
153 174 0
155 176 0
154 176 0
158 179 0
151 173 0
150 171 0
151 171 0
155 176 0
151 174 0
153 173 0
150 171 0
153 172 0
142 162 0
157 177 0
155 176 0
145 165 0
154 173 0
156 176 0
143 162 0
149 168 0
152 173 0
156 175 0
149 169 0
151 169 0
150 170 0
151 171 0
156 176 0
159 178 0
155 174 0
154 174 0
148 167 0
154 175 0
157 175 0
160 180 0
156 175 0
147 165 0
151 169 0
147 164 0
151 169 0
152 172 0
155 172 0
145 166 0
156 175 0
149 164 0
149 167 0
157 174 0
153 172 0
147 166 0
157 177 0
155 175 0
149 167 0
154 172 0
149 167 0
151 169 0
149 165 0
153 171 0
158 176 0
158 174 0
148 167 0
157 174 0
149 168 0
158 177 0
155 171 0
153 171 0
158 178 0
160 178 0
161 181 0
155 173 0
152 170 0
158 176 0
155 173 0
160 176 0
159 175 0
153 168 0
157 172 0
152 166 0
158 175 0
157 176 0
156 173 0
161 178 0
156 171 0
152 167 0
157 175 0
154 170 0
159 177 0
155 171 0
155 172 0
158 174 0
155 171 0
157 170 0
159 172 0
158 172 0
155 170 0
163 178 0
155 171 0
158 175 0
155 171 0
158 171 0
157 173 0
153 165 0
156 174 0
162 179 0
156 172 0
153 165 0
154 168 0
158 173 0
155 169 0
156 169 0
158 172 0
159 174 0
158 172 0
161 176 0
157 172 0
159 175 0
160 176 0
155 168 0
157 171 0
157 171 0
157 171 0
165 179 0
164 181 0
164 178 0
157 170 0
155 169 0
158 173 0
160 175 0
161 177 0
160 173 0
161 173 0
164 177 0
166 179 0
153 164 0
162 177 0
156 168 0
165 180 0
158 167 0
163 177 0
163 177 0
162 179 0
161 174 0
165 177 0
164 179 0
161 174 0
163 176 0
160 174 0
162 174 0
163 179 0
163 175 0
172 196 0
173 196 0
173 196 0
173 196 0
172 196 0
173 196 0
173 196 0
175 198 0
174 197 0
168 192 0
172 196 0
172 196 0
171 194 0
172 196 0
168 191 0
168 191 0
171 194 0
171 194 0
170 193 0
171 194 0
170 193 0
176 198 0
173 196 0
173 196 0
170 194 0
169 193 0
171 194 0
173 196 0
167 190 0
169 192 0
171 195 0
173 197 0
171 195 0
168 192 0
167 190 0
167 190 0
169 192 0
166 189 0
170 193 0
163 187 0
169 192 0
170 193 0
167 190 0
168 191 0
171 195 0
172 195 0
167 190 0
172 194 0
170 193 0
168 191 0
168 191 0
162 184 0
164 188 0
169 191 0
172 195 0
170 194 0
162 184 0
168 190 0
162 184 0
162 186 0
171 193 0
166 190 0
161 183 0
165 188 0
166 188 0
169 191 0
166 189 0
169 192 0
164 188 0
171 194 0
165 188 0
165 188 0
164 186 0
164 188 0
167 190 0
161 184 0
163 186 0
165 187 0
168 191 0
163 185 0
169 191 0
167 190 0
167 189 0
160 182 0
165 188 0
166 188 0
160 183 0
160 183 0
164 186 0
163 185 0
166 188 0
162 184 0
161 183 0
165 187 0
163 185 0
165 187 0
161 183 0
160 182 0
159 181 0
161 184 0
160 182 0
163 186 0
164 186 0
163 186 0
161 183 0
159 181 0
164 186 0
164 186 0
156 179 0
161 184 0
161 184 0
164 187 0
163 185 0
161 183 0
162 184 0
159 181 0
160 182 0
158 180 0
161 185 0
162 184 0
159 181 0
162 184 0
163 186 0
164 186 0
162 184 0
162 185 0
157 179 0
157 180 0
164 187 0
157 180 0
162 184 0
154 177 0
158 181 0
156 179 0
156 179 0
160 182 0
159 181 0
154 177 0
157 179 0
161 182 0
154 176 0
156 178 0
162 184 0
160 182 0
148 170 0
157 180 0
157 180 0
155 176 0
154 177 0
153 174 0
149 171 0
149 170 0
162 184 0
156 179 0
158 180 0
155 178 0
154 176 0
157 179 0
150 172 0
160 182 0
152 174 0
153 174 0
157 179 0
157 179 0
150 172 0
157 178 0
152 173 0
152 172 0
154 175 0
153 174 0
152 173 0
161 183 0
157 179 0
147 167 0
153 175 0
159 181 0
153 175 0
151 172 0
156 177 0
156 177 0
151 171 0
155 176 0
153 174 0
158 179 0
152 172 0
149 171 0
154 175 0
162 183 0
149 171 0
151 172 0
160 183 0
148 170 0
152 174 0
148 169 0
150 171 0
152 173 0
150 172 0
148 170 0
149 170 0
156 177 0
150 173 0
158 180 0
155 176 0
151 172 0
157 178 0
151 173 0
151 172 0
145 167 0
148 170 0
147 168 0
146 167 0
147 169 0
147 169 0
148 169 0
152 173 0
152 173 0
148 170 0
146 167 0
147 169 0
151 173 0
148 168 0
154 175 0
157 179 0
152 173 0
160 180 0
152 172 0
154 176 0
147 168 0
141 161 0
155 175 0
149 170 0
145 166 0
155 177 0
146 167 0
152 173 0
146 165 0
148 168 0
151 173 0
146 165 0
153 172 0
147 167 0
149 169 0
149 171 0
143 163 0
154 176 0
149 170 0
158 179 0
153 172 0
152 172 0
151 171 0
144 164 0
147 167 0
150 170 0
148 170 0
160 182 0
155 177 0
156 177 0
153 174 0
152 173 0
151 169 0
155 176 0
148 166 0
153 174 0
154 174 0
152 171 0
151 170 0
153 174 0
148 168 0
156 174 0
160 179 0
151 171 0
142 160 0
155 175 0
144 164 0
150 168 0
149 170 0
151 171 0
146 166 0
162 184 0
155 174 0
149 168 0
160 181 0
154 174 0
153 172 0
151 169 0
152 169 0
148 167 0
154 175 0
149 166 0
155 175 0
158 178 0
156 175 0
153 172 0
153 172 0
152 171 0
155 175 0
150 169 0
153 173 0
147 167 0
152 171 0
152 170 0
155 174 0
160 177 0
154 173 0
150 168 0
153 171 0
154 172 0
162 180 0
160 180 0
154 171 0
154 172 0
154 172 0
158 178 0
149 166 0
154 173 0
154 171 0
159 177 0
159 176 0
151 168 0
158 176 0
151 169 0
161 178 0
160 177 0
156 173 0
158 176 0
153 170 0
156 174 0
153 169 0
153 171 0
152 169 0
158 176 0
154 171 0
161 179 0
155 171 0
154 172 0
155 173 0
160 179 0
153 171 0
160 175 0
159 175 0
152 166 0
165 182 0
155 172 0
157 175 0
153 166 0
154 170 0
157 174 0
157 173 0
147 162 0
163 179 0
149 166 0
157 172 0
154 172 0
159 173 0
157 172 0
157 171 0
163 180 0
159 173 0
155 170 0
157 172 0
157 170 0
163 178 0
157 170 0
161 174 0
162 178 0
159 175 0
156 168 0
163 176 0
159 175 0
158 173 0
156 169 0
156 171 0
160 176 0
161 173 0
162 175 0
158 171 0
156 167 0
160 174 0
159 172 0
157 170 0
157 171 0
159 173 0
161 173 0
157 168 0
164 179 0
166 179 0
159 169 0
160 174 0
162 176 0
163 179 0
159 174 0
162 178 0
160 173 0
162 175 0
164 177 0
164 180 0
164 177 0
161 173 0
166 183 0
166 181 0
172 195 0
173 197 0
173 196 0
173 196 0
173 196 0
173 195 0
172 195 0
171 195 0
172 195 0
173 195 0
172 196 0
169 192 0
171 194 0
172 195 0
172 196 0
171 193 0
170 194 0
172 195 0
171 194 0
169 192 0
171 194 0
169 192 0
169 192 0
166 189 0
172 196 0
169 192 0
171 195 0
166 189 0
173 196 0
171 195 0
168 191 0
172 195 0
168 191 0
170 192 0
169 192 0
168 191 0
171 193 0
171 194 0
170 194 0
168 191 0
170 193 0
167 190 0
168 192 0
170 193 0
168 192 0
172 194 0
167 190 0
169 192 0
171 194 0
172 195 0
169 192 0
170 193 0
169 193 0
164 187 0
172 195 0
168 191 0
168 191 0
167 189 0
167 190 0
168 191 0
169 192 0
170 193 0
163 186 0
163 185 0
165 187 0
169 192 0
162 185 0
169 192 0
165 188 0
167 190 0
167 189 0
170 193 0
169 192 0
161 184 0
165 188 0
167 191 0
164 187 0
164 187 0
164 186 0
167 189 0
165 188 0
165 186 0
164 187 0
158 181 0
168 191 0
163 186 0
161 184 0
166 189 0
165 187 0
164 186 0
164 187 0
161 184 0
157 180 0
160 182 0
162 185 0
163 185 0
163 185 0
165 187 0
163 185 0
164 187 0
160 183 0
165 187 0
165 187 0
166 188 0
164 186 0
161 183 0
161 184 0
166 188 0
159 182 0
154 176 0
162 185 0
164 186 0
164 187 0
159 182 0
159 181 0
158 181 0
157 179 0
163 185 0
161 184 0
158 179 0
166 189 0
158 179 0
162 185 0
159 182 0
155 176 0
163 185 0
155 178 0
158 181 0
157 179 0
159 182 0
162 184 0
158 180 0
157 179 0
153 175 0
156 179 0
161 182 0
156 178 0
158 180 0
152 173 0
161 183 0
161 183 0
154 174 0
164 187 0
158 180 0
161 182 0
157 178 0
158 180 0
158 180 0
151 172 0
157 179 0
153 175 0
158 180 0
154 176 0
153 174 0
159 180 0
161 183 0
154 176 0
158 179 0
154 176 0
157 178 0
156 178 0
154 176 0
158 180 0
160 183 0
152 173 0
156 177 0
158 180 0
152 174 0
150 172 0
154 177 0
158 180 0
154 175 0
157 179 0
147 169 0
159 181 0
158 181 0
155 178 0
154 176 0
160 180 0
155 176 0
151 173 0
160 181 0
159 181 0
155 177 0
158 181 0
147 168 0
154 174 0
159 182 0
149 171 0
147 168 0
158 180 0
155 177 0
155 176 0
142 164 0
154 175 0
152 173 0
154 175 0
149 171 0
147 168 0
153 174 0
150 171 0
149 170 0
146 166 0
153 174 0
156 177 0
147 167 0
157 179 0
147 169 0
154 175 0
145 167 0
153 173 0
152 173 0
155 176 0
151 173 0
149 171 0
149 171 0
153 173 0
154 175 0
151 171 0
156 179 0
154 174 0
142 162 0
155 176 0
155 174 0
144 165 0
148 168 0
155 176 0
154 176 0
154 176 0
156 178 0
152 173 0
159 180 0
153 175 0
155 176 0
153 172 0
156 176 0
150 170 0
149 171 0
150 172 0
151 171 0
154 174 0
148 170 0
152 174 0
152 174 0
153 174 0
151 172 0
151 171 0
153 174 0
149 170 0
154 177 0
144 165 0
155 177 0
153 173 0
153 173 0
155 174 0
151 171 0
150 170 0
151 172 0
151 170 0
151 171 0
156 176 0
155 174 0
151 171 0
152 171 0
146 167 0
152 173 0
151 174 0
157 175 0
153 174 0
151 172 0
150 169 0
157 177 0
154 174 0
149 168 0
157 175 0
152 173 0
154 175 0
148 168 0
156 177 0
148 169 0
152 173 0
157 178 0
156 176 0
139 158 0
156 175 0
156 176 0
151 172 0
156 177 0
151 170 0
151 171 0
153 171 0
154 172 0
158 176 0
157 177 0
157 177 0
158 176 0
159 179 0
152 171 0
147 166 0
156 174 0
150 169 0
159 178 0
152 170 0
152 172 0
150 168 0
152 170 0
155 174 0
157 175 0
153 172 0
150 169 0
152 168 0
153 171 0
153 170 0
151 167 0
156 175 0
154 173 0
154 170 0
155 174 0
152 170 0
165 187 0
156 173 0
157 174 0
152 168 0
157 174 0
158 176 0
156 175 0
157 175 0
157 174 0
158 176 0
159 175 0
160 177 0
156 174 0
157 174 0
157 173 0
160 176 0
155 170 0
153 170 0
154 172 0
157 174 0
158 176 0
158 175 0
158 173 0
160 177 0
159 176 0
154 171 0
160 176 0
159 174 0
158 174 0
158 174 0
157 170 0
157 171 0
162 178 0
158 173 0
162 178 0
161 178 0
156 172 0
152 167 0
157 175 0
162 179 0
155 169 0
156 170 0
160 176 0
161 175 0
165 180 0
157 174 0
156 170 0
158 173 0
158 173 0
159 175 0
162 174 0
157 172 0
164 180 0
156 171 0
162 175 0
161 177 0
160 173 0
162 176 0
158 172 0
163 174 0
166 180 0
163 179 0
158 173 0
157 170 0
165 180 0
161 174 0
161 176 0
156 170 0
164 181 0
163 180 0
159 174 0
164 178 0
159 171 0
162 175 0
157 170 0
161 174 0
166 178 0
162 177 0
161 175 0
164 178 0
160 172 0
174 197 0
170 194 0
172 195 0
174 197 0
172 195 0
169 192 0
170 194 0
167 191 0
170 193 0
172 195 0
171 194 0
173 195 0
171 194 0
170 193 0
171 194 0
171 195 0
172 195 0
173 196 0
172 195 0
167 190 0
171 194 0
167 190 0
172 195 0
171 194 0
168 190 0
173 195 0
171 194 0
172 195 0
173 196 0
170 193 0
172 195 0
170 193 0
169 192 0
169 193 0
172 195 0
169 192 0
168 191 0
165 189 0
168 191 0
169 191 0
170 193 0
169 192 0
171 195 0
169 192 0
171 194 0
170 192 0
166 188 0
170 193 0
169 192 0
170 194 0
165 188 0
164 188 0
167 189 0
169 191 0
168 190 0
168 190 0
167 189 0
171 194 0
168 191 0
166 188 0
170 192 0
166 188 0
166 189 0
167 189 0
167 189 0
162 184 0
172 194 0
162 185 0
169 192 0
168 189 0
165 187 0
164 186 0
167 190 0
165 188 0
170 192 0
164 186 0
166 188 0
164 187 0
162 184 0
170 192 0
164 187 0
163 186 0
161 184 0
169 193 0
162 184 0
161 184 0
164 187 0
160 183 0
161 183 0
165 187 0
166 188 0
167 188 0
166 188 0
167 190 0
164 185 0
164 187 0
165 187 0
165 188 0
166 189 0
158 181 0
167 189 0
161 185 0
159 181 0
161 182 0
165 188 0
166 189 0
163 186 0
161 184 0
158 180 0
159 181 0
166 188 0
157 180 0
163 186 0
157 179 0
160 182 0
161 184 0
163 186 0
160 182 0
164 186 0
161 182 0
164 186 0
157 178 0
161 183 0
154 178 0
157 180 0
160 182 0
163 186 0
155 177 0
162 184 0
160 183 0
162 183 0
166 188 0
162 184 0
160 183 0
155 178 0
160 182 0
157 179 0
154 177 0
154 176 0
155 177 0
159 182 0
158 179 0
151 173 0
160 182 0
155 177 0
160 182 0
150 171 0
159 180 0
157 179 0
157 178 0
156 178 0
160 183 0
159 180 0
158 181 0
158 179 0
152 174 0
157 179 0
154 175 0
159 179 0
151 173 0
156 179 0
151 174 0
157 178 0
157 179 0
157 179 0
152 173 0
154 175 0
158 179 0
155 177 0
153 175 0
149 172 0
154 175 0
163 184 0
152 173 0
153 175 0
151 173 0
147 168 0
157 179 0
151 172 0
155 177 0
155 177 0
158 180 0
155 178 0
157 178 0
148 170 0
153 175 0
156 177 0
150 172 0
147 169 0
152 173 0
151 173 0
153 173 0
152 173 0
152 173 0
150 171 0
146 167 0
150 171 0
155 176 0
153 174 0
153 175 0
157 178 0
143 165 0
143 164 0
151 172 0
153 175 0
154 176 0
154 176 0
152 173 0
159 179 0
155 175 0
151 173 0
151 173 0
152 173 0
158 180 0
156 178 0
150 171 0
153 174 0
155 177 0
151 173 0
150 170 0
156 178 0
145 167 0
149 170 0
151 171 0
158 179 0
155 176 0
154 176 0
149 170 0
145 165 0
159 182 0
149 170 0
153 174 0
152 173 0
153 173 0
147 168 0
151 173 0
152 172 0
153 174 0
150 172 0
152 174 0
154 175 0
159 180 0
159 179 0
153 172 0
150 170 0
153 172 0
152 174 0
154 174 0
150 172 0
148 167 0
150 170 0
155 176 0
151 172 0
149 171 0
149 170 0
154 174 0
144 165 0
153 174 0
149 169 0
151 170 0
153 174 0
150 169 0
154 173 0
152 172 0
150 171 0
156 176 0
157 178 0
156 175 0
151 172 0
148 169 0
153 174 0
153 172 0
153 172 0
150 171 0
150 172 0
158 177 0
150 169 0
150 169 0
155 177 0
155 174 0
156 176 0
151 170 0
149 168 0
159 180 0
152 170 0
155 173 0
150 170 0
149 168 0
159 178 0
154 172 0
152 173 0
152 172 0
147 164 0
152 171 0
153 172 0
160 181 0
151 170 0
155 173 0
154 172 0
156 176 0
158 177 0
157 175 0
157 177 0
152 170 0
149 166 0
156 173 0
158 179 0
160 178 0
150 167 0
158 177 0
154 173 0
157 175 0
163 181 0
155 172 0
157 176 0
146 162 0
157 174 0
155 172 0
156 175 0
154 170 0
160 179 0
155 174 0
158 175 0
150 166 0
156 173 0
156 174 0
153 169 0
158 174 0
159 175 0
162 181 0
153 170 0
153 169 0
154 170 0
161 180 0
157 175 0
157 176 0
153 168 0
155 174 0
161 179 0
159 175 0
158 175 0
157 176 0
159 175 0
156 172 0
161 178 0
155 171 0
156 172 0
157 172 0
156 172 0
160 174 0
154 171 0
167 182 0
161 178 0
159 174 0
155 171 0
162 178 0
155 171 0
162 176 0
161 176 0
154 168 0
157 172 0
162 177 0
157 171 0
156 169 0
161 176 0
162 178 0
160 171 0
157 171 0
158 172 0
164 180 0
157 171 0
156 170 0
161 177 0
162 177 0
161 176 0
161 174 0
159 170 0
162 177 0
157 170 0
163 178 0
159 174 0
160 174 0
160 176 0
159 174 0
164 180 0
162 176 0
163 175 0
164 177 0
163 176 0
160 174 0
165 180 0
163 176 0
160 174 0
162 174 0
166 183 0
159 173 0
164 177 0
161 176 0
160 174 0
156 167 0
172 195 0
170 194 0
172 195 0
173 196 0
174 197 0
173 196 0
170 193 0
171 195 0
168 191 0
174 197 0
174 197 0
170 193 0
170 194 0
170 195 0
169 191 0
174 196 0
169 192 0
173 196 0
173 195 0
174 196 0
167 190 0
172 195 0
166 190 0
170 193 0
172 195 0
171 194 0
168 191 0
170 193 0
168 192 0
171 194 0
169 192 0
171 194 0
172 194 0
171 194 0
170 194 0
167 190 0
169 192 0
168 192 0
167 190 0
173 196 0
172 195 0
172 195 0
173 196 0
166 189 0
167 190 0
168 191 0
174 196 0
168 191 0
169 192 0
170 193 0
166 189 0
169 192 0
169 193 0
165 188 0
168 190 0
165 187 0
164 187 0
167 190 0
171 195 0
166 190 0
165 187 0
163 186 0
171 194 0
169 192 0
167 190 0
165 187 0
163 186 0
167 190 0
164 187 0
165 188 0
163 186 0
163 186 0
164 186 0
166 188 0
169 191 0
164 187 0
164 187 0
163 186 0
165 188 0
165 189 0
163 186 0
161 183 0
163 186 0
167 189 0
166 189 0
170 191 0
162 184 0
166 188 0
162 185 0
166 189 0
165 188 0
165 188 0
162 185 0
159 182 0
166 188 0
165 188 0
160 182 0
155 178 0
163 186 0
162 185 0
162 185 0
165 187 0
159 183 0
162 184 0
164 187 0
164 186 0
154 176 0
161 184 0
156 179 0
160 183 0
165 187 0
164 186 0
160 183 0
157 180 0
160 182 0
162 185 0
162 184 0
158 180 0
159 181 0
167 190 0
164 185 0
157 180 0
158 181 0
155 178 0
165 187 0
156 179 0
158 179 0
156 178 0
162 184 0
164 187 0
157 180 0
163 185 0
160 183 0
159 181 0
156 178 0
153 175 0
152 175 0
159 180 0
153 175 0
163 185 0
162 184 0
159 181 0
159 181 0
154 178 0
161 184 0
158 181 0
154 175 0
160 183 0
152 174 0
159 181 0
159 183 0
154 175 0
163 185 0
154 176 0
148 170 0
160 181 0
153 176 0
160 183 0
155 177 0
155 177 0
160 183 0
156 178 0
151 173 0
150 172 0
161 184 0
156 179 0
151 173 0
153 175 0
151 172 0
154 175 0
150 172 0
151 172 0
150 172 0
151 173 0
155 177 0
158 180 0
151 171 0
154 176 0
151 172 0
149 171 0
153 176 0
150 172 0
143 164 0
149 172 0
155 176 0
155 176 0
150 171 0
156 179 0
144 166 0
148 169 0
149 171 0
150 171 0
145 165 0
160 182 0
155 177 0
153 175 0
159 182 0
149 171 0
145 166 0
150 170 0
151 172 0
157 178 0
151 172 0
153 174 0
154 174 0
156 179 0
150 172 0
148 169 0
152 174 0
149 171 0
155 176 0
156 178 0
148 170 0
147 169 0
149 172 0
154 175 0
146 167 0
156 177 0
145 165 0
158 180 0
149 171 0
148 170 0
155 175 0
154 175 0
158 178 0
152 174 0
154 176 0
152 173 0
147 169 0
154 175 0
151 172 0
160 181 0
154 174 0
151 172 0
156 177 0
146 168 0
139 160 0
146 167 0
155 177 0
141 163 0
143 163 0
149 170 0
145 166 0
149 171 0
150 170 0
155 174 0
149 169 0
150 169 0
153 173 0
149 168 0
155 176 0
154 175 0
152 173 0
157 178 0
151 170 0
153 174 0
151 171 0
154 174 0
152 172 0
157 177 0
154 174 0
147 168 0
156 176 0
152 171 0
154 175 0
153 175 0
159 179 0
155 176 0
152 171 0
154 175 0
151 171 0
153 173 0
158 179 0
155 174 0
153 173 0
159 180 0
159 178 0
152 172 0
157 177 0
156 176 0
147 167 0
150 169 0
157 177 0
158 177 0
153 173 0
151 171 0
156 178 0
152 173 0
157 180 0
151 171 0
157 178 0
156 177 0
151 171 0
148 168 0
154 172 0
156 177 0
157 177 0
155 173 0
158 177 0
152 169 0
156 175 0
161 180 0
152 172 0
157 174 0
159 178 0
156 176 0
154 175 0
154 172 0
154 173 0
152 170 0
153 171 0
159 178 0
156 175 0
156 176 0
152 170 0
158 175 0
158 171 0
155 174 0
159 177 0
154 172 0
156 174 0
153 171 0
158 175 0
157 175 0
149 167 0
156 171 0
155 174 0
161 178 0
158 177 0
157 172 0
157 175 0
161 181 0
157 174 0
158 175 0
158 175 0
155 174 0
152 168 0
154 170 0
153 168 0
151 167 0
158 172 0
163 181 0
155 173 0
157 173 0
154 168 0
162 178 0
157 175 0
159 175 0
158 175 0
157 172 0
153 168 0
160 177 0
160 177 0
156 173 0
161 175 0
161 176 0
157 172 0
161 178 0
159 175 0
160 177 0
159 174 0
153 167 0
156 170 0
157 172 0
152 165 0
158 175 0
159 177 0
154 166 0
161 177 0
158 174 0
162 179 0
158 172 0
159 174 0
158 171 0
161 175 0
161 177 0
157 168 0
158 173 0
167 184 0
163 179 0
159 172 0
159 173 0
158 172 0
161 175 0
155 168 0
160 176 0
163 176 0
160 173 0
160 176 0
157 171 0
161 174 0
164 178 0
159 173 0
158 173 0
164 179 0
163 178 0
159 171 0
162 175 0
160 173 0
168 184 0
170 193 0
173 196 0
173 197 0
171 194 0
170 193 0
173 196 0
170 194 0
172 196 0
170 194 0
170 194 0
170 194 0
172 195 0
173 196 0
171 194 0
173 196 0
173 196 0
172 195 0
172 196 0
169 192 0
172 195 0
169 192 0
168 191 0
172 195 0
167 190 0
171 195 0
171 194 0
170 193 0
170 193 0
171 194 0
169 192 0
171 194 0
168 191 0
170 194 0
169 191 0
169 192 0
171 194 0
164 187 0
167 189 0
167 191 0
171 193 0
162 185 0
167 191 0
169 192 0
170 192 0
171 193 0
168 190 0
167 190 0
171 195 0
167 190 0
168 191 0
167 190 0
166 189 0
168 190 0
168 190 0
170 192 0
167 189 0
168 190 0
172 195 0
170 192 0
165 188 0
170 193 0
159 182 0
166 190 0
167 190 0
160 182 0
168 191 0
165 188 0
163 187 0
163 185 0
170 193 0
163 186 0
166 188 0
163 185 0
167 191 0
160 183 0
163 186 0
163 186 0
169 191 0
168 192 0
165 187 0
163 187 0
164 186 0
163 186 0
162 185 0
162 185 0
164 186 0
162 185 0
163 186 0
162 185 0
160 183 0
165 187 0
165 187 0
165 188 0
167 189 0
165 187 0
158 181 0
164 187 0
163 186 0
165 187 0
165 188 0
163 186 0
159 182 0
165 187 0
165 187 0
160 183 0
161 183 0
161 183 0
161 183 0
164 187 0
164 187 0
161 184 0
160 182 0
165 188 0
158 180 0
160 182 0
166 189 0
163 185 0
159 182 0
164 187 0
163 186 0
165 187 0
152 174 0
160 183 0
165 188 0
161 183 0
156 178 0
160 183 0
161 182 0
162 185 0
159 181 0
163 186 0
159 181 0
159 179 0
157 179 0
161 183 0
160 182 0
154 176 0
163 185 0
164 185 0
157 180 0
166 188 0
155 178 0
163 186 0
157 178 0
159 181 0
158 180 0
157 179 0
154 175 0
160 182 0
156 177 0
155 177 0
160 182 0
157 179 0
153 176 0
159 181 0
154 176 0
153 176 0
157 178 0
157 179 0
159 181 0
153 174 0
157 178 0
148 170 0
153 176 0
159 181 0
155 177 0
158 180 0
159 182 0
152 173 0
162 184 0
157 179 0
156 179 0
161 184 0
148 170 0
161 183 0
150 172 0
161 184 0
153 175 0
154 177 0
156 177 0
153 175 0
151 172 0
151 173 0
150 171 0
159 180 0
156 178 0
156 178 0
159 181 0
154 176 0
156 178 0
156 179 0
150 170 0
147 168 0
159 179 0
150 171 0
157 179 0
148 168 0
147 169 0
157 177 0
157 178 0
157 178 0
148 171 0
145 166 0
152 174 0
157 179 0
150 171 0
149 169 0
156 177 0
153 175 0
153 173 0
155 176 0
150 172 0
152 174 0
155 177 0
147 168 0
154 176 0
154 177 0
160 182 0
153 174 0
159 180 0
149 170 0
152 172 0
156 178 0
154 174 0
150 171 0
151 172 0
148 169 0
150 172 0
144 165 0
154 175 0
154 176 0
152 173 0
158 178 0
156 177 0
155 175 0
151 171 0
151 172 0
154 175 0
145 166 0
153 174 0
153 175 0
153 173 0
156 176 0
152 173 0
154 176 0
145 165 0
149 169 0
149 169 0
154 175 0
152 171 0
156 176 0
150 171 0
147 168 0
148 169 0
154 175 0
152 172 0
154 176 0
154 173 0
154 175 0
155 173 0
153 174 0
156 177 0
154 175 0
153 174 0
153 173 0
151 172 0
153 172 0
156 177 0
156 175 0
153 172 0
149 169 0
160 182 0
153 173 0
149 168 0
150 170 0
159 180 0
154 174 0
153 173 0
155 173 0
149 169 0
151 171 0
151 171 0
151 169 0
151 172 0
159 179 0
155 176 0
147 167 0
148 166 0
155 174 0
154 174 0
156 175 0
158 178 0
157 176 0
156 176 0
152 171 0
156 176 0
147 167 0
156 174 0
148 168 0
154 172 0
154 173 0
158 179 0
154 174 0
162 183 0
152 171 0
158 177 0
156 175 0
158 177 0
154 174 0
150 169 0
156 175 0
146 164 0
157 175 0
162 179 0
153 172 0
161 179 0
155 173 0
153 172 0
152 170 0
158 177 0
152 169 0
156 176 0
151 171 0
153 172 0
154 170 0
155 174 0
154 172 0
156 174 0
154 174 0
158 174 0
155 173 0
160 177 0
160 176 0
153 169 0
154 173 0
156 172 0
158 178 0
153 171 0
157 171 0
159 176 0
161 177 0
162 180 0
158 177 0
159 177 0
155 173 0
162 180 0
157 174 0
152 165 0
156 172 0
161 178 0
151 169 0
154 168 0
159 175 0
160 177 0
156 169 0
161 176 0
157 171 0
155 171 0
153 170 0
153 166 0
163 180 0
163 178 0
160 175 0
155 173 0
158 173 0
165 182 0
159 175 0
161 178 0
153 169 0
160 176 0
158 172 0
163 180 0
163 180 0
160 175 0
158 172 0
161 175 0
159 173 0
160 175 0
159 171 0
163 178 0
165 180 0
159 174 0
160 172 0
158 171 0
159 174 0
159 171 0
158 172 0
165 179 0
158 171 0
165 180 0
158 174 0
157 172 0
166 181 0
163 179 0
165 179 0
165 180 0
161 174 0
160 174 0
162 175 0
164 177 0
172 195 0
171 193 0
173 197 0
172 196 0
172 196 0
169 192 0
172 196 0
172 195 0
172 196 0
171 194 0
174 197 0
170 193 0
171 194 0
167 191 0
173 196 0
170 193 0
171 194 0
172 196 0
172 195 0
170 193 0
169 192 0
168 191 0
169 192 0
167 190 0
169 192 0
170 193 0
172 195 0
170 194 0
170 193 0
170 193 0
172 195 0
169 192 0
172 194 0
169 192 0
167 190 0
168 191 0
165 188 0
168 191 0
171 195 0
168 191 0
171 193 0
172 194 0
170 193 0
166 189 0
169 192 0
167 190 0
168 191 0
166 190 0
169 192 0
170 192 0
168 191 0
168 191 0
169 192 0
163 186 0
166 188 0
167 190 0
168 191 0
169 193 0
168 190 0
169 191 0
169 192 0
165 188 0
170 192 0
166 188 0
166 189 0
164 187 0
167 190 0
169 192 0
168 191 0
165 187 0
168 191 0
162 185 0
163 186 0
168 191 0
160 184 0
162 185 0
161 183 0
166 188 0
162 185 0
170 192 0
165 189 0
163 186 0
165 188 0
163 186 0
165 188 0
162 185 0
163 186 0
163 186 0
163 185 0
161 184 0
165 188 0
165 186 0
163 184 0
164 187 0
163 186 0
167 189 0
166 188 0
162 185 0
164 186 0
158 180 0
157 180 0
164 186 0
156 177 0
161 183 0
157 180 0
163 186 0
163 184 0
163 186 0
167 190 0
161 183 0
162 184 0
161 183 0
161 184 0
158 181 0
160 182 0
163 185 0
161 184 0
156 178 0
159 181 0
161 183 0
163 185 0
166 188 0
154 177 0
158 180 0
164 186 0
158 181 0
164 186 0
164 186 0
151 173 0
156 179 0
159 180 0
162 184 0
159 180 0
161 183 0
157 178 0
157 179 0
169 190 0
161 183 0
157 180 0
157 180 0
154 176 0
159 181 0
156 179 0
159 182 0
161 182 0
160 181 0
160 181 0
156 178 0
160 182 0
153 175 0
163 185 0
152 173 0
154 176 0
160 182 0
158 181 0
153 175 0
154 174 0
159 181 0
154 176 0
158 179 0
148 170 0
154 176 0
159 181 0
158 179 0
162 184 0
155 178 0
162 184 0
153 175 0
148 170 0
152 174 0
155 177 0
151 172 0
157 179 0
148 170 0
156 178 0
158 181 0
153 174 0
151 173 0
151 172 0
158 180 0
156 178 0
156 178 0
151 171 0
151 173 0
154 176 0
157 178 0
157 179 0
162 184 0
161 184 0
157 178 0
152 174 0
152 175 0
152 175 0
148 168 0
163 186 0
155 176 0
157 179 0
156 176 0
152 174 0
157 179 0
149 169 0
149 170 0
157 179 0
151 172 0
151 172 0
152 173 0
152 173 0
155 177 0
147 168 0
148 169 0
155 176 0
156 177 0
151 172 0
147 168 0
149 170 0
154 176 0
147 168 0
146 168 0
163 184 0
156 177 0
144 166 0
150 171 0
154 176 0
153 174 0
156 177 0
159 182 0
152 173 0
149 171 0
145 167 0
148 170 0
155 176 0
146 168 0
155 176 0
158 180 0
143 164 0
155 176 0
152 173 0
155 176 0
148 170 0
158 180 0
157 178 0
145 165 0
157 177 0
154 175 0
153 175 0
151 171 0
156 176 0
151 172 0
157 178 0
154 176 0
148 171 0
147 166 0
147 169 0
160 180 0
152 174 0
149 169 0
151 171 0
153 173 0
146 164 0
153 174 0
156 176 0
153 173 0
152 172 0
153 172 0
157 177 0
148 169 0
148 168 0
153 175 0
153 174 0
151 171 0
151 169 0
159 179 0
153 171 0
151 173 0
157 178 0
150 170 0
153 174 0
153 170 0
152 172 0
156 177 0
152 173 0
158 177 0
160 180 0
146 164 0
158 179 0
159 179 0
155 174 0
152 172 0
143 163 0
155 175 0
158 178 0
157 176 0
155 174 0
154 174 0
157 176 0
156 176 0
154 174 0
153 171 0
158 177 0
154 174 0
154 173 0
157 176 0
154 173 0
155 172 0
160 181 0
157 176 0
154 173 0
155 173 0
160 179 0
158 175 0
153 172 0
155 175 0
156 174 0
153 172 0
154 174 0
162 180 0
152 170 0
157 175 0
156 173 0
151 168 0
152 170 0
157 174 0
157 173 0
155 174 0
160 179 0
157 174 0
157 178 0
150 166 0
159 175 0
162 180 0
155 173 0
159 178 0
158 177 0
158 177 0
159 177 0
161 178 0
158 174 0
159 176 0
163 180 0
153 168 0
158 176 0
159 177 0
161 178 0
157 172 0
162 177 0
155 170 0
156 175 0
161 177 0
157 171 0
161 176 0
159 178 0
166 186 0
164 178 0
150 162 0
158 175 0
154 170 0
162 178 0
153 168 0
157 175 0
156 172 0
160 176 0
163 182 0
160 175 0
157 172 0
158 175 0
155 170 0
162 177 0
162 178 0
165 183 0
162 177 0
163 179 0
158 172 0
162 179 0
160 173 0
161 178 0
161 175 0
160 177 0
153 168 0
162 176 0
163 181 0
160 174 0
156 171 0
164 178 0
159 174 0
165 182 0
163 176 0
157 169 0
162 176 0
163 177 0
162 179 0
161 176 0
163 179 0
163 178 0
159 174 0
163 176 0
158 169 0
165 179 0
161 176 0
162 177 0
163 179 0
174 197 0
174 197 0
172 195 0
174 197 0
170 194 0
171 194 0
171 194 0
173 196 0
173 197 0
169 193 0
170 193 0
168 192 0
169 192 0
173 196 0
173 195 0
167 190 0
171 195 0
169 192 0
170 193 0
169 192 0
173 195 0
172 195 0
170 192 0
174 196 0
168 190 0
170 194 0
166 189 0
167 191 0
167 190 0
166 189 0
166 189 0
173 195 0
168 191 0
168 191 0
170 193 0
169 192 0
167 190 0
170 192 0
168 191 0
168 191 0
169 192 0
168 191 0
169 192 0
171 195 0
168 190 0
170 193 0
170 193 0
170 192 0
165 189 0
168 190 0
167 191 0
169 192 0
167 190 0
167 190 0
165 188 0
163 186 0
167 189 0
162 184 0
171 194 0
165 188 0
167 190 0
168 191 0
167 190 0
170 192 0
170 193 0
167 189 0
165 186 0
163 185 0
166 189 0
167 190 0
165 187 0
165 187 0
165 188 0
171 193 0
162 185 0
167 190 0
162 185 0
167 189 0
162 184 0
166 189 0
168 190 0
167 189 0
161 184 0
163 186 0
166 188 0
164 186 0
168 189 0
161 183 0
168 190 0
166 189 0
166 188 0
165 186 0
166 188 0
165 188 0
161 183 0
163 185 0
160 182 0
166 189 0
166 188 0
167 190 0
161 183 0
162 185 0
166 188 0
163 186 0
166 189 0
160 183 0
160 182 0
155 178 0
164 187 0
156 179 0
160 183 0
159 181 0
154 176 0
161 184 0
162 185 0
161 182 0
160 182 0
158 180 0
167 189 0
164 186 0
165 188 0
163 185 0
161 184 0
163 186 0
166 188 0
164 186 0
160 182 0
150 172 0
166 188 0
161 183 0
160 182 0
157 180 0
158 181 0
157 180 0
164 187 0
162 184 0
154 177 0
157 179 0
160 182 0
157 179 0
159 181 0
156 178 0
159 181 0
151 173 0
160 181 0
161 184 0
153 174 0
158 181 0
155 178 0
159 181 0
163 185 0
161 184 0
160 182 0
159 181 0
157 180 0
165 187 0
161 183 0
161 183 0
154 176 0
158 179 0
157 180 0
154 175 0
157 178 0
156 178 0
152 175 0
157 178 0
151 173 0
154 176 0
160 181 0
151 172 0
159 182 0
150 172 0
154 174 0
153 175 0
151 173 0
162 183 0
151 173 0
158 179 0
158 179 0
148 169 0
148 170 0
153 176 0
162 185 0
153 176 0
153 175 0
156 178 0
149 169 0
156 177 0
153 175 0
155 177 0
153 174 0
158 179 0
160 182 0
156 177 0
156 178 0
152 173 0
156 177 0
155 177 0
157 179 0
157 178 0
148 169 0
151 173 0
157 179 0
151 172 0
151 173 0
154 174 0
156 178 0
163 185 0
153 175 0
144 166 0
150 171 0
152 173 0
155 178 0
157 178 0
158 179 0
155 176 0
155 176 0
161 182 0
151 173 0
153 174 0
157 178 0
152 175 0
146 167 0
153 175 0
150 170 0
158 178 0
159 180 0
153 174 0
143 163 0
156 178 0
151 172 0
147 166 0
152 172 0
156 177 0
145 166 0
152 173 0
154 174 0
154 175 0
150 171 0
151 172 0
157 178 0
153 175 0
156 179 0
150 170 0
153 175 0
147 168 0
156 177 0
151 171 0
157 177 0
155 176 0
147 167 0
156 176 0
152 174 0
154 176 0
147 168 0
158 178 0
157 178 0
159 180 0
154 177 0
148 169 0
156 176 0
160 180 0
151 172 0
160 181 0
158 179 0
153 175 0
155 174 0
153 173 0
157 177 0
153 174 0
150 172 0
156 176 0
152 171 0
154 175 0
156 176 0
158 178 0
148 167 0
154 175 0
143 162 0
150 172 0
155 175 0
146 166 0
153 173 0
154 175 0
147 168 0
148 167 0
161 182 0
150 170 0
153 173 0
151 172 0
154 173 0
155 175 0
150 169 0
158 178 0
153 172 0
152 170 0
153 172 0
156 176 0
160 180 0
154 176 0
157 176 0
153 172 0
153 173 0
154 172 0
155 175 0
158 176 0
160 179 0
149 168 0
157 176 0
153 171 0
152 172 0
160 178 0
151 170 0
156 175 0
162 183 0
155 173 0
153 173 0
157 176 0
164 183 0
161 179 0
155 173 0
157 177 0
155 172 0
158 176 0
161 180 0
157 174 0
152 172 0
154 172 0
154 171 0
154 173 0
158 176 0
159 176 0
156 175 0
159 177 0
163 182 0
158 176 0
155 172 0
151 168 0
154 171 0
157 173 0
160 177 0
156 172 0
159 174 0
159 179 0
158 175 0
158 176 0
157 174 0
160 176 0
160 176 0
154 172 0
159 178 0
153 170 0
157 173 0
157 171 0
159 176 0
157 173 0
158 173 0
157 174 0
159 175 0
159 177 0
163 181 0
163 179 0
153 168 0
159 174 0
162 177 0
154 170 0
162 178 0
159 176 0
159 172 0
161 179 0
157 171 0
160 174 0
153 168 0
161 178 0
162 178 0
161 177 0
163 179 0
160 175 0
161 173 0
164 181 0
161 176 0
157 173 0
163 180 0
156 169 0
162 178 0
163 179 0
166 182 0
157 170 0
166 182 0
159 174 0
159 174 0
162 175 0
158 173 0
158 172 0
163 177 0
165 181 0
159 173 0
159 173 0
163 177 0
167 183 0
173 195 0
172 195 0
174 197 0
169 191 0
171 194 0
171 193 0
173 196 0
171 194 0
170 193 0
172 195 0
168 191 0
171 194 0
170 194 0
171 194 0
171 194 0
170 193 0
169 193 0
173 195 0
170 193 0
169 192 0
168 191 0
169 192 0
172 195 0
167 190 0
171 193 0
169 192 0
172 195 0
171 194 0
168 192 0
167 190 0
170 193 0
169 192 0
169 191 0
171 194 0
171 194 0
170 192 0
166 188 0
171 194 0
166 189 0
169 192 0
165 188 0
167 190 0
164 187 0
167 190 0
169 191 0
168 191 0
164 187 0
166 189 0
172 196 0
167 190 0
167 190 0
169 191 0
166 188 0
163 186 0
168 190 0
165 188 0
167 190 0
169 192 0
170 194 0
169 191 0
167 190 0
167 190 0
164 187 0
167 190 0
166 189 0
165 188 0
168 191 0
168 190 0
164 187 0
167 190 0
161 184 0
167 188 0
165 189 0
165 188 0
168 191 0
169 191 0
164 186 0
164 186 0
163 185 0
167 189 0
169 192 0
160 182 0
167 189 0
167 189 0
165 186 0
161 184 0
161 184 0
163 186 0
166 189 0
163 185 0
162 184 0
156 179 0
163 185 0
165 187 0
167 190 0
159 182 0
165 188 0
166 187 0
159 181 0
167 190 0
165 188 0
159 182 0
165 187 0
166 188 0
165 188 0
165 187 0
163 186 0
163 186 0
167 189 0
161 184 0
155 177 0
165 188 0
164 187 0
164 186 0
161 183 0
163 185 0
160 182 0
152 173 0
162 184 0
165 187 0
158 181 0
155 178 0
163 186 0
161 183 0
158 181 0
157 180 0
159 181 0
160 183 0
158 181 0
158 181 0
156 178 0
169 191 0
160 183 0
158 180 0
159 181 0
164 187 0
161 183 0
160 182 0
157 178 0
159 181 0
161 183 0
151 173 0
160 182 0
153 174 0
156 179 0
156 178 0
158 180 0
162 184 0
155 177 0
154 176 0
156 178 0
151 173 0
160 182 0
152 173 0
154 175 0
151 174 0
153 175 0
155 176 0
158 180 0
155 177 0
154 176 0
158 181 0
156 178 0
154 177 0
155 175 0
155 178 0
154 178 0
156 177 0
161 184 0
154 176 0
152 174 0
158 178 0
153 174 0
157 179 0
154 175 0
156 178 0
158 180 0
155 177 0
154 174 0
156 177 0
159 181 0
157 178 0
156 177 0
155 176 0
157 179 0
160 181 0
148 170 0
151 173 0
160 180 0
156 178 0
155 175 0
161 183 0
153 175 0
147 169 0
138 159 0
153 174 0
157 178 0
145 166 0
150 171 0
154 176 0
151 172 0
158 180 0
151 173 0
157 178 0
153 174 0
150 172 0
155 176 0
150 171 0
154 177 0
155 177 0
153 175 0
147 168 0
156 178 0
150 170 0
158 181 0
152 173 0
154 175 0
160 181 0
155 177 0
155 178 0
159 180 0
161 182 0
144 164 0
149 170 0
148 168 0
147 168 0
153 175 0
158 180 0
154 175 0
149 170 0
155 175 0
152 172 0
159 181 0
153 175 0
154 175 0
147 167 0
155 175 0
155 177 0
140 162 0
156 178 0
154 174 0
150 171 0
153 173 0
155 174 0
157 178 0
154 174 0
150 171 0
161 182 0
150 171 0
153 173 0
157 178 0
155 176 0
151 172 0
151 170 0
152 173 0
155 178 0
151 173 0
148 169 0
154 173 0
156 177 0
156 178 0
154 177 0
151 172 0
155 176 0
154 175 0
149 171 0
153 173 0
148 169 0
154 175 0
154 175 0
157 178 0
154 173 0
151 171 0
161 181 0
148 166 0
152 174 0
155 175 0
154 174 0
154 174 0
154 174 0
155 176 0
148 167 0
150 170 0
159 179 0
156 174 0
156 175 0
155 176 0
157 177 0
153 172 0
157 177 0
162 182 0
156 174 0
149 169 0
161 182 0
153 172 0
158 179 0
155 176 0
152 171 0
156 176 0
154 172 0
159 179 0
157 175 0
158 177 0
160 178 0
157 175 0
155 173 0
155 174 0
151 171 0
154 172 0
155 175 0
156 173 0
159 179 0
159 178 0
155 174 0
156 174 0
159 179 0
161 180 0
162 180 0
158 177 0
161 180 0
154 172 0
160 179 0
153 172 0
155 176 0
157 176 0
163 180 0
157 175 0
158 175 0
150 167 0
153 172 0
161 179 0
149 167 0
159 176 0
165 184 0
160 179 0
159 178 0
158 177 0
155 173 0
156 172 0
156 175 0
156 172 0
151 167 0
155 175 0
163 181 0
157 174 0
158 176 0
158 175 0
155 171 0
162 178 0
161 179 0
155 170 0
154 171 0
157 173 0
162 179 0
153 170 0
160 178 0
154 169 0
159 174 0
160 177 0
159 175 0
163 178 0
161 177 0
159 175 0
159 175 0
158 172 0
159 175 0
158 173 0
155 169 0
158 174 0
157 172 0
160 176 0
158 173 0
162 178 0
161 177 0
156 172 0
159 173 0
163 179 0
161 177 0
161 176 0
165 179 0
163 180 0
161 175 0
164 181 0
161 177 0
161 177 0
158 173 0
160 178 0
161 175 0
159 174 0
164 180 0
161 175 0
161 176 0
160 175 0
162 178 0
164 178 0
158 173 0
163 180 0
157 171 0
158 171 0
162 178 0
171 194 0
171 193 0
171 194 0
173 195 0
168 192 0
169 192 0
173 196 0
171 194 0
170 193 0
173 195 0
168 191 0
170 194 0
170 194 0
170 193 0
169 192 0
171 194 0
170 193 0
170 193 0
175 198 0
170 194 0
174 196 0
169 193 0
169 193 0
173 196 0
172 194 0
170 193 0
170 192 0
172 195 0
169 192 0
171 194 0
166 188 0
171 194 0
171 193 0
169 191 0
169 192 0
169 193 0
168 192 0
167 189 0
170 193 0
168 191 0
168 191 0
171 194 0
168 191 0
168 191 0
169 192 0
171 194 0
169 193 0
169 192 0
167 190 0
162 185 0
163 185 0
164 187 0
166 188 0
168 191 0
169 191 0
165 189 0
168 191 0
170 193 0
166 189 0
162 184 0
164 186 0
163 185 0
167 190 0
168 190 0
164 187 0
172 194 0
167 190 0
167 189 0
168 191 0
158 182 0
165 187 0
166 188 0
163 186 0
165 189 0
163 186 0
166 188 0
161 183 0
164 187 0
164 188 0
168 190 0
166 189 0
165 188 0
165 188 0
164 186 0
164 187 0
163 186 0
160 183 0
161 183 0
169 192 0
159 181 0
159 183 0
166 188 0
164 187 0
163 185 0
165 186 0
164 187 0
163 186 0
160 183 0
160 182 0
162 184 0
163 186 0
165 187 0
166 188 0
160 182 0
170 192 0
166 189 0
158 181 0
157 181 0
164 187 0
165 187 0
162 185 0
158 180 0
163 186 0
163 186 0
162 185 0
161 183 0
159 181 0
161 184 0
166 189 0
158 180 0
158 181 0
161 184 0
162 185 0
162 185 0
161 183 0
160 183 0
164 186 0
158 180 0
158 180 0
156 177 0
165 187 0
158 181 0
160 182 0
156 179 0
162 184 0
156 179 0
152 175 0
162 184 0
154 178 0
165 188 0
155 178 0
156 179 0
147 169 0
155 177 0
163 185 0
157 180 0
155 177 0
159 181 0
154 176 0
156 178 0
159 182 0
164 187 0
158 181 0
152 174 0
159 181 0
153 175 0
156 178 0
157 178 0
160 183 0
151 174 0
155 176 0
159 181 0
157 179 0
160 183 0
148 170 0
153 174 0
154 175 0
149 170 0
149 171 0
147 169 0
156 178 0
159 181 0
158 180 0
154 176 0
158 180 0
155 177 0
163 185 0
147 169 0
156 178 0
160 183 0
149 171 0
157 178 0
155 176 0
157 179 0
158 179 0
157 179 0
145 166 0
155 178 0
153 175 0
161 182 0
157 179 0
156 178 0
160 182 0
152 174 0
151 172 0
158 180 0
160 181 0
158 180 0
158 179 0
152 175 0
157 178 0
155 176 0
157 178 0
148 169 0
152 173 0
156 178 0
152 173 0
154 176 0
158 179 0
150 171 0
156 176 0
159 181 0
156 178 0
152 173 0
148 170 0
152 175 0
157 178 0
151 172 0
151 173 0
157 178 0
154 174 0
161 181 0
146 168 0
150 172 0
152 175 0
155 177 0
151 173 0
158 180 0
150 172 0
154 174 0
153 175 0
157 178 0
161 183 0
154 176 0
154 175 0
148 168 0
155 178 0
153 173 0
157 178 0
146 167 0
156 177 0
154 175 0
161 181 0
150 172 0
156 178 0
155 176 0
152 174 0
153 174 0
159 181 0
155 177 0
154 176 0
153 174 0
157 178 0
153 174 0
159 181 0
146 166 0
157 178 0
159 180 0
152 172 0
152 171 0
151 172 0
155 175 0
154 174 0
157 180 0
154 175 0
152 172 0
154 175 0
153 175 0
156 177 0
158 179 0
153 173 0
154 176 0
152 172 0
156 177 0
157 179 0
153 173 0
154 173 0
156 175 0
158 177 0
155 176 0
155 176 0
155 176 0
151 169 0
153 174 0
151 171 0
149 168 0
157 177 0
157 178 0
158 178 0
160 180 0
160 180 0
151 170 0
164 185 0
161 182 0
153 173 0
155 177 0
147 165 0
157 177 0
162 181 0
157 176 0
158 176 0
154 175 0
150 170 0
157 177 0
153 172 0
158 178 0
159 178 0
155 173 0
151 169 0
164 183 0
159 178 0
164 185 0
160 182 0
159 177 0
158 175 0
157 176 0
157 177 0
157 177 0
158 176 0
156 174 0
154 173 0
152 170 0
156 175 0
156 175 0
156 175 0
157 176 0
157 176 0
151 169 0
156 175 0
161 180 0
157 177 0
159 174 0
158 176 0
160 178 0
153 170 0
161 178 0
157 176 0
155 172 0
157 175 0
159 178 0
159 176 0
160 178 0
154 169 0
160 177 0
160 178 0
159 177 0
162 179 0
156 175 0
158 176 0
164 182 0
161 181 0
163 181 0
162 179 0
157 172 0
160 176 0
154 172 0
158 174 0
152 168 0
153 170 0
166 183 0
156 174 0
159 176 0
156 170 0
153 168 0
161 178 0
162 178 0
159 176 0
152 167 0
161 176 0
160 176 0
157 173 0
163 182 0
161 178 0
156 174 0
163 180 0
159 175 0
161 176 0
156 170 0
161 176 0
163 179 0
161 176 0
160 175 0
156 171 0
163 178 0
160 176 0
164 181 0
157 173 0
160 174 0
159 174 0
163 178 0
155 170 0
161 177 0
158 174 0
162 177 0
161 173 0
163 178 0
164 178 0
159 172 0
166 181 0
159 173 0
171 194 0
173 195 0
174 196 0
168 191 0
171 194 0
166 189 0
171 194 0
167 190 0
170 193 0
167 190 0
170 193 0
169 192 0
170 193 0
169 192 0
171 194 0
170 193 0
169 191 0
164 188 0
173 195 0
171 194 0
167 190 0
171 194 0
169 191 0
167 190 0
166 189 0
170 193 0
168 191 0
171 194 0
172 195 0
171 194 0
169 193 0
170 193 0
163 186 0
168 192 0
168 191 0
170 192 0
171 195 0
169 192 0
168 192 0
170 193 0
169 192 0
170 193 0
167 189 0
166 189 0
167 191 0
169 192 0
166 188 0
168 191 0
168 191 0
164 187 0
162 184 0
166 189 0
166 189 0
173 196 0
164 187 0
167 190 0
165 188 0
165 188 0
169 191 0
166 189 0
169 192 0
165 187 0
168 191 0
161 184 0
170 192 0
165 188 0
167 191 0
163 185 0
162 185 0
162 185 0
169 191 0
168 191 0
166 189 0
167 189 0
165 187 0
168 190 0
165 188 0
163 186 0
169 191 0
161 183 0
168 191 0
165 188 0
163 186 0
166 190 0
166 188 0
163 186 0
160 183 0
162 184 0
164 187 0
166 188 0
164 186 0
160 183 0
160 184 0
164 187 0
168 192 0
166 189 0
166 188 0
160 183 0
162 185 0
165 187 0
164 185 0
162 185 0
162 185 0
160 182 0
165 187 0
161 184 0
163 186 0
166 189 0
158 180 0
163 186 0
158 180 0
158 181 0
164 187 0
156 179 0
164 186 0
162 185 0
163 186 0
161 184 0
164 186 0
159 182 0
162 184 0
164 186 0
159 181 0
164 187 0
159 180 0
155 178 0
161 183 0
159 182 0
161 184 0
159 183 0
160 182 0
158 181 0
160 183 0
162 184 0
156 180 0
161 183 0
163 185 0
150 173 0
159 181 0
152 175 0
162 184 0
158 180 0
154 178 0
156 177 0
147 169 0
161 183 0
157 180 0
158 180 0
153 176 0
160 182 0
155 177 0
152 174 0
159 181 0
161 184 0
157 179 0
161 183 0
157 180 0
164 186 0
160 182 0
161 183 0
155 177 0
156 179 0
155 176 0
155 178 0
152 174 0
163 184 0
157 179 0
150 171 0
157 180 0
149 172 0
159 180 0
156 177 0
157 179 0
157 180 0
155 177 0
153 174 0
156 176 0
153 175 0
152 174 0
160 183 0
155 178 0
157 178 0
154 176 0
153 174 0
159 181 0
159 181 0
156 178 0
154 174 0
157 179 0
151 173 0
159 180 0
157 180 0
160 182 0
152 175 0
162 184 0
155 177 0
162 185 0
152 173 0
154 175 0
157 178 0
148 170 0
145 167 0
156 177 0
156 178 0
149 171 0
160 182 0
156 178 0
154 175 0
150 171 0
159 182 0
155 177 0
145 166 0
153 174 0
147 168 0
159 181 0
157 179 0
165 186 0
148 170 0
154 176 0
148 170 0
150 171 0
157 178 0
157 177 0
155 176 0
155 176 0
143 165 0
152 172 0
155 178 0
154 175 0
146 167 0
154 175 0
156 178 0
156 177 0
156 179 0
157 179 0
146 167 0
158 180 0
148 169 0
152 173 0
160 183 0
161 184 0
157 179 0
147 169 0
146 168 0
152 174 0
153 175 0
147 168 0
153 174 0
151 171 0
157 179 0
147 168 0
152 175 0
159 181 0
151 171 0
151 171 0
162 183 0
156 177 0
157 178 0
159 179 0
161 182 0
153 174 0
159 180 0
154 175 0
151 172 0
161 183 0
157 177 0
147 166 0
154 174 0
161 182 0
152 173 0
152 172 0
153 175 0
152 173 0
158 179 0
149 170 0
157 178 0
158 177 0
159 180 0
155 177 0
146 167 0
154 175 0
140 162 0
150 171 0
157 177 0
158 177 0
159 179 0
154 173 0
150 168 0
155 173 0
160 181 0
150 172 0
158 178 0
159 178 0
155 175 0
156 175 0
157 176 0
154 174 0
154 173 0
157 174 0
155 175 0
151 171 0
155 174 0
157 176 0
149 168 0
156 176 0
155 173 0
157 178 0
157 178 0
159 178 0
153 172 0
156 175 0
153 171 0
157 175 0
157 177 0
158 176 0
157 176 0
158 178 0
160 180 0
156 174 0
157 177 0
156 175 0
158 178 0
160 176 0
155 173 0
155 172 0
155 173 0
154 173 0
158 175 0
155 172 0
157 174 0
159 178 0
154 171 0
159 176 0
159 178 0
158 177 0
156 174 0
160 177 0
159 176 0
161 180 0
157 174 0
157 174 0
159 177 0
158 176 0
157 177 0
161 177 0
162 180 0
156 173 0
158 176 0
157 176 0
155 173 0
158 174 0
158 176 0
160 177 0
161 178 0
162 178 0
158 177 0
158 176 0
157 176 0
159 176 0
155 170 0
162 179 0
160 178 0
157 173 0
161 178 0
159 174 0
159 176 0
160 176 0
163 180 0
156 172 0
160 175 0
158 174 0
158 174 0
164 180 0
162 177 0
162 175 0
152 166 0
161 178 0
160 176 0
151 166 0
158 176 0
165 181 0
164 181 0
166 184 0
157 173 0
157 172 0
163 179 0
161 176 0
162 179 0
158 171 0
161 177 0
161 176 0
162 175 0
166 181 0
165 183 0
165 180 0
164 179 0
159 174 0
163 177 0
160 174 0
163 175 0
169 191 0
170 193 0
173 195 0
175 197 0
172 196 0
171 195 0
173 196 0
171 194 0
172 196 0
170 193 0
166 189 0
167 190 0
172 195 0
168 191 0
171 194 0
170 194 0
170 193 0
173 196 0
171 194 0
170 193 0
165 187 0
168 191 0
171 194 0
169 192 0
171 194 0
170 192 0
173 196 0
170 193 0
170 193 0
170 193 0
171 194 0
166 189 0
167 190 0
170 192 0
168 190 0
166 189 0
171 195 0
167 190 0
171 195 0
162 185 0
168 190 0
170 193 0
164 187 0
166 189 0
168 191 0
168 191 0
169 191 0
165 187 0
167 189 0
169 192 0
168 191 0
167 190 0
170 193 0
170 193 0
164 186 0
166 190 0
165 188 0
166 189 0
169 192 0
172 194 0
167 190 0
165 188 0
167 189 0
166 190 0
166 189 0
169 193 0
164 188 0
171 194 0
165 187 0
166 188 0
159 182 0
170 191 0
166 189 0
168 190 0
167 190 0
161 185 0
168 190 0
170 192 0
167 190 0
167 189 0
167 189 0
161 184 0
165 187 0
168 191 0
164 186 0
162 185 0
161 183 0
166 188 0
165 186 0
164 187 0
163 185 0
166 188 0
159 181 0
164 187 0
164 187 0
164 186 0
164 186 0
166 188 0
169 190 0
162 186 0
167 190 0
162 184 0
160 183 0
170 193 0
161 183 0
158 180 0
160 182 0
165 188 0
163 187 0
158 181 0
165 188 0
156 178 0
156 178 0
161 183 0
165 188 0
162 184 0
166 188 0
162 184 0
159 181 0
155 177 0
156 179 0
157 180 0
153 176 0
160 182 0
154 176 0
161 183 0
163 185 0
162 183 0
157 178 0
160 181 0
157 179 0
162 184 0
158 180 0
161 184 0
166 189 0
164 186 0
162 184 0
158 180 0
159 181 0
156 178 0
156 178 0
162 184 0
160 180 0
157 181 0
155 177 0
159 180 0
154 177 0
159 181 0
164 186 0
156 178 0
152 174 0
158 180 0
153 174 0
156 179 0
159 182 0
154 175 0
161 181 0
157 179 0
157 179 0
156 179 0
158 179 0
158 181 0
149 172 0
153 175 0
157 179 0
159 182 0
156 178 0
154 176 0
159 182 0
158 179 0
162 184 0
156 177 0
151 171 0
152 175 0
155 177 0
161 185 0
156 179 0
155 178 0
154 176 0
151 174 0
153 174 0
157 179 0
151 172 0
162 184 0
154 175 0
158 179 0
149 171 0
150 171 0
151 172 0
149 171 0
152 175 0
157 180 0
158 179 0
160 183 0
157 179 0
153 174 0
156 179 0
156 177 0
155 177 0
144 166 0
156 178 0
159 180 0
150 172 0
156 177 0
150 172 0
153 174 0
157 178 0
156 177 0
149 171 0
156 179 0
145 167 0
152 173 0
155 177 0
155 177 0
149 171 0
155 176 0
154 175 0
160 182 0
155 177 0
151 173 0
144 164 0
154 175 0
155 177 0
152 174 0
154 177 0
149 170 0
154 176 0
160 181 0
153 175 0
150 171 0
151 173 0
156 178 0
148 169 0
159 181 0
153 175 0
150 171 0
153 174 0
155 176 0
153 174 0
156 178 0
154 176 0
153 174 0
152 174 0
157 178 0
158 178 0
158 178 0
158 181 0
155 176 0
154 176 0
159 181 0
156 178 0
154 176 0
152 173 0
155 176 0
152 172 0
154 174 0
158 179 0
151 173 0
152 172 0
155 176 0
154 175 0
154 173 0
157 180 0
160 180 0
156 177 0
152 171 0
156 176 0
154 173 0
157 177 0
160 181 0
162 182 0
153 175 0
156 178 0
154 174 0
153 173 0
156 176 0
148 169 0
155 175 0
156 177 0
153 174 0
158 177 0
154 174 0
154 175 0
153 174 0
155 175 0
154 174 0
156 176 0
154 174 0
153 172 0
159 178 0
151 170 0
148 167 0
154 174 0
158 179 0
153 173 0
156 174 0
154 175 0
160 181 0
157 177 0
158 178 0
155 174 0
150 167 0
158 176 0
155 175 0
154 176 0
155 175 0
158 177 0
158 179 0
159 179 0
159 178 0
155 173 0
160 179 0
151 170 0
157 175 0
156 176 0
159 178 0
158 176 0
156 175 0
153 171 0
160 178 0
157 174 0
158 175 0
161 179 0
158 176 0
156 175 0
158 177 0
154 172 0
153 172 0
152 169 0
158 178 0
151 169 0
162 182 0
157 176 0
160 179 0
158 178 0
155 172 0
159 177 0
162 180 0
154 170 0
158 176 0
161 180 0
161 178 0
160 177 0
155 173 0
162 180 0
152 168 0
154 171 0
165 182 0
155 171 0
153 168 0
156 173 0
160 178 0
157 175 0
159 176 0
157 172 0
157 175 0
161 180 0
157 175 0
156 173 0
160 176 0
158 174 0
162 180 0
160 179 0
164 183 0
154 171 0
164 182 0
166 183 0
155 174 0
157 174 0
161 177 0
159 175 0
157 173 0
160 173 0
161 178 0
157 171 0
161 177 0
163 179 0
162 180 0
161 176 0
156 169 0
156 170 0
159 176 0
160 177 0
164 177 0
158 174 0
161 172 0
159 175 0
166 182 0
164 177 0
156 173 0
160 174 0
165 181 0
166 183 0
166 183 0
161 177 0
164 180 0
161 175 0
165 181 0
161 177 0
160 172 0
172 194 0
171 194 0
167 190 0
171 194 0
172 195 0
169 193 0
173 196 0
174 197 0
172 195 0
171 195 0
164 187 0
167 190 0
171 194 0
171 194 0
169 191 0
172 195 0
171 194 0
172 195 0
171 193 0
165 188 0
170 194 0
169 192 0
169 192 0
170 193 0
168 191 0
168 191 0
168 191 0
166 190 0
167 190 0
169 192 0
167 190 0
169 192 0
172 195 0
173 195 0
172 194 0
169 193 0
165 187 0
168 191 0
168 191 0
168 192 0
168 191 0
166 189 0
167 189 0
168 191 0
171 194 0
168 192 0
164 186 0
168 191 0
167 190 0
168 192 0
172 196 0
164 187 0
163 185 0
166 189 0
169 193 0
169 192 0
169 192 0
166 188 0
169 192 0
171 193 0
167 190 0
166 188 0
164 187 0
168 190 0
166 189 0
164 187 0
162 185 0
170 192 0
167 190 0
163 186 0
165 188 0
167 190 0
165 188 0
163 186 0
160 183 0
161 183 0
164 187 0
168 189 0
164 187 0
165 186 0
169 192 0
163 186 0
165 189 0
164 187 0
168 191 0
166 189 0
162 185 0
163 185 0
164 187 0
164 187 0
169 192 0
167 190 0
167 190 0
162 184 0
161 183 0
166 188 0
163 185 0
156 179 0
159 182 0
165 187 0
171 193 0
161 183 0
158 180 0
162 184 0
162 185 0
166 189 0
159 182 0
162 184 0
158 180 0
168 191 0
162 184 0
162 184 0
159 182 0
156 178 0
163 187 0
155 176 0
153 174 0
153 175 0
167 189 0
161 183 0
157 180 0
156 178 0
161 184 0
163 186 0
161 182 0
163 185 0
155 177 0
157 180 0
159 181 0
161 183 0
157 180 0
164 186 0
160 182 0
162 183 0
161 184 0
164 186 0
161 182 0
164 186 0
156 178 0
152 176 0
153 174 0
158 180 0
157 179 0
160 181 0
154 176 0
159 182 0
150 172 0
159 180 0
157 179 0
163 185 0
160 181 0
160 182 0
159 181 0
152 175 0
160 184 0
161 182 0
158 180 0
148 170 0
157 179 0
154 176 0
159 181 0
154 176 0
155 176 0
150 173 0
159 181 0
159 182 0
166 187 0
156 178 0
158 179 0
157 180 0
154 177 0
162 183 0
160 184 0
155 177 0
153 174 0
157 178 0
154 176 0
160 182 0
157 180 0
157 179 0
159 181 0
162 184 0
153 174 0
150 172 0
155 175 0
151 171 0
152 173 0
155 177 0
148 169 0
148 170 0
154 176 0
154 176 0
156 178 0
146 168 0
155 176 0
156 177 0
156 177 0
157 179 0
156 178 0
156 177 0
157 179 0
146 169 0
150 171 0
153 175 0
156 179 0
151 173 0
153 174 0
153 175 0
156 177 0
157 179 0
164 187 0
153 175 0
156 178 0
157 179 0
157 179 0
149 170 0
156 178 0
156 176 0
156 176 0
152 173 0
157 178 0
152 173 0
152 174 0
154 177 0
157 179 0
158 180 0
148 169 0
151 174 0
159 181 0
154 176 0
153 175 0
157 177 0
157 179 0
152 171 0
152 173 0
156 177 0
157 178 0
151 171 0
150 171 0
152 173 0
158 179 0
160 181 0
152 174 0
161 183 0
151 172 0
149 170 0
155 174 0
162 182 0
155 176 0
156 179 0
149 169 0
156 177 0
159 181 0
156 176 0
157 177 0
156 178 0
152 173 0
162 181 0
162 183 0
147 167 0
158 179 0
157 179 0
149 169 0
158 179 0
153 174 0
156 176 0
158 179 0
148 169 0
150 171 0
151 172 0
158 178 0
159 180 0
163 184 0
156 175 0
156 175 0
155 176 0
152 174 0
148 168 0
157 179 0
158 177 0
155 176 0
155 176 0
152 172 0
154 173 0
151 171 0
160 179 0
160 181 0
151 172 0
158 178 0
157 175 0
156 178 0
155 175 0
159 179 0
160 179 0
156 175 0
155 174 0
158 179 0
156 175 0
158 178 0
160 181 0
157 178 0
159 180 0
157 176 0
152 172 0
155 175 0
159 179 0
157 177 0
154 176 0
157 177 0
154 174 0
159 178 0
155 174 0
154 174 0
154 172 0
157 176 0
159 178 0
156 174 0
155 174 0
155 175 0
157 177 0
154 172 0
158 177 0
157 176 0
158 176 0
160 178 0
158 178 0
161 181 0
154 169 0
157 176 0
162 181 0
156 174 0
157 176 0
159 177 0
159 175 0
161 181 0
150 168 0
156 175 0
155 174 0
163 181 0
155 173 0
156 173 0
155 173 0
158 175 0
159 177 0
162 181 0
158 176 0
157 173 0
158 175 0
152 171 0
159 177 0
161 181 0
156 175 0
161 179 0
162 180 0
163 182 0
160 177 0
160 178 0
163 180 0
160 176 0
160 180 0
159 176 0
159 175 0
160 178 0
155 171 0
159 175 0
159 177 0
162 178 0
156 172 0
154 169 0
159 175 0
154 171 0
159 177 0
163 180 0
154 171 0
167 186 0
160 178 0
165 180 0
164 181 0
158 176 0
162 181 0
160 174 0
160 176 0
157 171 0
163 177 0
164 181 0
164 182 0
160 175 0
166 182 0
160 175 0
167 182 0
164 180 0
157 176 0
159 173 0
157 172 0
155 169 0
163 178 0
160 176 0
161 177 0
160 174 0
159 171 0
165 188 0
173 196 0
165 189 0
170 193 0
168 191 0
167 191 0
172 195 0
174 197 0
169 193 0
169 191 0
170 194 0
171 194 0
171 194 0
171 193 0
173 195 0
166 188 0
171 193 0
169 191 0
169 193 0
168 191 0
170 193 0
168 192 0
169 192 0
163 185 0
170 192 0
169 192 0
169 192 0
167 190 0
167 189 0
170 191 0
168 191 0
169 193 0
172 195 0
166 189 0
160 184 0
168 191 0
170 193 0
167 191 0
170 193 0
164 187 0
170 192 0
170 193 0
167 189 0
166 189 0
171 194 0
171 194 0
166 188 0
168 190 0
169 191 0
170 193 0
167 190 0
170 192 0
165 189 0
169 192 0
165 188 0
169 192 0
168 190 0
167 189 0
171 194 0
165 188 0
165 187 0
168 192 0
168 191 0
168 191 0
167 191 0
167 190 0
167 189 0
167 190 0
164 187 0
169 192 0
169 191 0
165 188 0
167 188 0
163 184 0
164 187 0
165 188 0
161 183 0
164 187 0
166 188 0
169 192 0
165 188 0
166 189 0
161 183 0
165 188 0
157 180 0
160 183 0
160 183 0
165 188 0
162 185 0
164 187 0
167 189 0
159 181 0
169 191 0
160 183 0
166 188 0
166 188 0
165 187 0
163 185 0
153 175 0
166 188 0
162 184 0
161 184 0
155 177 0
165 187 0
162 184 0
159 181 0
164 186 0
162 184 0
162 185 0
164 185 0
156 179 0
157 179 0
158 181 0
165 189 0
161 184 0
162 185 0
160 182 0
150 174 0
160 183 0
151 173 0
164 187 0
156 178 0
158 180 0
164 187 0
163 186 0
154 176 0
160 182 0
161 183 0
159 182 0
159 181 0
154 176 0
162 184 0
164 187 0
166 187 0
158 180 0
164 186 0
162 184 0
162 185 0
161 184 0
164 187 0
157 178 0
163 185 0
161 184 0
160 182 0
156 176 0
151 173 0
166 188 0
161 183 0
154 176 0
167 189 0
159 182 0
152 175 0
155 178 0
150 173 0
154 177 0
153 174 0
154 176 0
157 180 0
160 182 0
155 178 0
161 182 0
156 178 0
166 187 0
164 186 0
159 181 0
153 175 0
156 178 0
152 174 0
161 182 0
163 185 0
154 176 0
154 176 0
158 180 0
160 180 0
161 183 0
155 177 0
153 175 0
155 176 0
160 183 0
155 177 0
156 177 0
153 176 0
152 175 0
158 180 0
164 184 0
150 173 0
152 173 0
147 168 0
155 176 0
152 173 0
159 181 0
154 176 0
153 175 0
159 180 0
154 176 0
159 182 0
154 176 0
159 181 0
153 175 0
157 178 0
162 183 0
151 172 0
155 177 0
153 176 0
152 175 0
150 173 0
162 185 0
156 177 0
155 178 0
151 172 0
150 173 0
151 171 0
146 167 0
160 182 0
164 184 0
153 174 0
155 177 0
152 174 0
154 175 0
157 180 0
157 179 0
154 175 0
152 174 0
154 174 0
152 175 0
155 178 0
158 180 0
155 178 0
152 173 0
151 173 0
157 179 0
151 171 0
154 176 0
157 180 0
161 182 0
148 168 0
155 176 0
154 174 0
142 163 0
155 177 0
151 171 0
153 176 0
156 177 0
159 181 0
156 178 0
159 181 0
162 183 0
157 177 0
157 177 0
151 171 0
154 174 0
153 175 0
152 173 0
153 172 0
157 177 0
155 175 0
161 182 0
158 179 0
159 179 0
153 175 0
153 172 0
154 174 0
151 173 0
151 171 0
149 170 0
157 177 0
145 165 0
149 170 0
160 180 0
161 181 0
157 177 0
151 172 0
153 172 0
153 173 0
152 172 0
152 172 0
158 178 0
156 178 0
148 167 0
160 182 0
158 180 0
161 182 0
158 180 0
156 177 0
159 180 0
151 172 0
157 176 0
151 170 0
152 171 0
157 175 0
157 178 0
153 172 0
155 177 0
158 179 0
154 172 0
152 171 0
151 169 0
160 179 0
158 179 0
152 173 0
156 174 0
157 177 0
158 177 0
158 178 0
161 180 0
158 178 0
155 176 0
162 181 0
152 171 0
155 175 0
157 177 0
164 183 0
154 173 0
156 176 0
153 172 0
155 175 0
153 172 0
151 169 0
153 172 0
157 176 0
155 173 0
153 172 0
151 172 0
161 181 0
158 175 0
162 180 0
160 179 0
158 177 0
163 181 0
158 177 0
155 173 0
155 173 0
152 171 0
154 173 0
156 177 0
158 177 0
151 170 0
153 169 0
162 182 0
155 173 0
157 173 0
151 170 0
161 179 0
154 173 0
157 174 0
159 177 0
153 171 0
160 178 0
164 181 0
155 173 0
156 171 0
155 171 0
157 172 0
161 180 0
160 178 0
160 178 0
155 170 0
160 177 0
159 179 0
162 178 0
165 181 0
163 181 0
153 168 0
157 176 0
157 175 0
161 179 0
160 177 0
159 175 0
157 174 0
161 177 0
163 178 0
153 164 0
166 184 0
161 178 0
161 178 0
160 177 0
157 174 0
159 176 0
153 170 0
160 176 0
162 178 0
163 178 0
164 181 0
161 178 0
160 177 0
161 180 0
159 172 0
160 172 0
161 178 0
164 180 0
164 180 0
164 178 0
163 178 0
158 173 0
160 176 0
163 180 0
162 175 0
164 182 0
161 177 0
161 179 0
172 195 0
170 194 0
169 192 0
174 197 0
170 193 0
173 195 0
170 193 0
172 195 0
169 192 0
170 194 0
168 191 0
171 195 0
170 193 0
173 196 0
169 192 0
172 196 0
171 194 0
170 192 0
167 191 0
167 190 0
170 193 0
170 193 0
173 196 0
169 192 0
174 196 0
171 194 0
167 190 0
168 192 0
170 192 0
166 189 0
167 190 0
173 196 0
167 190 0
164 187 0
170 193 0
167 190 0
172 195 0
171 193 0
168 192 0
167 189 0
166 189 0
164 188 0
167 190 0
168 191 0
170 193 0
169 192 0
167 190 0
166 189 0
164 187 0
170 193 0
169 192 0
166 188 0
170 192 0
165 188 0
168 190 0
171 194 0
169 192 0
162 185 0
169 192 0
165 189 0
169 192 0
168 190 0
170 192 0
164 187 0
167 189 0
164 187 0
170 192 0
168 190 0
166 189 0
166 189 0
170 192 0
170 193 0
163 186 0
167 190 0
165 188 0
161 183 0
164 187 0
168 190 0
169 193 0
164 186 0
164 187 0
162 185 0
163 185 0
162 185 0
163 186 0
157 179 0
161 184 0
164 187 0
163 186 0
160 182 0
160 183 0
167 190 0
169 190 0
165 188 0
166 189 0
166 188 0
161 185 0
161 184 0
163 186 0
170 191 0
164 186 0
161 184 0
165 187 0
161 183 0
161 183 0
162 185 0
159 182 0
163 186 0
160 183 0
167 189 0
158 181 0
164 187 0
163 185 0
158 181 0
163 187 0
162 185 0
160 183 0
153 176 0
156 178 0
157 178 0
163 186 0
163 186 0
159 181 0
161 183 0
163 185 0
161 183 0
159 181 0
165 187 0
164 187 0
158 181 0
163 186 0
150 172 0
160 182 0
159 182 0
157 180 0
162 184 0
158 180 0
156 177 0
160 183 0
159 181 0
158 180 0
162 185 0
168 190 0
160 183 0
155 177 0
160 182 0
156 178 0
154 177 0
163 184 0
152 175 0
156 177 0
156 178 0
160 183 0
156 178 0
160 181 0
160 183 0
157 180 0
148 170 0
151 174 0
155 178 0
156 179 0
164 186 0
160 182 0
159 180 0
153 175 0
155 177 0
153 175 0
147 170 0
156 177 0
153 176 0
159 182 0
154 176 0
150 172 0
152 174 0
145 166 0
164 184 0
158 179 0
153 177 0
155 176 0
149 171 0
156 178 0
155 176 0
162 184 0
156 178 0
160 182 0
157 179 0
155 176 0
159 181 0
152 172 0
154 175 0
154 174 0
151 172 0
158 181 0
152 173 0
144 166 0
150 171 0
156 176 0
155 176 0
159 179 0
162 184 0
162 182 0
151 173 0
154 175 0
155 178 0
148 170 0
159 181 0
152 174 0
148 169 0
155 175 0
156 177 0
156 178 0
151 172 0
154 177 0
154 176 0
156 177 0
157 180 0
157 178 0
153 174 0
150 172 0
153 174 0
142 163 0
160 182 0
152 174 0
157 177 0
156 178 0
155 177 0
151 173 0
155 176 0
152 174 0
159 181 0
154 175 0
147 168 0
151 173 0
154 174 0
153 175 0
152 173 0
157 180 0
157 176 0
161 182 0
154 176 0
151 172 0
152 174 0
143 163 0
149 169 0
146 166 0
157 178 0
157 179 0
157 177 0
157 179 0
153 174 0
155 177 0
155 175 0
155 177 0
153 174 0
153 174 0
155 176 0
159 182 0
147 167 0
150 171 0
151 173 0
154 174 0
155 177 0
155 176 0
148 168 0
161 182 0
154 175 0
153 175 0
155 176 0
157 177 0
155 175 0
159 180 0
159 181 0
152 174 0
159 180 0
150 170 0
151 172 0
158 180 0
158 179 0
160 180 0
153 173 0
158 179 0
150 171 0
158 179 0
152 174 0
158 180 0
161 179 0
153 172 0
159 179 0
157 177 0
159 180 0
150 172 0
164 185 0
157 178 0
164 185 0
145 163 0
159 181 0
158 178 0
155 175 0
154 173 0
162 182 0
158 179 0
158 177 0
158 177 0
158 178 0
154 174 0
160 180 0
157 176 0
159 177 0
156 177 0
154 174 0
158 179 0
155 174 0
156 176 0
157 176 0
159 179 0
160 177 0
159 179 0
157 177 0
153 173 0
155 173 0
153 173 0
156 174 0
157 177 0
156 173 0
155 172 0
152 171 0
158 177 0
155 174 0
160 178 0
160 178 0
154 170 0
156 174 0
160 180 0
162 178 0
160 178 0
157 176 0
154 172 0
152 170 0
158 177 0
164 185 0
155 173 0
156 172 0
159 177 0
159 176 0
160 178 0
162 179 0
159 177 0
156 174 0
163 181 0
157 174 0
159 175 0
156 173 0
158 176 0
161 178 0
157 175 0
159 176 0
161 177 0
156 173 0
153 169 0
162 178 0
159 177 0
159 175 0
161 179 0
161 178 0
159 176 0
157 175 0
154 172 0
161 179 0
156 171 0
157 174 0
166 184 0
160 177 0
160 176 0
158 174 0
157 173 0
158 174 0
164 180 0
163 181 0
161 177 0
160 177 0
159 177 0
161 178 0
163 179 0
163 180 0
157 171 0
158 176 0
161 176 0
163 179 0
161 175 0
165 182 0
162 179 0
157 173 0
167 183 0
157 174 0
161 176 0
167 183 0
163 176 0
162 178 0
167 184 0
165 182 0
