P3
400 225
255
204 226 255
204 226 255
204 226 255
204 226 255
204 226 255
204 226 255
204 226 255
204 226 255
204 226 255
204 226 255
204 226 255
204 226 255
204 226 255
204 226 255
204 226 255
203 226 255
203 226 255
203 226 255
203 226 255
203 226 255
203 226 255
203 226 255
203 226 255
203 225 255
203 225 255
203 225 255
203 225 255
203 225 255
203 225 255
203 225 255
203 225 255
203 225 255
202 225 255
202 225 255
202 225 255
202 225 255
202 225 255
202 225 255
202 225 255
202 225 255
202 225 255
202 225 255
202 225 255
202 225 255
202 225 255
202 225 255
202 225 255
202 225 255
201 225 255
201 225 255
201 225 255
201 225 255
201 224 255
201 224 255
201 224 255
201 224 255
201 224 255
201 224 255
201 224 255
201 224 255
201 224 255
201 224 255
201 224 255
200 224 255
200 224 255
200 224 255
200 224 255
200 224 255
200 224 255
200 224 255
200 224 255
200 224 255
200 224 255
200 224 255
200 224 255
200 224 255
200 224 255
200 224 255
199 224 255
199 224 255
199 223 255
199 223 255
199 223 255
199 223 255
199 223 255
199 223 255
199 223 255
199 223 255
199 223 255
199 223 255
199 223 255
199 223 255
198 223 255
198 223 255
198 223 255
198 223 255
198 223 255
198 223 255
198 223 255
198 223 255
198 223 255
198 223 255
198 223 255
198 223 255
198 223 255
198 223 255
197 223 255
197 222 255
197 222 255
197 222 255
197 222 255
197 222 255
197 222 255
197 222 255
197 222 255
197 222 255
197 222 255
197 222 255
197 222 255
197 222 255
197 222 255
196 222 255
196 222 255
196 222 255
196 222 255
196 222 255
196 222 255
196 222 255
196 222 255
196 222 255
196 222 255
196 222 255
196 222 255
196 222 255
196 222 255
196 221 255
196 221 255
195 221 255
195 221 255
195 221 255
195 221 255
195 221 255
195 221 255
195 221 255
195 221 255
195 221 255
195 221 255
195 221 255
195 221 255
195 221 255
195 221 255
195 221 255
195 221 255
195 221 255
195 221 255
194 221 255
194 221 255
194 221 255
194 221 255
194 221 255
194 221 255
194 221 255
194 221 255
194 221 255
194 221 255
194 221 255
194 221 255
194 221 255
194 221 255
194 221 255
194 221 255
194 221 255
194 221 255
194 221 255
194 221 255
194 221 255
194 221 255
194 220 255
194 220 255
194 220 255
194 220 255
194 220 255
194 220 255
194 220 255
194 220 255
194 220 255
193 220 255
193 220 255
193 220 255
193 220 255
193 220 255
193 220 255
193 220 255
193 220 255
193 220 255
193 220 255
193 220 255
193 220 255
193 220 255
193 220 255
193 220 255
193 220 255
193 220 255
193 220 255
193 220 255
193 220 255
193 220 255
193 220 255
193 220 255
193 220 255
193 220 255
193 220 255
193 220 255
193 220 255
194 220 255
194 220 255
194 220 255
194 220 255
194 220 255
194 220 255
194 220 255
194 220 255
194 221 255
194 221 255
194 221 255
194 221 255
194 221 255
194 221 255
194 221 255
194 221 255
194 221 255
194 221 255
194 221 255
194 221 255
194 221 255
194 221 255
194 221 255
194 221 255
194 221 255
194 221 255
194 221 255
194 221 255
194 221 255
194 221 255
194 221 255
195 221 255
195 221 255
195 221 255
195 221 255
195 221 255
195 221 255
195 221 255
195 221 255
195 221 255
195 221 255
195 221 255
195 221 255
195 221 255
195 221 255
195 221 255
195 221 255
195 221 255
195 221 255
196 221 255
196 221 255
196 222 255
196 222 255
196 222 255
196 222 255
196 222 255
196 222 255
196 222 255
196 222 255
196 222 255
196 222 255
196 222 255
196 222 255
196 222 255
196 222 255
197 222 255
197 222 255
197 222 255
197 222 255
197 222 255
197 222 255
197 222 255
197 222 255
197 222 255
197 222 255
197 222 255
197 222 255
197 222 255
197 222 255
197 223 255
198 223 255
198 223 255
198 223 255
198 223 255
198 223 255
198 223 255
198 223 255
198 223 255
198 223 255
198 223 255
198 223 255
198 223 255
198 223 255
198 223 255
199 223 255
199 223 255
199 223 255
199 223 255
199 223 255
199 223 255
199 223 255
199 223 255
199 223 255
199 223 255
199 223 255
199 223 255
199 224 255
199 224 255
199 224 255
200 224 255
200 224 255
200 224 255
200 224 255
200 224 255
200 224 255
200 224 255
200 224 255
200 224 255
200 224 255
200 224 255
200 224 255
200 224 255
200 224 255
201 224 255
201 224 255
201 224 255
201 224 255
201 224 255
201 224 255
201 224 255
201 224 255
201 224 255
201 224 255
201 225 255
201 225 255
201 225 255
201 225 255
201 225 255
202 225 255
202 225 255
202 225 255
202 225 255
202 225 255
202 225 255
202 225 255
202 225 255
202 225 255
202 225 255
202 225 255
202 225 255
202 225 255
202 225 255
202 225 255
202 225 255
203 225 255
203 225 255
203 225 255
203 225 255
203 225 255
203 225 255
203 225 255
203 225 255
203 225 255
203 226 255
203 226 255
203 226 255
203 226 255
203 226 255
203 226 255
203 226 255
203 226 255
204 226 255
204 226 255
204 226 255
204 226 255
204 226 255
204 226 255
204 226 255
204 226 255
204 226 255
204 226 255
204 226 255
204 226 255
204 226 255
204 226 255
204 226 255
204 226 255
204 226 255
204 226 255
204 226 255
204 226 255
204 226 255
204 226 255
204 226 255
204 226 255
204 226 255
204 226 255
204 226 255
204 226 255
204 226 255
204 226 255
204 226 255
204 226 255
204 226 255
203 226 255
203 226 255
203 226 255
203 226 255
203 226 255
203 226 255
203 226 255
203 225 255
203 225 255
203 225 255
203 225 255
203 225 255
203 225 255
203 225 255
203 225 255
203 225 255
202 225 255
202 225 255
202 225 255
202 225 255
202 225 255
202 225 255
202 225 255
202 225 255
202 225 255
202 225 255
202 225 255
202 225 255
202 225 255
202 225 255
202 225 255
202 225 255
201 225 255
201 225 255
201 225 255
201 225 255
201 225 255
201 224 255
201 224 255
201 224 255
201 224 255
201 224 255
201 224 255
201 224 255
201 224 255
201 224 255
201 224 255
200 224 255
200 224 255
200 224 255
200 224 255
200 224 255
200 224 255
200 224 255
200 224 255
200 224 255
200 224 255
200 224 255
200 224 255
200 224 255
200 224 255
200 224 255
199 224 255
199 224 255
199 223 255
199 223 255
199 223 255
199 223 255
199 223 255
199 223 255
199 223 255
199 223 255
199 223 255
199 223 255
199 223 255
199 223 255
198 223 255
198 223 255
198 223 255
198 223 255
198 223 255
198 223 255
198 223 255
198 223 255
198 223 255
198 223 255
198 223 255
198 223 255
198 223 255
198 223 255
197 223 255
197 222 255
197 222 255
197 222 255
197 222 255
197 222 255
197 222 255
197 222 255
197 222 255
197 222 255
197 222 255
197 222 255
197 222 255
197 222 255
197 222 255
196 222 255
196 222 255
196 222 255
196 222 255
196 222 255
196 222 255
196 222 255
196 222 255
196 222 255
196 222 255
196 222 255
196 222 255
196 222 255
196 222 255
196 222 255
196 221 255
195 221 255
195 221 255
195 221 255
195 221 255
195 221 255
195 221 255
195 221 255
195 221 255
195 221 255
195 221 255
195 221 255
195 221 255
195 221 255
195 221 255
195 221 255
195 221 255
195 221 255
195 221 255
195 221 255
194 221 255
194 221 255
194 221 255
194 221 255
194 221 255
194 221 255
194 221 255
194 221 255
194 221 255
194 221 255
194 221 255
194 221 255
194 221 255
194 221 255
194 221 255
194 221 255
194 221 255
194 221 255
194 221 255
194 221 255
194 221 255
194 221 255
194 221 255
194 221 255
194 221 255
194 220 255
194 220 255
194 220 255
194 220 255
194 220 255
194 220 255
194 220 255
194 220 255
194 220 255
194 220 255
194 220 255
194 220 255
194 220 255
194 220 255
194 220 255
194 220 255
194 220 255
194 220 255
194 220 255
194 220 255
194 220 255
194 220 255
194 220 255
194 220 255
194 220 255
194 220 255
194 220 255
194 220 255
194 220 255
194 220 255
194 220 255
194 220 255
194 220 255
194 220 255
194 221 255
194 221 255
194 221 255
194 221 255
194 221 255
194 221 255
194 221 255
194 221 255
194 221 255
194 221 255
194 221 255
194 221 255
194 221 255
194 221 255
194 221 255
194 221 255
194 221 255
194 221 255
194 221 255
194 221 255
194 221 255
194 221 255
194 221 255
194 221 255
195 221 255
195 221 255
195 221 255
195 221 255
195 221 255
195 221 255
195 221 255
195 221 255
195 221 255
195 221 255
195 221 255
195 221 255
195 221 255
195 221 255
195 221 255
195 221 255
195 221 255
195 221 255
195 221 255
195 221 255
196 221 255
196 222 255
196 222 255
196 222 255
196 222 255
196 222 255
196 222 255
196 222 255
196 222 255
196 222 255
196 222 255
196 222 255
196 222 255
196 222 255
196 222 255
196 222 255
197 222 255
197 222 255
197 222 255
197 222 255
197 222 255
197 222 255
197 222 255
197 222 255
197 222 255
197 222 255
197 222 255
197 222 255
197 222 255
197 222 255
197 223 255
198 223 255
198 223 255
198 223 255
198 223 255
198 223 255
198 223 255
198 223 255
198 223 255
198 223 255
198 223 255
198 223 255
198 223 255
198 223 255
198 223 255
199 223 255
199 223 255
199 223 255
199 223 255
199 223 255
199 223 255
199 223 255
199 223 255
199 223 255
199 223 255
199 223 255
199 223 255
199 224 255
199 224 255
199 224 255
200 224 255
200 224 255
200 224 255
200 224 255
200 224 255
200 224 255
200 224 255
200 224 255
200 224 255
200 224 255
200 224 255
200 224 255
200 224 255
200 224 255
201 224 255
201 224 255
201 224 255
201 224 255
201 224 255
201 224 255
201 224 255
201 224 255
201 224 255
201 224 255
201 225 255
201 225 255
201 225 255
201 225 255
201 225 255
202 225 255
202 225 255
202 225 255
202 225 255
202 225 255
202 225 255
202 225 255
202 225 255
202 225 255
202 225 255
202 225 255
202 225 255
202 225 255
202 225 255
202 225 255
202 225 255
203 225 255
203 225 255
203 225 255
203 225 255
203 225 255
203 225 255
203 225 255
203 225 255
203 225 255
203 226 255
203 226 255
203 226 255
203 226 255
203 226 255
203 226 255
203 226 255
204 226 255
204 226 255
204 226 255
204 226 255
204 226 255
204 226 255
204 226 255
204 226 255
204 226 255
204 226 255
204 226 255
204 226 255
204 226 255
204 226 255
204 226 255
204 226 255
204 226 255
204 226 255
205 226 255
205 226 255
204 226 255
204 226 255
204 226 255
204 226 255
204 226 255
204 226 255
204 226 255
204 226 255
204 226 255
204 226 255
204 226 255
204 226 255
204 226 255
204 226 255
204 226 255
204 226 255
204 226 255
204 226 255
203 226 255
203 226 255
203 226 255
203 226 255
203 226 255
203 226 255
203 226 255
203 225 255
203 225 255
203 225 255
203 225 255
203 225 255
203 225 255
203 225 255
203 225 255
203 225 255
202 225 255
202 225 255
202 225 255
202 225 255
202 225 255
202 225 255
202 225 255
202 225 255
202 225 255
202 225 255
202 225 255
202 225 255
202 225 255
202 225 255
202 225 255
202 225 255
201 225 255
201 225 255
201 225 255
201 225 255
201 225 255
201 224 255
201 224 255
201 224 255
201 224 255
201 224 255
201 224 255
201 224 255
201 224 255
201 224 255
201 224 255
200 224 255
200 224 255
200 224 255
200 224 255
200 224 255
200 224 255
200 224 255
200 224 255
200 224 255
200 224 255
200 224 255
200 224 255
200 224 255
200 224 255
200 224 255
199 224 255
199 224 255
199 223 255
199 223 255
199 223 255
199 223 255
199 223 255
199 223 255
199 223 255
199 223 255
199 223 255
199 223 255
199 223 255
199 223 255
198 223 255
198 223 255
198 223 255
198 223 255
198 223 255
198 223 255
198 223 255
198 223 255
198 223 255
198 223 255
198 223 255
198 223 255
198 223 255
198 223 255
197 223 255
197 222 255
197 222 255
197 222 255
197 222 255
197 222 255
197 222 255
197 222 255
197 222 255
197 222 255
197 222 255
197 222 255
197 222 255
197 222 255
197 222 255
196 222 255
196 222 255
196 222 255
196 222 255
196 222 255
196 222 255
196 222 255
196 222 255
196 222 255
196 222 255
196 222 255
196 222 255
196 222 255
196 222 255
196 222 255
196 221 255
195 221 255
195 221 255
195 221 255
195 221 255
195 221 255
195 221 255
195 221 255
195 221 255
195 221 255
195 221 255
195 221 255
195 221 255
195 221 255
195 221 255
195 221 255
195 221 255
195 221 255
195 221 255
195 221 255
195 221 255
194 221 255
194 221 255
194 221 255
194 221 255
194 221 255
194 221 255
194 221 255
194 221 255
194 221 255
194 221 255
194 221 255
194 221 255
194 221 255
194 221 255
194 221 255
194 221 255
194 221 255
194 221 255
194 221 255
194 221 255
194 221 255
194 221 255
194 221 255
194 221 255
194 221 255
194 221 255
194 221 255
194 221 255
194 221 255
194 221 255
194 221 255
194 220 255
194 220 255
194 220 255
194 220 255
194 220 255
194 220 255
194 220 255
194 220 255
194 220 255
194 220 255
194 220 255
194 220 255
194 220 255
194 220 255
194 220 255
194 220 255
194 221 255
194 221 255
194 221 255
194 221 255
194 221 255
194 221 255
194 221 255
194 221 255
194 221 255
194 221 255
194 221 255
194 221 255
194 221 255
194 221 255
194 221 255
194 221 255
194 221 255
194 221 255
194 221 255
194 221 255
194 221 255
194 221 255
194 221 255
194 221 255
194 221 255
194 221 255
194 221 255
194 221 255
194 221 255
194 221 255
195 221 255
195 221 255
195 221 255
195 221 255
195 221 255
195 221 255
195 221 255
195 221 255
195 221 255
195 221 255
195 221 255
195 221 255
195 221 255
195 221 255
195 221 255
195 221 255
195 221 255
195 221 255
195 221 255
195 221 255
196 221 255
196 221 255
196 222 255
196 222 255
196 222 255
196 222 255
196 222 255
196 222 255
196 222 255
196 222 255
196 222 255
196 222 255
196 222 255
196 222 255
196 222 255
196 222 255
196 222 255
197 222 255
197 222 255
197 222 255
197 222 255
197 222 255
197 222 255
197 222 255
197 222 255
197 222 255
197 222 255
197 222 255
197 222 255
197 222 255
197 222 255
197 223 255
198 223 255
198 223 255
198 223 255
198 223 255
198 223 255
198 223 255
198 223 255
198 223 255
198 223 255
198 223 255
198 223 255
198 223 255
198 223 255
198 223 255
199 223 255
199 223 255
199 223 255
199 223 255
199 223 255
199 223 255
199 223 255
199 223 255
199 223 255
199 223 255
199 223 255
199 223 255
199 224 255
199 224 255
200 224 255
200 224 255
200 224 255
200 224 255
200 224 255
200 224 255
200 224 255
200 224 255
200 224 255
200 224 255
200 224 255
200 224 255
200 224 255
200 224 255
200 224 255
201 224 255
201 224 255
201 224 255
201 224 255
201 224 255
201 224 255
201 224 255
201 224 255
201 224 255
201 224 255
201 225 255
201 225 255
201 225 255
201 225 255
201 225 255
202 225 255
202 225 255
202 225 255
202 225 255
202 225 255
202 225 255
202 225 255
202 225 255
202 225 255
202 225 255
202 225 255
202 225 255
202 225 255
202 225 255
202 225 255
203 225 255
203 225 255
203 225 255
203 225 255
203 225 255
203 225 255
203 225 255
203 225 255
203 225 255
203 225 255
203 226 255
203 226 255
203 226 255
203 226 255
203 226 255
203 226 255
203 226 255
204 226 255
204 226 255
204 226 255
204 226 255
204 226 255
204 226 255
204 226 255
204 226 255
204 226 255
204 226 255
204 226 255
204 226 255
204 226 255
204 226 255
204 226 255
204 226 255
204 226 255
204 226 255
205 226 255
205 226 255
205 226 255
205 226 255
205 226 255
205 226 255
204 226 255
204 226 255
204 226 255
204 226 255
204 226 255
204 226 255
204 226 255
204 226 255
204 226 255
204 226 255
204 226 255
204 226 255
204 226 255
204 226 255
204 226 255
204 226 255
204 226 255
204 226 255
203 226 255
203 226 255
203 226 255
203 226 255
203 226 255
203 226 255
203 226 255
203 226 255
203 225 255
203 225 255
203 225 255
203 225 255
203 225 255
203 225 255
203 225 255
203 225 255
203 225 255
202 225 255
202 225 255
202 225 255
202 225 255
202 225 255
202 225 255
202 225 255
202 225 255
202 225 255
202 225 255
202 225 255
202 225 255
202 225 255
202 225 255
202 225 255
201 225 255
201 225 255
201 225 255
201 225 255
201 225 255
201 224 255
201 224 255
201 224 255
201 224 255
201 224 255
201 224 255
201 224 255
201 224 255
201 224 255
201 224 255
200 224 255
200 224 255
200 224 255
200 224 255
200 224 255
200 224 255
200 224 255
200 224 255
200 224 255
200 224 255
200 224 255
200 224 255
200 224 255
200 224 255
200 224 255
199 224 255
199 224 255
199 223 255
199 223 255
199 223 255
199 223 255
199 223 255
199 223 255
199 223 255
199 223 255
199 223 255
199 223 255
199 223 255
199 223 255
198 223 255
198 223 255
198 223 255
198 223 255
198 223 255
198 223 255
198 223 255
198 223 255
198 223 255
198 223 255
198 223 255
198 223 255
198 223 255
198 223 255
197 223 255
197 222 255
197 222 255
197 222 255
197 222 255
197 222 255
197 222 255
197 222 255
197 222 255
197 222 255
197 222 255
197 222 255
197 222 255
197 222 255
197 222 255
196 222 255
196 222 255
196 222 255
196 222 255
196 222 255
196 222 255
196 222 255
196 222 255
196 222 255
196 222 255
196 222 255
196 222 255
196 222 255
196 222 255
196 222 255
196 221 255
196 221 255
195 221 255
195 221 255
195 221 255
195 221 255
195 221 255
195 221 255
195 221 255
195 221 255
195 221 255
195 221 255
195 221 255
195 221 255
195 221 255
195 221 255
195 221 255
195 221 255
195 221 255
195 221 255
195 221 255
195 221 255
195 221 255
194 221 255
194 221 255
194 221 255
194 221 255
194 221 255
194 221 255
194 221 255
194 221 255
194 221 255
194 221 255
194 221 255
194 221 255
194 221 255
194 221 255
194 221 255
194 221 255
194 221 255
194 221 255
194 221 255
194 221 255
194 221 255
194 221 255
194 221 255
194 221 255
194 221 255
194 221 255
194 221 255
194 221 255
194 221 255
194 221 255
194 221 255
194 221 255
194 221 255
194 221 255
194 221 255
194 221 255
194 221 255
194 221 255
194 221 255
194 221 255
194 221 255
194 221 255
194 221 255
194 221 255
194 221 255
194 221 255
194 221 255
194 221 255
194 221 255
194 221 255
194 221 255
194 221 255
194 221 255
194 221 255
194 221 255
194 221 255
194 221 255
194 221 255
194 221 255
194 221 255
194 221 255
194 221 255
194 221 255
194 221 255
194 221 255
194 221 255
194 221 255
194 221 255
194 221 255
194 221 255
195 221 255
195 221 255
195 221 255
195 221 255
195 221 255
195 221 255
195 221 255
195 221 255
195 221 255
195 221 255
195 221 255
195 221 255
195 221 255
195 221 255
195 221 255
195 221 255
195 221 255
195 221 255
195 221 255
195 221 255
195 221 255
196 221 255
196 221 255
196 222 255
196 222 255
196 222 255
196 222 255
196 222 255
196 222 255
196 222 255
196 222 255
196 222 255
196 222 255
196 222 255
196 222 255
196 222 255
196 222 255
196 222 255
197 222 255
197 222 255
197 222 255
197 222 255
197 222 255
197 222 255
197 222 255
197 222 255
197 222 255
197 222 255
197 222 255
197 222 255
197 222 255
197 222 255
197 223 255
198 223 255
198 223 255
198 223 255
198 223 255
198 223 255
198 223 255
198 223 255
198 223 255
198 223 255
198 223 255
198 223 255
198 223 255
198 223 255
198 223 255
199 223 255
199 223 255
199 223 255
199 223 255
199 223 255
199 223 255
199 223 255
199 223 255
199 223 255
199 223 255
199 223 255
199 223 255
199 224 255
199 224 255
200 224 255
200 224 255
200 224 255
200 224 255
200 224 255
200 224 255
200 224 255
200 224 255
200 224 255
200 224 255
200 224 255
200 224 255
200 224 255
200 224 255
200 224 255
201 224 255
201 224 255
201 224 255
201 224 255
201 224 255
201 224 255
201 224 255
201 224 255
201 224 255
201 224 255
201 225 255
201 225 255
201 225 255
201 225 255
201 225 255
202 225 255
202 225 255
202 225 255
202 225 255
202 225 255
202 225 255
202 225 255
202 225 255
202 225 255
202 225 255
202 225 255
202 225 255
202 225 255
202 225 255
202 225 255
203 225 255
203 225 255
203 225 255
203 225 255
203 225 255
203 225 255
203 225 255
203 225 255
203 225 255
203 226 255
203 226 255
203 226 255
203 226 255
203 226 255
203 226 255
203 226 255
203 226 255
204 226 255
204 226 255
204 226 255
204 226 255
204 226 255
204 226 255
204 226 255
204 226 255
204 226 255
204 226 255
204 226 255
204 226 255
204 226 255
204 226 255
204 226 255
204 226 255
204 226 255
204 226 255
205 226 255
205 226 255
205 226 255
205 226 255
205 226 255
205 226 255
205 226 255
205 226 255
205 226 255
205 226 255
205 226 255
204 226 255
204 226 255
204 226 255
204 226 255
204 226 255
204 226 255
204 226 255
204 226 255
204 226 255
204 226 255
204 226 255
204 226 255
204 226 255
204 226 255
204 226 255
204 226 255
204 226 255
204 226 255
203 226 255
203 226 255
203 226 255
203 226 255
203 226 255
203 226 255
203 226 255
203 225 255
203 225 255
203 225 255
203 225 255
203 225 255
203 225 255
203 225 255
203 225 255
203 225 255
202 225 255
202 225 255
202 225 255
202 225 255
202 225 255
202 225 255
202 225 255
202 225 255
202 225 255
202 225 255
202 225 255
202 225 255
202 225 255
202 225 255
202 225 255
201 225 255
201 225 255
201 225 255
201 225 255
201 225 255
201 224 255
201 224 255
201 224 255
201 224 255
201 224 255
201 224 255
201 224 255
201 224 255
201 224 255
201 224 255
200 224 255
200 224 255
200 224 255
200 224 255
200 224 255
200 224 255
200 224 255
200 224 255
200 224 255
200 224 255
200 224 255
200 224 255
200 224 255
200 224 255
200 224 255
199 224 255
199 224 255
199 223 255
199 223 255
199 223 255
199 223 255
199 223 255
199 223 255
199 223 255
199 223 255
199 223 255
199 223 255
199 223 255
199 223 255
198 223 255
198 223 255
198 223 255
198 223 255
198 223 255
198 223 255
198 223 255
198 223 255
198 223 255
198 223 255
198 223 255
198 223 255
198 223 255
198 223 255
197 223 255
197 222 255
197 222 255
197 222 255
197 222 255
197 222 255
197 222 255
197 222 255
197 222 255
197 222 255
197 222 255
197 222 255
197 222 255
197 222 255
197 222 255
197 222 255
196 222 255
196 222 255
196 222 255
196 222 255
196 222 255
196 222 255
196 222 255
196 222 255
196 222 255
196 222 255
196 222 255
196 222 255
196 222 255
196 222 255
196 222 255
196 221 255
196 221 255
195 221 255
195 221 255
195 221 255
195 221 255
195 221 255
195 221 255
195 221 255
195 221 255
195 221 255
195 221 255
195 221 255
195 221 255
195 221 255
195 221 255
195 221 255
195 221 255
195 221 255
195 221 255
195 221 255
195 221 255
195 221 255
195 221 255
194 221 255
194 221 255
194 221 255
194 221 255
194 221 255
194 221 255
194 221 255
194 221 255
194 221 255
194 221 255
194 221 255
194 221 255
194 221 255
194 221 255
194 221 255
194 221 255
194 221 255
194 221 255
194 221 255
194 221 255
194 221 255
194 221 255
194 221 255
194 221 255
194 221 255
194 221 255
194 221 255
194 221 255
194 221 255
194 221 255
194 221 255
194 221 255
194 221 255
194 221 255
194 221 255
194 221 255
194 221 255
194 221 255
194 221 255
194 221 255
194 221 255
194 221 255
194 221 255
194 221 255
194 221 255
194 221 255
194 221 255
194 221 255
194 221 255
194 221 255
194 221 255
194 221 255
194 221 255
194 221 255
194 221 255
194 221 255
194 221 255
194 221 255
194 221 255
194 221 255
194 221 255
194 221 255
195 221 255
195 221 255
195 221 255
195 221 255
195 221 255
195 221 255
195 221 255
195 221 255
195 221 255
195 221 255
195 221 255
195 221 255
195 221 255
195 221 255
195 221 255
195 221 255
195 221 255
195 221 255
195 221 255
195 221 255
195 221 255
195 221 255
196 221 255
196 221 255
196 222 255
196 222 255
196 222 255
196 222 255
196 222 255
196 222 255
196 222 255
196 222 255
196 222 255
196 222 255
196 222 255
196 222 255
196 222 255
196 222 255
196 222 255
197 222 255
197 222 255
197 222 255
197 222 255
197 222 255
197 222 255
197 222 255
197 222 255
197 222 255
197 222 255
197 222 255
197 222 255
197 222 255
197 222 255
197 222 255
198 223 255
198 223 255
198 223 255
198 223 255
198 223 255
198 223 255
198 223 255
198 223 255
198 223 255
198 223 255
198 223 255
198 223 255
198 223 255
198 223 255
198 223 255
199 223 255
199 223 255
199 223 255
199 223 255
199 223 255
199 223 255
199 223 255
199 223 255
199 223 255
199 223 255
199 223 255
199 223 255
199 224 255
199 224 255
200 224 255
200 224 255
200 224 255
200 224 255
200 224 255
200 224 255
200 224 255
200 224 255
200 224 255
200 224 255
200 224 255
200 224 255
200 224 255
200 224 255
200 224 255
201 224 255
201 224 255
201 224 255
201 224 255
201 224 255
201 224 255
201 224 255
201 224 255
201 224 255
201 224 255
201 225 255
201 225 255
201 225 255
201 225 255
201 225 255
202 225 255
202 225 255
202 225 255
202 225 255
202 225 255
202 225 255
202 225 255
202 225 255
202 225 255
202 225 255
202 225 255
202 225 255
202 225 255
202 225 255
202 225 255
203 225 255
203 225 255
203 225 255
203 225 255
203 225 255
203 225 255
203 225 255
203 225 255
203 225 255
203 226 255
203 226 255
203 226 255
203 226 255
203 226 255
203 226 255
203 226 255
203 226 255
204 226 255
204 226 255
204 226 255
204 226 255
204 226 255
204 226 255
204 226 255
204 226 255
204 226 255
204 226 255
204 226 255
204 226 255
204 226 255
204 226 255
204 226 255
204 226 255
204 226 255
205 226 255
205 226 255
205 226 255
205 226 255
205 226 255
205 226 255
205 226 255
205 227 255
205 227 255
205 226 255
205 226 255
205 226 255
205 226 255
205 226 255
205 226 255
205 226 255
204 226 255
204 226 255
204 226 255
204 226 255
204 226 255
204 226 255
204 226 255
204 226 255
204 226 255
204 226 255
204 226 255
204 226 255
204 226 255
204 226 255
204 226 255
204 226 255
204 226 255
204 226 255
203 226 255
203 226 255
203 226 255
203 226 255
203 226 255
203 226 255
203 226 255
203 225 255
203 225 255
203 225 255
203 225 255
203 225 255
203 225 255
203 225 255
203 225 255
203 225 255
202 225 255
202 225 255
202 225 255
202 225 255
202 225 255
202 225 255
202 225 255
202 225 255
202 225 255
202 225 255
202 225 255
202 225 255
202 225 255
202 225 255
202 225 255
201 225 255
201 225 255
201 225 255
201 225 255
201 225 255
201 224 255
201 224 255
201 224 255
201 224 255
201 224 255
201 224 255
201 224 255
201 224 255
201 224 255
201 224 255
200 224 255
200 224 255
200 224 255
200 224 255
200 224 255
200 224 255
200 224 255
200 224 255
200 224 255
200 224 255
200 224 255
200 224 255
200 224 255
200 224 255
200 224 255
199 224 255
199 224 255
199 223 255
199 223 255
199 223 255
199 223 255
199 223 255
199 223 255
199 223 255
199 223 255
199 223 255
199 223 255
199 223 255
199 223 255
198 223 255
198 223 255
198 223 255
198 223 255
198 223 255
198 223 255
198 223 255
198 223 255
198 223 255
198 223 255
198 223 255
198 223 255
198 223 255
198 223 255
198 223 255
197 222 255
197 222 255
197 222 255
197 222 255
197 222 255
197 222 255
197 222 255
197 222 255
197 222 255
197 222 255
197 222 255
197 222 255
197 222 255
197 222 255
197 222 255
196 222 255
196 222 255
196 222 255
196 222 255
196 222 255
196 222 255
196 222 255
196 222 255
196 222 255
196 222 255
196 222 255
196 222 255
196 222 255
196 222 255
196 222 255
196 222 255
196 221 255
195 221 255
195 221 255
195 221 255
195 221 255
195 221 255
195 221 255
195 221 255
195 221 255
195 221 255
195 221 255
195 221 255
195 221 255
195 221 255
195 221 255
195 221 255
195 221 255
195 221 255
195 221 255
195 221 255
195 221 255
195 221 255
195 221 255
195 221 255
195 221 255
194 221 255
194 221 255
194 221 255
194 221 255
194 221 255
194 221 255
194 221 255
194 221 255
194 221 255
194 221 255
194 221 255
194 221 255
194 221 255
194 221 255
194 221 255
194 221 255
194 221 255
194 221 255
194 221 255
194 221 255
194 221 255
194 221 255
194 221 255
194 221 255
194 221 255
194 221 255
194 221 255
194 221 255
194 221 255
194 221 255
194 221 255
194 221 255
194 221 255
194 221 255
194 221 255
194 221 255
194 221 255
194 221 255
194 221 255
194 221 255
194 221 255
194 221 255
194 221 255
194 221 255
194 221 255
194 221 255
194 221 255
194 221 255
194 221 255
194 221 255
194 221 255
194 221 255
194 221 255
194 221 255
195 221 255
195 221 255
195 221 255
195 221 255
195 221 255
195 221 255
195 221 255
195 221 255
195 221 255
195 221 255
195 221 255
195 221 255
195 221 255
195 221 255
195 221 255
195 221 255
195 221 255
195 221 255
195 221 255
195 221 255
195 221 255
195 221 255
195 221 255
196 221 255
196 221 255
196 222 255
196 222 255
196 222 255
196 222 255
196 222 255
196 222 255
196 222 255
196 222 255
196 222 255
196 222 255
196 222 255
196 222 255
196 222 255
196 222 255
196 222 255
196 222 255
197 222 255
197 222 255
197 222 255
197 222 255
197 222 255
197 222 255
197 222 255
197 222 255
197 222 255
197 222 255
197 222 255
197 222 255
197 222 255
197 222 255
197 222 255
198 223 255
198 223 255
198 223 255
198 223 255
198 223 255
198 223 255
198 223 255
198 223 255
198 223 255
198 223 255
198 223 255
198 223 255
198 223 255
198 223 255
198 223 255
199 223 255
199 223 255
199 223 255
199 223 255
199 223 255
199 223 255
199 223 255
199 223 255
199 223 255
199 223 255
199 223 255
199 223 255
199 224 255
199 224 255
200 224 255
200 224 255
200 224 255
200 224 255
200 224 255
200 224 255
200 224 255
200 224 255
200 224 255
200 224 255
200 224 255
200 224 255
200 224 255
200 224 255
201 224 255
201 224 255
201 224 255
201 224 255
201 224 255
201 224 255
201 224 255
201 224 255
201 224 255
201 224 255
201 224 255
201 225 255
201 225 255
201 225 255
201 225 255
202 225 255
202 225 255
202 225 255
202 225 255
202 225 255
202 225 255
202 225 255
202 225 255
202 225 255
202 225 255
202 225 255
202 225 255
202 225 255
202 225 255
202 225 255
202 225 255
203 225 255
203 225 255
203 225 255
203 225 255
203 225 255
203 225 255
203 225 255
203 225 255
203 225 255
203 226 255
203 226 255
203 226 255
203 226 255
203 226 255
203 226 255
203 226 255
204 226 255
204 226 255
204 226 255
204 226 255
204 226 255
204 226 255
204 226 255
204 226 255
204 226 255
204 226 255
204 226 255
204 226 255
204 226 255
204 226 255
204 226 255
204 226 255
204 226 255
204 226 255
205 226 255
205 226 255
205 226 255
205 226 255
205 226 255
205 226 255
205 226 255
205 227 255
205 227 255
205 227 255
205 227 255
205 227 255
205 227 255
205 226 255
205 226 255
205 226 255
205 226 255
205 226 255
205 226 255
205 226 255
205 226 255
204 226 255
204 226 255
204 226 255
204 226 255
204 226 255
204 226 255
204 226 255
204 226 255
204 226 255
204 226 255
204 226 255
204 226 255
204 226 255
204 226 255
204 226 255
204 226 255
204 226 255
203 226 255
203 226 255
203 226 255
203 226 255
203 226 255
203 226 255
203 226 255
203 225 255
203 225 255
203 225 255
203 225 255
203 225 255
203 225 255
203 225 255
203 225 255
203 225 255
202 225 255
202 225 255
202 225 255
202 225 255
202 225 255
202 225 255
202 225 255
202 225 255
202 225 255
202 225 255
202 225 255
202 225 255
202 225 255
202 225 255
202 225 255
202 225 255
201 225 255
201 225 255
201 225 255
201 225 255
201 224 255
201 224 255
201 224 255
201 224 255
201 224 255
201 224 255
201 224 255
201 224 255
201 224 255
201 224 255
201 224 255
200 224 255
200 224 255
200 224 255
200 224 255
200 224 255
200 224 255
200 224 255
200 224 255
200 224 255
200 224 255
200 224 255
200 224 255
200 224 255
200 224 255
199 224 255
199 224 255
199 223 255
199 223 255
199 223 255
199 223 255
199 223 255
199 223 255
199 223 255
199 223 255
199 223 255
199 223 255
199 223 255
199 223 255
198 223 255
198 223 255
198 223 255
198 223 255
198 223 255
198 223 255
198 223 255
198 223 255
198 223 255
198 223 255
198 223 255
198 223 255
198 223 255
198 223 255
198 223 255
197 222 255
197 222 255
197 222 255
197 222 255
197 222 255
197 222 255
197 222 255
197 222 255
197 222 255
197 222 255
197 222 255
197 222 255
197 222 255
197 222 255
197 222 255
196 222 255
196 222 255
196 222 255
196 222 255
196 222 255
196 222 255
196 222 255
196 222 255
196 222 255
196 222 255
196 222 255
196 222 255
196 222 255
196 222 255
196 222 255
196 222 255
196 221 255
196 221 255
195 221 255
195 221 255
195 221 255
195 221 255
195 221 255
195 221 255
195 221 255
195 221 255
195 221 255
195 221 255
195 221 255
195 221 255
195 221 255
195 221 255
195 221 255
195 221 255
195 221 255
195 221 255
195 221 255
195 221 255
195 221 255
195 221 255
195 221 255
195 221 255
195 221 255
195 221 255
194 221 255
194 221 255
194 221 255
194 221 255
194 221 255
194 221 255
194 221 255
194 221 255
194 221 255
194 221 255
194 221 255
194 221 255
194 221 255
194 221 255
194 221 255
194 221 255
194 221 255
194 221 255
194 221 255
194 221 255
194 221 255
194 221 255
194 221 255
194 221 255
194 221 255
194 221 255
194 221 255
194 221 255
194 221 255
194 221 255
194 221 255
194 221 255
194 221 255
194 221 255
194 221 255
194 221 255
194 221 255
194 221 255
194 221 255
194 221 255
194 221 255
194 221 255
194 221 255
194 221 255
195 221 255
195 221 255
195 221 255
195 221 255
195 221 255
195 221 255
195 221 255
195 221 255
195 221 255
195 221 255
195 221 255
195 221 255
195 221 255
195 221 255
195 221 255
195 221 255
195 221 255
195 221 255
195 221 255
195 221 255
195 221 255
195 221 255
195 221 255
195 221 255
195 221 255
195 221 255
196 221 255
196 222 255
196 222 255
196 222 255
196 222 255
196 222 255
196 222 255
196 222 255
196 222 255
196 222 255
196 222 255
196 222 255
196 222 255
196 222 255
196 222 255
196 222 255
196 222 255
196 222 255
197 222 255
197 222 255
197 222 255
197 222 255
197 222 255
197 222 255
197 222 255
197 222 255
197 222 255
197 222 255
197 222 255
197 222 255
197 222 255
197 222 255
197 222 255
198 223 255
198 223 255
198 223 255
198 223 255
198 223 255
198 223 255
198 223 255
198 223 255
198 223 255
198 223 255
198 223 255
198 223 255
198 223 255
198 223 255
198 223 255
199 223 255
199 223 255
199 223 255
199 223 255
199 223 255
199 223 255
199 223 255
199 223 255
199 223 255
199 223 255
199 223 255
199 223 255
199 224 255
199 224 255
200 224 255
200 224 255
200 224 255
200 224 255
200 224 255
200 224 255
200 224 255
200 224 255
200 224 255
200 224 255
200 224 255
200 224 255
200 224 255
200 224 255
200 224 255
201 224 255
201 224 255
201 224 255
201 224 255
201 224 255
201 224 255
201 224 255
201 224 255
201 224 255
201 224 255
201 225 255
201 225 255
201 225 255
201 225 255
202 225 255
202 225 255
202 225 255
202 225 255
202 225 255
202 225 255
202 225 255
202 225 255
202 225 255
202 225 255
202 225 255
202 225 255
202 225 255
202 225 255
202 225 255
202 225 255
203 225 255
203 225 255
203 225 255
203 225 255
203 225 255
203 225 255
203 225 255
203 225 255
203 225 255
203 226 255
203 226 255
203 226 255
203 226 255
203 226 255
203 226 255
203 226 255
204 226 255
204 226 255
204 226 255
204 226 255
204 226 255
204 226 255
204 226 255
204 226 255
204 226 255
204 226 255
204 226 255
204 226 255
204 226 255
204 226 255
204 226 255
204 226 255
204 226 255
205 226 255
205 226 255
205 226 255
205 226 255
205 226 255
205 226 255
205 226 255
205 226 255
205 227 255
205 227 255
205 227 255
205 227 255
205 227 255
205 227 255
205 227 255
205 227 255
205 227 255
205 227 255
205 227 255
205 226 255
205 226 255
205 226 255
205 226 255
205 226 255
205 226 255
205 226 255
204 226 255
204 226 255
204 226 255
204 226 255
204 226 255
204 226 255
204 226 255
204 226 255
204 226 255
204 226 255
204 226 255
204 226 255
204 226 255
204 226 255
204 226 255
204 226 255
204 226 255
203 226 255
203 226 255
203 226 255
203 226 255
203 226 255
203 226 255
203 226 255
203 226 255
203 225 255
203 225 255
203 225 255
203 225 255
203 225 255
203 225 255
203 225 255
203 225 255
203 225 255
202 225 255
202 225 255
202 225 255
202 225 255
202 225 255
202 225 255
202 225 255
202 225 255
202 225 255
202 225 255
202 225 255
202 225 255
202 225 255
202 225 255
202 225 255
201 225 255
201 225 255
201 225 255
201 225 255
201 224 255
201 224 255
201 224 255
201 224 255
201 224 255
201 224 255
201 224 255
201 224 255
201 224 255
201 224 255
201 224 255
200 224 255
200 224 255
200 224 255
200 224 255
200 224 255
200 224 255
200 224 255
200 224 255
200 224 255
200 224 255
200 224 255
200 224 255
200 224 255
200 224 255
199 224 255
199 224 255
199 223 255
199 223 255
199 223 255
199 223 255
199 223 255
199 223 255
199 223 255
199 223 255
199 223 255
199 223 255
199 223 255
199 223 255
199 223 255
198 223 255
198 223 255
198 223 255
198 223 255
198 223 255
198 223 255
198 223 255
198 223 255
198 223 255
198 223 255
198 223 255
198 223 255
198 223 255
198 223 255
197 223 255
197 222 255
197 222 255
197 222 255
197 222 255
197 222 255
197 222 255
197 222 255
197 222 255
197 222 255
197 222 255
197 222 255
197 222 255
197 222 255
197 222 255
197 222 255
196 222 255
196 222 255
196 222 255
196 222 255
196 222 255
196 222 255
196 222 255
196 222 255
196 222 255
196 222 255
196 222 255
196 222 255
196 222 255
196 222 255
196 222 255
196 222 255
196 222 255
196 221 255
195 221 255
195 221 255
195 221 255
195 221 255
195 221 255
195 221 255
195 221 255
195 221 255
195 221 255
195 221 255
195 221 255
195 221 255
195 221 255
195 221 255
195 221 255
195 221 255
195 221 255
195 221 255
195 221 255
195 221 255
195 221 255
195 221 255
195 221 255
195 221 255
195 221 255
195 221 255
195 221 255
195 221 255
195 221 255
195 221 255
194 221 255
194 221 255
194 221 255
194 221 255
194 221 255
194 221 255
194 221 255
194 221 255
194 221 255
194 221 255
194 221 255
194 221 255
194 221 255
194 221 255
194 221 255
194 221 255
194 221 255
194 221 255
194 221 255
194 221 255
194 221 255
194 221 255
194 221 255
194 221 255
194 221 255
194 221 255
194 221 255
194 221 255
194 221 255
194 221 255
195 221 255
195 221 255
195 221 255
195 221 255
195 221 255
195 221 255
195 221 255
195 221 255
195 221 255
195 221 255
195 221 255
195 221 255
195 221 255
195 221 255
195 221 255
195 221 255
195 221 255
195 221 255
195 221 255
195 221 255
195 221 255
195 221 255
195 221 255
195 221 255
195 221 255
195 221 255
195 221 255
195 221 255
195 221 255
195 221 255
196 221 255
196 222 255
196 222 255
196 222 255
196 222 255
196 222 255
196 222 255
196 222 255
196 222 255
196 222 255
196 222 255
196 222 255
196 222 255
196 222 255
196 222 255
196 222 255
196 222 255
196 222 255
197 222 255
197 222 255
197 222 255
197 222 255
197 222 255
197 222 255
197 222 255
197 222 255
197 222 255
197 222 255
197 222 255
197 222 255
197 222 255
197 222 255
197 222 255
197 222 255
198 223 255
198 223 255
198 223 255
198 223 255
198 223 255
198 223 255
198 223 255
198 223 255
198 223 255
198 223 255
198 223 255
198 223 255
198 223 255
198 223 255
198 223 255
199 223 255
199 223 255
199 223 255
199 223 255
199 223 255
199 223 255
199 223 255
199 223 255
199 223 255
199 223 255
199 223 255
199 223 255
199 224 255
199 224 255
200 224 255
200 224 255
200 224 255
200 224 255
200 224 255
200 224 255
200 224 255
200 224 255
200 224 255
200 224 255
200 224 255
200 224 255
200 224 255
200 224 255
201 224 255
201 224 255
201 224 255
201 224 255
201 224 255
201 224 255
201 224 255
201 224 255
201 224 255
201 224 255
201 224 255
201 225 255
201 225 255
201 225 255
201 225 255
202 225 255
202 225 255
202 225 255
202 225 255
202 225 255
202 225 255
202 225 255
202 225 255
202 225 255
202 225 255
202 225 255
202 225 255
202 225 255
202 225 255
202 225 255
203 225 255
203 225 255
203 225 255
203 225 255
203 225 255
203 225 255
203 225 255
203 225 255
203 225 255
203 226 255
203 226 255
203 226 255
203 226 255
203 226 255
203 226 255
203 226 255
203 226 255
204 226 255
204 226 255
204 226 255
204 226 255
204 226 255
204 226 255
204 226 255
204 226 255
204 226 255
204 226 255
204 226 255
204 226 255
204 226 255
204 226 255
204 226 255
204 226 255
204 226 255
205 226 255
205 226 255
205 226 255
205 226 255
205 226 255
205 226 255
205 226 255
205 227 255
205 227 255
205 227 255
205 227 255
205 227 255
205 227 255
205 227 255
205 227 255
205 227 255
205 227 255
205 227 255
205 227 255
205 227 255
205 227 255
205 227 255
205 227 255
205 226 255
205 226 255
205 226 255
205 226 255
205 226 255
205 226 255
205 226 255
204 226 255
204 226 255
204 226 255
204 226 255
204 226 255
204 226 255
204 226 255
204 226 255
204 226 255
204 226 255
204 226 255
204 226 255
204 226 255
204 226 255
204 226 255
204 226 255
204 226 255
204 226 255
203 226 255
203 226 255
203 226 255
203 226 255
203 226 255
203 226 255
203 226 255
203 225 255
203 225 255
203 225 255
203 225 255
203 225 255
203 225 255
203 225 255
203 225 255
203 225 255
202 225 255
202 225 255
202 225 255
202 225 255
202 225 255
202 225 255
202 225 255
202 225 255
202 225 255
202 225 255
202 225 255
202 225 255
202 225 255
202 225 255
202 225 255
201 225 255
201 225 255
201 225 255
201 225 255
201 225 255
201 224 255
201 224 255
201 224 255
201 224 255
201 224 255
201 224 255
201 224 255
201 224 255
201 224 255
201 224 255
200 224 255
200 224 255
200 224 255
200 224 255
200 224 255
200 224 255
200 224 255
200 224 255
200 224 255
200 224 255
200 224 255
200 224 255
200 224 255
200 224 255
199 224 255
199 224 255
199 224 255
199 223 255
199 223 255
199 223 255
199 223 255
199 223 255
199 223 255
199 223 255
199 223 255
199 223 255
199 223 255
199 223 255
199 223 255
198 223 255
198 223 255
198 223 255
198 223 255
198 223 255
198 223 255
198 223 255
198 223 255
198 223 255
198 223 255
198 223 255
198 223 255
198 223 255
198 223 255
197 223 255
197 222 255
197 222 255
197 222 255
197 222 255
197 222 255
197 222 255
197 222 255
197 222 255
197 222 255
197 222 255
197 222 255
197 222 255
197 222 255
197 222 255
197 222 255
196 222 255
196 222 255
196 222 255
196 222 255
196 222 255
196 222 255
196 222 255
196 222 255
196 222 255
196 222 255
196 222 255
196 222 255
196 222 255
196 222 255
196 222 255
196 222 255
196 222 255
196 222 255
196 221 255
195 221 255
195 221 255
195 221 255
195 221 255
195 221 255
195 221 255
195 221 255
195 221 255
195 221 255
195 221 255
195 221 255
195 221 255
195 221 255
195 221 255
195 221 255
195 221 255
195 221 255
195 221 255
195 221 255
195 221 255
195 221 255
195 221 255
195 221 255
195 221 255
195 221 255
195 221 255
195 221 255
195 221 255
195 221 255
195 221 255
195 221 255
195 221 255
195 221 255
195 221 255
195 221 255
195 221 255
195 221 255
195 221 255
195 221 255
195 221 255
195 221 255
195 221 255
195 221 255
195 221 255
195 221 255
195 221 255
195 221 255
195 221 255
195 221 255
195 221 255
195 221 255
195 221 255
195 221 255
195 221 255
195 221 255
195 221 255
195 221 255
195 221 255
195 221 255
195 221 255
195 221 255
195 221 255
195 221 255
195 221 255
195 221 255
195 221 255
195 221 255
195 221 255
195 221 255
195 221 255
195 221 255
195 221 255
195 221 255
195 221 255
195 221 255
195 221 255
195 221 255
195 221 255
195 221 255
195 221 255
195 221 255
195 221 255
195 221 255
195 221 255
196 221 255
196 222 255
196 222 255
196 222 255
196 222 255
196 222 255
196 222 255
196 222 255
196 222 255
196 222 255
196 222 255
196 222 255
196 222 255
196 222 255
196 222 255
196 222 255
196 222 255
196 222 255
197 222 255
197 222 255
197 222 255
197 222 255
197 222 255
197 222 255
197 222 255
197 222 255
197 222 255
197 222 255
197 222 255
197 222 255
197 222 255
197 222 255
197 222 255
197 222 255
197 223 255
198 223 255
198 223 255
198 223 255
198 223 255
198 223 255
198 223 255
198 223 255
198 223 255
198 223 255
198 223 255
198 223 255
198 223 255
198 223 255
198 223 255
199 223 255
199 223 255
199 223 255
199 223 255
199 223 255
199 223 255
199 223 255
199 223 255
199 223 255
199 223 255
199 223 255
199 223 255
199 224 255
199 224 255
199 224 255
200 224 255
200 224 255
200 224 255
200 224 255
200 224 255
200 224 255
200 224 255
200 224 255
200 224 255
200 224 255
200 224 255
200 224 255
200 224 255
200 224 255
201 224 255
201 224 255
201 224 255
201 224 255
201 224 255
201 224 255
201 224 255
201 224 255
201 224 255
201 224 255
201 225 255
201 225 255
201 225 255
201 225 255
201 225 255
202 225 255
202 225 255
202 225 255
202 225 255
202 225 255
202 225 255
202 225 255
202 225 255
202 225 255
202 225 255
202 225 255
202 225 255
202 225 255
202 225 255
202 225 255
203 225 255
203 225 255
203 225 255
203 225 255
203 225 255
203 225 255
203 225 255
203 225 255
203 225 255
203 226 255
203 226 255
203 226 255
203 226 255
203 226 255
203 226 255
203 226 255
204 226 255
204 226 255
204 226 255
204 226 255
204 226 255
204 226 255
204 226 255
204 226 255
204 226 255
204 226 255
204 226 255
204 226 255
204 226 255
204 226 255
204 226 255
204 226 255
204 226 255
204 226 255
205 226 255
205 226 255
205 226 255
205 226 255
205 226 255
205 226 255
205 226 255
205 227 255
205 227 255
205 227 255
205 227 255
205 227 255
205 227 255
205 227 255
205 227 255
205 227 255
205 227 255
205 227 255
205 227 255
205 227 255
205 227 255
205 227 255
205 227 255
205 227 255
205 227 255
205 227 255
205 227 255
205 227 255
205 226 255
205 226 255
205 226 255
205 226 255
205 226 255
205 226 255
205 226 255
204 226 255
204 226 255
204 226 255
204 226 255
204 226 255
204 226 255
204 226 255
204 226 255
204 226 255
204 226 255
204 226 255
204 226 255
204 226 255
204 226 255
204 226 255
204 226 255
204 226 255
203 226 255
203 226 255
203 226 255
203 226 255
203 226 255
203 226 255
203 226 255
203 225 255
203 225 255
203 225 255
203 225 255
203 225 255
203 225 255
203 225 255
203 225 255
203 225 255
202 225 255
202 225 255
202 225 255
202 225 255
202 225 255
202 225 255
202 225 255
202 225 255
202 225 255
202 225 255
202 225 255
202 225 255
202 225 255
202 225 255
202 225 255
201 225 255
201 225 255
201 225 255
201 225 255
201 225 255
201 224 255
201 224 255
201 224 255
201 224 255
201 224 255
201 224 255
201 224 255
201 224 255
201 224 255
201 224 255
200 224 255
200 224 255
200 224 255
200 224 255
200 224 255
200 224 255
200 224 255
200 224 255
200 224 255
200 224 255
200 224 255
200 224 255
200 224 255
200 224 255
199 224 255
199 224 255
199 224 255
199 223 255
199 223 255
199 223 255
199 223 255
199 223 255
199 223 255
199 223 255
199 223 255
199 223 255
199 223 255
199 223 255
199 223 255
198 223 255
198 223 255
198 223 255
198 223 255
198 223 255
198 223 255
198 223 255
198 223 255
198 223 255
198 223 255
198 223 255
198 223 255
198 223 255
198 223 255
198 223 255
197 222 255
197 222 255
197 222 255
197 222 255
197 222 255
197 222 255
197 222 255
197 222 255
197 222 255
197 222 255
197 222 255
197 222 255
197 222 255
197 222 255
197 222 255
197 222 255
196 222 255
196 222 255
196 222 255
196 222 255
196 222 255
196 222 255
196 222 255
196 222 255
196 222 255
196 222 255
196 222 255
196 222 255
196 222 255
196 222 255
196 222 255
196 222 255
196 222 255
196 222 255
196 221 255
196 221 255
195 221 255
195 221 255
195 221 255
195 221 255
195 221 255
195 221 255
195 221 255
195 221 255
195 221 255
195 221 255
195 221 255
195 221 255
195 221 255
195 221 255
195 221 255
195 221 255
195 221 255
195 221 255
195 221 255
195 221 255
195 221 255
195 221 255
195 221 255
195 221 255
195 221 255
195 221 255
195 221 255
195 221 255
195 221 255
195 221 255
195 221 255
195 221 255
195 221 255
195 221 255
195 221 255
195 221 255
195 221 255
195 221 255
195 221 255
195 221 255
195 221 255
195 221 255
195 221 255
195 221 255
195 221 255
195 221 255
195 221 255
195 221 255
195 221 255
195 221 255
195 221 255
195 221 255
195 221 255
195 221 255
195 221 255
195 221 255
195 221 255
195 221 255
195 221 255
195 221 255
195 221 255
195 221 255
195 221 255
195 221 255
195 221 255
195 221 255
195 221 255
195 221 255
195 221 255
195 221 255
195 221 255
195 221 255
195 221 255
195 221 255
195 221 255
195 221 255
196 221 255
196 221 255
196 222 255
196 222 255
196 222 255
196 222 255
196 222 255
196 222 255
196 222 255
196 222 255
196 222 255
196 222 255
196 222 255
196 222 255
196 222 255
196 222 255
196 222 255
196 222 255
196 222 255
196 222 255
197 222 255
197 222 255
197 222 255
197 222 255
197 222 255
197 222 255
197 222 255
197 222 255
197 222 255
197 222 255
197 222 255
197 222 255
197 222 255
197 222 255
197 222 255
197 222 255
198 223 255
198 223 255
198 223 255
198 223 255
198 223 255
198 223 255
198 223 255
198 223 255
198 223 255
198 223 255
198 223 255
198 223 255
198 223 255
198 223 255
198 223 255
199 223 255
199 223 255
199 223 255
199 223 255
199 223 255
199 223 255
199 223 255
199 223 255
199 223 255
199 223 255
199 223 255
199 223 255
199 224 255
199 224 255
199 224 255
200 224 255
200 224 255
200 224 255
200 224 255
200 224 255
200 224 255
200 224 255
200 224 255
200 224 255
200 224 255
200 224 255
200 224 255
200 224 255
200 224 255
201 224 255
201 224 255
201 224 255
201 224 255
201 224 255
201 224 255
201 224 255
201 224 255
201 224 255
201 224 255
201 225 255
201 225 255
201 225 255
201 225 255
201 225 255
202 225 255
202 225 255
202 225 255
202 225 255
202 225 255
202 225 255
202 225 255
202 225 255
202 225 255
202 225 255
202 225 255
202 225 255
202 225 255
202 225 255
202 225 255
203 225 255
203 225 255
203 225 255
203 225 255
203 225 255
203 225 255
203 225 255
203 225 255
203 225 255
203 226 255
203 226 255
203 226 255
203 226 255
203 226 255
203 226 255
203 226 255
204 226 255
204 226 255
204 226 255
204 226 255
204 226 255
204 226 255
204 226 255
204 226 255
204 226 255
204 226 255
204 226 255
204 226 255
204 226 255
204 226 255
204 226 255
204 226 255
204 226 255
205 226 255
205 226 255
205 226 255
205 226 255
205 226 255
205 226 255
205 226 255
205 227 255
205 227 255
205 227 255
205 227 255
205 227 255
205 227 255
205 227 255
205 227 255
205 227 255
205 227 255
205 227 255
205 227 255
206 227 255
206 227 255
206 227 255
205 227 255
205 227 255
205 227 255
205 227 255
205 227 255
205 227 255
205 227 255
205 227 255
205 227 255
205 227 255
205 227 255
205 226 255
205 226 255
205 226 255
205 226 255
205 226 255
205 226 255
205 226 255
204 226 255
204 226 255
204 226 255
204 226 255
204 226 255
204 226 255
204 226 255
204 226 255
204 226 255
204 226 255
204 226 255
204 226 255
204 226 255
204 226 255
204 226 255
204 226 255
204 226 255
203 226 255
203 226 255
203 226 255
203 226 255
203 226 255
203 226 255
203 226 255
203 226 255
203 225 255
203 225 255
203 225 255
203 225 255
203 225 255
203 225 255
203 225 255
203 225 255
202 225 255
202 225 255
202 225 255
202 225 255
202 225 255
202 225 255
202 225 255
202 225 255
202 225 255
202 225 255
202 225 255
202 225 255
202 225 255
202 225 255
202 225 255
202 225 255
201 225 255
201 225 255
201 225 255
201 225 255
201 224 255
201 224 255
201 224 255
201 224 255
201 224 255
201 224 255
201 224 255
201 224 255
201 224 255
201 224 255
200 224 255
200 224 255
200 224 255
200 224 255
200 224 255
200 224 255
200 224 255
200 224 255
200 224 255
200 224 255
200 224 255
200 224 255
200 224 255
200 224 255
200 224 255
199 224 255
199 224 255
199 223 255
199 223 255
199 223 255
199 223 255
199 223 255
199 223 255
199 223 255
199 223 255
199 223 255
199 223 255
199 223 255
199 223 255
198 223 255
198 223 255
198 223 255
198 223 255
198 223 255
198 223 255
198 223 255
198 223 255
198 223 255
198 223 255
198 223 255
198 223 255
198 223 255
198 223 255
198 223 255
197 223 255
197 222 255
197 222 255
197 222 255
197 222 255
197 222 255
197 222 255
197 222 255
197 222 255
197 222 255
197 222 255
197 222 255
197 222 255
197 222 255
197 222 255
197 222 255
197 222 255
196 222 255
196 222 255
196 222 255
196 222 255
196 222 255
196 222 255
196 222 255
196 222 255
196 222 255
196 222 255
196 222 255
196 222 255
196 222 255
196 222 255
196 222 255
196 222 255
196 222 255
196 222 255
196 221 255
196 221 255
196 221 255
195 221 255
195 221 255
195 221 255
195 221 255
195 221 255
195 221 255
195 221 255
195 221 255
195 221 255
195 221 255
195 221 255
195 221 255
195 221 255
195 221 255
195 221 255
195 221 255
195 221 255
195 221 255
195 221 255
195 221 255
195 221 255
195 221 255
195 221 255
195 221 255
195 221 255
195 221 255
195 221 255
195 221 255
195 221 255
195 221 255
195 221 255
195 221 255
195 221 255
195 221 255
195 221 255
195 221 255
195 221 255
195 221 255
195 221 255
195 221 255
195 221 255
195 221 255
195 221 255
195 221 255
195 221 255
195 221 255
195 221 255
195 221 255
195 221 255
195 221 255
195 221 255
195 221 255
195 221 255
195 221 255
195 221 255
195 221 255
195 221 255
195 221 255
195 221 255
195 221 255
195 221 255
195 221 255
195 221 255
195 221 255
195 221 255
195 221 255
195 221 255
195 221 255
196 221 255
196 221 255
196 221 255
196 222 255
196 222 255
196 222 255
196 222 255
196 222 255
196 222 255
196 222 255
196 222 255
196 222 255
196 222 255
196 222 255
196 222 255
196 222 255
196 222 255
196 222 255
196 222 255
196 222 255
196 222 255
197 222 255
197 222 255
197 222 255
197 222 255
197 222 255
197 222 255
197 222 255
197 222 255
197 222 255
197 222 255
197 222 255
197 222 255
197 222 255
197 222 255
197 222 255
197 222 255
197 223 255
198 223 255
198 223 255
198 223 255
198 223 255
198 223 255
198 223 255
198 223 255
198 223 255
198 223 255
198 223 255
198 223 255
198 223 255
198 223 255
198 223 255
198 223 255
199 223 255
199 223 255
199 223 255
199 223 255
199 223 255
199 223 255
199 223 255
199 223 255
199 223 255
199 223 255
199 223 255
199 223 255
199 224 255
199 224 255
200 224 255
200 224 255
200 224 255
200 224 255
200 224 255
200 224 255
200 224 255
200 224 255
200 224 255
200 224 255
200 224 255
200 224 255
200 224 255
200 224 255
200 224 255
201 224 255
201 224 255
201 224 255
201 224 255
201 224 255
201 224 255
201 224 255
201 224 255
201 224 255
201 224 255
201 225 255
201 225 255
201 225 255
201 225 255
202 225 255
202 225 255
202 225 255
202 225 255
202 225 255
202 225 255
202 225 255
202 225 255
202 225 255
202 225 255
202 225 255
202 225 255
202 225 255
202 225 255
202 225 255
202 225 255
203 225 255
203 225 255
203 225 255
203 225 255
203 225 255
203 225 255
203 225 255
203 225 255
203 226 255
203 226 255
203 226 255
203 226 255
203 226 255
203 226 255
203 226 255
203 226 255
204 226 255
204 226 255
204 226 255
204 226 255
204 226 255
204 226 255
204 226 255
204 226 255
204 226 255
204 226 255
204 226 255
204 226 255
204 226 255
204 226 255
204 226 255
204 226 255
204 226 255
205 226 255
205 226 255
205 226 255
205 226 255
205 226 255
205 226 255
205 226 255
205 227 255
205 227 255
205 227 255
205 227 255
205 227 255
205 227 255
205 227 255
205 227 255
205 227 255
205 227 255
205 227 255
206 227 255
206 227 255
206 227 255
206 227 255
206 227 255
206 227 255
206 227 255
206 227 255
205 227 255
205 227 255
205 227 255
205 227 255
205 227 255
205 227 255
205 227 255
205 227 255
205 227 255
205 227 255
205 227 255
205 226 255
205 226 255
205 226 255
205 226 255
205 226 255
205 226 255
205 226 255
205 226 255
204 226 255
204 226 255
204 226 255
204 226 255
204 226 255
204 226 255
204 226 255
204 226 255
204 226 255
204 226 255
204 226 255
204 226 255
204 226 255
204 226 255
204 226 255
204 226 255
204 226 255
203 226 255
203 226 255
203 226 255
203 226 255
203 226 255
203 226 255
203 226 255
203 225 255
203 225 255
203 225 255
203 225 255
203 225 255
203 225 255
203 225 255
203 225 255
203 225 255
202 225 255
202 225 255
202 225 255
202 225 255
202 225 255
202 225 255
202 225 255
202 225 255
202 225 255
202 225 255
202 225 255
202 225 255
202 225 255
202 225 255
202 225 255
201 225 255
201 225 255
201 225 255
201 225 255
201 224 255
201 224 255
201 224 255
201 224 255
201 224 255
201 224 255
201 224 255
201 224 255
201 224 255
201 224 255
201 224 255
200 224 255
200 224 255
200 224 255
200 224 255
200 224 255
200 224 255
200 224 255
200 224 255
200 224 255
200 224 255
200 224 255
200 224 255
200 224 255
200 224 255
199 224 255
199 224 255
199 223 255
199 223 255
199 223 255
199 223 255
199 223 255
199 223 255
199 223 255
199 223 255
199 223 255
199 223 255
199 223 255
199 223 255
198 223 255
198 223 255
198 223 255
198 223 255
198 223 255
198 223 255
198 223 255
198 223 255
198 223 255
198 223 255
198 223 255
198 223 255
198 223 255
198 223 255
198 223 255
198 223 255
197 222 255
197 222 255
197 222 255
197 222 255
197 222 255
197 222 255
197 222 255
197 222 255
197 222 255
197 222 255
197 222 255
197 222 255
197 222 255
197 222 255
197 222 255
197 222 255
197 222 255
196 222 255
196 222 255
196 222 255
196 222 255
196 222 255
196 222 255
196 222 255
196 222 255
196 222 255
196 222 255
196 222 255
196 222 255
196 222 255
196 222 255
196 222 255
196 222 255
196 222 255
196 222 255
196 222 255
196 222 255
196 221 255
196 221 255
195 221 255
195 221 255
195 221 255
195 221 255
195 221 255
195 221 255
195 221 255
195 221 255
195 221 255
195 221 255
195 221 255
195 221 255
195 221 255
195 221 255
195 221 255
195 221 255
195 221 255
195 221 255
195 221 255
195 221 255
195 221 255
195 221 255
195 221 255
195 221 255
195 221 255
195 221 255
195 221 255
195 221 255
195 221 255
195 221 255
195 221 255
195 221 255
195 221 255
195 221 255
195 221 255
195 221 255
195 221 255
195 221 255
195 221 255
195 221 255
195 221 255
195 221 255
195 221 255
195 221 255
195 221 255
195 221 255
195 221 255
195 221 255
195 221 255
195 221 255
195 221 255
195 221 255
195 221 255
195 221 255
195 221 255
195 221 255
195 221 255
195 221 255
195 221 255
195 221 255
196 221 255
196 221 255
196 222 255
196 222 255
196 222 255
196 222 255
196 222 255
196 222 255
196 222 255
196 222 255
196 222 255
196 222 255
196 222 255
196 222 255
196 222 255
196 222 255
196 222 255
196 222 255
196 222 255
196 222 255
196 222 255
196 222 255
197 222 255
197 222 255
197 222 255
197 222 255
197 222 255
197 222 255
197 222 255
197 222 255
197 222 255
197 222 255
197 222 255
197 222 255
197 222 255
197 222 255
197 222 255
197 222 255
197 222 255
198 223 255
198 223 255
198 223 255
198 223 255
198 223 255
198 223 255
198 223 255
198 223 255
198 223 255
198 223 255
198 223 255
198 223 255
198 223 255
198 223 255
198 223 255
198 223 255
199 223 255
199 223 255
199 223 255
199 223 255
199 223 255
199 223 255
199 223 255
199 223 255
199 223 255
199 223 255
199 223 255
199 223 255
199 224 255
199 224 255
200 224 255
200 224 255
200 224 255
200 224 255
200 224 255
200 224 255
200 224 255
200 224 255
200 224 255
200 224 255
200 224 255
200 224 255
200 224 255
200 224 255
200 224 255
201 224 255
201 224 255
201 224 255
201 224 255
201 224 255
201 224 255
201 224 255
201 224 255
201 224 255
201 224 255
201 225 255
201 225 255
201 225 255
201 225 255
202 225 255
202 225 255
202 225 255
202 225 255
202 225 255
202 225 255
202 225 255
202 225 255
202 225 255
202 225 255
202 225 255
202 225 255
202 225 255
202 225 255
202 225 255
203 225 255
203 225 255
203 225 255
203 225 255
203 225 255
203 225 255
203 225 255
203 225 255
203 225 255
203 226 255
203 226 255
203 226 255
203 226 255
203 226 255
203 226 255
203 226 255
204 226 255
204 226 255
204 226 255
204 226 255
204 226 255
204 226 255
204 226 255
204 226 255
204 226 255
204 226 255
204 226 255
204 226 255
204 226 255
204 226 255
204 226 255
204 226 255
204 226 255
205 226 255
205 226 255
205 226 255
205 226 255
205 226 255
205 226 255
205 226 255
205 227 255
205 227 255
205 227 255
205 227 255
205 227 255
205 227 255
205 227 255
205 227 255
205 227 255
205 227 255
205 227 255
206 227 255
206 227 255
206 227 255
206 227 255
206 227 255
206 227 255
206 227 255
206 227 255
206 227 255
206 227 255
206 227 255
206 227 255
206 227 255
206 227 255
205 227 255
205 227 255
205 227 255
205 227 255
205 227 255
205 227 255
205 227 255
205 227 255
205 227 255
205 227 255
205 227 255
205 226 255
205 226 255
205 226 255
205 226 255
205 226 255
205 226 255
205 226 255
204 226 255
204 226 255
204 226 255
204 226 255
204 226 255
204 226 255
204 226 255
204 226 255
204 226 255
204 226 255
204 226 255
204 226 255
204 226 255
204 226 255
204 226 255
204 226 255
204 226 255
203 226 255
203 226 255
203 226 255
203 226 255
203 226 255
203 226 255
203 226 255
203 225 255
203 225 255
203 225 255
203 225 255
203 225 255
203 225 255
203 225 255
203 225 255
203 225 255
202 225 255
202 225 255
202 225 255
202 225 255
202 225 255
202 225 255
202 225 255
202 225 255
202 225 255
202 225 255
202 225 255
202 225 255
202 225 255
202 225 255
202 225 255
201 225 255
201 225 255
201 225 255
201 225 255
201 224 255
201 224 255
201 224 255
201 224 255
201 224 255
201 224 255
201 224 255
201 224 255
201 224 255
201 224 255
201 224 255
200 224 255
200 224 255
200 224 255
200 224 255
200 224 255
200 224 255
200 224 255
200 224 255
200 224 255
200 224 255
200 224 255
200 224 255
200 224 255
200 224 255
199 224 255
199 224 255
199 223 255
199 223 255
199 223 255
199 223 255
199 223 255
199 223 255
199 223 255
199 223 255
199 223 255
199 223 255
199 223 255
199 223 255
199 223 255
198 223 255
198 223 255
198 223 255
198 223 255
198 223 255
198 223 255
198 223 255
198 223 255
198 223 255
198 223 255
198 223 255
198 223 255
198 223 255
198 223 255
198 223 255
197 223 255
197 222 255
197 222 255
197 222 255
197 222 255
197 222 255
197 222 255
197 222 255
197 222 255
197 222 255
197 222 255
197 222 255
197 222 255
197 222 255
197 222 255
197 222 255
197 222 255
197 222 255
196 222 255
196 222 255
196 222 255
196 222 255
196 222 255
196 222 255
196 222 255
196 222 255
196 222 255
196 222 255
196 222 255
196 222 255
196 222 255
196 222 255
196 222 255
196 222 255
196 222 255
196 222 255
196 222 255
196 222 255
196 222 255
196 221 255
196 221 255
196 221 255
195 221 255
195 221 255
195 221 255
195 221 255
195 221 255
195 221 255
195 221 255
195 221 255
195 221 255
195 221 255
195 221 255
195 221 255
195 221 255
195 221 255
195 221 255
195 221 255
195 221 255
195 221 255
195 221 255
195 221 255
195 221 255
195 221 255
195 221 255
195 221 255
195 221 255
195 221 255
195 221 255
195 221 255
195 221 255
195 221 255
195 221 255
195 221 255
195 221 255
195 221 255
195 221 255
195 221 255
195 221 255
195 221 255
195 221 255
195 221 255
195 221 255
195 221 255
195 221 255
195 221 255
195 221 255
195 221 255
195 221 255
195 221 255
195 221 255
195 221 255
196 221 255
196 221 255
196 221 255
196 222 255
196 222 255
196 222 255
196 222 255
196 222 255
196 222 255
196 222 255
196 222 255
196 222 255
196 222 255
196 222 255
196 222 255
196 222 255
196 222 255
196 222 255
196 222 255
196 222 255
196 222 255
196 222 255
196 222 255
196 222 255
197 222 255
197 222 255
197 222 255
197 222 255
197 222 255
197 222 255
197 222 255
197 222 255
197 222 255
197 222 255
197 222 255
197 222 255
197 222 255
197 222 255
197 222 255
197 222 255
197 222 255
197 223 255
198 223 255
198 223 255
198 223 255
198 223 255
198 223 255
198 223 255
198 223 255
198 223 255
198 223 255
198 223 255
198 223 255
198 223 255
198 223 255
198 223 255
198 223 255
199 223 255
199 223 255
199 223 255
199 223 255
199 223 255
199 223 255
199 223 255
199 223 255
199 223 255
199 223 255
199 223 255
199 223 255
199 223 255
199 224 255
199 224 255
200 224 255
200 224 255
200 224 255
200 224 255
200 224 255
200 224 255
200 224 255
200 224 255
200 224 255
200 224 255
200 224 255
200 224 255
200 224 255
200 224 255
201 224 255
201 224 255
201 224 255
201 224 255
201 224 255
201 224 255
201 224 255
201 224 255
201 224 255
201 224 255
201 224 255
201 225 255
201 225 255
201 225 255
201 225 255
202 225 255
202 225 255
202 225 255
202 225 255
202 225 255
202 225 255
202 225 255
202 225 255
202 225 255
202 225 255
202 225 255
202 225 255
202 225 255
202 225 255
202 225 255
203 225 255
203 225 255
203 225 255
203 225 255
203 225 255
203 225 255
203 225 255
203 225 255
203 225 255
203 226 255
203 226 255
203 226 255
203 226 255
203 226 255
203 226 255
203 226 255
204 226 255
204 226 255
204 226 255
204 226 255
204 226 255
204 226 255
204 226 255
204 226 255
204 226 255
204 226 255
204 226 255
204 226 255
204 226 255
204 226 255
204 226 255
204 226 255
204 226 255
205 226 255
205 226 255
205 226 255
205 226 255
205 226 255
205 226 255
205 226 255
205 227 255
205 227 255
205 227 255
205 227 255
205 227 255
205 227 255
205 227 255
205 227 255
205 227 255
205 227 255
205 227 255
206 227 255
206 227 255
206 227 255
206 227 255
206 227 255
206 227 255
206 227 255
206 227 255
206 227 255
206 227 255
206 227 255
206 227 255
206 227 255
206 227 255
206 227 255
206 227 255
206 227 255
206 227 255
206 227 255
205 227 255
205 227 255
205 227 255
205 227 255
205 227 255
205 227 255
205 227 255
205 227 255
205 227 255
205 227 255
205 227 255
205 226 255
205 226 255
205 226 255
205 226 255
205 226 255
205 226 255
205 226 255
204 226 255
204 226 255
204 226 255
204 226 255
204 226 255
204 226 255
204 226 255
204 226 255
204 226 255
204 226 255
204 226 255
204 226 255
204 226 255
204 226 255
204 226 255
204 226 255
204 226 255
203 226 255
203 226 255
203 226 255
203 226 255
203 226 255
203 226 255
203 226 255
203 225 255
203 225 255
203 225 255
203 225 255
203 225 255
203 225 255
203 225 255
203 225 255
202 225 255
202 225 255
202 225 255
202 225 255
202 225 255
202 225 255
202 225 255
202 225 255
202 225 255
202 225 255
202 225 255
202 225 255
202 225 255
202 225 255
202 225 255
201 225 255
201 225 255
201 225 255
201 225 255
201 225 255
201 224 255
201 224 255
201 224 255
201 224 255
201 224 255
201 224 255
201 224 255
201 224 255
201 224 255
201 224 255
200 224 255
200 224 255
200 224 255
200 224 255
200 224 255
200 224 255
200 224 255
200 224 255
200 224 255
200 224 255
200 224 255
200 224 255
200 224 255
200 224 255
200 224 255
199 224 255
199 224 255
199 223 255
199 223 255
199 223 255
199 223 255
199 223 255
199 223 255
199 223 255
199 223 255
199 223 255
199 223 255
199 223 255
199 223 255
198 223 255
198 223 255
198 223 255
198 223 255
198 223 255
198 223 255
198 223 255
198 223 255
198 223 255
198 223 255
198 223 255
198 223 255
198 223 255
198 223 255
198 223 255
198 223 255
197 222 255
197 222 255
197 222 255
197 222 255
197 222 255
197 222 255
197 222 255
197 222 255
197 222 255
197 222 255
197 222 255
197 222 255
197 222 255
197 222 255
197 222 255
197 222 255
197 222 255
197 222 255
196 222 255
196 222 255
196 222 255
196 222 255
196 222 255
196 222 255
196 222 255
196 222 255
196 222 255
196 222 255
196 222 255
196 222 255
196 222 255
196 222 255
196 222 255
196 222 255
196 222 255
196 222 255
196 222 255
196 222 255
196 222 255
196 222 255
196 222 255
196 221 255
196 221 255
196 221 255
196 221 255
195 221 255
195 221 255
195 221 255
195 221 255
195 221 255
195 221 255
195 221 255
195 221 255
195 221 255
195 221 255
195 221 255
195 221 255
195 221 255
195 221 255
195 221 255
195 221 255
195 221 255
195 221 255
195 221 255
195 221 255
195 221 255
195 221 255
195 221 255
195 221 255
195 221 255
195 221 255
195 221 255
195 221 255
195 221 255
195 221 255
195 221 255
195 221 255
195 221 255
195 221 255
195 221 255
195 221 255
195 221 255
195 221 255
196 221 255
196 221 255
196 221 255
196 222 255
196 222 255
196 222 255
196 222 255
196 222 255
196 222 255
196 222 255
196 222 255
196 222 255
196 222 255
196 222 255
196 222 255
196 222 255
196 222 255
196 222 255
196 222 255
196 222 255
196 222 255
196 222 255
196 222 255
196 222 255
196 222 255
196 222 255
196 222 255
197 222 255
197 222 255
197 222 255
197 222 255
197 222 255
197 222 255
197 222 255
197 222 255
197 222 255
197 222 255
197 222 255
197 222 255
197 222 255
197 222 255
197 222 255
197 222 255
197 222 255
197 222 255
198 223 255
198 223 255
198 223 255
198 223 255
198 223 255
198 223 255
198 223 255
198 223 255
198 223 255
198 223 255
198 223 255
198 223 255
198 223 255
198 223 255
198 223 255
198 223 255
199 223 255
199 223 255
199 223 255
199 223 255
199 223 255
199 223 255
199 223 255
199 223 255
199 223 255
199 223 255
199 223 255
199 223 255
199 224 255
199 224 255
199 224 255
200 224 255
200 224 255
200 224 255
200 224 255
200 224 255
200 224 255
200 224 255
200 224 255
200 224 255
200 224 255
200 224 255
200 224 255
200 224 255
200 224 255
201 224 255
201 224 255
201 224 255
201 224 255
201 224 255
201 224 255
201 224 255
201 224 255
201 224 255
201 224 255
201 225 255
201 225 255
201 225 255
201 225 255
201 225 255
202 225 255
202 225 255
202 225 255
202 225 255
202 225 255
202 225 255
202 225 255
202 225 255
202 225 255
202 225 255
202 225 255
202 225 255
202 225 255
202 225 255
202 225 255
203 225 255
203 225 255
203 225 255
203 225 255
203 225 255
203 225 255
203 225 255
203 225 255
203 226 255
203 226 255
203 226 255
203 226 255
203 226 255
203 226 255
203 226 255
204 226 255
204 226 255
204 226 255
204 226 255
204 226 255
204 226 255
204 226 255
204 226 255
204 226 255
204 226 255
204 226 255
204 226 255
204 226 255
204 226 255
204 226 255
204 226 255
204 226 255
205 226 255
205 226 255
205 226 255
205 226 255
205 226 255
205 226 255
205 226 255
205 227 255
205 227 255
205 227 255
205 227 255
205 227 255
205 227 255
205 227 255
205 227 255
205 227 255
205 227 255
205 227 255
206 227 255
206 227 255
206 227 255
206 227 255
206 227 255
206 227 255
206 227 255
206 227 255
206 227 255
206 227 255
206 227 255
206 227 255
206 227 255
206 227 255
206 227 255
206 227 255
206 227 255
206 227 255
206 227 255
206 227 255
206 227 255
206 227 255
206 227 255
206 227 255
205 227 255
205 227 255
205 227 255
205 227 255
205 227 255
205 227 255
205 227 255
205 227 255
205 227 255
205 227 255
205 227 255
205 226 255
205 226 255
205 226 255
205 226 255
205 226 255
205 226 255
205 226 255
204 226 255
204 226 255
204 226 255
204 226 255
204 226 255
204 226 255
204 226 255
204 226 255
204 226 255
204 226 255
204 226 255
204 226 255
204 226 255
204 226 255
204 226 255
204 226 255
204 226 255
203 226 255
203 226 255
203 226 255
203 226 255
203 226 255
203 226 255
203 226 255
203 225 255
203 225 255
203 225 255
203 225 255
203 225 255
203 225 255
203 225 255
203 225 255
203 225 255
202 225 255
202 225 255
202 225 255
202 225 255
202 225 255
202 225 255
202 225 255
202 225 255
202 225 255
202 225 255
202 225 255
202 225 255
202 225 255
202 225 255
202 225 255
201 225 255
201 225 255
201 225 255
201 225 255
201 224 255
201 224 255
201 224 255
201 224 255
201 224 255
201 224 255
201 224 255
201 224 255
201 224 255
201 224 255
200 224 255
200 224 255
200 224 255
200 224 255
200 224 255
200 224 255
200 224 255
200 224 255
200 224 255
200 224 255
200 224 255
200 224 255
200 224 255
200 224 255
200 224 255
199 224 255
199 224 255
199 223 255
199 223 255
199 223 255
199 223 255
199 223 255
199 223 255
199 223 255
199 223 255
199 223 255
199 223 255
199 223 255
199 223 255
199 223 255
198 223 255
198 223 255
198 223 255
198 223 255
198 223 255
198 223 255
198 223 255
198 223 255
198 223 255
198 223 255
198 223 255
198 223 255
198 223 255
198 223 255
198 223 255
197 223 255
197 222 255
197 222 255
197 222 255
197 222 255
197 222 255
197 222 255
197 222 255
197 222 255
197 222 255
197 222 255
197 222 255
197 222 255
197 222 255
197 222 255
197 222 255
197 222 255
197 222 255
197 222 255
196 222 255
196 222 255
196 222 255
196 222 255
196 222 255
196 222 255
196 222 255
196 222 255
196 222 255
196 222 255
196 222 255
196 222 255
196 222 255
196 222 255
196 222 255
196 222 255
196 222 255
196 222 255
196 222 255
196 222 255
196 222 255
196 222 255
196 222 255
196 222 255
196 222 255
196 222 255
196 222 255
196 221 255
196 221 255
196 221 255
196 221 255
196 221 255
196 221 255
195 221 255
195 221 255
195 221 255
195 221 255
195 221 255
195 221 255
195 221 255
195 221 255
195 221 255
195 221 255
195 221 255
195 221 255
195 221 255
195 221 255
195 221 255
195 221 255
195 221 255
195 221 255
195 221 255
195 221 255
196 221 255
196 221 255
196 221 255
196 221 255
196 221 255
196 221 255
196 222 255
196 222 255
196 222 255
196 222 255
196 222 255
196 222 255
196 222 255
196 222 255
196 222 255
196 222 255
196 222 255
196 222 255
196 222 255
196 222 255
196 222 255
196 222 255
196 222 255
196 222 255
196 222 255
196 222 255
196 222 255
196 222 255
196 222 255
196 222 255
196 222 255
196 222 255
196 222 255
197 222 255
197 222 255
197 222 255
197 222 255
197 222 255
197 222 255
197 222 255
197 222 255
197 222 255
197 222 255
197 222 255
197 222 255
197 222 255
197 222 255
197 222 255
197 222 255
197 222 255
197 222 255
197 223 255
198 223 255
198 223 255
198 223 255
198 223 255
198 223 255
198 223 255
198 223 255
198 223 255
198 223 255
198 223 255
198 223 255
198 223 255
198 223 255
198 223 255
198 223 255
198 223 255
199 223 255
199 223 255
199 223 255
199 223 255
199 223 255
199 223 255
199 223 255
199 223 255
199 223 255
199 223 255
199 223 255
199 223 255
199 224 255
199 224 255
200 224 255
200 224 255
200 224 255
200 224 255
200 224 255
200 224 255
200 224 255
200 224 255
200 224 255
200 224 255
200 224 255
200 224 255
200 224 255
200 224 255
200 224 255
201 224 255
201 224 255
201 224 255
201 224 255
201 224 255
201 224 255
201 224 255
201 224 255
201 224 255
201 224 255
201 225 255
201 225 255
201 225 255
201 225 255
202 225 255
202 225 255
202 225 255
202 225 255
202 225 255
202 225 255
202 225 255
202 225 255
202 225 255
202 225 255
202 225 255
202 225 255
202 225 255
202 225 255
202 225 255
203 225 255
203 225 255
203 225 255
203 225 255
203 225 255
203 225 255
203 225 255
203 225 255
203 225 255
203 226 255
203 226 255
203 226 255
203 226 255
203 226 255
203 226 255
203 226 255
204 226 255
204 226 255
204 226 255
204 226 255
204 226 255
204 226 255
204 226 255
204 226 255
204 226 255
204 226 255
204 226 255
204 226 255
204 226 255
204 226 255
204 226 255
204 226 255
204 226 255
205 226 255
205 226 255
205 226 255
205 226 255
205 226 255
205 226 255
205 226 255
205 227 255
205 227 255
205 227 255
205 227 255
205 227 255
205 227 255
205 227 255
205 227 255
205 227 255
205 227 255
205 227 255
206 227 255
206 227 255
206 227 255
206 227 255
206 227 255
206 227 255
206 227 255
206 227 255
206 227 255
206 227 255
206 227 255
206 227 255
206 227 255
206 227 255
206 227 255
206 227 255
206 227 255
206 227 255
206 227 255
206 227 255
206 227 255
206 227 255
206 227 255
206 227 255
206 227 255
206 227 255
206 227 255
206 227 255
206 227 255
205 227 255
205 227 255
205 227 255
205 227 255
205 227 255
205 227 255
205 227 255
205 227 255
205 227 255
205 227 255
205 227 255
205 226 255
205 226 255
205 226 255
205 226 255
205 226 255
205 226 255
205 226 255
204 226 255
204 226 255
204 226 255
204 226 255
204 226 255
204 226 255
204 226 255
204 226 255
204 226 255
204 226 255
204 226 255
204 226 255
204 226 255
204 226 255
204 226 255
204 226 255
203 226 255
203 226 255
203 226 255
203 226 255
203 226 255
203 226 255
203 226 255
203 225 255
203 225 255
203 225 255
203 225 255
203 225 255
203 225 255
203 225 255
203 225 255
203 225 255
202 225 255
202 225 255
202 225 255
202 225 255
202 225 255
202 225 255
202 225 255
202 225 255
202 225 255
202 225 255
202 225 255
202 225 255
202 225 255
202 225 255
202 225 255
201 225 255
201 225 255
201 225 255
201 225 255
201 224 255
201 224 255
201 224 255
201 224 255
201 224 255
201 224 255
201 224 255
201 224 255
201 224 255
201 224 255
200 224 255
200 224 255
200 224 255
200 224 255
200 224 255
200 224 255
200 224 255
200 224 255
200 224 255
200 224 255
200 224 255
200 224 255
200 224 255
200 224 255
200 224 255
199 224 255
199 224 255
199 223 255
199 223 255
199 223 255
199 223 255
199 223 255
199 223 255
199 223 255
199 223 255
199 223 255
199 223 255
199 223 255
199 223 255
199 223 255
198 223 255
198 223 255
198 223 255
198 223 255
198 223 255
198 223 255
198 223 255
198 223 255
198 223 255
198 223 255
198 223 255
198 223 255
198 223 255
198 223 255
198 223 255
198 223 255
197 223 255
197 222 255
197 222 255
197 222 255
197 222 255
197 222 255
197 222 255
197 222 255
197 222 255
197 222 255
197 222 255
197 222 255
197 222 255
197 222 255
197 222 255
197 222 255
197 222 255
197 222 255
197 222 255
197 222 255
196 222 255
196 222 255
196 222 255
196 222 255
196 222 255
196 222 255
196 222 255
196 222 255
196 222 255
196 222 255
196 222 255
196 222 255
196 222 255
196 222 255
196 222 255
196 222 255
196 222 255
196 222 255
196 222 255
196 222 255
196 222 255
196 222 255
196 222 255
196 222 255
196 222 255
196 222 255
196 222 255
196 222 255
196 222 255
196 222 255
196 222 255
196 222 255
196 222 255
196 222 255
196 222 255
196 222 255
196 222 255
196 222 255
196 222 255
196 222 255
196 222 255
196 222 255
196 222 255
196 222 255
196 222 255
196 222 255
196 222 255
196 222 255
196 222 255
196 222 255
196 222 255
196 222 255
196 222 255
196 222 255
196 222 255
196 222 255
196 222 255
196 222 255
196 222 255
196 222 255
196 222 255
196 222 255
196 222 255
196 222 255
196 222 255
196 222 255
196 222 255
196 222 255
196 222 255
196 222 255
196 222 255
196 222 255
196 222 255
196 222 255
196 222 255
196 222 255
196 222 255
196 222 255
197 222 255
197 222 255
197 222 255
197 222 255
197 222 255
197 222 255
197 222 255
197 222 255
197 222 255
197 222 255
197 222 255
197 222 255
197 222 255
197 222 255
197 222 255
197 222 255
197 222 255
197 222 255
197 222 255
197 223 255
198 223 255
198 223 255
198 223 255
198 223 255
198 223 255
198 223 255
198 223 255
198 223 255
198 223 255
198 223 255
198 223 255
198 223 255
198 223 255
198 223 255
198 223 255
198 223 255
199 223 255
199 223 255
199 223 255
199 223 255
199 223 255
199 223 255
199 223 255
199 223 255
199 223 255
199 223 255
199 223 255
199 223 255
199 224 255
199 224 255
199 224 255
200 224 255
200 224 255
200 224 255
200 224 255
200 224 255
200 224 255
200 224 255
200 224 255
200 224 255
200 224 255
200 224 255
200 224 255
200 224 255
200 224 255
200 224 255
201 224 255
201 224 255
201 224 255
201 224 255
201 224 255
201 224 255
201 224 255
201 224 255
201 224 255
201 224 255
201 225 255
201 225 255
201 225 255
201 225 255
202 225 255
202 225 255
202 225 255
202 225 255
202 225 255
202 225 255
202 225 255
202 225 255
202 225 255
202 225 255
202 225 255
202 225 255
202 225 255
202 225 255
202 225 255
203 225 255
203 225 255
203 225 255
203 225 255
203 225 255
203 225 255
203 225 255
203 225 255
203 225 255
203 226 255
203 226 255
203 226 255
203 226 255
203 226 255
203 226 255
203 226 255
204 226 255
204 226 255
204 226 255
204 226 255
204 226 255
204 226 255
204 226 255
204 226 255
204 226 255
204 226 255
204 226 255
204 226 255
204 226 255
204 226 255
204 226 255
204 226 255
205 226 255
205 226 255
205 226 255
205 226 255
205 226 255
205 226 255
205 226 255
205 227 255
205 227 255
205 227 255
205 227 255
205 227 255
205 227 255
205 227 255
205 227 255
205 227 255
205 227 255
205 227 255
206 227 255
206 227 255
206 227 255
206 227 255
206 227 255
206 227 255
206 227 255
206 227 255
206 227 255
206 227 255
206 227 255
206 227 255
206 227 255
206 227 255
206 227 255
206 227 255
206 227 255
206 227 255
206 227 255
206 227 255
206 227 255
206 227 255
206 227 255
206 227 255
206 227 255
206 227 255
206 227 255
206 227 255
206 227 255
206 227 255
206 227 255
206 227 255
206 227 255
206 227 255
205 227 255
205 227 255
205 227 255
205 227 255
205 227 255
205 227 255
205 227 255
205 227 255
205 227 255
205 227 255
205 227 255
205 226 255
205 226 255
205 226 255
205 226 255
205 226 255
205 226 255
205 226 255
204 226 255
204 226 255
204 226 255
204 226 255
204 226 255
204 226 255
204 226 255
204 226 255
204 226 255
204 226 255
204 226 255
204 226 255
204 226 255
204 226 255
204 226 255
204 226 255
204 226 255
203 226 255
203 226 255
203 226 255
203 226 255
203 226 255
203 226 255
203 226 255
203 225 255
203 225 255
203 225 255
203 225 255
203 225 255
203 225 255
203 225 255
203 225 255
202 225 255
202 225 255
202 225 255
202 225 255
202 225 255
202 225 255
202 225 255
202 225 255
202 225 255
202 225 255
202 225 255
202 225 255
202 225 255
202 225 255
202 225 255
201 225 255
201 225 255
201 225 255
201 225 255
201 225 255
201 224 255
201 224 255
201 224 255
201 224 255
201 224 255
201 224 255
201 224 255
201 224 255
201 224 255
201 224 255
200 224 255
200 224 255
200 224 255
200 224 255
200 224 255
200 224 255
200 224 255
200 224 255
200 224 255
200 224 255
200 224 255
200 224 255
200 224 255
200 224 255
199 224 255
199 224 255
199 224 255
199 223 255
199 223 255
199 223 255
199 223 255
199 223 255
199 223 255
199 223 255
199 223 255
199 223 255
199 223 255
199 223 255
199 223 255
199 223 255
198 223 255
198 223 255
198 223 255
198 223 255
198 223 255
198 223 255
198 223 255
198 223 255
198 223 255
198 223 255
198 223 255
198 223 255
198 223 255
198 223 255
198 223 255
198 223 255
197 223 255
197 222 255
197 222 255
197 222 255
197 222 255
197 222 255
197 222 255
197 222 255
197 222 255
197 222 255
197 222 255
197 222 255
197 222 255
197 222 255
197 222 255
197 222 255
197 222 255
197 222 255
197 222 255
197 222 255
196 222 255
196 222 255
196 222 255
196 222 255
196 222 255
196 222 255
196 222 255
196 222 255
196 222 255
196 222 255
196 222 255
196 222 255
196 222 255
196 222 255
196 222 255
196 222 255
196 222 255
196 222 255
196 222 255
196 222 255
196 222 255
196 222 255
196 222 255
196 222 255
196 222 255
196 222 255
196 222 255
196 222 255
196 222 255
196 222 255
196 222 255
196 222 255
196 222 255
196 222 255
196 222 255
196 222 255
196 222 255
196 222 255
196 222 255
196 222 255
196 222 255
196 222 255
196 222 255
196 222 255
196 222 255
196 222 255
196 222 255
196 222 255
196 222 255
196 222 255
196 222 255
196 222 255
196 222 255
196 222 255
196 222 255
196 222 255
196 222 255
196 222 255
196 222 255
196 222 255
196 222 255
196 222 255
196 222 255
196 222 255
196 222 255
196 222 255
196 222 255
196 222 255
196 222 255
196 222 255
196 222 255
196 222 255
197 222 255
197 222 255
197 222 255
197 222 255
197 222 255
197 222 255
197 222 255
197 222 255
197 222 255
197 222 255
197 222 255
197 222 255
197 222 255
197 222 255
197 222 255
197 222 255
197 222 255
197 222 255
197 222 255
197 223 255
198 223 255
198 223 255
198 223 255
198 223 255
198 223 255
198 223 255
198 223 255
198 223 255
198 223 255
198 223 255
198 223 255
198 223 255
198 223 255
198 223 255
198 223 255
198 223 255
199 223 255
199 223 255
199 223 255
199 223 255
199 223 255
199 223 255
199 223 255
199 223 255
199 223 255
199 223 255
199 223 255
199 223 255
199 223 255
199 224 255
199 224 255
200 224 255
200 224 255
200 224 255
200 224 255
200 224 255
200 224 255
200 224 255
200 224 255
200 224 255
200 224 255
200 224 255
200 224 255
200 224 255
200 224 255
200 224 255
201 224 255
201 224 255
201 224 255
201 224 255
201 224 255
201 224 255
201 224 255
201 224 255
201 224 255
201 224 255
201 225 255
201 225 255
201 225 255
201 225 255
201 225 255
202 225 255
202 225 255
202 225 255
202 225 255
202 225 255
202 225 255
202 225 255
202 225 255
202 225 255
202 225 255
202 225 255
202 225 255
202 225 255
202 225 255
202 225 255
203 225 255
203 225 255
203 225 255
203 225 255
203 225 255
203 225 255
203 225 255
203 225 255
203 226 255
203 226 255
203 226 255
203 226 255
203 226 255
203 226 255
203 226 255
204 226 255
204 226 255
204 226 255
204 226 255
204 226 255
204 226 255
204 226 255
204 226 255
204 226 255
204 226 255
204 226 255
204 226 255
204 226 255
204 226 255
204 226 255
204 226 255
204 226 255
205 226 255
205 226 255
205 226 255
205 226 255
205 226 255
205 226 255
205 226 255
205 227 255
205 227 255
205 227 255
205 227 255
205 227 255
205 227 255
205 227 255
205 227 255
205 227 255
205 227 255
205 227 255
206 227 255
206 227 255
206 227 255
206 227 255
206 227 255
206 227 255
206 227 255
206 227 255
206 227 255
206 227 255
206 227 255
206 227 255
206 227 255
206 227 255
206 227 255
206 227 255
206 227 255
206 227 255
207 227 255
207 227 255
206 227 255
206 227 255
206 227 255
206 227 255
206 227 255
206 227 255
206 227 255
206 227 255
206 227 255
206 227 255
206 227 255
206 227 255
206 227 255
206 227 255
206 227 255
206 227 255
206 227 255
206 227 255
206 227 255
205 227 255
205 227 255
205 227 255
205 227 255
205 227 255
205 227 255
205 227 255
205 227 255
205 227 255
205 227 255
205 227 255
205 226 255
205 226 255
205 226 255
205 226 255
205 226 255
205 226 255
205 226 255
204 226 255
204 226 255
204 226 255
204 226 255
204 226 255
204 226 255
204 226 255
204 226 255
204 226 255
204 226 255
204 226 255
204 226 255
204 226 255
204 226 255
204 226 255
204 226 255
203 226 255
203 226 255
203 226 255
203 226 255
203 226 255
203 226 255
203 226 255
203 225 255
203 225 255
203 225 255
203 225 255
203 225 255
203 225 255
203 225 255
203 225 255
203 225 255
202 225 255
202 225 255
202 225 255
202 225 255
202 225 255
202 225 255
202 225 255
202 225 255
202 225 255
202 225 255
202 225 255
202 225 255
202 225 255
202 225 255
201 225 255
201 225 255
201 225 255
201 225 255
201 225 255
201 224 255
201 224 255
201 224 255
201 224 255
201 224 255
201 224 255
201 224 255
201 224 255
201 224 255
201 224 255
200 224 255
200 224 255
200 224 255
200 224 255
200 224 255
200 224 255
200 224 255
200 224 255
200 224 255
200 224 255
200 224 255
200 224 255
200 224 255
200 224 255
200 224 255
199 224 255
199 224 255
199 223 255
199 223 255
199 223 255
199 223 255
199 223 255
199 223 255
199 223 255
199 223 255
199 223 255
199 223 255
199 223 255
199 223 255
199 223 255
198 223 255
198 223 255
198 223 255
198 223 255
198 223 255
198 223 255
198 223 255
198 223 255
198 223 255
198 223 255
198 223 255
198 223 255
198 223 255
198 223 255
198 223 255
198 223 255
198 223 255
197 223 255
197 222 255
197 222 255
197 222 255
197 222 255
197 222 255
197 222 255
197 222 255
197 222 255
197 222 255
197 222 255
197 222 255
197 222 255
197 222 255
197 222 255
197 222 255
197 222 255
197 222 255
197 222 255
197 222 255
197 222 255
197 222 255
196 222 255
196 222 255
196 222 255
196 222 255
196 222 255
196 222 255
196 222 255
196 222 255
196 222 255
196 222 255
196 222 255
196 222 255
196 222 255
196 222 255
196 222 255
196 222 255
196 222 255
196 222 255
196 222 255
196 222 255
196 222 255
196 222 255
196 222 255
196 222 255
196 222 255
196 222 255
196 222 255
196 222 255
196 222 255
196 222 255
196 222 255
196 222 255
196 222 255
196 222 255
196 222 255
196 222 255
196 222 255
196 222 255
196 222 255
196 222 255
196 222 255
196 222 255
196 222 255
196 222 255
196 222 255
196 222 255
196 222 255
196 222 255
196 222 255
196 222 255
196 222 255
196 222 255
196 222 255
196 222 255
196 222 255
196 222 255
196 222 255
196 222 255
196 222 255
196 222 255
196 222 255
196 222 255
197 222 255
197 222 255
197 222 255
197 222 255
197 222 255
197 222 255
197 222 255
197 222 255
197 222 255
197 222 255
197 222 255
197 222 255
197 222 255
197 222 255
197 222 255
197 222 255
197 222 255
197 222 255
197 222 255
197 222 255
197 222 255
197 223 255
198 223 255
198 223 255
198 223 255
198 223 255
198 223 255
198 223 255
198 223 255
198 223 255
198 223 255
198 223 255
198 223 255
198 223 255
198 223 255
198 223 255
198 223 255
198 223 255
198 223 255
199 223 255
199 223 255
199 223 255
199 223 255
199 223 255
199 223 255
199 223 255
199 223 255
199 223 255
199 223 255
199 223 255
199 223 255
199 223 255
199 224 255
199 224 255
200 224 255
200 224 255
200 224 255
200 224 255
200 224 255
200 224 255
200 224 255
200 224 255
200 224 255
200 224 255
200 224 255
200 224 255
200 224 255
200 224 255
200 224 255
201 224 255
201 224 255
201 224 255
201 224 255
201 224 255
201 224 255
201 224 255
201 224 255
201 224 255
201 224 255
201 225 255
201 225 255
201 225 255
201 225 255
202 225 255
202 225 255
202 225 255
202 225 255
202 225 255
202 225 255
202 225 255
202 225 255
202 225 255
202 225 255
202 225 255
202 225 255
202 225 255
202 225 255
202 225 255
203 225 255
203 225 255
203 225 255
203 225 255
203 225 255
203 225 255
203 225 255
203 225 255
203 225 255
203 226 255
203 226 255
203 226 255
203 226 255
203 226 255
203 226 255
203 226 255
204 226 255
204 226 255
204 226 255
204 226 255
204 226 255
204 226 255
204 226 255
204 226 255
204 226 255
204 226 255
204 226 255
204 226 255
204 226 255
204 226 255
204 226 255
204 226 255
205 226 255
205 226 255
205 226 255
205 226 255
205 226 255
205 226 255
205 226 255
205 227 255
205 227 255
205 227 255
205 227 255
205 227 255
205 227 255
205 227 255
205 227 255
205 227 255
205 227 255
205 227 255
206 227 255
206 227 255
206 227 255
206 227 255
206 227 255
206 227 255
206 227 255
206 227 255
206 227 255
206 227 255
206 227 255
206 227 255
206 227 255
206 227 255
206 227 255
206 227 255
206 227 255
206 227 255
206 227 255
207 227 255
207 227 255
207 227 255
207 227 255
207 227 255
207 227 255
207 227 255
206 227 255
206 227 255
206 227 255
206 227 255
206 227 255
206 227 255
206 227 255
206 227 255
206 227 255
206 227 255
206 227 255
206 227 255
206 227 255
206 227 255
206 227 255
206 227 255
206 227 255
206 227 255
206 227 255
205 227 255
205 227 255
205 227 255
205 227 255
205 227 255
205 227 255
205 227 255
205 227 255
205 227 255
205 227 255
205 226 255
205 226 255
205 226 255
205 226 255
205 226 255
205 226 255
205 226 255
204 226 255
204 226 255
204 226 255
204 226 255
204 226 255
204 226 255
204 226 255
204 226 255
204 226 255
204 226 255
204 226 255
204 226 255
204 226 255
204 226 255
204 226 255
204 226 255
204 226 255
203 226 255
203 226 255
203 226 255
203 226 255
203 226 255
203 226 255
203 225 255
203 225 255
203 225 255
203 225 255
203 225 255
203 225 255
203 225 255
203 225 255
203 225 255
202 225 255
202 225 255
202 225 255
202 225 255
202 225 255
202 225 255
202 225 255
202 225 255
202 225 255
202 225 255
202 225 255
202 225 255
202 225 255
202 225 255
202 225 255
201 225 255
201 225 255
201 225 255
201 225 255
201 224 255
201 224 255
201 224 255
201 224 255
201 224 255
201 224 255
201 224 255
201 224 255
201 224 255
201 224 255
201 224 255
200 224 255
200 224 255
200 224 255
200 224 255
200 224 255
200 224 255
200 224 255
200 224 255
200 224 255
200 224 255
200 224 255
200 224 255
200 224 255
200 224 255
199 224 255
199 224 255
199 224 255
199 223 255
199 223 255
199 223 255
199 223 255
199 223 255
199 223 255
199 223 255
199 223 255
199 223 255
199 223 255
199 223 255
199 223 255
199 223 255
198 223 255
198 223 255
198 223 255
198 223 255
198 223 255
198 223 255
198 223 255
198 223 255
198 223 255
198 223 255
198 223 255
198 223 255
198 223 255
198 223 255
198 223 255
198 223 255
198 223 255
197 223 255
197 222 255
197 222 255
197 222 255
197 222 255
197 222 255
197 222 255
197 222 255
197 222 255
197 222 255
197 222 255
197 222 255
197 222 255
197 222 255
197 222 255
197 222 255
197 222 255
197 222 255
197 222 255
197 222 255
197 222 255
197 222 255
197 222 255
197 222 255
196 222 255
196 222 255
196 222 255
196 222 255
196 222 255
196 222 255
196 222 255
196 222 255
196 222 255
196 222 255
196 222 255
196 222 255
196 222 255
196 222 255
196 222 255
196 222 255
196 222 255
196 222 255
196 222 255
196 222 255
196 222 255
196 222 255
196 222 255
196 222 255
196 222 255
196 222 255
196 222 255
196 222 255
196 222 255
196 222 255
196 222 255
196 222 255
196 222 255
196 222 255
196 222 255
196 222 255
196 222 255
196 222 255
196 222 255
196 222 255
196 222 255
196 222 255
196 222 255
196 222 255
196 222 255
196 222 255
196 222 255
196 222 255
196 222 255
196 222 255
196 222 255
196 222 255
197 222 255
197 222 255
197 222 255
197 222 255
197 222 255
197 222 255
197 222 255
197 222 255
197 222 255
197 222 255
197 222 255
197 222 255
197 222 255
197 222 255
197 222 255
197 222 255
197 222 255
197 222 255
197 222 255
197 222 255
197 222 255
197 222 255
197 222 255
197 223 255
198 223 255
198 223 255
198 223 255
198 223 255
198 223 255
198 223 255
198 223 255
198 223 255
198 223 255
198 223 255
198 223 255
198 223 255
198 223 255
198 223 255
198 223 255
198 223 255
198 223 255
199 223 255
199 223 255
199 223 255
199 223 255
199 223 255
199 223 255
199 223 255
199 223 255
199 223 255
199 223 255
199 223 255
199 223 255
199 223 255
199 224 255
199 224 255
199 224 255
200 224 255
200 224 255
200 224 255
200 224 255
200 224 255
200 224 255
200 224 255
200 224 255
200 224 255
200 224 255
200 224 255
200 224 255
200 224 255
200 224 255
201 224 255
201 224 255
201 224 255
201 224 255
201 224 255
201 224 255
201 224 255
201 224 255
201 224 255
201 224 255
201 224 255
201 225 255
201 225 255
201 225 255
201 225 255
202 225 255
202 225 255
202 225 255
202 225 255
202 225 255
202 225 255
202 225 255
202 225 255
202 225 255
202 225 255
202 225 255
202 225 255
202 225 255
202 225 255
202 225 255
203 225 255
203 225 255
203 225 255
203 225 255
203 225 255
203 225 255
203 225 255
203 225 255
203 225 255
203 226 255
203 226 255
203 226 255
203 226 255
203 226 255
203 226 255
203 226 255
204 226 255
204 226 255
204 226 255
204 226 255
204 226 255
204 226 255
204 226 255
204 226 255
204 226 255
204 226 255
204 226 255
204 226 255
204 226 255
204 226 255
204 226 255
204 226 255
205 226 255
205 226 255
205 226 255
205 226 255
205 226 255
205 226 255
205 226 255
205 227 255
205 227 255
205 227 255
205 227 255
205 227 255
205 227 255
205 227 255
205 227 255
205 227 255
205 227 255
206 227 255
206 227 255
206 227 255
206 227 255
206 227 255
206 227 255
206 227 255
206 227 255
206 227 255
206 227 255
206 227 255
206 227 255
206 227 255
206 227 255
206 227 255
206 227 255
206 227 255
206 227 255
206 227 255
206 227 255
207 227 255
207 227 255
207 227 255
207 227 255
207 228 255
207 228 255
207 227 255
207 227 255
207 227 255
207 227 255
207 227 255
206 227 255
206 227 255
206 227 255
206 227 255
206 227 255
206 227 255
206 227 255
206 227 255
206 227 255
206 227 255
206 227 255
206 227 255
206 227 255
206 227 255
206 227 255
206 227 255
206 227 255
206 227 255
206 227 255
205 227 255
205 227 255
205 227 255
205 227 255
205 227 255
205 227 255
205 227 255
205 227 255
205 227 255
205 227 255
205 227 255
205 226 255
205 226 255
205 226 255
205 226 255
205 226 255
205 226 255
205 226 255
204 226 255
204 226 255
204 226 255
204 226 255
204 226 255
204 226 255
204 226 255
204 226 255
204 226 255
204 226 255
204 226 255
204 226 255
204 226 255
204 226 255
204 226 255
204 226 255
203 226 255
203 226 255
203 226 255
203 226 255
203 226 255
203 226 255
203 226 255
203 225 255
203 225 255
203 225 255
203 225 255
203 225 255
203 225 255
203 225 255
203 225 255
203 225 255
202 225 255
202 225 255
202 225 255
202 225 255
202 225 255
202 225 255
202 225 255
202 225 255
202 225 255
202 225 255
202 225 255
202 225 255
202 225 255
202 225 255
202 225 255
201 225 255
201 225 255
201 225 255
201 225 255
201 224 255
201 224 255
201 224 255
201 224 255
201 224 255
201 224 255
201 224 255
201 224 255
201 224 255
201 224 255
200 224 255
200 224 255
200 224 255
200 224 255
200 224 255
200 224 255
200 224 255
200 224 255
200 224 255
200 224 255
200 224 255
200 224 255
200 224 255
200 224 255
200 224 255
199 224 255
199 224 255
199 223 255
199 223 255
199 223 255
199 223 255
199 223 255
199 223 255
199 223 255
199 223 255
199 223 255
199 223 255
199 223 255
199 223 255
199 223 255
199 223 255
198 223 255
198 223 255
198 223 255
198 223 255
198 223 255
198 223 255
198 223 255
198 223 255
198 223 255
198 223 255
198 223 255
198 223 255
198 223 255
198 223 255
198 223 255
198 223 255
198 223 255
198 223 255
197 222 255
197 222 255
197 222 255
197 222 255
197 222 255
197 222 255
197 222 255
197 222 255
197 222 255
197 222 255
197 222 255
197 222 255
197 222 255
197 222 255
197 222 255
197 222 255
197 222 255
197 222 255
197 222 255
197 222 255
197 222 255
197 222 255
197 222 255
197 222 255
197 222 255
197 222 255
196 222 255
196 222 255
196 222 255
196 222 255
196 222 255
196 222 255
196 222 255
196 222 255
196 222 255
196 222 255
196 222 255
196 222 255
196 222 255
196 222 255
196 222 255
196 222 255
196 222 255
196 222 255
196 222 255
196 222 255
196 222 255
196 222 255
196 222 255
196 222 255
196 222 255
196 222 255
196 222 255
196 222 255
196 222 255
196 222 255
196 222 255
196 222 255
196 222 255
196 222 255
196 222 255
196 222 255
196 222 255
196 222 255
196 222 255
196 222 255
197 222 255
197 222 255
197 222 255
197 222 255
197 222 255
197 222 255
197 222 255
197 222 255
197 222 255
197 222 255
197 222 255
197 222 255
197 222 255
197 222 255
197 222 255
197 222 255
197 222 255
197 222 255
197 222 255
197 222 255
197 222 255
197 222 255
197 222 255
197 222 255
197 222 255
197 222 255
198 223 255
198 223 255
198 223 255
198 223 255
198 223 255
198 223 255
198 223 255
198 223 255
198 223 255
198 223 255
198 223 255
198 223 255
198 223 255
198 223 255
198 223 255
198 223 255
198 223 255
198 223 255
199 223 255
199 223 255
199 223 255
199 223 255
199 223 255
199 223 255
199 223 255
199 223 255
199 223 255
199 223 255
199 223 255
199 223 255
199 223 255
199 223 255
199 224 255
199 224 255
200 224 255
200 224 255
200 224 255
200 224 255
200 224 255
200 224 255
200 224 255
200 224 255
200 224 255
200 224 255
200 224 255
200 224 255
200 224 255
200 224 255
200 224 255
201 224 255
201 224 255
201 224 255
201 224 255
201 224 255
201 224 255
201 224 255
201 224 255
201 224 255
201 224 255
201 225 255
201 225 255
201 225 255
201 225 255
201 225 255
202 225 255
202 225 255
202 225 255
202 225 255
202 225 255
202 225 255
202 225 255
202 225 255
202 225 255
202 225 255
202 225 255
202 225 255
202 225 255
202 225 255
202 225 255
203 225 255
203 225 255
203 225 255
203 225 255
203 225 255
203 225 255
203 225 255
203 225 255
203 226 255
203 226 255
203 226 255
203 226 255
203 226 255
203 226 255
203 226 255
204 226 255
204 226 255
204 226 255
204 226 255
204 226 255
204 226 255
204 226 255
204 226 255
204 226 255
204 226 255
204 226 255
204 226 255
204 226 255
204 226 255
204 226 255
204 226 255
205 226 255
205 226 255
205 226 255
205 226 255
205 226 255
205 226 255
205 226 255
205 227 255
205 227 255
205 227 255
205 227 255
205 227 255
205 227 255
205 227 255
205 227 255
205 227 255
205 227 255
205 227 255
206 227 255
206 227 255
206 227 255
206 227 255
206 227 255
206 227 255
206 227 255
206 227 255
206 227 255
206 227 255
206 227 255
206 227 255
206 227 255
206 227 255
206 227 255
206 227 255
206 227 255
206 227 255
206 227 255
207 227 255
207 227 255
207 227 255
207 227 255
207 228 255
207 228 255
207 228 255
207 228 255
207 228 255
207 228 255
207 228 255
207 228 255
207 227 255
207 227 255
207 227 255
207 227 255
207 227 255
206 227 255
206 227 255
206 227 255
206 227 255
206 227 255
206 227 255
206 227 255
206 227 255
206 227 255
206 227 255
206 227 255
206 227 255
206 227 255
206 227 255
206 227 255
206 227 255
206 227 255
206 227 255
206 227 255
205 227 255
205 227 255
205 227 255
205 227 255
205 227 255
205 227 255
205 227 255
205 227 255
205 227 255
205 227 255
205 227 255
205 226 255
205 226 255
205 226 255
205 226 255
205 226 255
205 226 255
204 226 255
204 226 255
204 226 255
204 226 255
204 226 255
204 226 255
204 226 255
204 226 255
204 226 255
204 226 255
204 226 255
204 226 255
204 226 255
204 226 255
204 226 255
204 226 255
204 226 255
203 226 255
203 226 255
203 226 255
203 226 255
203 226 255
203 226 255
203 226 255
203 225 255
203 225 255
203 225 255
203 225 255
203 225 255
203 225 255
203 225 255
203 225 255
202 225 255
202 225 255
202 225 255
202 225 255
202 225 255
202 225 255
202 225 255
202 225 255
202 225 255
202 225 255
202 225 255
202 225 255
202 225 255
202 225 255
202 225 255
201 225 255
201 225 255
201 225 255
201 225 255
201 224 255
201 224 255
201 224 255
201 224 255
201 224 255
201 224 255
201 224 255
201 224 255
201 224 255
201 224 255
200 224 255
200 224 255
200 224 255
200 224 255
200 224 255
200 224 255
200 224 255
200 224 255
200 224 255
200 224 255
200 224 255
200 224 255
200 224 255
200 224 255
200 224 255
200 224 255
199 224 255
199 224 255
199 223 255
199 223 255
199 223 255
199 223 255
199 223 255
199 223 255
199 223 255
199 223 255
199 223 255
199 223 255
199 223 255
199 223 255
199 223 255
199 223 255
198 223 255
198 223 255
198 223 255
198 223 255
198 223 255
198 223 255
198 223 255
198 223 255
198 223 255
198 223 255
198 223 255
198 223 255
198 223 255
198 223 255
198 223 255
198 223 255
198 223 255
198 223 255
197 223 255
197 222 255
197 222 255
197 222 255
197 222 255
197 222 255
197 222 255
197 222 255
197 222 255
197 222 255
197 222 255
197 222 255
197 222 255
197 222 255
197 222 255
197 222 255
197 222 255
197 222 255
197 222 255
197 222 255
197 222 255
197 222 255
197 222 255
197 222 255
197 222 255
197 222 255
197 222 255
197 222 255
197 222 255
197 222 255
197 222 255
197 222 255
196 222 255
196 222 255
196 222 255
196 222 255
196 222 255
196 222 255
196 222 255
196 222 255
196 222 255
196 222 255
196 222 255
196 222 255
196 222 255
196 222 255
196 222 255
196 222 255
196 222 255
196 222 255
196 222 255
196 222 255
196 222 255
196 222 255
197 222 255
197 222 255
197 222 255
197 222 255
197 222 255
197 222 255
197 222 255
197 222 255
197 222 255
197 222 255
197 222 255
197 222 255
197 222 255
197 222 255
197 222 255
197 222 255
197 222 255
197 222 255
197 222 255
197 222 255
197 222 255
197 222 255
197 222 255
197 222 255
197 222 255
197 222 255
197 222 255
197 222 255
197 222 255
197 222 255
197 222 255
197 223 255
198 223 255
198 223 255
198 223 255
198 223 255
198 223 255
198 223 255
198 223 255
198 223 255
198 223 255
198 223 255
198 223 255
198 223 255
198 223 255
198 223 255
198 223 255
198 223 255
198 223 255
198 223 255
198 223 255
199 223 255
199 223 255
199 223 255
199 223 255
199 223 255
199 223 255
199 223 255
199 223 255
199 223 255
199 223 255
199 223 255
199 223 255
199 223 255
199 224 255
199 224 255
200 224 255
200 224 255
200 224 255
200 224 255
200 224 255
200 224 255
200 224 255
200 224 255
200 224 255
200 224 255
200 224 255
200 224 255
200 224 255
200 224 255
200 224 255
200 224 255
201 224 255
201 224 255
201 224 255
201 224 255
201 224 255
201 224 255
201 224 255
201 224 255
201 224 255
201 224 255
201 225 255
201 225 255
201 225 255
201 225 255
202 225 255
202 225 255
202 225 255
202 225 255
202 225 255
202 225 255
202 225 255
202 225 255
202 225 255
202 225 255
202 225 255
202 225 255
202 225 255
202 225 255
202 225 255
203 225 255
203 225 255
203 225 255
203 225 255
203 225 255
203 225 255
203 225 255
203 225 255
203 226 255
203 226 255
203 226 255
203 226 255
203 226 255
203 226 255
203 226 255
204 226 255
204 226 255
204 226 255
204 226 255
204 226 255
204 226 255
204 226 255
204 226 255
204 226 255
204 226 255
204 226 255
204 226 255
204 226 255
204 226 255
204 226 255
204 226 255
204 226 255
205 226 255
205 226 255
205 226 255
205 226 255
205 226 255
205 226 255
205 227 255
205 227 255
205 227 255
205 227 255
205 227 255
205 227 255
205 227 255
205 227 255
205 227 255
205 227 255
205 227 255
206 227 255
206 227 255
206 227 255
206 227 255
206 227 255
206 227 255
206 227 255
206 227 255
206 227 255
206 227 255
206 227 255
206 227 255
206 227 255
206 227 255
206 227 255
206 227 255
206 227 255
206 227 255
206 227 255
207 227 255
207 227 255
207 227 255
207 227 255
207 227 255
207 228 255
207 228 255
207 228 255
207 228 255
207 228 255
207 228 255
207 228 255
207 228 255
207 228 255
207 228 255
207 228 255
207 228 255
207 228 255
207 227 255
207 227 255
207 227 255
207 227 255
207 227 255
206 227 255
206 227 255
206 227 255
206 227 255
206 227 255
206 227 255
206 227 255
206 227 255
206 227 255
206 227 255
206 227 255
206 227 255
206 227 255
206 227 255
206 227 255
206 227 255
206 227 255
206 227 255
206 227 255
205 227 255
205 227 255
205 227 255
205 227 255
205 227 255
205 227 255
205 227 255
205 227 255
205 227 255
205 227 255
205 226 255
205 226 255
205 226 255
205 226 255
205 226 255
205 226 255
205 226 255
204 226 255
204 226 255
204 226 255
204 226 255
204 226 255
204 226 255
204 226 255
204 226 255
204 226 255
204 226 255
204 226 255
204 226 255
204 226 255
204 226 255
204 226 255
204 226 255
203 226 255
203 226 255
203 226 255
203 226 255
203 226 255
203 226 255
203 226 255
203 225 255
203 225 255
203 225 255
203 225 255
203 225 255
203 225 255
203 225 255
203 225 255
202 225 255
202 225 255
202 225 255
202 225 255
202 225 255
202 225 255
202 225 255
202 225 255
202 225 255
202 225 255
202 225 255
202 225 255
202 225 255
202 225 255
202 225 255
201 225 255
201 225 255
201 225 255
201 225 255
201 225 255
201 224 255
201 224 255
201 224 255
201 224 255
201 224 255
201 224 255
201 224 255
201 224 255
201 224 255
201 224 255
200 224 255
200 224 255
200 224 255
200 224 255
200 224 255
200 224 255
200 224 255
200 224 255
200 224 255
200 224 255
200 224 255
200 224 255
200 224 255
200 224 255
200 224 255
199 224 255
199 224 255
199 224 255
199 223 255
199 223 255
199 223 255
199 223 255
199 223 255
199 223 255
199 223 255
199 223 255
199 223 255
199 223 255
199 223 255
199 223 255
199 223 255
198 223 255
198 223 255
198 223 255
198 223 255
198 223 255
198 223 255
198 223 255
198 223 255
198 223 255
198 223 255
198 223 255
198 223 255
198 223 255
198 223 255
198 223 255
198 223 255
198 223 255
198 223 255
198 223 255
198 223 255
197 223 255
197 222 255
197 222 255
197 222 255
197 222 255
197 222 255
197 222 255
197 222 255
197 222 255
197 222 255
197 222 255
197 222 255
197 222 255
197 222 255
197 222 255
197 222 255
197 222 255
197 222 255
197 222 255
197 222 255
197 222 255
197 222 255
197 222 255
197 222 255
197 222 255
197 222 255
197 222 255
197 222 255
197 222 255
197 222 255
197 222 255
197 222 255
197 222 255
197 222 255
197 222 255
197 222 255
197 222 255
197 222 255
197 222 255
197 222 255
197 222 255
197 222 255
197 222 255
197 222 255
197 222 255
197 222 255
197 222 255
197 222 255
197 222 255
197 222 255
197 222 255
197 222 255
197 222 255
197 222 255
197 222 255
197 222 255
197 222 255
197 222 255
197 222 255
197 222 255
197 222 255
197 222 255
197 222 255
197 222 255
197 222 255
197 222 255
197 222 255
197 222 255
197 222 255
197 222 255
197 222 255
197 222 255
197 222 255
197 222 255
197 222 255
197 222 255
197 222 255
197 223 255
198 223 255
198 223 255
198 223 255
198 223 255
198 223 255
198 223 255
198 223 255
198 223 255
198 223 255
198 223 255
198 223 255
198 223 255
198 223 255
198 223 255
198 223 255
198 223 255
198 223 255
198 223 255
198 223 255
198 223 255
199 223 255
199 223 255
199 223 255
199 223 255
199 223 255
199 223 255
199 223 255
199 223 255
199 223 255
199 223 255
199 223 255
199 223 255
199 223 255
199 224 255
199 224 255
199 224 255
200 224 255
200 224 255
200 224 255
200 224 255
200 224 255
200 224 255
200 224 255
200 224 255
200 224 255
200 224 255
200 224 255
200 224 255
200 224 255
200 224 255
200 224 255
201 224 255
201 224 255
201 224 255
201 224 255
201 224 255
201 224 255
201 224 255
201 224 255
201 224 255
201 224 255
201 225 255
201 225 255
201 225 255
201 225 255
201 225 255
202 225 255
202 225 255
202 225 255
202 225 255
202 225 255
202 225 255
202 225 255
202 225 255
202 225 255
202 225 255
202 225 255
202 225 255
202 225 255
202 225 255
202 225 255
203 225 255
203 225 255
203 225 255
203 225 255
203 225 255
203 225 255
203 225 255
203 225 255
203 226 255
203 226 255
203 226 255
203 226 255
203 226 255
203 226 255
203 226 255
204 226 255
204 226 255
204 226 255
204 226 255
204 226 255
204 226 255
204 226 255
204 226 255
204 226 255
204 226 255
204 226 255
204 226 255
204 226 255
204 226 255
204 226 255
204 226 255
205 226 255
205 226 255
205 226 255
205 226 255
205 226 255
205 226 255
205 226 255
205 227 255
205 227 255
205 227 255
205 227 255
205 227 255
205 227 255
205 227 255
205 227 255
205 227 255
205 227 255
206 227 255
206 227 255
206 227 255
206 227 255
206 227 255
206 227 255
206 227 255
206 227 255
206 227 255
206 227 255
206 227 255
206 227 255
206 227 255
206 227 255
206 227 255
206 227 255
206 227 255
206 227 255
206 227 255
207 227 255
207 227 255
207 227 255
207 227 255
207 227 255
207 228 255
207 228 255
207 228 255
207 228 255
207 228 255
207 228 255
207 228 255
207 228 255
207 228 255
207 228 255
207 228 255
207 228 255
207 228 255
207 228 255
207 228 255
207 228 255
207 228 255
207 228 255
207 228 255
207 227 255
207 227 255
207 227 255
207 227 255
207 227 255
206 227 255
206 227 255
206 227 255
206 227 255
206 227 255
206 227 255
206 227 255
206 227 255
206 227 255
206 227 255
206 227 255
206 227 255
206 227 255
206 227 255
206 227 255
206 227 255
206 227 255
206 227 255
205 227 255
205 227 255
205 227 255
205 227 255
205 227 255
205 227 255
205 227 255
205 227 255
205 227 255
205 227 255
205 227 255
205 226 255
205 226 255
205 226 255
205 226 255
205 226 255
205 226 255
205 226 255
204 226 255
204 226 255
204 226 255
204 226 255
204 226 255
204 226 255
204 226 255
204 226 255
204 226 255
204 226 255
204 226 255
204 226 255
204 226 255
204 226 255
204 226 255
204 226 255
203 226 255
203 226 255
203 226 255
203 226 255
203 226 255
203 226 255
203 225 255
203 225 255
203 225 255
203 225 255
203 225 255
203 225 255
203 225 255
203 225 255
203 225 255
202 225 255
202 225 255
202 225 255
202 225 255
202 225 255
202 225 255
202 225 255
202 225 255
202 225 255
202 225 255
202 225 255
202 225 255
202 225 255
202 225 255
202 225 255
201 225 255
201 225 255
201 225 255
201 225 255
201 224 255
201 224 255
201 224 255
201 224 255
201 224 255
201 224 255
201 224 255
201 224 255
201 224 255
201 224 255
200 224 255
200 224 255
200 224 255
200 224 255
200 224 255
200 224 255
200 224 255
200 224 255
200 224 255
200 224 255
200 224 255
200 224 255
200 224 255
200 224 255
200 224 255
200 224 255
199 224 255
199 224 255
199 223 255
199 223 255
199 223 255
199 223 255
199 223 255
199 223 255
199 223 255
199 223 255
199 223 255
199 223 255
199 223 255
199 223 255
199 223 255
199 223 255
198 223 255
198 223 255
198 223 255
198 223 255
198 223 255
198 223 255
198 223 255
198 223 255
198 223 255
198 223 255
198 223 255
198 223 255
198 223 255
198 223 255
198 223 255
198 223 255
198 223 255
198 223 255
198 223 255
198 223 255
198 223 255
197 223 255
197 222 255
197 222 255
197 222 255
197 222 255
197 222 255
197 222 255
197 222 255
197 222 255
197 222 255
197 222 255
197 222 255
197 222 255
197 222 255
197 222 255
197 222 255
197 222 255
197 222 255
197 222 255
197 222 255
197 222 255
197 222 255
197 222 255
197 222 255
197 222 255
197 222 255
197 222 255
197 222 255
197 222 255
197 222 255
197 222 255
197 222 255
197 222 255
197 222 255
197 222 255
197 222 255
197 222 255
197 222 255
197 222 255
197 222 255
197 222 255
197 222 255
197 222 255
197 222 255
197 222 255
197 222 255
197 222 255
197 222 255
197 222 255
197 222 255
197 222 255
197 222 255
197 222 255
197 222 255
197 222 255
197 222 255
197 222 255
197 222 255
197 222 255
197 222 255
197 222 255
197 222 255
197 222 255
197 222 255
197 222 255
197 222 255
197 222 255
197 222 255
197 222 255
197 223 255
198 223 255
198 223 255
198 223 255
198 223 255
198 223 255
198 223 255
198 223 255
198 223 255
198 223 255
198 223 255
198 223 255
198 223 255
198 223 255
198 223 255
198 223 255
198 223 255
198 223 255
198 223 255
198 223 255
198 223 255
199 223 255
199 223 255
199 223 255
199 223 255
199 223 255
199 223 255
199 223 255
199 223 255
199 223 255
199 223 255
199 223 255
199 223 255
199 223 255
199 223 255
199 223 255
199 224 255
199 224 255
200 224 255
200 224 255
200 224 255
200 224 255
200 224 255
200 224 255
200 224 255
200 224 255
200 224 255
200 224 255
200 224 255
200 224 255
200 224 255
200 224 255
200 224 255
201 224 255
201 224 255
201 224 255
201 224 255
201 224 255
201 224 255
201 224 255
201 224 255
201 224 255
201 224 255
201 224 255
201 225 255
201 225 255
201 225 255
201 225 255
202 225 255
202 225 255
202 225 255
202 225 255
202 225 255
202 225 255
202 225 255
202 225 255
202 225 255
202 225 255
202 225 255
202 225 255
202 225 255
202 225 255
202 225 255
203 225 255
203 225 255
203 225 255
203 225 255
203 225 255
203 225 255
203 225 255
203 225 255
203 225 255
203 226 255
203 226 255
203 226 255
203 226 255
203 226 255
203 226 255
204 226 255
204 226 255
204 226 255
204 226 255
204 226 255
204 226 255
204 226 255
204 226 255
204 226 255
204 226 255
204 226 255
204 226 255
204 226 255
204 226 255
204 226 255
204 226 255
204 226 255
205 226 255
205 226 255
205 226 255
205 226 255
205 226 255
205 226 255
205 227 255
205 227 255
205 227 255
205 227 255
205 227 255
205 227 255
205 227 255
205 227 255
205 227 255
205 227 255
205 227 255
206 227 255
206 227 255
206 227 255
206 227 255
206 227 255
206 227 255
206 227 255
206 227 255
206 227 255
206 227 255
206 227 255
206 227 255
206 227 255
206 227 255
206 227 255
206 227 255
206 227 255
206 227 255
207 227 255
207 227 255
207 227 255
207 227 255
207 227 255
207 228 255
207 228 255
207 228 255
207 228 255
207 228 255
207 228 255
207 228 255
207 228 255
207 228 255
207 228 255
207 228 255
207 228 255
207 228 255
207 228 255
207 228 255
207 228 255
207 228 255
207 228 255
207 228 255
207 228 255
207 228 255
207 228 255
207 228 255
207 228 255
207 228 255
207 227 255
207 227 255
207 227 255
207 227 255
206 227 255
206 227 255
206 227 255
206 227 255
206 227 255
206 227 255
206 227 255
206 227 255
206 227 255
206 227 255
206 227 255
206 227 255
206 227 255
206 227 255
206 227 255
206 227 255
206 227 255
206 227 255
206 227 255
205 227 255
205 227 255
205 227 255
205 227 255
205 227 255
205 227 255
205 227 255
205 227 255
205 227 255
205 227 255
205 226 255
205 226 255
205 226 255
205 226 255
205 226 255
205 226 255
205 226 255
204 226 255
204 226 255
204 226 255
204 226 255
204 226 255
204 226 255
204 226 255
204 226 255
204 226 255
204 226 255
204 226 255
204 226 255
204 226 255
204 226 255
204 226 255
204 226 255
203 226 255
203 226 255
203 226 255
203 226 255
203 226 255
203 226 255
203 226 255
203 225 255
203 225 255
203 225 255
203 225 255
203 225 255
203 225 255
203 225 255
203 225 255
202 225 255
202 225 255
202 225 255
202 225 255
202 225 255
202 225 255
202 225 255
202 225 255
202 225 255
202 225 255
202 225 255
202 225 255
202 225 255
202 225 255
202 225 255
201 225 255
201 225 255
201 225 255
201 225 255
201 225 255
201 224 255
201 224 255
201 224 255
201 224 255
201 224 255
201 224 255
201 224 255
201 224 255
201 224 255
201 224 255
200 224 255
200 224 255
200 224 255
200 224 255
200 224 255
200 224 255
200 224 255
200 224 255
200 224 255
200 224 255
200 224 255
200 224 255
200 224 255
200 224 255
200 224 255
200 224 255
199 224 255
199 224 255
199 223 255
199 223 255
199 223 255
199 223 255
199 223 255
199 223 255
199 223 255
199 223 255
199 223 255
199 223 255
199 223 255
199 223 255
199 223 255
199 223 255
199 223 255
198 223 255
198 223 255
198 223 255
198 223 255
198 223 255
198 223 255
198 223 255
198 223 255
198 223 255
198 223 255
198 223 255
198 223 255
198 223 255
198 223 255
198 223 255
198 223 255
198 223 255
198 223 255
198 223 255
198 223 255
198 223 255
198 223 255
197 223 255
197 222 255
197 222 255
197 222 255
197 222 255
197 222 255
197 222 255
197 222 255
197 222 255
197 222 255
197 222 255
197 222 255
197 222 255
197 222 255
197 222 255
197 222 255
197 222 255
197 222 255
197 222 255
197 222 255
197 222 255
197 222 255
197 222 255
197 222 255
197 222 255
197 222 255
197 222 255
197 222 255
197 222 255
197 222 255
197 222 255
197 222 255
197 222 255
197 222 255
197 222 255
197 222 255
197 222 255
197 222 255
197 222 255
197 222 255
197 222 255
197 222 255
197 222 255
197 222 255
197 222 255
197 222 255
197 222 255
197 222 255
197 222 255
197 222 255
197 222 255
197 222 255
197 222 255
197 222 255
197 222 255
197 222 255
197 222 255
197 222 255
197 222 255
197 223 255
198 223 255
198 223 255
198 223 255
198 223 255
198 223 255
198 223 255
198 223 255
198 223 255
198 223 255
198 223 255
198 223 255
198 223 255
198 223 255
198 223 255
198 223 255
198 223 255
198 223 255
198 223 255
198 223 255
198 223 255
198 223 255
198 223 255
199 223 255
199 223 255
199 223 255
199 223 255
199 223 255
199 223 255
199 223 255
199 223 255
199 223 255
199 223 255
199 223 255
199 223 255
199 223 255
199 223 255
199 223 255
199 224 255
199 224 255
200 224 255
200 224 255
200 224 255
200 224 255
200 224 255
200 224 255
200 224 255
200 224 255
200 224 255
200 224 255
200 224 255
200 224 255
200 224 255
200 224 255
200 224 255
200 224 255
201 224 255
201 224 255
201 224 255
201 224 255
201 224 255
201 224 255
201 224 255
201 224 255
201 224 255
201 224 255
201 225 255
201 225 255
201 225 255
201 225 255
201 225 255
202 225 255
202 225 255
202 225 255
202 225 255
202 225 255
202 225 255
202 225 255
202 225 255
202 225 255
202 225 255
202 225 255
202 225 255
202 225 255
202 225 255
202 225 255
203 225 255
203 225 255
203 225 255
203 225 255
203 225 255
203 225 255
203 225 255
203 225 255
203 226 255
203 226 255
203 226 255
203 226 255
203 226 255
203 226 255
203 226 255
204 226 255
204 226 255
204 226 255
204 226 255
204 226 255
204 226 255
204 226 255
204 226 255
204 226 255
204 226 255
204 226 255
204 226 255
204 226 255
204 226 255
204 226 255
204 226 255
205 226 255
205 226 255
205 226 255
205 226 255
205 226 255
205 226 255
205 226 255
205 227 255
205 227 255
205 227 255
205 227 255
205 227 255
205 227 255
205 227 255
205 227 255
205 227 255
205 227 255
206 227 255
206 227 255
206 227 255
206 227 255
206 227 255
206 227 255
206 227 255
206 227 255
206 227 255
206 227 255
206 227 255
206 227 255
206 227 255
206 227 255
206 227 255
206 227 255
206 227 255
206 227 255
206 227 255
207 227 255
207 227 255
207 227 255
207 227 255
207 228 255
207 228 255
207 228 255
207 228 255
207 228 255
207 228 255
207 228 255
207 228 255
207 228 255
207 228 255
207 228 255
207 228 255
207 228 255
207 228 255
208 228 255
207 228 255
207 228 255
207 228 255
207 228 255
207 228 255
207 228 255
207 228 255
207 228 255
207 228 255
207 228 255
207 228 255
207 228 255
207 228 255
207 228 255
207 228 255
207 228 255
207 227 255
207 227 255
207 227 255
207 227 255
206 227 255
206 227 255
206 227 255
206 227 255
206 227 255
206 227 255
206 227 255
206 227 255
206 227 255
206 227 255
206 227 255
206 227 255
206 227 255
206 227 255
206 227 255
206 227 255
206 227 255
206 227 255
206 227 255
205 227 255
205 227 255
205 227 255
205 227 255
205 227 255
205 227 255
205 227 255
205 227 255
205 227 255
205 227 255
205 226 255
205 226 255
205 226 255
205 226 255
205 226 255
205 226 255
205 226 255
204 226 255
204 226 255
204 226 255
204 226 255
204 226 255
204 226 255
204 226 255
204 226 255
204 226 255
204 226 255
204 226 255
204 226 255
204 226 255
204 226 255
204 226 255
204 226 255
203 226 255
203 226 255
203 226 255
203 226 255
203 226 255
203 226 255
203 226 255
203 225 255
203 225 255
203 225 255
203 225 255
203 225 255
203 225 255
203 225 255
203 225 255
202 225 255
202 225 255
202 225 255
202 225 255
202 225 255
202 225 255
202 225 255
202 225 255
202 225 255
202 225 255
202 225 255
202 225 255
202 225 255
202 225 255
202 225 255
201 225 255
201 225 255
201 225 255
201 225 255
201 224 255
201 224 255
201 224 255
201 224 255
201 224 255
201 224 255
201 224 255
201 224 255
201 224 255
201 224 255
201 224 255
200 224 255
200 224 255
200 224 255
200 224 255
200 224 255
200 224 255
200 224 255
200 224 255
200 224 255
200 224 255
200 224 255
200 224 255
200 224 255
200 224 255
200 224 255
200 224 255
199 224 255
199 224 255
199 223 255
199 223 255
199 223 255
199 223 255
199 223 255
199 223 255
199 223 255
199 223 255
199 223 255
199 223 255
199 223 255
199 223 255
199 223 255
199 223 255
199 223 255
198 223 255
198 223 255
198 223 255
198 223 255
198 223 255
198 223 255
198 223 255
198 223 255
198 223 255
198 223 255
198 223 255
198 223 255
198 223 255
198 223 255
198 223 255
198 223 255
198 223 255
198 223 255
198 223 255
198 223 255
198 223 255
198 223 255
198 223 255
198 223 255
197 223 255
197 222 255
197 222 255
197 222 255
197 222 255
197 222 255
197 222 255
197 222 255
197 222 255
197 222 255
197 222 255
197 222 255
197 222 255
197 222 255
197 222 255
197 222 255
197 222 255
197 222 255
197 222 255
197 222 255
197 222 255
197 222 255
197 222 255
197 222 255
197 222 255
197 222 255
197 222 255
197 222 255
197 222 255
197 222 255
197 222 255
197 222 255
197 222 255
197 222 255
197 222 255
197 222 255
197 222 255
197 222 255
197 222 255
197 222 255
197 222 255
197 222 255
197 222 255
197 222 255
197 222 255
197 222 255
197 222 255
197 222 255
197 222 255
197 223 255
198 223 255
198 223 255
198 223 255
198 223 255
198 223 255
198 223 255
198 223 255
198 223 255
198 223 255
198 223 255
198 223 255
198 223 255
198 223 255
198 223 255
198 223 255
198 223 255
198 223 255
198 223 255
198 223 255
198 223 255
198 223 255
198 223 255
198 223 255
198 223 255
199 223 255
199 223 255
199 223 255
199 223 255
199 223 255
199 223 255
199 223 255
199 223 255
199 223 255
199 223 255
199 223 255
199 223 255
199 223 255
199 223 255
199 223 255
199 224 255
199 224 255
199 224 255
200 224 255
200 224 255
200 224 255
200 224 255
200 224 255
200 224 255
200 224 255
200 224 255
200 224 255
200 224 255
200 224 255
200 224 255
200 224 255
200 224 255
200 224 255
201 224 255
201 224 255
201 224 255
201 224 255
201 224 255
201 224 255
201 224 255
201 224 255
201 224 255
201 224 255
201 224 255
201 225 255
201 225 255
201 225 255
201 225 255
202 225 255
202 225 255
202 225 255
202 225 255
202 225 255
202 225 255
202 225 255
202 225 255
202 225 255
202 225 255
202 225 255
202 225 255
202 225 255
202 225 255
202 225 255
203 225 255
203 225 255
203 225 255
203 225 255
203 225 255
203 225 255
203 225 255
203 225 255
203 226 255
203 226 255
203 226 255
203 226 255
203 226 255
203 226 255
203 226 255
204 226 255
204 226 255
204 226 255
204 226 255
204 226 255
204 226 255
204 226 255
204 226 255
204 226 255
204 226 255
204 226 255
204 226 255
204 226 255
204 226 255
204 226 255
204 226 255
205 226 255
205 226 255
205 226 255
205 226 255
205 226 255
205 226 255
205 226 255
205 227 255
205 227 255
205 227 255
205 227 255
205 227 255
205 227 255
205 227 255
205 227 255
205 227 255
205 227 255
206 227 255
206 227 255
206 227 255
206 227 255
206 227 255
206 227 255
206 227 255
206 227 255
206 227 255
206 227 255
206 227 255
206 227 255
206 227 255
206 227 255
206 227 255
206 227 255
206 227 255
206 227 255
206 227 255
207 227 255
207 227 255
207 227 255
207 227 255
207 227 255
207 228 255
207 228 255
207 228 255
207 228 255
207 228 255
207 228 255
207 228 255
207 228 255
207 228 255
207 228 255
207 228 255
207 228 255
207 228 255
207 228 255
207 228 255
208 228 255
208 228 255
208 228 255
208 228 255
208 228 255
207 228 255
207 228 255
207 228 255
207 228 255
207 228 255
207 228 255
207 228 255
207 228 255
207 228 255
207 228 255
207 228 255
207 228 255
207 228 255
207 228 255
207 228 255
207 227 255
207 227 255
207 227 255
207 227 255
207 227 255
206 227 255
206 227 255
206 227 255
206 227 255
206 227 255
206 227 255
206 227 255
206 227 255
206 227 255
206 227 255
206 227 255
206 227 255
206 227 255
206 227 255
206 227 255
206 227 255
206 227 255
206 227 255
205 227 255
205 227 255
205 227 255
205 227 255
205 227 255
205 227 255
205 227 255
205 227 255
205 227 255
205 227 255
205 227 255
205 226 255
205 226 255
205 226 255
205 226 255
205 226 255
205 226 255
204 226 255
204 226 255
204 226 255
204 226 255
204 226 255
204 226 255
204 226 255
204 226 255
204 226 255
204 226 255
204 226 255
204 226 255
204 226 255
204 226 255
204 226 255
204 226 255
203 226 255
203 226 255
203 226 255
203 226 255
203 226 255
203 226 255
203 226 255
203 225 255
203 225 255
203 225 255
203 225 255
203 225 255
203 225 255
203 225 255
203 225 255
202 225 255
202 225 255
202 225 255
202 225 255
202 225 255
202 225 255
202 225 255
202 225 255
202 225 255
202 225 255
202 225 255
202 225 255
202 225 255
202 225 255
202 225 255
202 225 255
201 225 255
201 225 255
201 225 255
201 225 255
201 224 255
201 224 255
201 224 255
201 224 255
201 224 255
201 224 255
201 224 255
201 224 255
201 224 255
201 224 255
201 224 255
200 224 255
200 224 255
200 224 255
200 224 255
200 224 255
200 224 255
200 224 255
200 224 255
200 224 255
200 224 255
200 224 255
200 224 255
200 224 255
200 224 255
200 224 255
199 224 255
199 224 255
199 224 255
199 223 255
199 223 255
199 223 255
199 223 255
199 223 255
199 223 255
199 223 255
199 223 255
199 223 255
199 223 255
199 223 255
199 223 255
199 223 255
199 223 255
199 223 255
199 223 255
198 223 255
198 223 255
198 223 255
198 223 255
198 223 255
198 223 255
198 223 255
198 223 255
198 223 255
198 223 255
198 223 255
198 223 255
198 223 255
198 223 255
198 223 255
198 223 255
198 223 255
198 223 255
198 223 255
198 223 255
198 223 255
198 223 255
198 223 255
198 223 255
198 223 255
198 223 255
198 223 255
198 223 255
197 223 255
197 222 255
197 222 255
197 222 255
197 222 255
197 222 255
197 222 255
197 222 255
197 222 255
197 222 255
197 222 255
197 222 255
197 222 255
197 222 255
197 222 255
197 222 255
197 222 255
197 222 255
197 222 255
197 222 255
197 222 255
197 222 255
197 222 255
197 222 255
197 222 255
197 222 255
197 222 255
197 222 255
197 222 255
197 222 255
197 222 255
197 222 255
197 222 255
197 223 255
197 223 255
198 223 255
198 223 255
198 223 255
198 223 255
198 223 255
198 223 255
198 223 255
198 223 255
198 223 255
198 223 255
198 223 255
198 223 255
198 223 255
198 223 255
198 223 255
198 223 255
198 223 255
198 223 255
198 223 255
198 223 255
198 223 255
198 223 255
198 223 255
198 223 255
198 223 255
198 223 255
198 223 255
199 223 255
199 223 255
199 223 255
199 223 255
199 223 255
199 223 255
199 223 255
199 223 255
199 223 255
199 223 255
199 223 255
199 223 255
199 223 255
199 223 255
199 223 255
199 223 255
199 224 255
199 224 255
199 224 255
200 224 255
200 224 255
200 224 255
200 224 255
200 224 255
200 224 255
200 224 255
200 224 255
200 224 255
200 224 255
200 224 255
200 224 255
200 224 255
200 224 255
200 224 255
201 224 255
201 224 255
201 224 255
201 224 255
201 224 255
201 224 255
201 224 255
201 224 255
201 224 255
201 224 255
201 224 255
201 225 255
201 225 255
201 225 255
201 225 255
202 225 255
202 225 255
202 225 255
202 225 255
202 225 255
202 225 255
202 225 255
202 225 255
202 225 255
202 225 255
202 225 255
202 225 255
202 225 255
202 225 255
202 225 255
203 225 255
203 225 255
203 225 255
203 225 255
203 225 255
203 225 255
203 225 255
203 225 255
203 225 255
203 226 255
203 226 255
203 226 255
203 226 255
203 226 255
203 226 255
203 226 255
204 226 255
204 226 255
204 226 255
204 226 255
204 226 255
204 226 255
204 226 255
204 226 255
204 226 255
204 226 255
204 226 255
204 226 255
204 226 255
204 226 255
204 226 255
204 226 255
205 226 255
205 226 255
205 226 255
205 226 255
205 226 255
205 226 255
205 227 255
205 227 255
205 227 255
205 227 255
205 227 255
205 227 255
205 227 255
205 227 255
205 227 255
205 227 255
206 227 255
206 227 255
206 227 255
206 227 255
206 227 255
206 227 255
206 227 255
206 227 255
206 227 255
206 227 255
206 227 255
206 227 255
206 227 255
206 227 255
206 227 255
206 227 255
206 227 255
206 227 255
206 227 255
207 227 255
207 227 255
207 227 255
207 227 255
207 227 255
207 228 255
207 228 255
207 228 255
207 228 255
207 228 255
207 228 255
207 228 255
207 228 255
207 228 255
207 228 255
207 228 255
207 228 255
207 228 255
207 228 255
207 228 255
208 228 255
208 228 255
208 228 255
208 228 255
208 228 255
208 228 255
208 228 255
208 228 255
208 228 255
208 228 255
208 228 255
207 228 255
207 228 255
207 228 255
207 228 255
207 228 255
207 228 255
207 228 255
207 228 255
207 228 255
207 228 255
207 228 255
207 228 255
207 228 255
207 228 255
207 228 255
207 228 255
207 227 255
207 227 255
207 227 255
207 227 255
206 227 255
206 227 255
206 227 255
206 227 255
206 227 255
206 227 255
206 227 255
206 227 255
206 227 255
206 227 255
206 227 255
206 227 255
206 227 255
206 227 255
206 227 255
206 227 255
206 227 255
206 227 255
205 227 255
205 227 255
205 227 255
205 227 255
205 227 255
205 227 255
205 227 255
205 227 255
205 227 255
205 227 255
205 226 255
205 226 255
205 226 255
205 226 255
205 226 255
205 226 255
205 226 255
204 226 255
204 226 255
204 226 255
204 226 255
204 226 255
204 226 255
204 226 255
204 226 255
204 226 255
204 226 255
204 226 255
204 226 255
204 226 255
204 226 255
204 226 255
204 226 255
203 226 255
203 226 255
203 226 255
203 226 255
203 226 255
203 226 255
203 226 255
203 225 255
203 225 255
203 225 255
203 225 255
203 225 255
203 225 255
203 225 255
203 225 255
202 225 255
202 225 255
202 225 255
202 225 255
202 225 255
202 225 255
202 225 255
202 225 255
202 225 255
202 225 255
202 225 255
202 225 255
202 225 255
202 225 255
202 225 255
201 225 255
201 225 255
201 225 255
201 225 255
201 225 255
201 224 255
201 224 255
201 224 255
201 224 255
201 224 255
201 224 255
201 224 255
201 224 255
201 224 255
201 224 255
200 224 255
200 224 255
200 224 255
200 224 255
200 224 255
200 224 255
200 224 255
200 224 255
200 224 255
200 224 255
200 224 255
200 224 255
200 224 255
200 224 255
200 224 255
200 224 255
199 224 255
199 224 255
199 224 255
199 223 255
199 223 255
199 223 255
199 223 255
199 223 255
199 223 255
199 223 255
199 223 255
199 223 255
199 223 255
199 223 255
199 223 255
199 223 255
199 223 255
199 223 255
199 223 255
199 223 255
198 223 255
198 223 255
198 223 255
198 223 255
198 223 255
198 223 255
198 223 255
198 223 255
198 223 255
198 223 255
198 223 255
198 223 255
198 223 255
198 223 255
198 223 255
198 223 255
198 223 255
198 223 255
198 223 255
198 223 255
198 223 255
198 223 255
198 223 255
198 223 255
198 223 255
198 223 255
198 223 255
198 223 255
198 223 255
198 223 255
198 223 255
198 223 255
198 223 255
198 223 255
198 223 255
198 223 255
198 223 255
198 223 255
197 223 255
197 223 255
198 223 255
197 223 255
198 223 255
198 223 255
197 223 255
198 223 255
198 223 255
198 223 255
198 223 255
198 223 255
198 223 255
198 223 255
198 223 255
198 223 255
198 223 255
198 223 255
198 223 255
198 223 255
198 223 255
198 223 255
198 223 255
198 223 255
198 223 255
198 223 255
198 223 255
198 223 255
198 223 255
198 223 255
198 223 255
198 223 255
198 223 255
198 223 255
198 223 255
198 223 255
198 223 255
198 223 255
198 223 255
198 223 255
198 223 255
198 223 255
198 223 255
198 223 255
199 223 255
199 223 255
199 223 255
199 223 255
199 223 255
199 223 255
199 223 255
199 223 255
199 223 255
199 223 255
199 223 255
199 223 255
199 223 255
199 223 255
199 223 255
199 223 255
199 223 255
199 224 255
199 224 255
200 224 255
200 224 255
200 224 255
200 224 255
200 224 255
200 224 255
200 224 255
200 224 255
200 224 255
200 224 255
200 224 255
200 224 255
200 224 255
200 224 255
200 224 255
200 224 255
200 224 255
201 224 255
201 224 255
201 224 255
201 224 255
201 224 255
201 224 255
201 224 255
201 224 255
201 224 255
201 224 255
201 225 255
201 225 255
201 225 255
201 225 255
201 225 255
202 225 255
202 225 255
202 225 255
202 225 255
202 225 255
202 225 255
202 225 255
202 225 255
202 225 255
202 225 255
202 225 255
202 225 255
202 225 255
202 225 255
202 225 255
203 225 255
203 225 255
203 225 255
203 225 255
203 225 255
203 225 255
203 225 255
203 225 255
203 226 255
203 226 255
203 226 255
203 226 255
203 226 255
203 226 255
203 226 255
204 226 255
204 226 255
204 226 255
204 226 255
204 226 255
204 226 255
204 226 255
204 226 255
204 226 255
204 226 255
204 226 255
204 226 255
204 226 255
204 226 255
204 226 255
204 226 255
205 226 255
205 226 255
205 226 255
205 226 255
205 226 255
205 226 255
205 226 255
205 227 255
205 227 255
205 227 255
205 227 255
205 227 255
205 227 255
205 227 255
205 227 255
205 227 255
205 227 255
206 227 255
206 227 255
206 227 255
206 227 255
206 227 255
206 227 255
206 227 255
206 227 255
206 227 255
206 227 255
206 227 255
206 227 255
206 227 255
206 227 255
206 227 255
206 227 255
206 227 255
206 227 255
207 227 255
207 227 255
207 227 255
207 227 255
207 227 255
207 228 255
207 228 255
207 228 255
207 228 255
207 228 255
207 228 255
207 228 255
207 228 255
207 228 255
207 228 255
207 228 255
207 228 255
207 228 255
207 228 255
207 228 255
208 228 255
208 228 255
208 228 255
208 228 255
208 228 255
208 228 255
208 228 255
208 228 255
208 228 255
208 228 255
208 228 255
208 228 255
208 228 255
208 228 255
208 228 255
208 228 255
208 228 255
207 228 255
207 228 255
207 228 255
207 228 255
207 228 255
207 228 255
207 228 255
207 228 255
207 228 255
207 228 255
207 228 255
207 228 255
207 228 255
207 228 255
207 228 255
207 227 255
207 227 255
207 227 255
207 227 255
207 227 255
206 227 255
206 227 255
206 227 255
206 227 255
206 227 255
206 227 255
206 227 255
206 227 255
206 227 255
206 227 255
206 227 255
206 227 255
206 227 255
206 227 255
206 227 255
206 227 255
206 227 255
206 227 255
205 227 255
205 227 255
205 227 255
205 227 255
205 227 255
205 227 255
205 227 255
205 227 255
205 227 255
205 227 255
205 226 255
205 226 255
205 226 255
205 226 255
205 226 255
205 226 255
205 226 255
204 226 255
204 226 255
204 226 255
204 226 255
204 226 255
204 226 255
204 226 255
204 226 255
204 226 255
204 226 255
204 226 255
204 226 255
204 226 255
204 226 255
204 226 255
204 226 255
203 226 255
203 226 255
203 226 255
203 226 255
203 226 255
203 226 255
203 225 255
203 225 255
203 225 255
203 225 255
203 225 255
203 225 255
203 225 255
203 225 255
203 225 255
202 225 255
202 225 255
202 225 255
202 225 255
202 225 255
202 225 255
202 225 255
202 225 255
202 225 255
202 225 255
202 225 255
202 225 255
202 225 255
202 225 255
202 225 255
201 225 255
201 225 255
201 225 255
201 225 255
201 224 255
201 224 255
201 224 255
201 224 255
201 224 255
201 224 255
201 224 255
201 224 255
201 224 255
201 224 255
201 224 255
200 224 255
200 224 255
200 224 255
200 224 255
200 224 255
200 224 255
200 224 255
200 224 255
200 224 255
200 224 255
200 224 255
200 224 255
200 224 255
200 224 255
200 224 255
200 224 255
200 224 255
199 224 255
199 224 255
199 224 255
199 223 255
199 223 255
199 223 255
199 223 255
199 223 255
199 223 255
199 223 255
199 223 255
199 223 255
199 223 255
199 223 255
199 223 255
199 223 255
199 223 255
199 223 255
199 223 255
199 223 255
198 223 255
198 223 255
198 223 255
198 223 255
198 223 255
198 223 255
198 223 255
198 223 255
198 223 255
198 223 255
198 223 255
198 223 255
198 223 255
198 223 255
198 223 255
198 223 255
198 223 255
198 223 255
198 223 255
198 223 255
198 223 255
198 223 255
198 223 255
198 223 255
198 223 255
198 223 255
198 223 255
198 223 255
198 223 255
198 223 255
198 223 255
198 223 255
198 223 255
198 223 255
198 223 255
198 223 255
198 223 255
198 223 255
198 223 255
198 223 255
198 223 255
198 223 255
198 223 255
198 223 255
198 223 255
198 223 255
198 223 255
198 223 255
198 223 255
198 223 255
198 223 255
198 223 255
198 223 255
198 223 255
198 223 255
198 223 255
198 223 255
198 223 255
198 223 255
198 223 255
198 223 255
198 223 255
198 223 255
198 223 255
198 223 255
198 223 255
198 223 255
198 223 255
198 223 255
198 223 255
198 223 255
198 223 255
198 223 255
198 223 255
199 223 255
199 223 255
199 223 255
199 223 255
199 223 255
199 223 255
199 223 255
199 223 255
199 223 255
199 223 255
199 223 255
199 223 255
199 223 255
199 223 255
199 223 255
199 223 255
199 223 255
199 224 255
199 224 255
199 224 255
200 224 255
200 224 255
200 224 255
200 224 255
200 224 255
200 224 255
200 224 255
200 224 255
200 224 255
200 224 255
200 224 255
200 224 255
200 224 255
200 224 255
200 224 255
200 224 255
200 224 255
201 224 255
201 224 255
201 224 255
201 224 255
201 224 255
201 224 255
201 224 255
201 224 255
201 224 255
201 224 255
201 224 255
201 225 255
201 225 255
201 225 255
201 225 255
202 225 255
202 225 255
202 225 255
202 225 255
202 225 255
202 225 255
202 225 255
202 225 255
202 225 255
202 225 255
202 225 255
202 225 255
202 225 255
202 225 255
202 225 255
203 225 255
203 225 255
203 225 255
203 225 255
203 225 255
203 225 255
203 225 255
203 225 255
203 225 255
203 226 255
203 226 255
203 226 255
203 226 255
203 226 255
203 226 255
204 226 255
204 226 255
204 226 255
204 226 255
204 226 255
204 226 255
204 226 255
204 226 255
204 226 255
204 226 255
204 226 255
204 226 255
204 226 255
204 226 255
204 226 255
204 226 255
205 226 255
205 226 255
205 226 255
205 226 255
205 226 255
205 226 255
205 226 255
205 227 255
205 227 255
205 227 255
205 227 255
205 227 255
205 227 255
205 227 255
205 227 255
205 227 255
205 227 255
206 227 255
206 227 255
206 227 255
206 227 255
206 227 255
206 227 255
206 227 255
206 227 255
206 227 255
206 227 255
206 227 255
206 227 255
206 227 255
206 227 255
206 227 255
206 227 255
206 227 255
206 227 255
207 227 255
207 227 255
207 227 255
207 227 255
207 227 255
207 228 255
207 228 255
207 228 255
207 228 255
207 228 255
207 228 255
207 228 255
207 228 255
207 228 255
207 228 255
207 228 255
207 228 255
207 228 255
207 228 255
207 228 255
208 228 255
208 228 255
208 228 255
208 228 255
208 228 255
208 228 255
208 228 255
208 228 255
208 228 255
208 228 255
208 228 255
208 228 255
208 228 255
208 228 255
208 228 255
208 228 255
208 228 255
208 228 255
208 228 255
208 228 255
208 228 255
208 228 255
208 228 255
207 228 255
207 228 255
207 228 255
207 228 255
207 228 255
207 228 255
207 228 255
207 228 255
207 228 255
207 228 255
207 228 255
207 228 255
207 228 255
207 228 255
207 228 255
207 227 255
207 227 255
207 227 255
207 227 255
207 227 255
206 227 255
206 227 255
206 227 255
206 227 255
206 227 255
206 227 255
206 227 255
206 227 255
206 227 255
206 227 255
206 227 255
206 227 255
206 227 255
206 227 255
206 227 255
206 227 255
206 227 255
206 227 255
205 227 255
205 227 255
205 227 255
205 227 255
205 227 255
205 227 255
205 227 255
205 227 255
205 227 255
205 227 255
205 226 255
205 226 255
205 226 255
205 226 255
205 226 255
205 226 255
204 226 255
204 226 255
204 226 255
204 226 255
204 226 255
204 226 255
204 226 255
204 226 255
204 226 255
204 226 255
204 226 255
204 226 255
204 226 255
204 226 255
204 226 255
204 226 255
203 226 255
203 226 255
203 226 255
203 226 255
203 226 255
203 226 255
203 226 255
203 225 255
203 225 255
203 225 255
203 225 255
203 225 255
203 225 255
203 225 255
203 225 255
202 225 255
202 225 255
202 225 255
202 225 255
202 225 255
202 225 255
202 225 255
202 225 255
202 225 255
202 225 255
202 225 255
202 225 255
202 225 255
202 225 255
202 225 255
202 225 255
201 225 255
201 225 255
201 225 255
201 225 255
201 224 255
201 224 255
201 224 255
201 224 255
201 224 255
201 224 255
201 224 255
201 224 255
201 224 255
201 224 255
201 224 255
200 224 255
200 224 255
200 224 255
200 224 255
200 224 255
200 224 255
200 224 255
200 224 255
200 224 255
200 224 255
200 224 255
200 224 255
200 224 255
200 224 255
200 224 255
200 224 255
200 224 255
199 224 255
199 224 255
199 224 255
199 223 255
199 223 255
199 223 255
199 223 255
199 223 255
199 223 255
199 223 255
199 223 255
199 223 255
199 223 255
199 223 255
199 223 255
199 223 255
199 223 255
199 223 255
199 223 255
199 223 255
199 223 255
199 223 255
198 223 255
198 223 255
198 223 255
198 223 255
198 223 255
198 223 255
198 223 255
198 223 255
198 223 255
198 223 255
198 223 255
198 223 255
198 223 255
198 223 255
198 223 255
198 223 255
198 223 255
198 223 255
198 223 255
198 223 255
198 223 255
198 223 255
198 223 255
198 223 255
198 223 255
198 223 255
198 223 255
198 223 255
198 223 255
198 223 255
198 223 255
198 223 255
198 223 255
198 223 255
198 223 255
198 223 255
198 223 255
198 223 255
198 223 255
198 223 255
198 223 255
198 223 255
198 223 255
198 223 255
198 223 255
198 223 255
198 223 255
198 223 255
198 223 255
198 223 255
198 223 255
198 223 255
198 223 255
198 223 255
198 223 255
198 223 255
198 223 255
198 223 255
198 223 255
198 223 255
198 223 255
198 223 255
198 223 255
198 223 255
199 223 255
199 223 255
199 223 255
199 223 255
199 223 255
199 223 255
199 223 255
199 223 255
199 223 255
199 223 255
199 223 255
199 223 255
199 223 255
199 223 255
199 223 255
199 223 255
199 223 255
199 223 255
199 223 255
199 224 255
199 224 255
199 224 255
200 224 255
200 224 255
200 224 255
200 224 255
200 224 255
200 224 255
200 224 255
200 224 255
200 224 255
200 224 255
200 224 255
200 224 255
200 224 255
200 224 255
200 224 255
200 224 255
200 224 255
201 224 255
201 224 255
201 224 255
201 224 255
201 224 255
201 224 255
201 224 255
201 224 255
201 224 255
201 224 255
201 224 255
201 225 255
201 225 255
201 225 255
201 225 255
202 225 255
202 225 255
202 225 255
202 225 255
202 225 255
202 225 255
202 225 255
202 225 255
202 225 255
202 225 255
202 225 255
202 225 255
202 225 255
202 225 255
202 225 255
203 225 255
203 225 255
203 225 255
203 225 255
203 225 255
203 225 255
203 225 255
203 225 255
203 225 255
203 226 255
203 226 255
203 226 255
203 226 255
203 226 255
203 226 255
203 226 255
204 226 255
204 226 255
204 226 255
204 226 255
204 226 255
204 226 255
204 226 255
204 226 255
204 226 255
204 226 255
204 226 255
204 226 255
204 226 255
204 226 255
204 226 255
204 226 255
205 226 255
205 226 255
205 226 255
205 226 255
205 226 255
205 226 255
205 227 255
205 227 255
205 227 255
205 227 255
205 227 255
205 227 255
205 227 255
205 227 255
205 227 255
205 227 255
206 227 255
206 227 255
206 227 255
206 227 255
206 227 255
206 227 255
206 227 255
206 227 255
206 227 255
206 227 255
206 227 255
206 227 255
206 227 255
206 227 255
206 227 255
206 227 255
206 227 255
206 227 255
207 227 255
207 227 255
207 227 255
207 227 255
207 227 255
207 228 255
207 228 255
207 228 255
207 228 255
207 228 255
207 228 255
207 228 255
207 228 255
207 228 255
207 228 255
207 228 255
207 228 255
207 228 255
207 228 255
207 228 255
208 228 255
208 228 255
208 228 255
208 228 255
208 228 255
208 228 255
208 228 255
208 228 255
208 228 255
208 228 255
208 228 255
208 228 255
208 228 255
208 228 255
208 228 255
208 228 255
208 228 255
208 228 255
208 228 255
208 228 255
208 228 255
208 228 255
208 228 255
208 228 255
208 228 255
208 228 255
208 228 255
208 228 255
208 228 255
207 228 255
207 228 255
207 228 255
207 228 255
207 228 255
207 228 255
207 228 255
207 228 255
207 228 255
207 228 255
207 228 255
207 228 255
207 228 255
207 228 255
207 228 255
207 227 255
207 227 255
207 227 255
207 227 255
207 227 255
206 227 255
206 227 255
206 227 255
206 227 255
206 227 255
206 227 255
206 227 255
206 227 255
206 227 255
206 227 255
206 227 255
206 227 255
206 227 255
206 227 255
206 227 255
206 227 255
206 227 255
205 227 255
205 227 255
205 227 255
205 227 255
205 227 255
205 227 255
205 227 255
205 227 255
205 227 255
205 227 255
205 227 255
205 226 255
205 226 255
205 226 255
205 226 255
205 226 255
205 226 255
204 226 255
204 226 255
204 226 255
204 226 255
204 226 255
204 226 255
204 226 255
204 226 255
204 226 255
204 226 255
204 226 255
204 226 255
204 226 255
204 226 255
204 226 255
204 226 255
203 226 255
203 226 255
203 226 255
203 226 255
203 226 255
203 226 255
203 226 255
203 225 255
203 225 255
203 225 255
203 225 255
203 225 255
203 225 255
203 225 255
203 225 255
202 225 255
202 225 255
202 225 255
202 225 255
202 225 255
202 225 255
202 225 255
202 225 255
202 225 255
202 225 255
202 225 255
202 225 255
202 225 255
202 225 255
202 225 255
201 225 255
201 225 255
201 225 255
201 225 255
201 225 255
201 224 255
201 224 255
201 224 255
201 224 255
201 224 255
201 224 255
201 224 255
201 224 255
201 224 255
201 224 255
201 224 255
200 224 255
200 224 255
200 224 255
200 224 255
200 224 255
200 224 255
200 224 255
200 224 255
200 224 255
200 224 255
200 224 255
200 224 255
200 224 255
200 224 255
200 224 255
200 224 255
200 224 255
200 224 255
199 224 255
199 224 255
199 224 255
199 223 255
199 223 255
199 223 255
199 223 255
199 223 255
199 223 255
199 223 255
199 223 255
199 223 255
199 223 255
199 223 255
199 223 255
199 223 255
199 223 255
199 223 255
199 223 255
199 223 255
199 223 255
199 223 255
199 223 255
198 223 255
198 223 255
198 223 255
198 223 255
198 223 255
198 223 255
198 223 255
198 223 255
198 223 255
198 223 255
198 223 255
198 223 255
198 223 255
198 223 255
198 223 255
198 223 255
198 223 255
198 223 255
198 223 255
198 223 255
198 223 255
198 223 255
198 223 255
198 223 255
198 223 255
198 223 255
198 223 255
198 223 255
198 223 255
198 223 255
198 223 255
198 223 255
198 223 255
198 223 255
198 223 255
198 223 255
198 223 255
198 223 255
198 223 255
198 223 255
198 223 255
198 223 255
198 223 255
198 223 255
198 223 255
198 223 255
198 223 255
198 223 255
198 223 255
198 223 255
198 223 255
198 223 255
198 223 255
198 223 255
199 223 255
199 223 255
199 223 255
199 223 255
199 223 255
199 223 255
199 223 255
199 223 255
199 223 255
199 223 255
199 223 255
199 223 255
199 223 255
199 223 255
199 223 255
199 223 255
199 223 255
199 223 255
199 223 255
199 223 255
199 224 255
199 224 255
199 224 255
200 224 255
200 224 255
200 224 255
200 224 255
200 224 255
200 224 255
200 224 255
200 224 255
200 224 255
200 224 255
200 224 255
200 224 255
200 224 255
200 224 255
200 224 255
200 224 255
200 224 255
200 224 255
201 224 255
201 224 255
201 224 255
201 224 255
201 224 255
201 224 255
201 224 255
201 224 255
201 224 255
201 224 255
201 224 255
201 225 255
201 225 255
201 225 255
201 225 255
201 225 255
202 225 255
202 225 255
202 225 255
202 225 255
202 225 255
202 225 255
202 225 255
202 225 255
202 225 255
202 225 255
202 225 255
202 225 255
202 225 255
202 225 255
202 225 255
203 225 255
203 225 255
203 225 255
203 225 255
203 225 255
203 225 255
203 225 255
203 225 255
203 226 255
203 226 255
203 226 255
203 226 255
203 226 255
203 226 255
203 226 255
204 226 255
204 226 255
204 226 255
204 226 255
204 226 255
204 226 255
204 226 255
204 226 255
204 226 255
204 226 255
204 226 255
204 226 255
204 226 255
204 226 255
204 226 255
204 226 255
205 226 255
205 226 255
205 226 255
205 226 255
205 226 255
205 226 255
205 227 255
205 227 255
205 227 255
205 227 255
205 227 255
205 227 255
205 227 255
205 227 255
205 227 255
205 227 255
206 227 255
206 227 255
206 227 255
206 227 255
206 227 255
206 227 255
206 227 255
206 227 255
206 227 255
206 227 255
206 227 255
206 227 255
206 227 255
206 227 255
206 227 255
206 227 255
206 227 255
206 227 255
207 227 255
207 227 255
207 227 255
207 227 255
207 227 255
207 228 255
207 228 255
207 228 255
207 228 255
207 228 255
207 228 255
207 228 255
207 228 255
207 228 255
207 228 255
207 228 255
207 228 255
207 228 255
207 228 255
207 228 255
208 228 255
208 228 255
208 228 255
208 228 255
208 228 255
208 228 255
208 228 255
208 228 255
208 228 255
208 228 255
208 228 255
208 228 255
208 228 255
208 228 255
208 228 255
208 228 255
208 228 255
208 228 255
208 228 255
208 228 255
208 228 255
208 228 255
208 228 255
208 228 255
208 228 255
208 228 255
208 228 255
208 228 255
208 228 255
208 228 255
208 228 255
208 228 255
208 228 255
208 228 255
208 228 255
207 228 255
207 228 255
207 228 255
207 228 255
207 228 255
207 228 255
207 228 255
207 228 255
207 228 255
207 228 255
207 228 255
207 228 255
207 228 255
207 228 255
207 228 255
207 227 255
207 227 255
207 227 255
207 227 255
207 227 255
206 227 255
206 227 255
206 227 255
206 227 255
206 227 255
206 227 255
206 227 255
206 227 255
206 227 255
206 227 255
206 227 255
206 227 255
206 227 255
206 227 255
206 227 255
206 227 255
206 227 255
205 227 255
205 227 255
205 227 255
205 227 255
205 227 255
205 227 255
205 227 255
205 227 255
205 227 255
205 227 255
205 226 255
205 226 255
205 226 255
205 226 255
205 226 255
205 226 255
205 226 255
204 226 255
204 226 255
204 226 255
204 226 255
204 226 255
204 226 255
204 226 255
204 226 255
204 226 255
204 226 255
204 226 255
204 226 255
204 226 255
204 226 255
204 226 255
204 226 255
203 226 255
203 226 255
203 226 255
203 226 255
203 226 255
203 226 255
203 225 255
203 225 255
203 225 255
203 225 255
203 225 255
203 225 255
203 225 255
203 225 255
203 225 255
202 225 255
202 225 255
202 225 255
202 225 255
202 225 255
202 225 255
202 225 255
202 225 255
202 225 255
202 225 255
202 225 255
202 225 255
202 225 255
202 225 255
202 225 255
201 225 255
201 225 255
201 225 255
201 225 255
201 225 255
201 224 255
201 224 255
201 224 255
201 224 255
201 224 255
201 224 255
201 224 255
201 224 255
201 224 255
201 224 255
201 224 255
200 224 255
200 224 255
200 224 255
200 224 255
200 224 255
200 224 255
200 224 255
200 224 255
200 224 255
200 224 255
200 224 255
200 224 255
200 224 255
200 224 255
200 224 255
200 224 255
200 224 255
200 224 255
199 224 255
199 224 255
199 224 255
199 224 255
199 223 255
199 223 255
199 223 255
199 223 255
199 223 255
199 223 255
199 223 255
199 223 255
199 223 255
199 223 255
199 223 255
199 223 255
199 223 255
199 223 255
199 223 255
199 223 255
199 223 255
199 223 255
199 223 255
199 223 255
199 223 255
199 223 255
199 223 255
198 223 255
198 223 255
198 223 255
198 223 255
198 223 255
198 223 255
198 223 255
198 223 255
198 223 255
198 223 255
198 223 255
198 223 255
198 223 255
198 223 255
198 223 255
198 223 255
198 223 255
198 223 255
198 223 255
198 223 255
198 223 255
198 223 255
198 223 255
198 223 255
198 223 255
198 223 255
198 223 255
198 223 255
198 223 255
198 223 255
198 223 255
198 223 255
198 223 255
198 223 255
198 223 255
198 223 255
198 223 255
198 223 255
198 223 255
198 223 255
199 223 255
199 223 255
199 223 255
199 223 255
199 223 255
199 223 255
199 223 255
199 223 255
199 223 255
199 223 255
199 223 255
199 223 255
199 223 255
199 223 255
199 223 255
199 223 255
199 223 255
199 223 255
199 223 255
199 223 255
199 223 255
199 223 255
199 223 255
199 224 255
199 224 255
199 224 255
199 224 255
200 224 255
200 224 255
200 224 255
200 224 255
200 224 255
200 224 255
200 224 255
200 224 255
200 224 255
200 224 255
200 224 255
200 224 255
200 224 255
200 224 255
200 224 255
200 224 255
200 224 255
200 224 255
201 224 255
201 224 255
201 224 255
201 224 255
201 224 255
201 224 255
201 224 255
201 224 255
201 224 255
201 224 255
201 224 255
201 225 255
201 225 255
201 225 255
201 225 255
201 225 255
202 225 255
202 225 255
202 225 255
202 225 255
202 225 255
202 225 255
202 225 255
202 225 255
202 225 255
202 225 255
202 225 255
202 225 255
202 225 255
202 225 255
202 225 255
203 225 255
203 225 255
203 225 255
203 225 255
203 225 255
203 225 255
203 225 255
203 225 255
203 225 255
203 226 255
203 226 255
203 226 255
203 226 255
203 226 255
203 226 255
204 226 255
204 226 255
204 226 255
204 226 255
204 226 255
204 226 255
204 226 255
204 226 255
204 226 255
204 226 255
204 226 255
204 226 255
204 226 255
204 226 255
204 226 255
204 226 255
205 226 255
205 226 255
205 226 255
205 226 255
205 226 255
205 226 255
205 226 255
205 227 255
205 227 255
205 227 255
205 227 255
205 227 255
205 227 255
205 227 255
205 227 255
205 227 255
205 227 255
206 227 255
206 227 255
206 227 255
206 227 255
206 227 255
206 227 255
206 227 255
206 227 255
206 227 255
206 227 255
206 227 255
206 227 255
206 227 255
206 227 255
206 227 255
206 227 255
206 227 255
207 227 255
207 227 255
207 227 255
207 227 255
207 227 255
207 228 255
207 228 255
207 228 255
207 228 255
207 228 255
207 228 255
207 228 255
207 228 255
207 228 255
207 228 255
207 228 255
207 228 255
207 228 255
207 228 255
207 228 255
208 228 255
208 228 255
208 228 255
208 228 255
208 228 255
208 228 255
208 228 255
208 228 255
208 228 255
208 228 255
208 228 255
208 228 255
208 228 255
208 228 255
208 228 255
208 228 255
208 228 255
208 228 255
208 228 255
209 228 255
208 228 255
208 228 255
208 228 255
208 228 255
208 228 255
208 228 255
208 228 255
208 228 255
208 228 255
208 228 255
208 228 255
208 228 255
208 228 255
208 228 255
208 228 255
208 228 255
208 228 255
208 228 255
208 228 255
208 228 255
208 228 255
207 228 255
207 228 255
207 228 255
207 228 255
207 228 255
207 228 255
207 228 255
207 228 255
207 228 255
207 228 255
207 228 255
207 228 255
207 228 255
207 228 255
207 228 255
207 227 255
207 227 255
207 227 255
207 227 255
207 227 255
206 227 255
206 227 255
206 227 255
206 227 255
206 227 255
206 227 255
206 227 255
206 227 255
206 227 255
206 227 255
206 227 255
206 227 255
206 227 255
206 227 255
206 227 255
206 227 255
206 227 255
205 227 255
205 227 255
205 227 255
205 227 255
205 227 255
205 227 255
205 227 255
205 227 255
205 227 255
205 227 255
205 226 255
205 226 255
205 226 255
205 226 255
205 226 255
205 226 255
205 226 255
204 226 255
204 226 255
204 226 255
204 226 255
204 226 255
204 226 255
204 226 255
204 226 255
204 226 255
204 226 255
204 226 255
204 226 255
204 226 255
204 226 255
204 226 255
203 226 255
203 226 255
203 226 255
203 226 255
203 226 255
203 226 255
203 226 255
203 225 255
203 225 255
203 225 255
203 225 255
203 225 255
203 225 255
203 225 255
203 225 255
203 225 255
202 225 255
202 225 255
202 225 255
202 225 255
202 225 255
202 225 255
202 225 255
202 225 255
202 225 255
202 225 255
202 225 255
202 225 255
202 225 255
202 225 255
202 225 255
201 225 255
201 225 255
201 225 255
201 225 255
201 225 255
201 224 255
201 224 255
201 224 255
201 224 255
201 224 255
201 224 255
201 224 255
201 224 255
201 224 255
201 224 255
201 224 255
200 224 255
200 224 255
200 224 255
200 224 255
200 224 255
200 224 255
200 224 255
200 224 255
200 224 255
200 224 255
200 224 255
200 224 255
200 224 255
200 224 255
200 224 255
200 224 255
200 224 255
200 224 255
200 224 255
200 224 255
199 224 255
199 224 255
199 224 255
199 223 255
199 223 255
199 223 255
199 223 255
199 223 255
199 223 255
199 223 255
199 223 255
199 223 255
199 223 255
199 223 255
199 223 255
199 223 255
199 223 255
199 223 255
199 223 255
199 223 255
199 223 255
199 223 255
199 223 255
199 223 255
199 223 255
199 223 255
199 223 255
199 223 255
199 223 255
199 223 255
199 223 255
199 223 255
198 223 255
198 223 255
198 223 255
198 223 255
198 223 255
198 223 255
198 223 255
198 223 255
198 223 255
198 223 255
198 223 255
198 223 255
198 223 255
198 223 255
198 223 255
198 223 255
198 223 255
198 223 255
198 223 255
199 223 255
199 223 255
199 223 255
199 223 255
199 223 255
199 223 255
199 223 255
199 223 255
199 223 255
199 223 255
199 223 255
199 223 255
199 223 255
199 223 255
199 223 255
199 223 255
199 223 255
199 223 255
199 223 255
199 223 255
199 223 255
199 223 255
199 223 255
199 223 255
199 223 255
199 223 255
199 223 255
199 223 255
199 223 255
199 223 255
199 224 255
199 224 255
199 224 255
199 224 255
200 224 255
200 224 255
200 224 255
200 224 255
200 224 255
200 224 255
200 224 255
200 224 255
200 224 255
200 224 255
200 224 255
200 224 255
200 224 255
200 224 255
200 224 255
200 224 255
200 224 255
200 224 255
200 224 255
201 224 255
201 224 255
201 224 255
201 224 255
201 224 255
201 224 255
201 224 255
201 224 255
201 224 255
201 224 255
201 224 255
201 225 255
201 225 255
201 225 255
201 225 255
201 225 255
202 225 255
202 225 255
202 225 255
202 225 255
202 225 255
202 225 255
202 225 255
202 225 255
202 225 255
202 225 255
202 225 255
202 225 255
202 225 255
202 225 255
202 225 255
203 225 255
203 225 255
203 225 255
203 225 255
203 225 255
203 225 255
203 225 255
203 225 255
203 225 255
203 226 255
203 226 255
203 226 255
203 226 255
203 226 255
203 226 255
203 226 255
204 226 255
204 226 255
204 226 255
204 226 255
204 226 255
204 226 255
204 226 255
204 226 255
204 226 255
204 226 255
204 226 255
204 226 255
204 226 255
204 226 255
204 226 255
205 226 255
205 226 255
205 226 255
205 226 255
205 226 255
205 226 255
205 226 255
205 227 255
205 227 255
205 227 255
205 227 255
205 227 255
205 227 255
205 227 255
205 227 255
205 227 255
205 227 255
206 227 255
206 227 255
206 227 255
206 227 255
206 227 255
206 227 255
206 227 255
206 227 255
206 227 255
206 227 255
206 227 255
206 227 255
206 227 255
206 227 255
206 227 255
206 227 255
206 227 255
207 227 255
207 227 255
207 227 255
207 227 255
207 227 255
207 228 255
207 228 255
207 228 255
207 228 255
207 228 255
207 228 255
207 228 255
207 228 255
207 228 255
207 228 255
207 228 255
207 228 255
207 228 255
207 228 255
207 228 255
208 228 255
208 228 255
208 228 255
208 228 255
208 228 255
208 228 255
208 228 255
208 228 255
208 228 255
208 228 255
208 228 255
208 228 255
208 228 255
208 228 255
208 228 255
208 228 255
208 228 255
208 228 255
208 228 255
208 228 255
208 228 255
209 228 255
209 229 255
209 229 255
209 228 255
209 228 255
208 228 255
208 228 255
208 228 255
208 228 255
208 228 255
208 228 255
208 228 255
208 228 255
208 228 255
208 228 255
208 228 255
208 228 255
208 228 255
208 228 255
208 228 255
208 228 255
208 228 255
208 228 255
208 228 255
208 228 255
208 228 255
207 228 255
207 228 255
207 228 255
207 228 255
207 228 255
207 228 255
207 228 255
207 228 255
207 228 255
207 228 255
207 228 255
207 228 255
207 228 255
207 228 255
207 228 255
207 227 255
207 227 255
207 227 255
207 227 255
207 227 255
206 227 255
206 227 255
206 227 255
206 227 255
206 227 255
206 227 255
206 227 255
206 227 255
206 227 255
206 227 255
206 227 255
206 227 255
206 227 255
206 227 255
206 227 255
206 227 255
206 227 255
205 227 255
205 227 255
205 227 255
205 227 255
205 227 255
205 227 255
205 227 255
205 227 255
205 227 255
205 227 255
205 226 255
205 226 255
205 226 255
205 226 255
205 226 255
205 226 255
205 226 255
204 226 255
204 226 255
204 226 255
204 226 255
204 226 255
204 226 255
204 226 255
204 226 255
204 226 255
204 226 255
204 226 255
204 226 255
204 226 255
204 226 255
204 226 255
203 226 255
203 226 255
203 226 255
203 226 255
203 226 255
203 226 255
203 226 255
203 225 255
203 225 255
203 225 255
203 225 255
203 225 255
203 225 255
203 225 255
203 225 255
203 225 255
202 225 255
202 225 255
202 225 255
202 225 255
202 225 255
202 225 255
202 225 255
202 225 255
202 225 255
202 225 255
202 225 255
202 225 255
202 225 255
202 225 255
202 225 255
201 225 255
201 225 255
201 225 255
201 225 255
201 225 255
201 224 255
201 224 255
201 224 255
201 224 255
201 224 255
201 224 255
201 224 255
201 224 255
201 224 255
201 224 255
201 224 255
201 224 255
200 224 255
200 224 255
200 224 255
200 224 255
200 224 255
200 224 255
200 224 255
200 224 255
200 224 255
200 224 255
200 224 255
200 224 255
200 224 255
200 224 255
200 224 255
200 224 255
200 224 255
200 224 255
200 224 255
200 224 255
199 224 255
199 224 255
199 224 255
199 224 255
199 223 255
199 223 255
199 223 255
199 223 255
199 223 255
199 223 255
199 223 255
199 223 255
199 223 255
199 223 255
199 223 255
199 223 255
199 223 255
199 223 255
199 223 255
199 223 255
199 223 255
199 223 255
199 223 255
199 223 255
199 223 255
199 223 255
199 223 255
199 223 255
199 223 255
199 223 255
199 223 255
199 223 255
199 223 255
199 223 255
199 223 255
199 223 255
199 223 255
199 223 255
199 223 255
199 223 255
199 223 255
199 223 255
199 223 255
199 223 255
199 223 255
199 223 255
199 223 255
199 223 255
199 223 255
199 223 255
199 223 255
199 223 255
199 223 255
199 223 255
199 223 255
199 223 255
199 223 255
199 223 255
199 223 255
199 223 255
199 223 255
199 223 255
199 223 255
199 223 255
199 223 255
199 223 255
199 223 255
199 223 255
199 223 255
199 223 255
199 223 255
199 223 255
199 224 255
199 224 255
199 224 255
199 224 255
200 224 255
200 224 255
200 224 255
200 224 255
200 224 255
200 224 255
200 224 255
200 224 255
200 224 255
200 224 255
200 224 255
200 224 255
200 224 255
200 224 255
200 224 255
200 224 255
200 224 255
200 224 255
200 224 255
200 224 255
201 224 255
201 224 255
201 224 255
201 224 255
201 224 255
201 224 255
201 224 255
201 224 255
201 224 255
201 224 255
201 224 255
201 224 255
201 225 255
201 225 255
201 225 255
201 225 255
201 225 255
202 225 255
202 225 255
202 225 255
202 225 255
202 225 255
202 225 255
202 225 255
202 225 255
202 225 255
202 225 255
202 225 255
202 225 255
202 225 255
202 225 255
202 225 255
203 225 255
203 225 255
203 225 255
203 225 255
203 225 255
203 225 255
203 225 255
203 225 255
203 225 255
203 226 255
203 226 255
203 226 255
203 226 255
203 226 255
203 226 255
203 226 255
204 226 255
204 226 255
204 226 255
204 226 255
204 226 255
204 226 255
204 226 255
204 226 255
204 226 255
204 226 255
204 226 255
204 226 255
204 226 255
204 226 255
204 226 255
204 226 255
205 226 255
205 226 255
205 226 255
205 226 255
205 226 255
205 226 255
205 227 255
205 227 255
205 227 255
205 227 255
205 227 255
205 227 255
205 227 255
205 227 255
205 227 255
205 227 255
206 227 255
206 227 255
206 227 255
206 227 255
206 227 255
206 227 255
206 227 255
206 227 255
206 227 255
206 227 255
206 227 255
206 227 255
206 227 255
206 227 255
206 227 255
206 227 255
206 227 255
207 227 255
207 227 255
207 227 255
207 227 255
207 227 255
207 228 255
207 228 255
207 228 255
207 228 255
207 228 255
207 228 255
207 228 255
207 228 255
207 228 255
207 228 255
207 228 255
207 228 255
207 228 255
207 228 255
207 228 255
208 228 255
208 228 255
208 228 255
208 228 255
208 228 255
208 228 255
208 228 255
208 228 255
208 228 255
208 228 255
208 228 255
208 228 255
208 228 255
208 228 255
208 228 255
208 228 255
208 228 255
208 228 255
208 228 255
208 228 255
208 228 255
209 228 255
209 228 255
209 229 255
209 229 255
209 229 255
209 229 255
209 229 255
209 229 255
209 229 255
209 229 255
209 228 255
208 228 255
208 228 255
208 228 255
208 228 255
208 228 255
208 228 255
208 228 255
208 228 255
208 228 255
208 228 255
208 228 255
208 228 255
208 228 255
208 228 255
208 228 255
208 228 255
208 228 255
208 228 255
208 228 255
208 228 255
208 228 255
207 228 255
207 228 255
207 228 255
207 228 255
207 228 255
207 228 255
207 228 255
207 228 255
207 228 255
207 228 255
207 228 255
207 228 255
207 228 255
207 228 255
207 228 255
207 227 255
207 227 255
207 227 255
207 227 255
206 227 255
206 227 255
206 227 255
206 227 255
206 227 255
206 227 255
206 227 255
206 227 255
206 227 255
206 227 255
206 227 255
206 227 255
206 227 255
206 227 255
206 227 255
206 227 255
206 227 255
206 227 255
205 227 255
205 227 255
205 227 255
205 227 255
205 227 255
205 227 255
205 227 255
205 227 255
205 227 255
205 227 255
205 226 255
205 226 255
205 226 255
205 226 255
205 226 255
205 226 255
204 226 255
204 226 255
204 226 255
204 226 255
204 226 255
204 226 255
204 226 255
204 226 255
204 226 255
204 226 255
204 226 255
204 226 255
204 226 255
204 226 255
204 226 255
204 226 255
203 226 255
203 226 255
203 226 255
203 226 255
203 226 255
203 226 255
203 226 255
203 225 255
203 225 255
203 225 255
203 225 255
203 225 255
203 225 255
203 225 255
203 225 255
203 225 255
202 225 255
202 225 255
202 225 255
202 225 255
202 225 255
202 225 255
202 225 255
202 225 255
202 225 255
202 225 255
202 225 255
202 225 255
202 225 255
202 225 255
202 225 255
201 225 255
201 225 255
201 225 255
201 225 255
201 225 255
201 224 255
201 224 255
201 224 255
201 224 255
201 224 255
201 224 255
201 224 255
201 224 255
201 224 255
201 224 255
201 224 255
201 224 255
200 224 255
200 224 255
200 224 255
200 224 255
200 224 255
200 224 255
200 224 255
200 224 255
200 224 255
200 224 255
200 224 255
200 224 255
200 224 255
200 224 255
200 224 255
200 224 255
200 224 255
200 224 255
200 224 255
200 224 255
200 224 255
200 224 255
199 224 255
199 224 255
199 224 255
199 224 255
199 223 255
199 223 255
199 223 255
199 223 255
199 223 255
199 223 255
199 223 255
199 223 255
199 223 255
199 223 255
199 223 255
199 223 255
199 223 255
199 223 255
199 223 255
199 223 255
199 223 255
199 223 255
199 223 255
199 223 255
199 223 255
199 223 255
199 223 255
199 223 255
199 223 255
199 223 255
199 223 255
199 223 255
199 223 255
199 223 255
199 223 255
199 223 255
199 223 255
199 223 255
199 223 255
199 223 255
199 223 255
199 223 255
199 223 255
199 223 255
199 223 255
199 223 255
199 223 255
199 223 255
199 223 255
199 223 255
199 223 255
199 223 255
199 223 255
199 223 255
199 223 255
199 223 255
199 223 255
199 223 255
199 223 255
199 223 255
199 223 255
199 223 255
199 224 255
199 224 255
199 224 255
199 224 255
200 224 255
200 224 255
200 224 255
200 224 255
200 224 255
200 224 255
200 224 255
200 224 255
200 224 255
200 224 255
200 224 255
200 224 255
200 224 255
200 224 255
200 224 255
200 224 255
200 224 255
200 224 255
200 224 255
200 224 255
200 224 255
200 224 255
201 224 255
201 224 255
201 224 255
201 224 255
201 224 255
201 224 255
201 224 255
201 224 255
201 224 255
201 224 255
201 224 255
201 224 255
201 225 255
201 225 255
201 225 255
201 225 255
201 225 255
202 225 255
202 225 255
202 225 255
202 225 255
202 225 255
202 225 255
202 225 255
202 225 255
202 225 255
202 225 255
202 225 255
202 225 255
202 225 255
202 225 255
202 225 255
202 225 255
203 225 255
203 225 255
203 225 255
203 225 255
203 225 255
203 225 255
203 225 255
203 225 255
203 226 255
203 226 255
203 226 255
203 226 255
203 226 255
203 226 255
203 226 255
204 226 255
204 226 255
204 226 255
204 226 255
204 226 255
204 226 255
204 226 255
204 226 255
204 226 255
204 226 255
204 226 255
204 226 255
204 226 255
204 226 255
204 226 255
204 226 255
205 226 255
205 226 255
205 226 255
205 226 255
205 226 255
205 226 255
205 227 255
205 227 255
205 227 255
205 227 255
205 227 255
205 227 255
205 227 255
205 227 255
205 227 255
205 227 255
206 227 255
206 227 255
206 227 255
206 227 255
206 227 255
206 227 255
206 227 255
206 227 255
206 227 255
206 227 255
206 227 255
206 227 255
206 227 255
206 227 255
206 227 255
206 227 255
206 227 255
207 227 255
207 227 255
207 227 255
207 227 255
207 227 255
207 228 255
207 228 255
207 228 255
207 228 255
207 228 255
207 228 255
207 228 255
207 228 255
207 228 255
207 228 255
207 228 255
207 228 255
207 228 255
207 228 255
207 228 255
208 228 255
208 228 255
208 228 255
208 228 255
208 228 255
208 228 255
208 228 255
208 228 255
208 228 255
208 228 255
208 228 255
208 228 255
208 228 255
208 228 255
208 228 255
208 228 255
208 228 255
208 228 255
208 228 255
208 228 255
208 228 255
209 228 255
209 229 255
209 229 255
209 229 255
209 229 255
209 229 255
209 229 255
209 229 255
209 229 255
209 229 255
209 229 255
209 229 255
209 229 255
209 229 255
209 229 255
209 229 255
209 228 255
209 228 255
208 228 255
208 228 255
208 228 255
208 228 255
208 228 255
208 228 255
208 228 255
208 228 255
208 228 255
208 228 255
208 228 255
208 228 255
208 228 255
208 228 255
208 228 255
208 228 255
208 228 255
208 228 255
208 228 255
208 228 255
208 228 255
207 228 255
207 228 255
207 228 255
207 228 255
207 228 255
207 228 255
207 228 255
207 228 255
207 228 255
207 228 255
207 228 255
207 228 255
207 228 255
207 228 255
207 227 255
207 227 255
207 227 255
207 227 255
206 227 255
206 227 255
206 227 255
206 227 255
206 227 255
206 227 255
206 227 255
206 227 255
206 227 255
206 227 255
206 227 255
206 227 255
206 227 255
206 227 255
206 227 255
206 227 255
206 227 255
206 227 255
205 227 255
205 227 255
205 227 255
205 227 255
205 227 255
205 227 255
205 227 255
205 227 255
205 227 255
205 227 255
205 226 255
205 226 255
205 226 255
205 226 255
205 226 255
205 226 255
204 226 255
204 226 255
204 226 255
204 226 255
204 226 255
204 226 255
204 226 255
204 226 255
204 226 255
204 226 255
204 226 255
204 226 255
204 226 255
204 226 255
204 226 255
204 226 255
203 226 255
203 226 255
203 226 255
203 226 255
203 226 255
203 226 255
203 226 255
203 225 255
203 225 255
203 225 255
203 225 255
203 225 255
203 225 255
203 225 255
203 225 255
202 225 255
202 225 255
202 225 255
202 225 255
202 225 255
202 225 255
202 225 255
202 225 255
202 225 255
202 225 255
202 225 255
202 225 255
202 225 255
202 225 255
202 225 255
202 225 255
201 225 255
201 225 255
201 225 255
201 225 255
201 225 255
201 224 255
201 224 255
201 224 255
201 224 255
201 224 255
201 224 255
201 224 255
201 224 255
201 224 255
201 224 255
201 224 255
201 224 255
201 224 255
200 224 255
200 224 255
200 224 255
200 224 255
200 224 255
200 224 255
200 224 255
200 224 255
200 224 255
200 224 255
200 224 255
200 224 255
200 224 255
200 224 255
200 224 255
200 224 255
200 224 255
200 224 255
200 224 255
200 224 255
200 224 255
200 224 255
200 224 255
199 224 255
199 224 255
199 224 255
199 224 255
199 224 255
199 224 255
199 223 255
199 223 255
199 223 255
199 223 255
199 223 255
199 223 255
199 223 255
199 223 255
199 223 255
199 223 255
199 223 255
199 223 255
199 223 255
199 223 255
199 223 255
199 223 255
199 223 255
199 223 255
199 223 255
199 223 255
199 223 255
199 223 255
199 223 255
199 223 255
199 223 255
199 223 255
199 223 255
199 223 255
199 223 255
199 223 255
199 223 255
199 223 255
199 223 255
199 223 255
199 223 255
199 223 255
199 223 255
199 223 255
199 223 255
199 223 255
199 223 255
199 223 255
199 223 255
199 223 255
199 224 255
199 224 255
199 224 255
199 224 255
199 224 255
200 224 255
200 224 255
200 224 255
200 224 255
200 224 255
200 224 255
200 224 255
200 224 255
200 224 255
200 224 255
200 224 255
200 224 255
200 224 255
200 224 255
200 224 255
200 224 255
200 224 255
200 224 255
200 224 255
200 224 255
200 224 255
200 224 255
200 224 255
200 224 255
201 224 255
201 224 255
201 224 255
201 224 255
201 224 255
201 224 255
201 224 255
201 224 255
201 224 255
201 224 255
201 224 255
201 224 255
201 225 255
201 225 255
201 225 255
201 225 255
201 225 255
202 225 255
202 225 255
202 225 255
202 225 255
202 225 255
202 225 255
202 225 255
202 225 255
202 225 255
202 225 255
202 225 255
202 225 255
202 225 255
202 225 255
202 225 255
202 225 255
202 225 255
203 225 255
203 225 255
203 225 255
203 225 255
203 225 255
203 225 255
203 225 255
203 225 255
203 226 255
203 226 255
203 226 255
203 226 255
203 226 255
203 226 255
203 226 255
204 226 255
204 226 255
204 226 255
204 226 255
204 226 255
204 226 255
204 226 255
204 226 255
204 226 255
204 226 255
204 226 255
204 226 255
204 226 255
204 226 255
204 226 255
204 226 255
205 226 255
205 226 255
205 226 255
205 226 255
205 226 255
205 226 255
205 227 255
205 227 255
205 227 255
205 227 255
205 227 255
205 227 255
205 227 255
205 227 255
205 227 255
205 227 255
206 227 255
206 227 255
206 227 255
206 227 255
206 227 255
206 227 255
206 227 255
206 227 255
206 227 255
206 227 255
206 227 255
206 227 255
206 227 255
206 227 255
206 227 255
206 227 255
206 227 255
206 227 255
207 227 255
207 227 255
207 227 255
207 227 255
207 228 255
207 228 255
207 228 255
207 228 255
207 228 255
207 228 255
207 228 255
207 228 255
207 228 255
207 228 255
207 228 255
207 228 255
207 228 255
207 228 255
208 228 255
208 228 255
208 228 255
208 228 255
208 228 255
208 228 255
208 228 255
208 228 255
208 228 255
208 228 255
208 228 255
208 228 255
208 228 255
208 228 255
208 228 255
208 228 255
208 228 255
208 228 255
208 228 255
208 228 255
208 228 255
209 228 255
209 228 255
209 229 255
209 229 255
209 229 255
209 229 255
209 229 255
209 229 255
209 229 255
209 229 255
209 229 255
209 229 255
209 229 255
209 229 255
209 229 255
209 229 255
209 229 255
209 229 255
209 229 255
209 229 255
209 229 255
209 229 255
209 229 255
209 228 255
209 228 255
208 228 255
208 228 255
208 228 255
208 228 255
208 228 255
208 228 255
208 228 255
208 228 255
208 228 255
208 228 255
208 228 255
208 228 255
208 228 255
208 228 255
208 228 255
208 228 255
208 228 255
208 228 255
208 228 255
208 228 255
208 228 255
207 228 255
207 228 255
207 228 255
207 228 255
207 228 255
207 228 255
207 228 255
207 228 255
207 228 255
207 228 255
207 228 255
207 228 255
207 228 255
207 228 255
207 227 255
207 227 255
207 227 255
207 227 255
207 227 255
206 227 255
206 227 255
206 227 255
206 227 255
206 227 255
206 227 255
206 227 255
206 227 255
206 227 255
206 227 255
206 227 255
206 227 255
206 227 255
206 227 255
206 227 255
206 227 255
206 227 255
205 227 255
205 227 255
205 227 255
205 227 255
205 227 255
205 227 255
205 227 255
205 227 255
205 227 255
205 227 255
205 226 255
205 226 255
205 226 255
205 226 255
205 226 255
205 226 255
204 226 255
204 226 255
204 226 255
204 226 255
204 226 255
204 226 255
204 226 255
204 226 255
204 226 255
204 226 255
204 226 255
204 226 255
204 226 255
204 226 255
204 226 255
204 226 255
203 226 255
203 226 255
203 226 255
203 226 255
203 226 255
203 226 255
203 226 255
203 225 255
203 225 255
203 225 255
203 225 255
203 225 255
203 225 255
203 225 255
203 225 255
202 225 255
202 225 255
202 225 255
202 225 255
202 225 255
202 225 255
202 225 255
202 225 255
202 225 255
202 225 255
202 225 255
202 225 255
202 225 255
202 225 255
202 225 255
202 225 255
202 225 255
201 225 255
201 225 255
201 225 255
201 225 255
201 225 255
201 224 255
201 224 255
201 224 255
201 224 255
201 224 255
201 224 255
201 224 255
201 224 255
201 224 255
201 224 255
201 224 255
201 224 255
201 224 255
200 224 255
200 224 255
200 224 255
200 224 255
200 224 255
200 224 255
200 224 255
200 224 255
200 224 255
200 224 255
200 224 255
200 224 255
200 224 255
200 224 255
200 224 255
200 224 255
200 224 255
200 224 255
200 224 255
200 224 255
200 224 255
200 224 255
200 224 255
200 224 255
200 224 255
200 224 255
200 224 255
199 224 255
199 224 255
199 224 255
199 224 255
199 224 255
199 224 255
199 224 255
199 224 255
199 223 255
199 223 255
199 223 255
199 223 255
199 223 255
199 223 255
199 223 255
199 223 255
199 223 255
199 223 255
199 223 255
199 223 255
199 223 255
199 223 255
199 223 255
199 223 255
199 223 255
199 223 255
199 223 255
199 223 255
199 223 255
199 223 255
199 223 255
199 223 255
199 224 255
199 224 255
199 224 255
199 224 255
199 224 255
199 224 255
199 224 255
199 224 255
200 224 255
200 224 255
200 224 255
200 224 255
200 224 255
200 224 255
200 224 255
200 224 255
200 224 255
200 224 255
200 224 255
200 224 255
200 224 255
200 224 255
200 224 255
200 224 255
200 224 255
200 224 255
200 224 255
200 224 255
200 224 255
200 224 255
200 224 255
200 224 255
200 224 255
200 224 255
200 224 255
201 224 255
201 224 255
201 224 255
201 224 255
201 224 255
201 224 255
201 224 255
201 224 255
201 224 255
201 224 255
201 224 255
201 224 255
201 224 255
201 225 255
201 225 255
201 225 255
201 225 255
201 225 255
202 225 255
202 225 255
202 225 255
202 225 255
202 225 255
202 225 255
202 225 255
202 225 255
202 225 255
202 225 255
202 225 255
202 225 255
202 225 255
202 225 255
202 225 255
202 225 255
202 225 255
203 225 255
203 225 255
203 225 255
203 225 255
203 225 255
203 225 255
203 225 255
203 225 255
203 226 255
203 226 255
203 226 255
203 226 255
203 226 255
203 226 255
203 226 255
204 226 255
204 226 255
204 226 255
204 226 255
204 226 255
204 226 255
204 226 255
204 226 255
204 226 255
204 226 255
204 226 255
204 226 255
204 226 255
204 226 255
204 226 255
204 226 255
205 226 255
205 226 255
205 226 255
205 226 255
205 226 255
205 226 255
205 227 255
205 227 255
205 227 255
205 227 255
205 227 255
205 227 255
205 227 255
205 227 255
205 227 255
205 227 255
206 227 255
206 227 255
206 227 255
206 227 255
206 227 255
206 227 255
206 227 255
206 227 255
206 227 255
206 227 255
206 227 255
206 227 255
206 227 255
206 227 255
206 227 255
206 227 255
206 227 255
207 227 255
207 227 255
207 227 255
207 227 255
207 227 255
207 228 255
207 228 255
207 228 255
207 228 255
207 228 255
207 228 255
207 228 255
207 228 255
207 228 255
207 228 255
207 228 255
207 228 255
207 228 255
207 228 255
208 228 255
208 228 255
208 228 255
208 228 255
208 228 255
208 228 255
208 228 255
208 228 255
208 228 255
208 228 255
208 228 255
208 228 255
208 228 255
208 228 255
208 228 255
208 228 255
208 228 255
208 228 255
208 228 255
208 228 255
208 228 255
209 228 255
209 228 255
209 229 255
209 229 255
209 229 255
209 229 255
209 229 255
209 229 255
209 229 255
209 229 255
209 229 255
209 229 255
209 229 255
209 229 255
209 229 255
209 229 255
209 229 255
209 229 255
209 229 255
209 229 255
209 229 255
209 229 255
209 229 255
209 229 255
209 229 255
209 229 255
209 229 255
209 229 255
209 229 255
209 229 255
209 228 255
208 228 255
208 228 255
208 228 255
208 228 255
208 228 255
208 228 255
208 228 255
208 228 255
208 228 255
208 228 255
208 228 255
208 228 255
208 228 255
208 228 255
208 228 255
208 228 255
208 228 255
208 228 255
208 228 255
208 228 255
208 228 255
207 228 255
207 228 255
207 228 255
207 228 255
207 228 255
207 228 255
207 228 255
207 228 255
207 228 255
207 228 255
207 228 255
207 228 255
207 228 255
207 228 255
207 227 255
207 227 255
207 227 255
207 227 255
206 227 255
206 227 255
206 227 255
206 227 255
206 227 255
206 227 255
206 227 255
206 227 255
206 227 255
206 227 255
206 227 255
206 227 255
206 227 255
206 227 255
206 227 255
206 227 255
206 227 255
206 227 255
205 227 255
205 227 255
205 227 255
205 227 255
205 227 255
205 227 255
205 227 255
205 227 255
205 227 255
205 227 255
205 226 255
205 226 255
205 226 255
205 226 255
205 226 255
205 226 255
204 226 255
204 226 255
204 226 255
204 226 255
204 226 255
204 226 255
204 226 255
204 226 255
204 226 255
204 226 255
204 226 255
204 226 255
204 226 255
204 226 255
204 226 255
204 226 255
203 226 255
203 226 255
203 226 255
203 226 255
203 226 255
203 226 255
203 226 255
203 225 255
203 225 255
203 225 255
203 225 255
203 225 255
203 225 255
203 225 255
203 225 255
203 225 255
202 225 255
202 225 255
202 225 255
202 225 255
202 225 255
202 225 255
202 225 255
202 225 255
202 225 255
202 225 255
202 225 255
202 225 255
202 225 255
202 225 255
202 225 255
202 225 255
201 225 255
201 225 255
201 225 255
201 225 255
201 225 255
201 225 255
201 224 255
201 224 255
201 224 255
201 224 255
201 224 255
201 224 255
201 224 255
201 224 255
201 224 255
201 224 255
201 224 255
201 224 255
201 224 255
200 224 255
200 224 255
200 224 255
200 224 255
200 224 255
200 224 255
200 224 255
200 224 255
200 224 255
200 224 255
200 224 255
200 224 255
200 224 255
200 224 255
200 224 255
200 224 255
200 224 255
200 224 255
200 224 255
200 224 255
200 224 255
200 224 255
200 224 255
200 224 255
200 224 255
200 224 255
200 224 255
200 224 255
200 224 255
200 224 255
200 224 255
200 224 255
200 224 255
200 224 255
199 224 255
199 224 255
199 224 255
199 224 255
199 224 255
199 224 255
199 224 255
199 224 255
199 224 255
199 224 255
199 224 255
199 224 255
199 224 255
199 224 255
199 224 255
199 224 255
199 224 255
199 224 255
200 224 255
200 224 255
200 224 255
200 224 255
200 224 255
200 224 255
200 224 255
200 224 255
200 224 255
200 224 255
200 224 255
200 224 255
200 224 255
200 224 255
200 224 255
200 224 255
200 224 255
200 224 255
200 224 255
200 224 255
200 224 255
200 224 255
200 224 255
200 224 255
200 224 255
200 224 255
200 224 255
200 224 255
200 224 255
200 224 255
200 224 255
200 224 255
200 224 255
200 224 255
201 224 255
201 224 255
201 224 255
201 224 255
201 224 255
201 224 255
201 224 255
201 224 255
201 224 255
201 224 255
201 224 255
201 224 255
201 224 255
201 224 255
201 225 255
201 225 255
201 225 255
201 225 255
201 225 255
202 225 255
202 225 255
202 225 255
202 225 255
202 225 255
202 225 255
202 225 255
202 225 255
202 225 255
202 225 255
202 225 255
202 225 255
202 225 255
202 225 255
202 225 255
202 225 255
203 225 255
203 225 255
203 225 255
203 225 255
203 225 255
203 225 255
203 225 255
203 225 255
203 225 255
203 226 255
203 226 255
203 226 255
203 226 255
203 226 255
203 226 255
203 226 255
204 226 255
204 226 255
204 226 255
204 226 255
204 226 255
204 226 255
204 226 255
204 226 255
204 226 255
204 226 255
204 226 255
204 226 255
204 226 255
204 226 255
204 226 255
204 226 255
205 226 255
205 226 255
205 226 255
205 226 255
205 226 255
205 226 255
205 227 255
205 227 255
205 227 255
205 227 255
205 227 255
205 227 255
205 227 255
205 227 255
205 227 255
205 227 255
206 227 255
206 227 255
206 227 255
206 227 255
206 227 255
206 227 255
206 227 255
206 227 255
206 227 255
206 227 255
206 227 255
206 227 255
206 227 255
206 227 255
206 227 255
206 227 255
206 227 255
206 227 255
207 227 255
207 227 255
207 227 255
207 227 255
207 228 255
207 228 255
207 228 255
207 228 255
207 228 255
207 228 255
207 228 255
207 228 255
207 228 255
207 228 255
207 228 255
207 228 255
207 228 255
207 228 255
208 228 255
208 228 255
208 228 255
208 228 255
208 228 255
208 228 255
208 228 255
208 228 255
208 228 255
208 228 255
208 228 255
208 228 255
208 228 255
208 228 255
208 228 255
208 228 255
208 228 255
208 228 255
208 228 255
208 228 255
208 228 255
209 228 255
209 229 255
209 229 255
209 229 255
209 229 255
209 229 255
209 229 255
209 229 255
209 229 255
209 229 255
209 229 255
209 229 255
209 229 255
209 229 255
209 229 255
209 229 255
209 229 255
209 229 255
209 229 255
209 229 255
209 229 255
209 229 255
209 229 255
209 229 255
209 229 255
209 229 255
209 229 255
209 229 255
209 229 255
209 229 255
209 229 255
209 229 255
209 229 255
209 229 255
209 229 255
209 229 255
209 228 255
209 228 255
208 228 255
208 228 255
208 228 255
208 228 255
208 228 255
208 228 255
208 228 255
208 228 255
208 228 255
208 228 255
208 228 255
208 228 255
208 228 255
208 228 255
208 228 255
208 228 255
208 228 255
208 228 255
208 228 255
208 228 255
207 228 255
207 228 255
207 228 255
207 228 255
207 228 255
207 228 255
207 228 255
207 228 255
207 228 255
207 228 255
207 228 255
207 228 255
207 228 255
207 228 255
207 227 255
207 227 255
207 227 255
207 227 255
207 227 255
206 227 255
206 227 255
206 227 255
206 227 255
206 227 255
206 227 255
206 227 255
206 227 255
206 227 255
206 227 255
206 227 255
206 227 255
206 227 255
206 227 255
206 227 255
206 227 255
206 227 255
205 227 255
205 227 255
205 227 255
205 227 255
205 227 255
205 227 255
205 227 255
205 227 255
205 227 255
205 227 255
205 226 255
205 226 255
205 226 255
205 226 255
205 226 255
205 226 255
204 226 255
204 226 255
204 226 255
204 226 255
204 226 255
204 226 255
204 226 255
204 226 255
204 226 255
204 226 255
204 226 255
204 226 255
204 226 255
204 226 255
204 226 255
204 226 255
203 226 255
203 226 255
203 226 255
203 226 255
203 226 255
203 226 255
203 226 255
203 225 255
203 225 255
203 225 255
203 225 255
203 225 255
203 225 255
203 225 255
203 225 255
203 225 255
202 225 255
202 225 255
202 225 255
202 225 255
202 225 255
202 225 255
202 225 255
202 225 255
202 225 255
202 225 255
202 225 255
202 225 255
202 225 255
202 225 255
202 225 255
202 225 255
202 225 255
201 225 255
201 225 255
201 225 255
201 225 255
201 225 255
201 224 255
201 224 255
201 224 255
201 224 255
201 224 255
201 224 255
201 224 255
201 224 255
201 224 255
201 224 255
201 224 255
201 224 255
201 224 255
201 224 255
201 224 255
200 224 255
200 224 255
200 224 255
200 224 255
200 224 255
200 224 255
200 224 255
200 224 255
200 224 255
200 224 255
200 224 255
200 224 255
200 224 255
200 224 255
200 224 255
200 224 255
200 224 255
200 224 255
200 224 255
200 224 255
200 224 255
200 224 255
200 224 255
200 224 255
200 224 255
200 224 255
200 224 255
200 224 255
200 224 255
200 224 255
200 224 255
200 224 255
200 224 255
200 224 255
200 224 255
200 224 255
200 224 255
200 224 255
200 224 255
200 224 255
200 224 255
200 224 255
200 224 255
200 224 255
200 224 255
200 224 255
200 224 255
200 224 255
200 224 255
200 224 255
200 224 255
200 224 255
200 224 255
200 224 255
200 224 255
200 224 255
200 224 255
200 224 255
200 224 255
200 224 255
200 224 255
200 224 255
200 224 255
200 224 255
200 224 255
200 224 255
200 224 255
200 224 255
200 224 255
200 224 255
200 224 255
200 224 255
200 224 255
200 224 255
200 224 255
200 224 255
201 224 255
201 224 255
201 224 255
201 224 255
201 224 255
201 224 255
201 224 255
201 224 255
201 224 255
201 224 255
201 224 255
201 224 255
201 224 255
201 224 255
201 224 255
201 225 255
201 225 255
201 225 255
201 225 255
201 225 255
202 225 255
202 225 255
202 225 255
202 225 255
202 225 255
202 225 255
202 225 255
202 225 255
202 225 255
202 225 255
202 225 255
202 225 255
202 225 255
202 225 255
202 225 255
202 225 255
202 225 255
203 225 255
203 225 255
203 225 255
203 225 255
203 225 255
203 225 255
203 225 255
203 225 255
203 225 255
203 226 255
203 226 255
203 226 255
203 226 255
203 226 255
203 226 255
203 226 255
204 226 255
204 226 255
204 226 255
204 226 255
204 226 255
204 226 255
204 226 255
204 226 255
204 226 255
204 226 255
204 226 255
204 226 255
204 226 255
204 226 255
204 226 255
204 226 255
205 226 255
205 226 255
205 226 255
205 226 255
205 226 255
205 226 255
205 226 255
205 227 255
205 227 255
205 227 255
205 227 255
205 227 255
205 227 255
205 227 255
205 227 255
205 227 255
206 227 255
206 227 255
206 227 255
206 227 255
206 227 255
206 227 255
206 227 255
206 227 255
206 227 255
206 227 255
206 227 255
206 227 255
206 227 255
206 227 255
206 227 255
206 227 255
206 227 255
206 227 255
207 227 255
207 227 255
207 227 255
207 227 255
207 228 255
207 228 255
207 228 255
207 228 255
207 228 255
207 228 255
207 228 255
207 228 255
207 228 255
207 228 255
207 228 255
207 228 255
207 228 255
207 228 255
208 228 255
208 228 255
208 228 255
208 228 255
208 228 255
208 228 255
208 228 255
208 228 255
208 228 255
208 228 255
208 228 255
208 228 255
208 228 255
208 228 255
208 228 255
208 228 255
208 228 255
208 228 255
208 228 255
208 228 255
209 228 255
209 228 255
209 229 255
209 229 255
209 229 255
209 229 255
209 229 255
209 229 255
209 229 255
209 229 255
209 229 255
209 229 255
209 229 255
209 229 255
209 229 255
209 229 255
209 229 255
209 229 255
209 229 255
209 229 255
209 229 255
210 229 255
209 229 255
209 229 255
209 229 255
209 229 255
209 229 255
209 229 255
209 229 255
209 229 255
209 229 255
209 229 255
209 229 255
209 229 255
209 229 255
209 229 255
209 229 255
209 229 255
209 229 255
209 229 255
209 229 255
209 229 255
209 229 255
209 229 255
209 228 255
208 228 255
208 228 255
208 228 255
208 228 255
208 228 255
208 228 255
208 228 255
208 228 255
208 228 255
208 228 255
208 228 255
208 228 255
208 228 255
208 228 255
208 228 255
208 228 255
208 228 255
208 228 255
208 228 255
208 228 255
207 228 255
207 228 255
207 228 255
207 228 255
207 228 255
207 228 255
207 228 255
207 228 255
207 228 255
207 228 255
207 228 255
207 228 255
207 228 255
207 228 255
207 227 255
207 227 255
207 227 255
207 227 255
207 227 255
206 227 255
206 227 255
206 227 255
206 227 255
206 227 255
206 227 255
206 227 255
206 227 255
206 227 255
206 227 255
206 227 255
206 227 255
206 227 255
206 227 255
206 227 255
206 227 255
206 227 255
205 227 255
205 227 255
205 227 255
205 227 255
205 227 255
205 227 255
205 227 255
205 227 255
205 227 255
205 227 255
205 226 255
205 226 255
205 226 255
205 226 255
205 226 255
205 226 255
204 226 255
204 226 255
204 226 255
204 226 255
204 226 255
204 226 255
204 226 255
204 226 255
204 226 255
204 226 255
204 226 255
204 226 255
204 226 255
204 226 255
204 226 255
204 226 255
203 226 255
203 226 255
203 226 255
203 226 255
203 226 255
203 226 255
203 226 255
203 225 255
203 225 255
203 225 255
203 225 255
203 225 255
203 225 255
203 225 255
203 225 255
203 225 255
202 225 255
202 225 255
202 225 255
202 225 255
202 225 255
202 225 255
202 225 255
202 225 255
202 225 255
202 225 255
202 225 255
202 225 255
202 225 255
202 225 255
202 225 255
202 225 255
202 225 255
202 225 255
201 225 255
201 225 255
201 225 255
201 225 255
201 225 255
201 224 255
201 224 255
201 224 255
201 224 255
201 224 255
201 224 255
201 224 255
201 224 255
201 224 255
201 224 255
201 224 255
201 224 255
201 224 255
201 224 255
201 224 255
201 224 255
200 224 255
200 224 255
200 224 255
200 224 255
200 224 255
200 224 255
200 224 255
200 224 255
200 224 255
200 224 255
200 224 255
200 224 255
200 224 255
200 224 255
200 224 255
200 224 255
200 224 255
200 224 255
200 224 255
200 224 255
200 224 255
200 224 255
200 224 255
200 224 255
200 224 255
200 224 255
200 224 255
200 224 255
200 224 255
200 224 255
200 224 255
200 224 255
200 224 255
200 224 255
200 224 255
200 224 255
200 224 255
200 224 255
200 224 255
200 224 255
200 224 255
200 224 255
200 224 255
200 224 255
200 224 255
200 224 255
200 224 255
200 224 255
200 224 255
200 224 255
200 224 255
200 224 255
200 224 255
200 224 255
200 224 255
200 224 255
200 224 255
200 224 255
200 224 255
200 224 255
200 224 255
200 224 255
200 224 255
200 224 255
200 224 255
201 224 255
201 224 255
201 224 255
201 224 255
201 224 255
201 224 255
201 224 255
201 224 255
201 224 255
201 224 255
201 224 255
201 224 255
201 224 255
201 224 255
201 224 255
201 224 255
201 224 255
201 225 255
201 225 255
201 225 255
201 225 255
201 225 255
202 225 255
202 225 255
202 225 255
202 225 255
202 225 255
202 225 255
202 225 255
202 225 255
202 225 255
202 225 255
202 225 255
202 225 255
202 225 255
202 225 255
202 225 255
202 225 255
202 225 255
202 225 255
203 225 255
203 225 255
203 225 255
203 225 255
203 225 255
203 225 255
203 225 255
203 225 255
203 225 255
203 226 255
203 226 255
203 226 255
203 226 255
203 226 255
203 226 255
203 226 255
204 226 255
204 226 255
204 226 255
204 226 255
204 226 255
204 226 255
204 226 255
204 226 255
204 226 255
204 226 255
204 226 255
204 226 255
204 226 255
204 226 255
204 226 255
204 226 255
205 226 255
205 226 255
205 226 255
205 226 255
205 226 255
205 226 255
205 227 255
205 227 255
205 227 255
205 227 255
205 227 255
205 227 255
205 227 255
205 227 255
205 227 255
205 227 255
206 227 255
206 227 255
206 227 255
206 227 255
206 227 255
206 227 255
206 227 255
206 227 255
206 227 255
206 227 255
206 227 255
206 227 255
206 227 255
206 227 255
206 227 255
206 227 255
206 227 255
207 227 255
207 227 255
207 227 255
207 227 255
207 227 255
207 228 255
207 228 255
207 228 255
207 228 255
207 228 255
207 228 255
207 228 255
207 228 255
207 228 255
207 228 255
207 228 255
207 228 255
207 228 255
207 228 255
208 228 255
208 228 255
208 228 255
208 228 255
208 228 255
208 228 255
208 228 255
208 228 255
208 228 255
208 228 255
208 228 255
208 228 255
208 228 255
208 228 255
208 228 255
208 228 255
208 228 255
208 228 255
208 228 255
208 228 255
209 228 255
209 228 255
209 229 255
209 229 255
209 229 255
209 229 255
209 229 255
209 229 255
209 229 255
209 229 255
209 229 255
209 229 255
209 229 255
209 229 255
209 229 255
209 229 255
209 229 255
209 229 255
209 229 255
209 229 255
209 229 255
209 229 255
209 229 255
210 229 255
210 229 255
210 229 255
210 229 255
210 229 255
210 229 255
209 229 255
209 229 255
209 229 255
209 229 255
209 229 255
209 229 255
209 229 255
209 229 255
209 229 255
209 229 255
209 229 255
209 229 255
209 229 255
209 229 255
209 229 255
209 229 255
209 229 255
209 229 255
209 229 255
209 229 255
209 229 255
209 228 255
208 228 255
208 228 255
208 228 255
208 228 255
208 228 255
208 228 255
208 228 255
208 228 255
208 228 255
208 228 255
208 228 255
208 228 255
208 228 255
208 228 255
208 228 255
208 228 255
208 228 255
208 228 255
208 228 255
208 228 255
207 228 255
207 228 255
207 228 255
207 228 255
207 228 255
207 228 255
207 228 255
207 228 255
207 228 255
207 228 255
207 228 255
207 228 255
207 228 255
207 228 255
207 227 255
207 227 255
207 227 255
207 227 255
207 227 255
206 227 255
206 227 255
206 227 255
206 227 255
206 227 255
206 227 255
206 227 255
206 227 255
206 227 255
206 227 255
206 227 255
206 227 255
206 227 255
206 227 255
206 227 255
206 227 255
206 227 255
205 227 255
205 227 255
205 227 255
205 227 255
205 227 255
205 227 255
205 227 255
205 227 255
205 227 255
205 227 255
205 226 255
205 226 255
205 226 255
205 226 255
205 226 255
205 226 255
204 226 255
204 226 255
204 226 255
204 226 255
204 226 255
204 226 255
204 226 255
204 226 255
204 226 255
204 226 255
204 226 255
204 226 255
204 226 255
204 226 255
204 226 255
204 226 255
203 226 255
203 226 255
203 226 255
203 226 255
203 226 255
203 226 255
203 226 255
203 225 255
203 225 255
203 225 255
203 225 255
203 225 255
203 225 255
203 225 255
203 225 255
203 225 255
203 225 255
202 225 255
202 225 255
202 225 255
202 225 255
202 225 255
202 225 255
202 225 255
202 225 255
202 225 255
202 225 255
202 225 255
202 225 255
202 225 255
202 225 255
202 225 255
202 225 255
202 225 255
201 225 255
201 225 255
201 225 255
201 225 255
201 225 255
201 225 255
201 225 255
201 224 255
201 224 255
201 224 255
201 224 255
201 224 255
201 224 255
201 224 255
201 224 255
201 224 255
201 224 255
201 224 255
201 224 255
201 224 255
201 224 255
201 224 255
201 224 255
201 224 255
200 224 255
200 224 255
200 224 255
200 224 255
200 224 255
200 224 255
200 224 255
200 224 255
200 224 255
200 224 255
200 224 255
200 224 255
200 224 255
200 224 255
200 224 255
200 224 255
200 224 255
200 224 255
200 224 255
200 224 255
200 224 255
200 224 255
200 224 255
200 224 255
200 224 255
200 224 255
200 224 255
200 224 255
200 224 255
200 224 255
200 224 255
200 224 255
200 224 255
200 224 255
200 224 255
200 224 255
200 224 255
200 224 255
200 224 255
200 224 255
200 224 255
200 224 255
200 224 255
200 224 255
200 224 255
200 224 255
200 224 255
200 224 255
200 224 255
200 224 255
200 224 255
200 224 255
200 224 255
200 224 255
201 224 255
201 224 255
201 224 255
201 224 255
201 224 255
201 224 255
201 224 255
201 224 255
201 224 255
201 224 255
201 224 255
201 224 255
201 224 255
201 224 255
201 224 255
201 224 255
201 224 255
201 225 255
201 225 255
201 225 255
201 225 255
201 225 255
201 225 255
201 225 255
202 225 255
202 225 255
202 225 255
202 225 255
202 225 255
202 225 255
202 225 255
202 225 255
202 225 255
202 225 255
202 225 255
202 225 255
202 225 255
202 225 255
202 225 255
202 225 255
202 225 255
203 225 255
203 225 255
203 225 255
203 225 255
203 225 255
203 225 255
203 225 255
203 225 255
203 225 255
203 225 255
203 226 255
203 226 255
203 226 255
203 226 255
203 226 255
203 226 255
203 226 255
204 226 255
204 226 255
204 226 255
204 226 255
204 226 255
204 226 255
204 226 255
204 226 255
204 226 255
204 226 255
204 226 255
204 226 255
204 226 255
204 226 255
204 226 255
204 226 255
205 226 255
205 226 255
205 226 255
205 226 255
205 226 255
205 226 255
205 227 255
205 227 255
205 227 255
205 227 255
205 227 255
205 227 255
205 227 255
205 227 255
205 227 255
205 227 255
206 227 255
206 227 255
206 227 255
206 227 255
206 227 255
206 227 255
206 227 255
206 227 255
206 227 255
206 227 255
206 227 255
206 227 255
206 227 255
206 227 255
206 227 255
206 227 255
206 227 255
207 227 255
207 227 255
207 227 255
207 227 255
207 228 255
207 228 255
207 228 255
207 228 255
207 228 255
207 228 255
207 228 255
207 228 255
207 228 255
207 228 255
207 228 255
207 228 255
207 228 255
207 228 255
207 228 255
208 228 255
208 228 255
208 228 255
208 228 255
208 228 255
208 228 255
208 228 255
208 228 255
208 228 255
208 228 255
208 228 255
208 228 255
208 228 255
208 228 255
208 228 255
208 228 255
208 228 255
208 228 255
208 228 255
208 228 255
209 228 255
209 229 255
209 229 255
209 229 255
209 229 255
209 229 255
209 229 255
209 229 255
209 229 255
209 229 255
209 229 255
209 229 255
209 229 255
209 229 255
209 229 255
209 229 255
209 229 255
209 229 255
209 229 255
209 229 255
209 229 255
209 229 255
210 229 255
210 229 255
210 229 255
210 229 255
210 229 255
210 229 255
210 229 255
210 229 255
210 229 255
210 229 255
210 229 255
210 229 255
210 229 255
210 229 255
209 229 255
209 229 255
209 229 255
209 229 255
209 229 255
209 229 255
209 229 255
209 229 255
209 229 255
209 229 255
209 229 255
209 229 255
209 229 255
209 229 255
209 229 255
209 229 255
209 229 255
209 229 255
209 229 255
209 229 255
209 228 255
209 228 255
208 228 255
208 228 255
208 228 255
208 228 255
208 228 255
208 228 255
208 228 255
208 228 255
208 228 255
208 228 255
208 228 255
208 228 255
208 228 255
208 228 255
208 228 255
208 228 255
208 228 255
208 228 255
208 228 255
208 228 255
207 228 255
207 228 255
207 228 255
207 228 255
207 228 255
207 228 255
207 228 255
207 228 255
207 228 255
207 228 255
207 228 255
207 228 255
207 228 255
207 228 255
207 227 255
207 227 255
207 227 255
207 227 255
206 227 255
206 227 255
206 227 255
206 227 255
206 227 255
206 227 255
206 227 255
206 227 255
206 227 255
206 227 255
206 227 255
206 227 255
206 227 255
206 227 255
206 227 255
206 227 255
206 227 255
205 227 255
205 227 255
205 227 255
205 227 255
205 227 255
205 227 255
205 227 255
205 227 255
205 227 255
205 227 255
205 226 255
205 226 255
205 226 255
205 226 255
205 226 255
205 226 255
204 226 255
204 226 255
204 226 255
204 226 255
204 226 255
204 226 255
204 226 255
204 226 255
204 226 255
204 226 255
204 226 255
204 226 255
204 226 255
204 226 255
204 226 255
204 226 255
203 226 255
203 226 255
203 226 255
203 226 255
203 226 255
203 226 255
203 226 255
203 226 255
203 225 255
203 225 255
203 225 255
203 225 255
203 225 255
203 225 255
203 225 255
203 225 255
203 225 255
202 225 255
202 225 255
202 225 255
202 225 255
202 225 255
202 225 255
202 225 255
202 225 255
202 225 255
202 225 255
202 225 255
202 225 255
202 225 255
202 225 255
202 225 255
202 225 255
202 225 255
202 225 255
202 225 255
201 225 255
201 225 255
201 225 255
201 225 255
201 225 255
201 225 255
201 224 255
201 224 255
201 224 255
201 224 255
201 224 255
201 224 255
201 224 255
201 224 255
201 224 255
201 224 255
201 224 255
201 224 255
201 224 255
201 224 255
201 224 255
201 224 255
201 224 255
201 224 255
201 224 255
201 224 255
201 224 255
201 224 255
200 224 255
200 224 255
200 224 255
200 224 255
200 224 255
200 224 255
200 224 255
200 224 255
200 224 255
200 224 255
200 224 255
200 224 255
200 224 255
200 224 255
200 224 255
200 224 255
200 224 255
200 224 255
200 224 255
200 224 255
200 224 255
200 224 255
200 224 255
200 224 255
200 224 255
200 224 255
200 224 255
200 224 255
200 224 255
200 224 255
200 224 255
200 224 255
200 224 255
200 224 255
200 224 255
200 224 255
200 224 255
201 224 255
201 224 255
201 224 255
201 224 255
201 224 255
201 224 255
201 224 255
201 224 255
201 224 255
201 224 255
201 224 255
201 224 255
201 224 255
201 224 255
201 224 255
201 224 255
201 224 255
201 224 255
201 224 255
201 224 255
201 224 255
201 225 255
201 225 255
201 225 255
201 225 255
201 225 255
201 225 255
202 225 255
202 225 255
202 225 255
202 225 255
202 225 255
202 225 255
202 225 255
202 225 255
202 225 255
202 225 255
202 225 255
202 225 255
202 225 255
202 225 255
202 225 255
202 225 255
202 225 255
202 225 255
202 225 255
203 225 255
203 225 255
203 225 255
203 225 255
203 225 255
203 225 255
203 225 255
203 225 255
203 225 255
203 226 255
203 226 255
203 226 255
203 226 255
203 226 255
203 226 255
203 226 255
203 226 255
204 226 255
204 226 255
204 226 255
204 226 255
204 226 255
204 226 255
204 226 255
204 226 255
204 226 255
204 226 255
204 226 255
204 226 255
204 226 255
204 226 255
204 226 255
204 226 255
205 226 255
205 226 255
205 226 255
205 226 255
205 226 255
205 226 255
205 227 255
205 227 255
205 227 255
205 227 255
205 227 255
205 227 255
205 227 255
205 227 255
205 227 255
205 227 255
206 227 255
206 227 255
206 227 255
206 227 255
206 227 255
206 227 255
206 227 255
206 227 255
206 227 255
206 227 255
206 227 255
206 227 255
206 227 255
206 227 255
206 227 255
206 227 255
206 227 255
207 227 255
207 227 255
207 227 255
207 227 255
207 228 255
207 228 255
207 228 255
207 228 255
207 228 255
207 228 255
207 228 255
207 228 255
207 228 255
207 228 255
207 228 255
207 228 255
207 228 255
207 228 255
208 228 255
208 228 255
208 228 255
208 228 255
208 228 255
208 228 255
208 228 255
208 228 255
208 228 255
208 228 255
208 228 255
208 228 255
208 228 255
208 228 255
208 228 255
208 228 255
208 228 255
208 228 255
208 228 255
208 228 255
209 228 255
209 228 255
209 229 255
209 229 255
209 229 255
209 229 255
209 229 255
209 229 255
209 229 255
209 229 255
209 229 255
209 229 255
209 229 255
209 229 255
209 229 255
209 229 255
209 229 255
209 229 255
209 229 255
209 229 255
209 229 255
209 229 255
210 229 255
210 229 255
210 229 255
210 229 255
210 229 255
210 229 255
210 229 255
210 229 255
210 229 255
210 229 255
210 229 255
210 229 255
210 229 255
210 229 255
210 229 255
210 229 255
210 229 255
210 229 255
210 229 255
210 229 255
210 229 255
209 229 255
209 229 255
209 229 255
209 229 255
209 229 255
209 229 255
209 229 255
209 229 255
209 229 255
209 229 255
209 229 255
209 229 255
209 229 255
209 229 255
209 229 255
209 229 255
209 229 255
209 229 255
209 229 255
209 229 255
209 229 255
209 228 255
208 228 255
208 228 255
208 228 255
208 228 255
208 228 255
208 228 255
208 228 255
208 228 255
208 228 255
208 228 255
208 228 255
208 228 255
208 228 255
208 228 255
208 228 255
208 228 255
208 228 255
208 228 255
208 228 255
208 228 255
207 228 255
207 228 255
207 228 255
207 228 255
207 228 255
207 228 255
207 228 255
207 228 255
207 228 255
207 228 255
207 228 255
207 228 255
207 228 255
207 228 255
207 227 255
207 227 255
207 227 255
207 227 255
206 227 255
206 227 255
206 227 255
206 227 255
206 227 255
206 227 255
206 227 255
206 227 255
206 227 255
206 227 255
206 227 255
206 227 255
206 227 255
206 227 255
206 227 255
206 227 255
206 227 255
205 227 255
205 227 255
205 227 255
205 227 255
205 227 255
205 227 255
205 227 255
205 227 255
205 227 255
205 227 255
205 226 255
205 226 255
205 226 255
205 226 255
205 226 255
205 226 255
204 226 255
204 226 255
204 226 255
204 226 255
204 226 255
204 226 255
204 226 255
204 226 255
204 226 255
204 226 255
204 226 255
204 226 255
204 226 255
204 226 255
204 226 255
204 226 255
204 226 255
203 226 255
203 226 255
203 226 255
203 226 255
203 226 255
203 226 255
203 226 255
203 225 255
203 225 255
203 225 255
203 225 255
203 225 255
203 225 255
203 225 255
203 225 255
203 225 255
203 225 255
202 225 255
202 225 255
202 225 255
202 225 255
202 225 255
202 225 255
202 225 255
202 225 255
202 225 255
202 225 255
202 225 255
202 225 255
202 225 255
202 225 255
202 225 255
202 225 255
202 225 255
202 225 255
202 225 255
201 225 255
201 225 255
201 225 255
201 225 255
201 225 255
201 225 255
201 225 255
201 225 255
201 224 255
201 224 255
201 224 255
201 224 255
201 224 255
201 224 255
201 224 255
201 224 255
201 224 255
201 224 255
201 224 255
201 224 255
201 224 255
201 224 255
201 224 255
201 224 255
201 224 255
201 224 255
201 224 255
201 224 255
201 224 255
201 224 255
201 224 255
201 224 255
201 224 255
201 224 255
201 224 255
201 224 255
201 224 255
201 224 255
201 224 255
201 224 255
201 224 255
201 224 255
201 224 255
201 224 255
201 224 255
201 224 255
201 224 255
201 224 255
201 224 255
201 224 255
201 224 255
201 224 255
201 224 255
201 224 255
201 224 255
201 224 255
201 224 255
201 224 255
201 224 255
201 224 255
201 224 255
201 224 255
201 224 255
201 224 255
201 224 255
201 224 255
201 224 255
201 224 255
201 224 255
201 224 255
201 224 255
201 224 255
201 224 255
201 224 255
201 224 255
201 224 255
201 225 255
201 225 255
201 225 255
201 225 255
201 225 255
201 225 255
201 225 255
202 225 255
202 225 255
202 225 255
202 225 255
202 225 255
202 225 255
202 225 255
202 225 255
202 225 255
202 225 255
202 225 255
202 225 255
202 225 255
202 225 255
202 225 255
202 225 255
202 225 255
202 225 255
202 225 255
202 225 255
203 225 255
203 225 255
203 225 255
203 225 255
203 225 255
203 225 255
203 225 255
203 225 255
203 225 255
203 225 255
203 226 255
203 226 255
203 226 255
203 226 255
203 226 255
203 226 255
203 226 255
204 226 255
204 226 255
204 226 255
204 226 255
204 226 255
204 226 255
204 226 255
204 226 255
204 226 255
204 226 255
204 226 255
204 226 255
204 226 255
204 226 255
204 226 255
204 226 255
204 226 255
205 226 255
205 226 255
205 226 255
205 226 255
205 226 255
205 226 255
205 227 255
205 227 255
205 227 255
205 227 255
205 227 255
205 227 255
205 227 255
205 227 255
205 227 255
205 227 255
206 227 255
206 227 255
206 227 255
206 227 255
206 227 255
206 227 255
206 227 255
206 227 255
206 227 255
206 227 255
206 227 255
206 227 255
206 227 255
206 227 255
206 227 255
206 227 255
206 227 255
207 227 255
207 227 255
207 227 255
207 227 255
207 228 255
207 228 255
207 228 255
207 228 255
207 228 255
207 228 255
207 228 255
207 228 255
207 228 255
207 228 255
207 228 255
207 228 255
207 228 255
207 228 255
208 228 255
208 228 255
208 228 255
208 228 255
208 228 255
208 228 255
208 228 255
208 228 255
208 228 255
208 228 255
208 228 255
208 228 255
208 228 255
208 228 255
208 228 255
208 228 255
208 228 255
208 228 255
208 228 255
208 228 255
209 228 255
209 229 255
209 229 255
209 229 255
209 229 255
209 229 255
209 229 255
209 229 255
209 229 255
209 229 255
209 229 255
209 229 255
209 229 255
209 229 255
209 229 255
209 229 255
209 229 255
209 229 255
209 229 255
209 229 255
209 229 255
209 229 255
210 229 255
210 229 255
210 229 255
210 229 255
210 229 255
210 229 255
210 229 255
210 229 255
210 229 255
210 229 255
210 229 255
210 229 255
210 229 255
210 229 255
210 229 255
210 229 255
210 229 255
210 229 255
210 229 255
210 229 255
210 229 255
210 229 255
210 229 255
210 229 255
210 229 255
210 229 255
210 229 255
210 229 255
209 229 255
209 229 255
209 229 255
209 229 255
209 229 255
209 229 255
209 229 255
209 229 255
209 229 255
209 229 255
209 229 255
209 229 255
209 229 255
209 229 255
209 229 255
209 229 255
209 229 255
209 229 255
209 229 255
209 229 255
209 228 255
209 228 255
208 228 255
208 228 255
208 228 255
208 228 255
208 228 255
208 228 255
208 228 255
208 228 255
208 228 255
208 228 255
208 228 255
208 228 255
208 228 255
208 228 255
208 228 255
208 228 255
208 228 255
208 228 255
208 228 255
207 228 255
207 228 255
207 228 255
207 228 255
207 228 255
207 228 255
207 228 255
207 228 255
207 228 255
207 228 255
207 228 255
207 228 255
207 228 255
207 228 255
207 227 255
207 227 255
207 227 255
207 227 255
206 227 255
206 227 255
206 227 255
206 227 255
206 227 255
206 227 255
206 227 255
206 227 255
206 227 255
206 227 255
206 227 255
206 227 255
206 227 255
206 227 255
206 227 255
206 227 255
206 227 255
205 227 255
205 227 255
205 227 255
205 227 255
205 227 255
205 227 255
205 227 255
205 227 255
205 227 255
205 227 255
205 226 255
205 226 255
205 226 255
205 226 255
205 226 255
205 226 255
205 226 255
204 226 255
204 226 255
204 226 255
204 226 255
204 226 255
204 226 255
204 226 255
204 226 255
204 226 255
204 226 255
204 226 255
204 226 255
204 226 255
204 226 255
204 226 255
204 226 255
203 226 255
203 226 255
203 226 255
203 226 255
203 226 255
203 226 255
203 226 255
203 226 255
203 225 255
203 225 255
203 225 255
203 225 255
203 225 255
203 225 255
203 225 255
203 225 255
203 225 255
203 225 255
202 225 255
202 225 255
202 225 255
202 225 255
202 225 255
202 225 255
202 225 255
202 225 255
202 225 255
202 225 255
202 225 255
202 225 255
202 225 255
202 225 255
202 225 255
202 225 255
202 225 255
202 225 255
202 225 255
202 225 255
202 225 255
201 225 255
201 225 255
201 225 255
201 225 255
201 225 255
201 225 255
201 225 255
201 225 255
201 224 255
201 224 255
201 224 255
201 224 255
201 224 255
201 224 255
201 224 255
201 224 255
201 224 255
201 224 255
201 224 255
201 224 255
201 224 255
201 224 255
201 224 255
201 224 255
201 224 255
201 224 255
201 224 255
201 224 255
201 224 255
201 224 255
201 224 255
201 224 255
201 224 255
201 224 255
201 224 255
201 224 255
201 224 255
201 224 255
201 224 255
201 224 255
201 224 255
201 224 255
201 224 255
201 224 255
201 224 255
201 224 255
201 224 255
201 224 255
201 224 255
201 224 255
201 224 255
201 224 255
201 224 255
201 224 255
201 224 255
201 224 255
201 224 255
201 224 255
201 224 255
201 224 255
201 224 255
201 224 255
201 224 255
201 224 255
201 225 255
201 225 255
201 225 255
201 225 255
201 225 255
201 225 255
201 225 255
201 225 255
201 225 255
202 225 255
202 225 255
202 225 255
202 225 255
202 225 255
202 225 255
202 225 255
202 225 255
202 225 255
202 225 255
202 225 255
202 225 255
202 225 255
202 225 255
202 225 255
202 225 255
202 225 255
202 225 255
202 225 255
202 225 255
203 225 255
203 225 255
203 225 255
203 225 255
203 225 255
203 225 255
203 225 255
203 225 255
203 225 255
203 225 255
203 226 255
203 226 255
203 226 255
203 226 255
203 226 255
203 226 255
203 226 255
203 226 255
204 226 255
204 226 255
204 226 255
204 226 255
204 226 255
204 226 255
204 226 255
204 226 255
204 226 255
204 226 255
204 226 255
204 226 255
204 226 255
204 226 255
204 226 255
204 226 255
205 226 255
205 226 255
205 226 255
205 226 255
205 226 255
205 226 255
205 226 255
205 227 255
205 227 255
205 227 255
205 227 255
205 227 255
205 227 255
205 227 255
205 227 255
205 227 255
206 227 255
206 227 255
206 227 255
206 227 255
206 227 255
206 227 255
206 227 255
206 227 255
206 227 255
206 227 255
206 227 255
206 227 255
206 227 255
206 227 255
206 227 255
206 227 255
206 227 255
206 227 255
207 227 255
207 227 255
207 227 255
207 227 255
207 228 255
207 228 255
207 228 255
207 228 255
207 228 255
207 228 255
207 228 255
207 228 255
207 228 255
207 228 255
207 228 255
207 228 255
207 228 255
207 228 255
208 228 255
208 228 255
208 228 255
208 228 255
208 228 255
208 228 255
208 228 255
208 228 255
208 228 255
208 228 255
208 228 255
208 228 255
208 228 255
208 228 255
208 228 255
208 228 255
208 228 255
208 228 255
208 228 255
209 228 255
209 228 255
209 229 255
209 229 255
209 229 255
209 229 255
209 229 255
209 229 255
209 229 255
209 229 255
209 229 255
209 229 255
209 229 255
209 229 255
209 229 255
209 229 255
209 229 255
209 229 255
209 229 255
209 229 255
209 229 255
209 229 255
210 229 255
210 229 255
210 229 255
210 229 255
210 229 255
210 229 255
210 229 255
210 229 255
210 229 255
210 229 255
210 229 255
210 229 255
210 229 255
210 229 255
210 229 255
210 229 255
210 229 255
210 229 255
210 229 255
210 229 255
210 229 255
210 229 255
210 229 255
210 229 255
210 229 255
210 229 255
210 229 255
210 229 255
210 229 255
210 229 255
210 229 255
210 229 255
210 229 255
210 229 255
210 229 255
209 229 255
209 229 255
209 229 255
209 229 255
209 229 255
209 229 255
209 229 255
209 229 255
209 229 255
209 229 255
209 229 255
209 229 255
209 229 255
209 229 255
209 229 255
209 229 255
209 229 255
209 229 255
209 229 255
209 229 255
209 229 255
209 228 255
208 228 255
208 228 255
208 228 255
208 228 255
208 228 255
208 228 255
208 228 255
208 228 255
208 228 255
208 228 255
208 228 255
208 228 255
208 228 255
208 228 255
208 228 255
208 228 255
208 228 255
208 228 255
208 228 255
208 228 255
207 228 255
207 228 255
207 228 255
207 228 255
207 228 255
207 228 255
207 228 255
207 228 255
207 228 255
207 228 255
207 228 255
207 228 255
207 228 255
207 227 255
207 227 255
207 227 255
207 227 255
207 227 255
206 227 255
206 227 255
206 227 255
206 227 255
206 227 255
206 227 255
206 227 255
206 227 255
206 227 255
206 227 255
206 227 255
206 227 255
206 227 255
206 227 255
206 227 255
206 227 255
206 227 255
205 227 255
205 227 255
205 227 255
205 227 255
205 227 255
205 227 255
205 227 255
205 227 255
205 227 255
205 226 255
205 226 255
205 226 255
205 226 255
205 226 255
205 226 255
205 226 255
204 226 255
204 226 255
204 226 255
204 226 255
204 226 255
204 226 255
204 226 255
204 226 255
204 226 255
204 226 255
204 226 255
204 226 255
204 226 255
204 226 255
204 226 255
204 226 255
204 226 255
203 226 255
203 226 255
203 226 255
203 226 255
203 226 255
203 226 255
203 226 255
203 225 255
203 225 255
203 225 255
203 225 255
203 225 255
203 225 255
203 225 255
203 225 255
203 225 255
203 225 255
203 225 255
202 225 255
202 225 255
202 225 255
202 225 255
202 225 255
202 225 255
202 225 255
202 225 255
202 225 255
202 225 255
202 225 255
202 225 255
202 225 255
202 225 255
202 225 255
202 225 255
202 225 255
202 225 255
202 225 255
202 225 255
202 225 255
202 225 255
202 225 255
201 225 255
201 225 255
201 225 255
201 225 255
201 225 255
201 225 255
201 225 255
201 225 255
201 225 255
201 225 255
201 224 255
201 224 255
201 224 255
201 224 255
201 224 255
201 224 255
201 224 255
201 224 255
201 224 255
201 224 255
201 224 255
201 224 255
201 224 255
201 224 255
201 224 255
201 224 255
201 224 255
201 224 255
201 224 255
201 224 255
201 224 255
201 224 255
201 224 255
201 224 255
201 224 255
201 224 255
201 224 255
201 224 255
201 224 255
201 224 255
201 224 255
201 224 255
201 224 255
201 224 255
201 224 255
201 224 255
201 224 255
201 224 255
201 224 255
201 224 255
201 225 255
201 225 255
201 225 255
201 225 255
201 225 255
201 225 255
201 225 255
201 225 255
201 225 255
201 225 255
202 225 255
202 225 255
202 225 255
202 225 255
202 225 255
202 225 255
202 225 255
202 225 255
202 225 255
202 225 255
202 225 255
202 225 255
202 225 255
202 225 255
202 225 255
202 225 255
202 225 255
202 225 255
202 225 255
202 225 255
202 225 255
202 225 255
202 225 255
203 225 255
203 225 255
203 225 255
203 225 255
203 225 255
203 225 255
203 225 255
203 225 255
203 225 255
203 225 255
203 226 255
203 226 255
203 226 255
203 226 255
203 226 255
203 226 255
203 226 255
203 226 255
204 226 255
204 226 255
204 226 255
204 226 255
204 226 255
204 226 255
204 226 255
204 226 255
204 226 255
204 226 255
204 226 255
204 226 255
204 226 255
204 226 255
204 226 255
204 226 255
204 226 255
205 226 255
205 226 255
205 226 255
205 226 255
205 226 255
205 226 255
205 226 255
205 227 255
205 227 255
205 227 255
205 227 255
205 227 255
205 227 255
205 227 255
205 227 255
205 227 255
206 227 255
206 227 255
206 227 255
206 227 255
206 227 255
206 227 255
206 227 255
206 227 255
206 227 255
206 227 255
206 227 255
206 227 255
206 227 255
206 227 255
206 227 255
206 227 255
206 227 255
207 227 255
207 227 255
207 227 255
207 227 255
207 227 255
207 228 255
207 228 255
207 228 255
207 228 255
207 228 255
207 228 255
207 228 255
207 228 255
207 228 255
207 228 255
207 228 255
207 228 255
207 228 255
208 228 255
208 228 255
208 228 255
208 228 255
208 228 255
208 228 255
208 228 255
208 228 255
208 228 255
208 228 255
208 228 255
208 228 255
208 228 255
208 228 255
208 228 255
208 228 255
208 228 255
208 228 255
208 228 255
208 228 255
209 228 255
209 229 255
209 229 255
209 229 255
209 229 255
209 229 255
209 229 255
209 229 255
209 229 255
209 229 255
209 229 255
209 229 255
209 229 255
209 229 255
209 229 255
209 229 255
209 229 255
209 229 255
209 229 255
209 229 255
209 229 255
209 229 255
210 229 255
210 229 255
210 229 255
210 229 255
210 229 255
210 229 255
210 229 255
210 229 255
210 229 255
210 229 255
210 229 255
210 229 255
210 229 255
210 229 255
210 229 255
210 229 255
210 229 255
210 229 255
210 229 255
210 230 255
210 229 255
210 229 255
210 229 255
210 229 255
210 229 255
210 229 255
210 229 255
210 229 255
210 229 255
210 229 255
210 229 255
210 229 255
210 229 255
210 229 255
210 229 255
210 229 255
210 229 255
210 229 255
210 229 255
210 229 255
210 229 255
210 229 255
209 229 255
209 229 255
209 229 255
209 229 255
209 229 255
209 229 255
209 229 255
209 229 255
209 229 255
209 229 255
209 229 255
209 229 255
209 229 255
209 229 255
209 229 255
209 229 255
209 229 255
209 229 255
209 229 255
209 229 255
209 228 255
209 228 255
208 228 255
208 228 255
208 228 255
208 228 255
208 228 255
208 228 255
208 228 255
208 228 255
208 228 255
208 228 255
208 228 255
208 228 255
208 228 255
208 228 255
208 228 255
208 228 255
208 228 255
208 228 255
208 228 255
207 228 255
207 228 255
207 228 255
207 228 255
207 228 255
207 228 255
207 228 255
207 228 255
207 228 255
207 228 255
207 228 255
207 228 255
207 228 255
207 228 255
207 227 255
207 227 255
207 227 255
207 227 255
206 227 255
206 227 255
206 227 255
206 227 255
206 227 255
206 227 255
206 227 255
206 227 255
206 227 255
206 227 255
206 227 255
206 227 255
206 227 255
206 227 255
206 227 255
206 227 255
206 227 255
205 227 255
205 227 255
205 227 255
205 227 255
205 227 255
205 227 255
205 227 255
205 227 255
205 227 255
205 227 255
205 226 255
205 226 255
205 226 255
205 226 255
205 226 255
205 226 255
204 226 255
204 226 255
204 226 255
204 226 255
204 226 255
204 226 255
204 226 255
204 226 255
204 226 255
204 226 255
204 226 255
204 226 255
204 226 255
204 226 255
204 226 255
204 226 255
204 226 255
203 226 255
203 226 255
203 226 255
203 226 255
203 226 255
203 226 255
203 226 255
203 226 255
203 225 255
203 225 255
203 225 255
203 225 255
203 225 255
203 225 255
203 225 255
203 225 255
203 225 255
203 225 255
203 225 255
202 225 255
202 225 255
202 225 255
202 225 255
202 225 255
202 225 255
202 225 255
202 225 255
202 225 255
202 225 255
202 225 255
202 225 255
202 225 255
202 225 255
202 225 255
202 225 255
202 225 255
202 225 255
202 225 255
202 225 255
202 225 255
202 225 255
202 225 255
202 225 255
202 225 255
202 225 255
201 225 255
201 225 255
201 225 255
201 225 255
201 225 255
201 225 255
201 225 255
201 225 255
201 225 255
201 225 255
201 225 255
201 225 255
201 225 255
201 225 255
201 225 255
201 225 255
201 225 255
201 224 255
201 224 255
201 224 255
201 224 255
201 224 255
201 224 255
201 224 255
201 224 255
201 224 255
201 224 255
201 224 255
201 224 255
201 225 255
201 225 255
201 225 255
201 225 255
201 225 255
201 225 255
201 225 255
201 225 255
201 225 255
201 225 255
201 225 255
201 225 255
201 225 255
201 225 255
201 225 255
201 225 255
201 225 255
202 225 255
202 225 255
202 225 255
202 225 255
202 225 255
202 225 255
202 225 255
202 225 255
202 225 255
202 225 255
202 225 255
202 225 255
202 225 255
202 225 255
202 225 255
202 225 255
202 225 255
202 225 255
202 225 255
202 225 255
202 225 255
202 225 255
202 225 255
202 225 255
202 225 255
202 225 255
203 225 255
203 225 255
203 225 255
203 225 255
203 225 255
203 225 255
203 225 255
203 225 255
203 225 255
203 225 255
203 225 255
203 226 255
203 226 255
203 226 255
203 226 255
203 226 255
203 226 255
203 226 255
203 226 255
204 226 255
204 226 255
204 226 255
204 226 255
204 226 255
204 226 255
204 226 255
204 226 255
204 226 255
204 226 255
204 226 255
204 226 255
204 226 255
204 226 255
204 226 255
204 226 255
204 226 255
205 226 255
205 226 255
205 226 255
205 226 255
205 226 255
205 226 255
205 227 255
205 227 255
205 227 255
205 227 255
205 227 255
205 227 255
205 227 255
205 227 255
205 227 255
205 227 255
206 227 255
206 227 255
206 227 255
206 227 255
206 227 255
206 227 255
206 227 255
206 227 255
206 227 255
206 227 255
206 227 255
206 227 255
206 227 255
206 227 255
206 227 255
206 227 255
206 227 255
207 227 255
207 227 255
207 227 255
207 227 255
207 228 255
207 228 255
207 228 255
207 228 255
207 228 255
207 228 255
207 228 255
207 228 255
207 228 255
207 228 255
207 228 255
207 228 255
207 228 255
207 228 255
208 228 255
208 228 255
208 228 255
208 228 255
208 228 255
208 228 255
208 228 255
208 228 255
208 228 255
208 228 255
208 228 255
208 228 255
208 228 255
208 228 255
208 228 255
208 228 255
208 228 255
208 228 255
208 228 255
208 228 255
209 228 255
209 229 255
209 229 255
209 229 255
209 229 255
209 229 255
209 229 255
209 229 255
209 229 255
209 229 255
209 229 255
209 229 255
209 229 255
209 229 255
209 229 255
209 229 255
209 229 255
209 229 255
209 229 255
209 229 255
209 229 255
210 229 255
210 229 255
210 229 255
210 229 255
210 229 255
210 229 255
210 229 255
210 229 255
210 229 255
210 229 255
210 229 255
210 229 255
210 229 255
210 229 255
210 229 255
210 229 255
210 229 255
210 229 255
210 229 255
210 229 255
210 229 255
210 229 255
210 230 255
211 230 255
211 230 255
210 230 255
210 230 255
210 230 255
210 229 255
210 229 255
210 229 255
210 229 255
210 229 255
210 229 255
210 229 255
210 229 255
210 229 255
210 229 255
210 229 255
210 229 255
210 229 255
210 229 255
210 229 255
210 229 255
210 229 255
210 229 255
210 229 255
210 229 255
210 229 255
210 229 255
209 229 255
209 229 255
209 229 255
209 229 255
209 229 255
209 229 255
209 229 255
209 229 255
209 229 255
209 229 255
209 229 255
209 229 255
209 229 255
209 229 255
209 229 255
209 229 255
209 229 255
209 229 255
209 229 255
209 229 255
209 228 255
208 228 255
208 228 255
208 228 255
208 228 255
208 228 255
208 228 255
208 228 255
208 228 255
208 228 255
208 228 255
208 228 255
208 228 255
208 228 255
208 228 255
208 228 255
208 228 255
208 228 255
208 228 255
208 228 255
207 228 255
207 228 255
207 228 255
207 228 255
207 228 255
207 228 255
207 228 255
207 228 255
207 228 255
207 228 255
207 228 255
207 228 255
207 228 255
207 228 255
207 227 255
207 227 255
207 227 255
207 227 255
206 227 255
206 227 255
206 227 255
206 227 255
206 227 255
206 227 255
206 227 255
206 227 255
206 227 255
206 227 255
206 227 255
206 227 255
206 227 255
206 227 255
206 227 255
206 227 255
206 227 255
205 227 255
205 227 255
205 227 255
205 227 255
205 227 255
205 227 255
205 227 255
205 227 255
205 227 255
205 227 255
205 226 255
205 226 255
205 226 255
205 226 255
205 226 255
205 226 255
205 226 255
204 226 255
204 226 255
204 226 255
204 226 255
204 226 255
204 226 255
204 226 255
204 226 255
204 226 255
204 226 255
204 226 255
204 226 255
204 226 255
204 226 255
204 226 255
204 226 255
204 226 255
203 226 255
203 226 255
203 226 255
203 226 255
203 226 255
203 226 255
203 226 255
203 226 255
203 225 255
203 225 255
203 225 255
203 225 255
203 225 255
203 225 255
203 225 255
203 225 255
203 225 255
203 225 255
203 225 255
203 225 255
202 225 255
202 225 255
202 225 255
202 225 255
202 225 255
202 225 255
202 225 255
202 225 255
202 225 255
202 225 255
202 225 255
202 225 255
202 225 255
202 225 255
202 225 255
202 225 255
202 225 255
202 225 255
202 225 255
202 225 255
202 225 255
202 225 255
202 225 255
202 225 255
202 225 255
202 225 255
202 225 255
202 225 255
202 225 255
202 225 255
202 225 255
201 225 255
201 225 255
201 225 255
201 225 255
201 225 255
201 225 255
201 225 255
201 225 255
201 225 255
201 225 255
201 225 255
201 225 255
201 225 255
201 225 255
201 225 255
201 225 255
201 225 255
201 225 255
201 225 255
201 225 255
201 225 255
201 225 255
201 225 255
201 225 255
201 225 255
201 225 255
202 225 255
202 225 255
202 225 255
202 225 255
202 225 255
202 225 255
202 225 255
202 225 255
202 225 255
202 225 255
202 225 255
202 225 255
202 225 255
202 225 255
202 225 255
202 225 255
202 225 255
202 225 255
202 225 255
202 225 255
202 225 255
202 225 255
202 225 255
202 225 255
202 225 255
202 225 255
202 225 255
202 225 255
202 225 255
202 225 255
202 225 255
203 225 255
203 225 255
203 225 255
203 225 255
203 225 255
203 225 255
203 225 255
203 225 255
203 225 255
203 225 255
203 225 255
203 225 255
203 226 255
203 226 255
203 226 255
203 226 255
203 226 255
203 226 255
203 226 255
203 226 255
204 226 255
204 226 255
204 226 255
204 226 255
204 226 255
204 226 255
204 226 255
204 226 255
204 226 255
204 226 255
204 226 255
204 226 255
204 226 255
204 226 255
204 226 255
204 226 255
204 226 255
205 226 255
205 226 255
205 226 255
205 226 255
205 226 255
205 226 255
205 226 255
205 227 255
205 227 255
205 227 255
205 227 255
205 227 255
205 227 255
205 227 255
205 227 255
205 227 255
205 227 255
206 227 255
206 227 255
206 227 255
206 227 255
206 227 255
206 227 255
206 227 255
206 227 255
206 227 255
206 227 255
206 227 255
206 227 255
206 227 255
206 227 255
206 227 255
206 227 255
206 227 255
207 227 255
207 227 255
207 227 255
207 227 255
207 228 255
207 228 255
207 228 255
207 228 255
207 228 255
207 228 255
207 228 255
207 228 255
207 228 255
207 228 255
207 228 255
207 228 255
207 228 255
207 228 255
208 228 255
208 228 255
208 228 255
208 228 255
208 228 255
208 228 255
208 228 255
208 228 255
208 228 255
208 228 255
208 228 255
208 228 255
208 228 255
208 228 255
208 228 255
208 228 255
208 228 255
208 228 255
208 228 255
209 228 255
209 228 255
209 229 255
209 229 255
209 229 255
209 229 255
209 229 255
209 229 255
209 229 255
209 229 255
209 229 255
209 229 255
209 229 255
209 229 255
209 229 255
209 229 255
209 229 255
209 229 255
209 229 255
209 229 255
209 229 255
210 229 255
210 229 255
210 229 255
210 229 255
210 229 255
210 229 255
210 229 255
210 229 255
210 229 255
210 229 255
210 229 255
210 229 255
210 229 255
210 229 255
210 229 255
210 229 255
210 229 255
210 229 255
210 229 255
210 229 255
210 229 255
210 229 255
210 230 255
210 230 255
210 230 255
211 230 255
211 230 255
211 230 255
211 230 255
211 230 255
211 230 255
211 230 255
211 230 255
210 230 255
210 230 255
210 230 255
210 229 255
210 229 255
210 229 255
210 229 255
210 229 255
210 229 255
210 229 255
210 229 255
210 229 255
210 229 255
210 229 255
210 229 255
210 229 255
210 229 255
210 229 255
210 229 255
210 229 255
210 229 255
210 229 255
210 229 255
210 229 255
209 229 255
209 229 255
209 229 255
209 229 255
209 229 255
209 229 255
209 229 255
209 229 255
209 229 255
209 229 255
209 229 255
209 229 255
209 229 255
209 229 255
209 229 255
209 229 255
209 229 255
209 229 255
209 229 255
209 229 255
209 228 255
209 228 255
208 228 255
208 228 255
208 228 255
208 228 255
208 228 255
208 228 255
208 228 255
208 228 255
208 228 255
208 228 255
208 228 255
208 228 255
208 228 255
208 228 255
208 228 255
208 228 255
208 228 255
208 228 255
208 228 255
207 228 255
207 228 255
207 228 255
207 228 255
207 228 255
207 228 255
207 228 255
207 228 255
207 228 255
207 228 255
207 228 255
207 228 255
207 228 255
207 228 255
207 227 255
207 227 255
207 227 255
207 227 255
206 227 255
206 227 255
206 227 255
206 227 255
206 227 255
206 227 255
206 227 255
206 227 255
206 227 255
206 227 255
206 227 255
206 227 255
206 227 255
206 227 255
206 227 255
206 227 255
206 227 255
205 227 255
205 227 255
205 227 255
205 227 255
205 227 255
205 227 255
205 227 255
205 227 255
205 227 255
205 227 255
205 226 255
205 226 255
205 226 255
205 226 255
205 226 255
205 226 255
205 226 255
204 226 255
204 226 255
204 226 255
204 226 255
204 226 255
204 226 255
204 226 255
204 226 255
204 226 255
204 226 255
204 226 255
204 226 255
204 226 255
204 226 255
204 226 255
204 226 255
204 226 255
203 226 255
203 226 255
203 226 255
203 226 255
203 226 255
203 226 255
203 226 255
203 226 255
203 226 255
203 225 255
203 225 255
203 225 255
203 225 255
203 225 255
203 225 255
203 225 255
203 225 255
203 225 255
203 225 255
203 225 255
203 225 255
202 225 255
202 225 255
202 225 255
202 225 255
202 225 255
202 225 255
202 225 255
202 225 255
202 225 255
202 225 255
202 225 255
202 225 255
202 225 255
202 225 255
202 225 255
202 225 255
202 225 255
202 225 255
202 225 255
202 225 255
202 225 255
202 225 255
202 225 255
202 225 255
202 225 255
202 225 255
202 225 255
202 225 255
202 225 255
202 225 255
202 225 255
202 225 255
202 225 255
202 225 255
202 225 255
202 225 255
202 225 255
202 225 255
202 225 255
202 225 255
202 225 255
202 225 255
202 225 255
202 225 255
202 225 255
202 225 255
202 225 255
202 225 255
202 225 255
202 225 255
202 225 255
202 225 255
202 225 255
202 225 255
202 225 255
202 225 255
202 225 255
202 225 255
202 225 255
202 225 255
202 225 255
202 225 255
202 225 255
202 225 255
202 225 255
202 225 255
202 225 255
202 225 255
202 225 255
202 225 255
202 225 255
202 225 255
202 225 255
202 225 255
202 225 255
202 225 255
202 225 255
202 225 255
203 225 255
203 225 255
203 225 255
203 225 255
203 225 255
203 225 255
203 225 255
203 225 255
203 225 255
203 225 255
203 225 255
203 225 255
203 226 255
203 226 255
203 226 255
203 226 255
203 226 255
203 226 255
203 226 255
203 226 255
203 226 255
204 226 255
204 226 255
204 226 255
204 226 255
204 226 255
204 226 255
204 226 255
204 226 255
204 226 255
204 226 255
204 226 255
204 226 255
204 226 255
204 226 255
204 226 255
204 226 255
204 226 255
205 226 255
205 226 255
205 226 255
205 226 255
205 226 255
205 226 255
205 226 255
205 227 255
205 227 255
205 227 255
205 227 255
205 227 255
205 227 255
205 227 255
205 227 255
205 227 255
205 227 255
206 227 255
206 227 255
206 227 255
206 227 255
206 227 255
206 227 255
206 227 255
206 227 255
206 227 255
206 227 255
206 227 255
206 227 255
206 227 255
206 227 255
206 227 255
206 227 255
206 227 255
207 227 255
207 227 255
207 227 255
207 227 255
207 227 255
207 228 255
207 228 255
207 228 255
207 228 255
207 228 255
207 228 255
207 228 255
207 228 255
207 228 255
207 228 255
207 228 255
207 228 255
207 228 255
208 228 255
208 228 255
208 228 255
208 228 255
208 228 255
208 228 255
208 228 255
208 228 255
208 228 255
208 228 255
208 228 255
208 228 255
208 228 255
208 228 255
208 228 255
208 228 255
208 228 255
208 228 255
208 228 255
208 228 255
209 228 255
209 229 255
209 229 255
209 229 255
209 229 255
209 229 255
209 229 255
209 229 255
209 229 255
209 229 255
209 229 255
209 229 255
209 229 255
209 229 255
209 229 255
209 229 255
209 229 255
209 229 255
209 229 255
209 229 255
209 229 255
210 229 255
210 229 255
210 229 255
210 229 255
210 229 255
210 229 255
210 229 255
210 229 255
210 229 255
210 229 255
210 229 255
210 229 255
210 229 255
210 229 255
210 229 255
210 229 255
210 229 255
210 229 255
210 229 255
210 229 255
210 229 255
210 230 255
210 230 255
210 230 255
211 230 255
211 230 255
211 230 255
211 230 255
211 230 255
211 230 255
211 230 255
211 230 255
211 230 255
211 230 255
211 230 255
211 230 255
211 230 255
211 230 255
211 230 255
211 230 255
210 230 255
210 230 255
210 230 255
210 229 255
210 229 255
210 229 255
210 229 255
210 229 255
210 229 255
210 229 255
210 229 255
210 229 255
210 229 255
210 229 255
210 229 255
210 229 255
210 229 255
210 229 255
210 229 255
210 229 255
210 229 255
210 229 255
210 229 255
210 229 255
209 229 255
209 229 255
209 229 255
209 229 255
209 228 255
208 228 254
208 227 254
204 224 251
205 225 252
204 224 250
205 225 252
202 222 249
203 223 250
201 221 248
201 221 248
199 219 246
201 221 248
201 221 248
202 222 249
202 223 250
203 223 250
201 221 249
204 224 251
205 225 252
205 225 253
204 224 252
207 227 254
208 228 255
208 228 255
208 228 255
208 228 255
208 228 255
208 228 255
208 228 255
208 228 255
208 228 255
208 228 255
208 228 255
208 228 255
208 228 255
207 228 255
207 228 255
207 228 255
207 228 255
207 228 255
207 228 255
207 228 255
207 228 255
207 228 255
207 228 255
207 228 255
207 228 255
207 228 255
207 228 255
207 227 255
207 227 255
207 227 255
207 227 255
206 227 255
206 227 255
206 227 255
206 227 255
206 227 255
206 227 255
206 227 255
206 227 255
206 227 255
206 227 255
206 227 255
206 227 255
206 227 255
206 227 255
206 227 255
206 227 255
206 227 255
205 227 255
205 227 255
205 227 255
205 227 255
205 227 255
205 227 255
205 227 255
205 227 255
205 227 255
205 227 255
205 226 255
205 226 255
205 226 255
205 226 255
205 226 255
205 226 255
205 226 255
204 226 255
204 226 255
204 226 255
204 226 255
204 226 255
204 226 255
204 226 255
204 226 255
204 226 255
204 226 255
204 226 255
204 226 255
204 226 255
204 226 255
204 226 255
204 226 255
204 226 255
204 226 255
203 226 255
203 226 255
203 226 255
203 226 255
203 226 255
203 226 255
203 226 255
203 226 255
203 226 255
203 225 255
203 225 255
203 225 255
203 225 255
203 225 255
203 225 255
203 225 255
203 225 255
203 225 255
203 225 255
203 225 255
203 225 255
203 225 255
202 225 255
202 225 255
202 225 255
202 225 255
202 225 255
202 225 255
202 225 255
202 225 255
202 225 255
202 225 255
202 225 255
202 225 255
202 225 255
202 225 255
202 225 255
202 225 255
202 225 255
202 225 255
202 225 255
202 225 255
202 225 255
202 225 255
202 225 255
202 225 255
202 225 255
202 225 255
202 225 255
202 225 255
202 225 255
202 225 255
202 225 255
202 225 255
202 225 255
202 225 255
202 225 255
202 225 255
202 225 255
202 225 255
202 225 255
202 225 255
202 225 255
202 225 255
202 225 255
202 225 255
202 225 255
202 225 255
202 225 255
202 225 255
202 225 255
202 225 255
202 225 255
202 225 255
202 225 255
202 225 255
202 225 255
202 225 255
202 225 255
202 225 255
202 225 255
202 225 255
202 225 255
202 225 255
202 225 255
202 225 255
202 225 255
202 225 255
202 225 255
203 225 255
203 225 255
203 225 255
203 225 255
203 225 255
203 225 255
203 225 255
203 225 255
203 225 255
203 225 255
203 225 255
203 225 255
203 225 255
203 225 255
203 226 255
203 226 255
203 226 255
203 226 255
203 226 255
203 226 255
203 226 255
203 226 255
203 226 255
204 226 255
204 226 255
204 226 255
204 226 255
204 226 255
204 226 255
204 226 255
204 226 255
204 226 255
204 226 255
204 226 255
204 226 255
204 226 255
204 226 255
204 226 255
204 226 255
204 226 255
204 226 255
205 226 255
205 226 255
205 226 255
205 226 255
205 226 255
205 226 255
205 226 255
205 227 255
205 227 255
205 227 255
205 227 255
205 227 255
205 227 255
205 227 255
205 227 255
205 227 255
205 227 255
206 227 255
206 227 255
206 227 255
206 227 255
206 227 255
206 227 255
206 227 255
206 227 255
206 227 255
206 227 255
206 227 255
206 227 255
206 227 255
206 227 255
206 227 255
206 227 255
206 227 255
207 227 255
207 227 255
207 227 255
207 227 255
207 228 255
207 228 255
207 228 255
207 228 255
207 228 255
207 228 255
207 228 255
207 228 255
207 228 255
207 228 255
207 228 255
207 228 255
207 228 255
207 228 255
208 228 255
208 228 255
208 228 255
208 228 255
208 228 255
208 228 255
208 228 255
208 228 255
208 228 255
208 228 255
208 228 255
208 228 255
208 228 254
207 226 251
206 224 247
204 222 242
202 218 234
205 223 243
202 218 233
202 218 233
201 217 231
200 214 226
201 217 231
200 214 224
205 221 240
201 216 228
202 218 234
200 214 225
203 219 235
205 222 241
204 221 240
206 224 246
205 222 241
207 225 247
209 228 253
208 227 252
209 229 255
209 229 255
209 229 255
209 229 255
210 229 255
210 229 255
210 229 255
210 229 255
210 229 255
210 229 255
210 229 255
210 229 255
210 229 255
210 229 255
210 229 255
210 229 255
210 229 255
210 229 255
210 229 255
210 229 255
210 229 255
210 229 255
210 229 255
210 229 255
210 229 255
210 230 255
210 230 255
210 230 255
211 230 255
211 230 255
211 230 255
211 230 255
211 230 255
211 230 255
211 230 255
211 230 255
211 230 255
211 230 255
211 230 255
211 230 255
211 230 255
211 230 255
211 230 255
211 230 255
211 230 255
211 230 255
211 230 255
211 230 255
211 230 255
211 230 255
211 230 255
211 230 255
210 230 255
210 230 255
210 230 255
210 229 255
210 229 255
210 229 255
210 229 255
210 229 255
210 229 255
210 229 255
210 229 255
210 229 255
210 229 255
210 229 255
210 229 255
209 228 255
208 227 253
205 225 251
203 222 249
200 220 246
200 220 247
196 216 243
195 215 242
191 211 239
191 212 239
192 212 240
190 210 238
188 209 236
189 210 238
187 208 236
188 209 237
191 211 239
186 207 235
185 206 235
184 206 235
186 207 236
186 207 236
187 208 237
184 206 234
184 206 235
183 205 234
185 206 235
188 209 238
187 209 237
183 205 234
187 208 237
188 209 237
187 208 237
191 212 240
192 213 242
195 215 243
197 217 245
198 219 246
203 223 251
205 225 253
206 226 253
208 228 255
208 228 255
208 228 255
208 228 255
208 228 255
208 228 255
208 228 255
208 228 255
207 228 255
207 228 255
207 228 255
207 228 255
207 228 255
207 228 255
207 228 255
207 228 255
207 228 255
207 228 255
207 228 255
207 228 255
207 228 255
207 227 255
207 227 255
207 227 255
207 227 255
207 227 255
206 227 255
206 227 255
206 227 255
206 227 255
206 227 255
206 227 255
206 227 255
206 227 255
206 227 255
206 227 255
206 227 255
206 227 255
206 227 255
206 227 255
206 227 255
206 227 255
206 227 255
205 227 255
205 227 255
205 227 255
205 227 255
205 227 255
205 227 255
205 227 255
205 227 255
205 227 255
205 227 255
205 226 255
205 226 255
205 226 255
205 226 255
205 226 255
205 226 255
205 226 255
204 226 255
204 226 255
204 226 255
204 226 255
204 226 255
204 226 255
204 226 255
204 226 255
204 226 255
204 226 255
204 226 255
204 226 255
204 226 255
204 226 255
204 226 255
204 226 255
204 226 255
204 226 255
204 226 255
203 226 255
203 226 255
203 226 255
203 226 255
203 226 255
203 226 255
203 226 255
203 226 255
203 226 255
203 226 255
203 225 255
203 225 255
203 225 255
203 225 255
203 225 255
203 225 255
203 225 255
203 225 255
203 225 255
203 225 255
203 225 255
203 225 255
203 225 255
203 225 255
203 225 255
202 225 255
202 225 255
202 225 255
202 225 255
202 225 255
202 225 255
202 225 255
202 225 255
202 225 255
202 225 255
202 225 255
202 225 255
202 225 255
202 225 255
202 225 255
202 225 255
202 225 255
202 225 255
202 225 255
202 225 255
202 225 255
202 225 255
202 225 255
202 225 255
202 225 255
202 225 255
202 225 255
202 225 255
202 225 255
202 225 255
202 225 255
202 225 255
202 225 255
202 225 255
202 225 255
202 225 255
202 225 255
202 225 255
202 225 255
202 225 255
202 225 255
202 225 255
202 225 255
202 225 255
202 225 255
202 225 255
202 225 255
202 225 255
202 225 255
202 225 255
202 225 255
202 225 255
203 225 255
203 225 255
203 225 255
203 225 255
203 225 255
203 225 255
203 225 255
203 225 255
203 225 255
203 225 255
203 225 255
203 225 255
203 225 255
203 225 255
203 225 255
203 226 255
203 226 255
203 226 255
203 226 255
203 226 255
203 226 255
203 226 255
203 226 255
203 226 255
203 226 255
204 226 255
204 226 255
204 226 255
204 226 255
204 226 255
204 226 255
204 226 255
204 226 255
204 226 255
204 226 255
204 226 255
204 226 255
204 226 255
204 226 255
204 226 255
204 226 255
204 226 255
204 226 255
204 226 255
205 226 255
205 226 255
205 226 255
205 226 255
205 226 255
205 226 255
205 226 255
205 227 255
205 227 255
205 227 255
205 227 255
205 227 255
205 227 255
205 227 255
205 227 255
205 227 255
205 227 255
206 227 255
206 227 255
206 227 255
206 227 255
206 227 255
206 227 255
206 227 255
206 227 255
206 227 255
206 227 255
206 227 255
206 227 255
206 227 255
206 227 255
206 227 255
206 227 255
206 227 255
206 227 255
207 227 255
207 227 255
207 227 255
207 227 255
207 228 255
207 228 255
207 228 255
207 228 255
207 228 255
207 228 255
207 228 255
207 228 255
207 228 255
207 228 255
207 228 255
207 228 255
207 228 255
207 228 255
208 228 255
208 228 255
208 228 255
208 228 255
208 228 255
208 228 255
206 226 251
207 226 251
203 220 239
200 216 230
196 208 213
196 208 213
197 211 220
192 200 194
193 204 203
187 195 182
193 202 198
189 198 190
187 194 181
189 196 184
189 196 184
190 199 191
188 194 176
189 196 184
186 190 169
191 199 191
191 200 194
191 200 192
190 198 188
191 199 191
192 202 197
192 200 193
188 195 181
192 201 194
191 199 188
191 200 192
192 200 193
193 202 196
191 198 186
194 202 196
192 202 199
196 206 207
197 208 209
199 211 217
199 212 219
206 222 240
207 224 245
209 229 254
210 229 255
210 229 255
210 229 255
210 229 255
210 229 255
210 229 255
210 229 255
210 229 255
210 229 255
210 229 255
210 229 255
210 229 255
210 230 255
210 230 255
210 230 255
211 230 255
211 230 255
211 230 255
211 230 255
211 230 255
211 230 255
211 230 255
211 230 255
211 230 255
211 230 255
211 230 255
211 230 255
211 230 255
211 230 255
211 230 255
211 230 255
211 230 255
211 230 255
211 230 255
211 230 255
211 230 255
211 230 255
211 230 255
211 230 255
211 230 255
211 230 255
211 230 255
211 230 255
211 230 255
211 230 255
211 230 255
211 230 255
210 230 255
210 230 255
210 230 255
210 229 255
210 229 255
210 229 255
205 224 250
204 223 249
201 220 247
199 218 245
192 212 238
189 209 236
188 208 236
191 211 239
186 207 235
186 207 235
185 206 234
185 206 234
185 207 235
183 205 233
185 206 235
182 204 233
185 206 234
182 204 233
182 204 233
181 203 233
181 203 233
183 205 234
180 203 232
181 204 233
180 203 232
180 203 232
179 202 232
179 202 232
179 202 232
179 202 232
179 202 232
180 203 233
182 204 234
178 201 232
180 202 232
181 203 234
181 204 234
180 203 233
181 203 233
182 204 234
181 203 233
182 204 233
185 207 236
183 205 234
184 206 235
189 210 239
186 208 237
192 213 241
194 215 243
198 219 247
201 222 250
204 224 252
206 227 254
208 228 255
208 228 255
208 228 255
208 228 255
207 228 255
207 228 255
207 228 255
207 228 255
207 228 255
207 228 255
207 228 255
207 228 255
207 228 255
207 228 255
207 228 255
207 228 255
207 228 255
207 228 255
207 227 255
207 227 255
207 227 255
207 227 255
206 227 255
206 227 255
206 227 255
206 227 255
206 227 255
206 227 255
206 227 255
206 227 255
206 227 255
206 227 255
206 227 255
206 227 255
206 227 255
206 227 255
206 227 255
206 227 255
206 227 255
205 227 255
205 227 255
205 227 255
205 227 255
205 227 255
205 227 255
205 227 255
205 227 255
205 227 255
205 227 255
205 227 255
205 226 255
205 226 255
205 226 255
205 226 255
205 226 255
205 226 255
205 226 255
204 226 255
204 226 255
204 226 255
204 226 255
204 226 255
204 226 255
204 226 255
204 226 255
204 226 255
204 226 255
204 226 255
204 226 255
204 226 255
204 226 255
204 226 255
204 226 255
204 226 255
204 226 255
204 226 255
204 226 255
203 226 255
203 226 255
203 226 255
203 226 255
203 226 255
203 226 255
203 226 255
203 226 255
203 226 255
203 226 255
203 226 255
203 225 255
203 225 255
203 225 255
203 225 255
203 225 255
203 225 255
203 225 255
203 225 255
203 225 255
203 225 255
203 225 255
203 225 255
203 225 255
203 225 255
203 225 255
203 225 255
203 225 255
203 225 255
203 225 255
202 225 255
202 225 255
202 225 255
202 225 255
202 225 255
202 225 255
202 225 255
202 225 255
202 225 255
202 225 255
202 225 255
202 225 255
202 225 255
202 225 255
202 225 255
202 225 255
202 225 255
202 225 255
202 225 255
202 225 255
202 225 255
202 225 255
202 225 255
202 225 255
202 225 255
202 225 255
202 225 255
202 225 255
202 225 255
202 225 255
202 225 255
203 225 255
202 225 255
203 225 255
203 225 255
203 225 255
203 225 255
203 225 255
203 225 255
203 225 255
203 225 255
203 225 255
203 225 255
203 225 255
203 225 255
203 225 255
203 225 255
203 225 255
203 225 255
203 225 255
203 225 255
203 225 255
203 226 255
203 226 255
203 226 255
203 226 255
203 226 255
203 226 255
203 226 255
203 226 255
203 226 255
203 226 255
204 226 255
204 226 255
204 226 255
204 226 255
204 226 255
204 226 255
204 226 255
204 226 255
204 226 255
204 226 255
204 226 255
204 226 255
204 226 255
204 226 255
204 226 255
204 226 255
204 226 255
204 226 255
204 226 255
204 226 255
205 226 255
205 226 255
205 226 255
205 226 255
205 226 255
205 226 255
205 226 255
205 227 255
205 227 255
205 227 255
205 227 255
205 227 255
205 227 255
205 227 255
205 227 255
205 227 255
205 227 255
206 227 255
206 227 255
206 227 255
206 227 255
206 227 255
206 227 255
206 227 255
206 227 255
206 227 255
206 227 255
206 227 255
206 227 255
206 227 255
206 227 255
206 227 255
206 227 255
206 227 255
206 227 255
207 227 255
207 227 255
207 227 255
207 227 255
207 228 255
207 228 255
207 228 255
207 228 255
207 228 255
207 228 255
207 228 255
207 228 255
207 228 255
207 228 255
207 228 255
207 228 255
207 228 255
207 228 255
208 228 255
208 228 255
208 228 255
208 228 255
205 224 248
203 220 239
200 215 228
197 211 218
196 209 213
192 201 195
187 194 178
189 197 188
187 194 178
188 195 181
188 196 184
187 193 177
189 194 178
191 201 196
189 197 187
185 189 168
185 192 177
190 198 190
184 190 169
186 191 172
187 194 180
186 192 175
185 191 171
187 196 184
190 197 186
188 194 179
188 197 187
190 196 183
188 195 181
189 196 184
189 196 184
190 198 187
190 197 186
192 200 192
190 197 184
190 197 186
189 195 181
187 195 181
191 197 183
189 197 187
192 201 196
189 195 179
189 195 180
192 199 189
194 203 197
186 191 170
193 202 195
191 198 187
194 203 199
197 208 209
198 210 216
201 215 225
206 222 239
208 225 247
210 229 255
210 229 255
210 230 255
210 230 255
210 230 255
211 230 255
211 230 255
211 230 255
211 230 255
211 230 255
211 230 255
211 230 255
211 230 255
211 230 255
211 230 255
211 230 255
211 230 255
211 230 255
211 230 255
211 230 255
211 230 255
211 230 255
211 230 255
211 230 255
211 230 255
211 230 255
211 230 255
211 230 255
211 230 255
211 230 255
211 230 255
211 230 255
211 230 255
211 230 255
211 230 255
211 230 255
211 230 255
211 230 255
211 230 255
211 230 255
211 230 255
210 229 254
208 227 253
202 221 247
199 218 244
195 215 241
192 211 238
193 213 239
189 209 236
189 209 236
185 206 234
188 209 237
186 207 235
185 206 235
186 207 235
184 206 234
184 205 234
180 202 232
181 203 232
180 203 232
180 202 231
180 202 232
181 203 232
178 201 231
178 201 232
179 202 232
179 202 232
178 201 231
178 201 232
178 201 231
178 201 232
177 200 230
176 199 230
175 199 230
176 200 230
178 201 232
176 200 231
177 201 231
175 199 230
174 198 230
176 200 232
174 199 230
175 199 230
177 200 231
178 202 232
177 200 232
176 199 230
177 201 232
178 201 232
179 202 233
175 199 230
178 201 232
178 201 232
182 205 235
180 203 234
180 203 233
184 206 236
184 206 236
187 208 237
185 207 236
189 211 239
192 213 242
199 220 248
201 222 249
207 227 254
208 228 255
208 228 255
208 228 255
207 228 255
207 228 255
207 228 255
207 228 255
207 228 255
207 228 255
207 228 255
207 228 255
207 228 255
207 228 255
207 228 255
207 228 255
207 228 255
207 228 255
207 227 255
207 227 255
207 227 255
207 227 255
206 227 255
206 227 255
206 227 255
206 227 255
206 227 255
206 227 255
206 227 255
206 227 255
206 227 255
206 227 255
206 227 255
206 227 255
206 227 255
206 227 255
206 227 255
206 227 255
206 227 255
205 227 255
205 227 255
205 227 255
205 227 255
205 227 255
205 227 255
205 227 255
205 227 255
205 227 255
205 227 255
205 227 255
205 226 255
205 226 255
205 226 255
205 226 255
205 226 255
205 226 255
205 226 255
204 226 255
204 226 255
204 226 255
204 226 255
204 226 255
204 226 255
204 226 255
204 226 255
204 226 255
204 226 255
204 226 255
204 226 255
204 226 255
204 226 255
204 226 255
204 226 255
204 226 255
204 226 255
204 226 255
204 226 255
204 226 255
203 226 255
203 226 255
203 226 255
203 226 255
203 226 255
203 226 255
203 226 255
203 226 255
203 226 255
203 226 255
203 226 255
203 226 255
203 225 255
203 225 255
203 225 255
203 225 255
203 225 255
203 225 255
203 225 255
203 225 255
203 225 255
203 225 255
203 225 255
203 225 255
203 225 255
203 225 255
203 225 255
203 225 255
203 225 255
203 225 255
203 225 255
203 225 255
203 225 255
203 225 255
203 225 255
203 225 255
203 225 255
203 225 255
203 225 255
203 225 255
203 225 255
203 225 255
203 225 255
203 225 255
203 225 255
203 225 255
203 225 255
203 225 255
203 225 255
203 225 255
203 225 255
203 225 255
203 225 255
203 225 255
203 225 255
203 225 255
203 225 255
203 225 255
203 225 255
203 225 255
203 225 255
203 225 255
203 225 255
203 225 255
203 225 255
203 225 255
203 225 255
203 225 255
203 225 255
203 225 255
203 226 255
203 226 255
203 226 255
203 226 255
203 226 255
203 226 255
203 226 255
203 226 255
203 226 255
203 226 255
203 226 255
203 226 255
204 226 255
204 226 255
204 226 255
204 226 255
204 226 255
204 226 255
204 226 255
204 226 255
204 226 255
204 226 255
204 226 255
204 226 255
204 226 255
204 226 255
204 226 255
204 226 255
204 226 255
204 226 255
204 226 255
204 226 255
204 226 255
205 226 255
205 226 255
205 226 255
205 226 255
205 226 255
205 226 255
205 226 255
205 227 255
205 227 255
205 227 255
205 227 255
205 227 255
205 227 255
205 227 255
205 227 255
205 227 255
205 227 255
205 227 255
206 227 255
206 227 255
206 227 255
206 227 255
206 227 255
206 227 255
206 227 255
206 227 255
206 227 255
206 227 255
206 227 255
206 227 255
206 227 255
206 227 255
206 227 255
206 227 255
206 227 255
207 227 255
207 227 255
207 227 255
207 227 255
207 227 255
207 228 255
207 228 255
207 228 255
207 228 255
207 228 255
207 228 255
207 228 255
207 228 255
207 228 255
207 228 255
207 228 255
207 228 255
207 228 255
208 228 255
208 228 255
208 228 255
205 224 248
202 220 239
199 214 225
193 204 204
192 202 198
191 200 195
187 194 180
191 200 195
190 200 195
190 200 195
192 203 200
186 193 178
187 195 184
186 194 181
186 193 177
186 193 177
191 200 195
189 196 184
186 191 172
188 195 183
186 194 181
186 193 178
188 196 183
187 194 181
191 199 191
186 193 177
183 189 166
190 197 186
186 193 177
192 201 194
185 190 169
191 198 187
190 196 184
189 197 186
187 192 174
186 191 171
189 198 188
188 197 186
188 194 178
191 199 189
189 197 186
190 198 188
189 193 174
189 195 181
187 193 176
190 198 187
191 198 185
190 198 188
190 197 185
188 195 182
188 194 177
188 195 180
191 199 189
190 198 187
192 199 190
193 200 189
191 197 183
193 203 199
189 196 182
194 202 194
195 205 203
202 217 229
206 222 239
210 228 251
211 230 255
211 230 255
211 230 255
211 230 255
211 230 255
211 230 255
211 230 255
211 230 255
211 230 255
211 230 255
211 230 255
211 230 255
211 230 255
211 230 255
211 230 255
211 230 255
211 230 255
211 230 255
211 230 255
211 230 255
211 230 255
211 230 255
211 230 255
211 230 255
211 230 255
211 230 255
211 230 255
211 230 255
211 230 255
211 230 255
211 230 255
211 230 255
208 227 253
204 223 248
199 219 245
194 214 240
191 211 237
195 215 241
190 210 237
186 206 234
188 209 236
184 205 233
186 207 235
185 206 234
185 207 235
183 204 233
182 203 232
183 205 234
180 202 231
178 201 231
179 201 231
177 200 230
179 202 232
177 200 230
177 200 230
178 201 231
176 199 230
177 200 230
174 198 229
175 198 229
174 198 229
174 198 229
174 198 229
174 198 229
175 199 230
173 197 228
172 197 228
172 197 229
172 196 229
173 197 229
172 196 228
172 197 229
171 196 228
171 196 228
172 196 228
172 197 229
171 196 228
171 196 229
172 196 228
170 196 228
172 197 229
172 197 229
172 197 229
172 197 229
172 197 229
173 198 230
174 198 230
173 197 230
175 199 230
177 201 232
176 200 231
175 199 231
175 199 230
175 199 230
180 203 234
182 204 235
181 204 234
179 202 232
182 204 234
186 207 236
189 211 239
197 218 246
201 222 250
205 226 253
208 228 255
208 228 255
207 228 255
207 228 255
207 228 255
207 228 255
207 228 255
207 228 255
207 228 255
207 228 255
207 228 255
207 228 255
207 228 255
207 228 255
207 228 255
207 228 255
207 227 255
207 227 255
207 227 255
207 227 255
206 227 255
206 227 255
206 227 255
206 227 255
206 227 255
206 227 255
206 227 255
206 227 255
206 227 255
206 227 255
206 227 255
206 227 255
206 227 255
206 227 255
206 227 255
206 227 255
206 227 255
206 227 255
205 227 255
205 227 255
205 227 255
205 227 255
205 227 255
205 227 255
205 227 255
205 227 255
205 227 255
205 227 255
205 227 255
205 226 255
205 226 255
205 226 255
205 226 255
205 226 255
205 226 255
205 226 255
205 226 255
204 226 255
204 226 255
204 226 255
204 226 255
204 226 255
204 226 255
204 226 255
204 226 255
204 226 255
204 226 255
204 226 255
204 226 255
204 226 255
204 226 255
204 226 255
204 226 255
204 226 255
204 226 255
204 226 255
204 226 255
204 226 255
204 226 255
203 226 255
203 226 255
203 226 255
203 226 255
203 226 255
203 226 255
203 226 255
203 226 255
203 226 255
203 226 255
203 226 255
203 226 255
203 226 255
203 226 255
203 226 255
203 225 255
203 225 255
203 225 255
203 225 255
203 225 255
203 225 255
203 225 255
203 225 255
203 225 255
203 225 255
203 225 255
203 225 255
203 225 255
203 225 255
203 225 255
203 225 255
203 225 255
203 225 255
203 225 255
203 225 255
203 225 255
203 225 255
203 225 255
203 225 255
203 225 255
203 225 255
203 225 255
203 225 255
203 225 255
203 225 255
203 225 255
203 225 255
203 225 255
203 225 255
203 225 255
203 225 255
203 225 255
203 225 255
203 225 255
203 225 255
203 226 255
203 226 255
203 226 255
203 226 255
203 226 255
203 226 255
203 226 255
203 226 255
203 226 255
203 226 255
203 226 255
203 226 255
203 226 255
203 226 255
203 226 255
204 226 255
204 226 255
204 226 255
204 226 255
204 226 255
204 226 255
204 226 255
204 226 255
204 226 255
204 226 255
204 226 255
204 226 255
204 226 255
204 226 255
204 226 255
204 226 255
204 226 255
204 226 255
204 226 255
204 226 255
204 226 255
204 226 255
205 226 255
205 226 255
205 226 255
205 226 255
205 226 255
205 226 255
205 226 255
205 226 255
205 227 255
205 227 255
205 227 255
205 227 255
205 227 255
205 227 255
205 227 255
205 227 255
205 227 255
205 227 255
205 227 255
206 227 255
206 227 255
206 227 255
206 227 255
206 227 255
206 227 255
206 227 255
206 227 255
206 227 255
206 227 255
206 227 255
206 227 255
206 227 255
206 227 255
206 227 255
206 227 255
206 227 255
206 227 255
207 227 255
207 227 255
207 227 255
207 227 255
207 228 255
207 228 255
207 228 255
207 228 255
207 228 255
207 228 255
207 228 255
207 228 255
207 228 255
207 228 255
207 228 255
207 228 255
207 228 255
208 228 255
208 228 255
208 228 255
205 223 245
201 217 233
195 207 211
188 197 188
188 195 183
188 195 183
188 197 187
188 196 186
186 194 180
186 192 175
185 193 178
191 200 192
191 201 198
186 192 175
189 198 190
190 199 194
188 196 186
183 189 169
189 196 186
187 195 184
189 198 191
186 193 178
184 190 171
186 193 178
187 194 180
187 193 177
188 196 184
189 197 186
187 193 177
186 192 175
188 195 183
187 194 180
185 192 177
189 196 182
187 193 175
189 197 186
185 190 168
187 194 178
186 193 176
188 193 175
184 189 166
186 190 168
189 194 177
188 195 182
187 192 172
186 192 174
188 194 178
190 198 188
187 192 172
187 193 175
187 195 181
188 193 176
189 196 182
189 194 175
191 199 190
187 191 170
190 197 185
192 200 192
190 196 181
191 199 190
191 198 187
191 196 182
193 200 190
191 197 182
193 200 190
192 198 185
195 203 198
196 205 200
195 204 200
204 217 228
205 219 232
209 227 249
211 230 255
211 230 255
211 230 255
211 230 255
211 230 255
211 230 255
211 230 255
211 230 255
211 230 255
211 230 255
211 230 255
211 230 255
211 230 255
211 230 255
212 230 255
212 230 255
212 230 255
212 230 255
211 230 255
211 230 255
211 230 255
211 230 255
211 230 255
211 230 255
210 229 254
206 224 250
201 220 246
195 214 240
190 210 236
191 211 237
188 208 235
188 208 235
188 209 236
186 207 234
183 204 232
187 207 235
184 205 233
184 205 233
180 202 230
182 204 233
179 201 230
180 202 232
179 201 231
179 201 230
178 201 230
178 201 231
177 199 230
175 198 229
175 198 229
176 199 229
174 198 229
174 197 228
174 198 229
174 198 229
173 197 228
173 197 228
173 197 228
172 196 228
172 196 228
172 197 228
171 196 228
171 196 228
171 196 228
171 196 228
172 197 228
171 196 228
170 195 228
171 196 228
170 196 228
170 196 228
170 196 228
170 196 228
169 195 228
170 196 228
170 195 228
170 195 228
171 196 228
171 196 228
169 195 228
170 195 228
170 195 228
170 196 228
170 195 228
170 196 229
171 196 228
171 196 229
170 196 229
172 197 229
171 196 229
173 198 230
173 197 230
174 198 230
177 201 232
176 200 231
175 199 230
179 202 233
180 203 234
181 204 234
182 205 235
183 205 234
188 210 238
195 216 244
199 220 247
206 226 254
208 228 255
208 228 255
207 228 255
207 228 255
207 228 255
207 228 255
207 228 255
207 228 255
207 228 255
207 228 255
207 228 255
207 228 255
207 228 255
207 228 255
207 228 255
207 228 255
207 227 255
207 227 255
207 227 255
207 227 255
206 227 255
206 227 255
206 227 255
206 227 255
206 227 255
206 227 255
206 227 255
206 227 255
206 227 255
206 227 255
206 227 255
206 227 255
206 227 255
206 227 255
206 227 255
206 227 255
206 227 255
206 227 255
205 227 255
205 227 255
205 227 255
205 227 255
205 227 255
205 227 255
205 227 255
205 227 255
205 227 255
205 227 255
205 227 255
205 226 255
205 226 255
205 226 255
205 226 255
205 226 255
205 226 255
205 226 255
205 226 255
204 226 255
204 226 255
204 226 255
204 226 255
204 226 255
204 226 255
204 226 255
204 226 255
204 226 255
204 226 255
204 226 255
204 226 255
204 226 255
204 226 255
204 226 255
204 226 255
204 226 255
204 226 255
204 226 255
204 226 255
204 226 255
204 226 255
204 226 255
204 226 255
204 226 255
204 226 255
203 226 255
203 226 255
203 226 255
203 226 255
203 226 255
203 226 255
203 226 255
203 226 255
203 226 255
203 226 255
203 226 255
203 226 255
203 226 255
203 226 255
203 226 255
203 226 255
203 226 255
203 226 255
203 226 255
203 226 255
203 226 255
203 226 255
203 226 255
203 226 255
203 226 255
203 226 255
203 226 255
203 226 255
203 226 255
203 226 255
203 226 255
203 226 255
203 226 255
203 226 255
203 226 255
203 226 255
203 226 255
203 226 255
203 226 255
203 226 255
203 226 255
203 226 255
203 226 255
203 226 255
203 226 255
203 226 255
203 226 255
203 226 255
203 226 255
203 226 255
203 226 255
203 226 255
203 226 255
203 226 255
204 226 255
204 226 255
204 226 255
204 226 255
204 226 255
204 226 255
204 226 255
204 226 255
204 226 255
204 226 255
204 226 255
204 226 255
204 226 255
204 226 255
204 226 255
204 226 255
204 226 255
204 226 255
204 226 255
204 226 255
204 226 255
204 226 255
204 226 255
204 226 255
204 226 255
204 226 255
205 226 255
205 226 255
205 226 255
205 226 255
205 226 255
205 226 255
205 226 255
205 226 255
205 227 255
205 227 255
205 227 255
205 227 255
205 227 255
205 227 255
205 227 255
205 227 255
205 227 255
205 227 255
205 227 255
206 227 255
206 227 255
206 227 255
206 227 255
206 227 255
206 227 255
206 227 255
206 227 255
206 227 255
206 227 255
206 227 255
206 227 255
206 227 255
206 227 255
206 227 255
206 227 255
206 227 255
206 227 255
207 227 255
207 227 255
207 227 255
207 227 255
207 228 255
207 228 255
207 228 255
207 228 255
207 228 255
207 228 255
207 228 255
207 228 255
207 228 255
207 228 255
207 228 255
207 228 255
207 228 255
207 228 255
208 228 255
208 228 255
206 226 251
202 219 237
196 210 217
190 200 195
188 196 184
187 196 186
186 194 180
187 195 183
189 198 190
190 199 191
186 193 178
185 192 174
184 191 172
185 192 175
185 192 177
186 194 180
185 191 174
186 194 180
185 192 174
184 189 168
185 193 178
184 190 171
181 186 160
184 190 171
184 190 171
184 191 172
184 190 169
187 193 177
184 190 169
189 198 188
189 196 183
185 192 174
187 193 175
181 185 156
191 200 192
185 190 168
185 192 175
186 192 174
187 193 177
185 191 170
183 188 163
188 194 178
188 193 175
187 191 171
189 195 179
188 193 174
186 190 169
187 193 177
188 193 174
188 194 177
189 195 180
185 188 163
191 199 190
189 194 178
186 190 169
188 193 175
187 192 172
190 197 184
189 197 186
191 197 184
185 188 163
188 194 178
190 197 184
188 193 174
191 195 176
187 192 172
193 201 194
190 196 182
189 194 176
195 204 201
192 201 194
189 195 181
194 201 192
197 207 206
191 198 187
194 202 194
195 204 200
204 218 231
206 222 239
209 227 249
211 230 255
211 230 255
211 230 255
211 230 255
211 230 255
211 230 255
212 230 255
212 230 255
212 230 255
212 230 255
212 230 255
212 230 255
212 230 255
212 230 255
212 230 255
212 230 255
212 230 255
209 228 253
205 224 249
197 216 242
190 209 235
189 209 235
191 211 237
191 211 237
189 209 236
187 207 234
187 207 234
183 204 232
185 205 233
182 203 231
183 204 232
180 202 231
181 203 232
181 203 231
179 201 230
179 201 230
177 199 229
177 200 230
176 199 229
175 198 229
175 198 228
175 198 228
175 198 228
174 198 228
174 198 228
174 197 228
174 197 228
173 197 228
173 197 228
173 197 228
172 197 228
171 196 228
171 196 228
172 196 228
171 196 228
171 196 228
171 196 228
171 196 228
170 196 228
170 196 228
170 196 228
169 195 228
170 195 228
169 195 228
170 195 228
170 195 228
169 195 228
168 195 228
169 195 228
169 195 228
168 195 228
168 194 228
168 195 228
169 195 228
169 195 228
169 195 228
168 195 228
168 194 228
169 195 228
168 195 228
168 194 228
169 195 228
169 195 228
169 195 228
169 195 228
169 195 228
169 195 228
169 195 228
171 196 229
170 195 228
173 198 230
172 197 230
173 198 230
176 200 232
175 199 231
177 201 232
180 203 234
183 206 236
186 208 237
188 209 238
193 214 242
199 220 248
205 226 253
208 228 255
208 228 255
208 228 255
207 228 255
207 228 255
207 228 255
207 228 255
207 228 255
207 228 255
207 228 255
207 228 255
207 228 255
207 228 255
207 228 255
207 228 255
207 228 255
207 228 255
207 227 255
207 227 255
207 227 255
207 227 255
206 227 255
206 227 255
206 227 255
206 227 255
206 227 255
206 227 255
206 227 255
206 227 255
206 227 255
206 227 255
206 227 255
206 227 255
206 227 255
206 227 255
206 227 255
206 227 255
206 227 255
206 227 255
205 227 255
205 227 255
205 227 255
205 227 255
205 227 255
205 227 255
205 227 255
205 227 255
205 227 255
205 227 255
205 227 255
205 227 255
205 226 255
205 226 255
205 226 255
205 226 255
205 226 255
205 226 255
205 226 255
205 226 255
204 226 255
204 226 255
204 226 255
204 226 255
204 226 255
204 226 255
204 226 255
204 226 255
204 226 255
204 226 255
204 226 255
204 226 255
204 226 255
204 226 255
204 226 255
204 226 255
204 226 255
204 226 255
204 226 255
204 226 255
204 226 255
204 226 255
204 226 255
204 226 255
204 226 255
204 226 255
204 226 255
204 226 255
204 226 255
204 226 255
203 226 255
203 226 255
203 226 255
203 226 255
203 226 255
203 226 255
203 226 255
203 226 255
203 226 255
203 226 255
203 226 255
203 226 255
203 226 255
203 226 255
203 226 255
203 226 255
203 226 255
203 226 255
203 226 255
203 226 255
203 226 255
203 226 255
203 226 255
203 226 255
203 226 255
203 226 255
203 226 255
203 226 255
203 226 255
203 226 255
203 226 255
203 226 255
203 226 255
203 226 255
203 226 255
203 226 255
204 226 255
204 226 255
204 226 255
204 226 255
204 226 255
204 226 255
204 226 255
204 226 255
204 226 255
204 226 255
204 226 255
204 226 255
204 226 255
204 226 255
204 226 255
204 226 255
204 226 255
204 226 255
204 226 255
204 226 255
204 226 255
204 226 255
204 226 255
204 226 255
204 226 255
204 226 255
204 226 255
204 226 255
204 226 255
205 226 255
205 226 255
205 226 255
205 226 255
205 226 255
205 226 255
205 226 255
205 226 255
205 226 255
205 227 255
205 227 255
205 227 255
205 227 255
205 227 255
205 227 255
205 227 255
205 227 255
205 227 255
205 227 255
205 227 255
206 227 255
206 227 255
206 227 255
206 227 255
206 227 255
206 227 255
206 227 255
206 227 255
206 227 255
206 227 255
206 227 255
206 227 255
206 227 255
206 227 255
206 227 255
206 227 255
206 227 255
206 227 255
206 227 255
207 227 255
207 227 255
207 227 255
207 227 255
207 228 255
207 228 255
207 228 255
207 228 255
207 228 255
207 228 255
207 228 255
207 228 255
207 228 255
207 228 255
207 228 255
207 228 255
207 228 255
207 228 255
208 228 255
208 228 255
208 228 255
205 223 245
200 215 227
197 211 219
188 197 187
187 195 183
191 201 196
190 199 192
188 196 186
191 200 194
184 190 169
185 193 178
186 194 181
185 192 177
186 194 181
186 193 178
187 195 183
182 187 163
183 190 171
186 193 177
183 188 166
185 193 178
182 188 166
184 190 171
184 190 171
184 192 175
182 187 165
184 189 166
185 191 171
186 193 177
183 189 169
187 194 180
185 191 171
186 193 177
188 195 181
182 186 160
181 185 156
184 190 171
184 189 167
185 190 169
182 188 165
183 189 168
181 184 155
183 187 161
186 191 172
184 188 164
186 191 169
188 196 183
188 194 178
186 192 174
186 191 171
185 189 166
190 197 186
187 191 169
187 192 172
186 192 175
186 192 172
187 193 175
184 187 159
190 196 183
188 193 174
186 191 171
190 198 188
189 194 178
188 193 175
189 196 183
185 189 163
188 193 175
189 194 176
189 194 176
187 193 176
194 202 193
188 193 175
193 202 194
191 196 182
190 195 178
193 200 190
193 200 190
187 194 176
190 195 177
192 198 185
193 200 192
192 198 186
193 200 189
197 205 202
206 221 237
209 226 246
212 230 255
212 230 255
212 230 255
212 230 255
212 230 255
212 230 255
212 230 255
212 230 255
212 230 255
212 230 255
212 230 255
208 227 252
203 222 247
198 217 242
192 211 237
194 213 239
193 213 239
191 211 237
187 207 234
187 207 234
187 207 234
182 203 231
186 206 234
182 203 231
183 204 232
181 203 231
182 203 232
180 202 230
178 201 230
177 199 229
178 200 229
176 199 229
176 199 228
174 198 228
175 198 228
175 198 228
174 198 228
174 198 228
173 197 228
173 197 228
173 197 228
173 197 228
173 197 228
173 197 228
172 196 228
171 196 228
171 196 228
172 197 228
171 196 228
170 196 228
170 196 228
171 196 228
171 196 228
170 196 228
170 196 228
169 195 228
169 195 228
169 195 228
169 195 228
169 195 228
169 195 228
169 195 228
168 195 228
169 195 228
168 194 228
168 195 228
167 194 228
168 194 228
167 194 228
167 194 228
167 194 228
167 194 228
168 194 228
168 195 228
167 194 228
167 194 228
168 194 228
168 194 228
167 194 228
167 194 228
167 194 228
167 194 228
168 194 228
169 195 228
168 194 228
169 195 228
168 195 228
169 195 228
169 195 228
171 196 229
170 196 229
171 196 229
172 197 229
173 198 230
175 199 230
177 201 232
178 201 232
179 202 233
184 206 236
186 208 238
190 212 240
199 219 247
204 224 251
208 228 255
208 228 255
208 228 255
208 228 255
207 228 255
207 228 255
207 228 255
207 228 255
207 228 255
207 228 255
207 228 255
207 228 255
207 228 255
207 228 255
207 228 255
207 228 255
207 228 255
207 228 255
207 227 255
207 227 255
207 227 255
207 227 255
206 227 255
206 227 255
206 227 255
206 227 255
206 227 255
206 227 255
206 227 255
206 227 255
206 227 255
206 227 255
206 227 255
206 227 255
206 227 255
206 227 255
206 227 255
206 227 255
206 227 255
206 227 255
206 227 255
205 227 255
205 227 255
205 227 255
205 227 255
205 227 255
205 227 255
205 227 255
205 227 255
205 227 255
205 227 255
205 227 255
205 227 255
205 226 255
205 226 255
205 226 255
205 226 255
205 226 255
205 226 255
205 226 255
205 226 255
205 226 255
204 226 255
204 226 255
204 226 255
204 226 255
204 226 255
204 226 255
204 226 255
204 226 255
204 226 255
204 226 255
204 226 255
204 226 255
204 226 255
204 226 255
204 226 255
204 226 255
204 226 255
204 226 255
204 226 255
204 226 255
204 226 255
204 226 255
204 226 255
204 226 255
204 226 255
204 226 255
204 226 255
204 226 255
204 226 255
204 226 255
204 226 255
204 226 255
204 226 255
204 226 255
204 226 255
204 226 255
204 226 255
204 226 255
204 226 255
204 226 255
204 226 255
204 226 255
204 226 255
204 226 255
204 226 255
204 226 255
204 226 255
204 226 255
204 226 255
204 226 255
204 226 255
204 226 255
204 226 255
204 226 255
204 226 255
204 226 255
204 226 255
204 226 255
204 226 255
204 226 255
204 226 255
204 226 255
204 226 255
204 226 255
204 226 255
204 226 255
204 226 255
204 226 255
204 226 255
204 226 255
204 226 255
204 226 255
204 226 255
204 226 255
204 226 255
204 226 255
204 226 255
204 226 255
204 226 255
204 226 255
204 226 255
204 226 255
204 226 255
204 226 255
205 226 255
205 226 255
205 226 255
205 226 255
205 226 255
205 226 255
205 226 255
205 226 255
205 226 255
205 227 255
205 227 255
205 227 255
205 227 255
205 227 255
205 227 255
205 227 255
205 227 255
205 227 255
205 227 255
205 227 255
205 227 255
206 227 255
206 227 255
206 227 255
206 227 255
206 227 255
206 227 255
206 227 255
206 227 255
206 227 255
206 227 255
206 227 255
206 227 255
206 227 255
206 227 255
206 227 255
206 227 255
206 227 255
206 227 255
206 227 255
207 227 255
207 227 255
207 227 255
207 227 255
207 228 255
207 228 255
207 228 255
207 228 255
207 228 255
207 228 255
207 228 255
207 228 255
207 228 255
207 228 255
207 228 255
207 228 255
207 228 255
207 228 255
208 228 255
208 228 255
208 228 255
208 228 255
203 220 240
196 209 214
192 204 203
188 195 183
186 194 180
188 197 187
186 194 180
189 199 192
184 191 172
186 194 181
184 190 171
187 194 181
183 190 171
186 193 177
188 197 188
183 188 166
190 199 192
181 185 158
183 188 165
184 189 166
180 185 158
183 189 168
185 192 175
184 190 171
189 197 186
184 188 165
179 184 155
185 192 175
185 190 171
184 189 168
185 191 172
182 186 161
184 189 166
183 187 161
182 186 158
186 192 174
187 195 183
186 194 179
181 186 161
183 189 169
183 189 169
184 189 167
184 188 165
180 184 153
182 186 160
183 187 160
187 194 179
183 188 163
183 187 163
183 187 161
184 188 163
183 186 158
186 192 174
184 188 164
187 192 174
187 193 175
187 193 176
184 187 159
188 193 175
185 190 167
186 190 167
186 191 169
189 195 179
190 197 184
188 195 180
192 199 189
188 192 172
189 194 176
188 193 175
185 190 168
187 194 178
189 196 183
189 193 172
188 195 179
188 192 170
189 194 174
186 189 164
191 198 185
188 193 175
188 193 175
190 195 179
193 197 181
194 203 197
187 192 170
195 203 197
194 201 192
190 195 177
195 203 196
195 202 193
198 206 203
201 213 219
208 225 245
212 230 255
212 230 255
212 230 255
212 230 255
212 230 255
210 228 253
206 224 250
198 216 242
195 214 239
191 210 236
190 209 235
190 210 236
188 208 234
185 205 232
186 206 233
185 205 233
184 205 233
182 203 231
185 205 233
181 202 230
182 203 231
180 202 230
177 200 229
178 200 229
176 199 228
176 199 228
177 199 228
175 198 228
176 198 228
175 198 228
175 198 228
175 198 228
174 198 228
174 197 228
173 197 228
173 197 228
173 197 228
173 197 228
173 197 228
172 196 228
172 196 228
172 196 228
171 196 228
171 196 228
170 196 228
171 196 228
170 196 228
170 195 228
169 195 228
170 195 228
169 195 228
169 195 228
169 195 228
169 195 228
169 195 228
169 195 228
168 194 228
168 194 228
167 194 228
167 194 228
168 194 228
167 194 228
167 194 228
167 194 228
167 194 228
167 194 228
166 194 228
166 193 228
167 194 228
166 193 228
167 194 228
166 194 228
166 193 228
166 193 228
166 194 228
166 194 228
167 194 228
167 194 228
167 194 228
166 193 228
167 194 228
167 194 228
167 194 228
167 194 228
168 194 228
167 194 228
168 195 228
168 194 228
168 195 228
168 195 228
169 195 228
170 196 229
170 196 229
173 197 230
173 198 230
176 200 232
178 202 233
180 203 234
182 204 234
187 209 238
189 211 239
199 220 248
204 224 252
208 228 255
208 228 255
208 228 255
208 228 255
208 228 255
207 228 255
207 228 255
207 228 255
207 228 255
207 228 255
207 228 255
207 228 255
207 228 255
207 228 255
207 228 255
207 228 255
207 228 255
207 228 255
207 228 255
207 227 255
207 227 255
207 227 255
207 227 255
206 227 255
206 227 255
206 227 255
206 227 255
206 227 255
206 227 255
206 227 255
206 227 255
206 227 255
206 227 255
206 227 255
206 227 255
206 227 255
206 227 255
206 227 255
206 227 255
206 227 255
206 227 255
206 227 255
205 227 255
205 227 255
205 227 255
205 227 255
205 227 255
205 227 255
205 227 255
205 227 255
205 227 255
205 227 255
205 227 255
205 227 255
205 227 255
205 226 255
205 226 255
205 226 255
205 226 255
205 226 255
205 226 255
205 226 255
205 226 255
205 226 255
205 226 255
204 226 255
204 226 255
204 226 255
204 226 255
204 226 255
204 226 255
204 226 255
204 226 255
204 226 255
204 226 255
204 226 255
204 226 255
204 226 255
204 226 255
204 226 255
204 226 255
204 226 255
204 226 255
204 226 255
204 226 255
204 226 255
204 226 255
204 226 255
204 226 255
204 226 255
204 226 255
204 226 255
204 226 255
204 226 255
204 226 255
204 226 255
204 226 255
204 226 255
204 226 255
204 226 255
204 226 255
204 226 255
204 226 255
204 226 255
204 226 255
204 226 255
204 226 255
204 226 255
204 226 255
204 226 255
204 226 255
204 226 255
204 226 255
204 226 255
204 226 255
204 226 255
204 226 255
204 226 255
204 226 255
204 226 255
204 226 255
204 226 255
204 226 255
204 226 255
204 226 255
204 226 255
204 226 255
204 226 255
204 226 255
204 226 255
204 226 255
204 226 255
204 226 255
204 226 255
204 226 255
204 226 255
204 226 255
205 226 255
205 226 255
205 226 255
205 226 255
205 226 255
205 226 255
205 226 255
205 226 255
205 226 255
205 226 255
205 227 255
205 227 255
205 227 255
205 227 255
205 227 255
205 227 255
205 227 255
205 227 255
205 227 255
205 227 255
205 227 255
205 227 255
206 227 255
206 227 255
206 227 255
206 227 255
206 227 255
206 227 255
206 227 255
206 227 255
206 227 255
206 227 255
206 227 255
206 227 255
206 227 255
206 227 255
206 227 255
206 227 255
206 227 255
206 227 255
206 227 255
206 227 255
207 227 255
207 227 255
207 227 255
207 227 255
207 228 255
207 228 255
207 228 255
207 228 255
207 228 255
207 228 255
207 228 255
207 228 255
207 228 255
207 228 255
207 228 255
207 228 255
207 228 255
207 228 255
208 228 255
208 228 255
208 228 255
208 228 255
208 228 255
204 222 243
201 217 233
191 201 198
189 197 187
187 193 178
188 196 184
187 195 184
187 194 180
186 193 178
188 196 186
187 194 180
187 195 183
184 191 175
186 194 180
181 187 163
185 192 177
184 192 175
185 193 177
182 187 163
183 190 171
184 190 169
183 187 163
184 191 174
183 189 168
185 192 177
183 189 169
186 193 178
185 191 174
186 193 177
185 190 171
179 182 150
183 189 168
181 183 151
185 190 169
182 186 161
184 189 166
183 188 165
186 191 171
184 189 167
183 189 166
183 186 158
185 190 169
181 185 155
183 186 159
182 186 160
186 192 175
184 190 170
184 188 164
186 191 171
185 191 171
184 187 161
184 189 165
191 198 188
188 194 178
185 190 167
185 190 167
184 188 163
187 193 177
184 187 159
187 192 174
187 193 176
184 190 168
188 193 175
186 190 169
185 189 166
187 191 170
185 190 169
187 192 173
186 191 170
186 189 165
187 191 167
191 199 188
185 190 169
188 193 173
189 196 181
189 194 175
187 190 165
189 193 174
190 194 175
188 194 177
184 187 161
191 196 179
193 201 194
187 194 178
188 193 172
188 194 178
192 198 184
191 197 183
193 198 183
190 194 174
190 196 179
195 203 195
192 198 184
191 197 181
194 201 193
196 206 202
203 216 224
209 226 246
212 230 255
200 219 243
194 212 237
194 212 237
189 209 235
190 209 235
188 207 234
185 205 232
185 205 232
185 205 232
183 204 232
183 203 231
180 202 230
182 203 231
182 203 231
181 202 231
178 200 229
178 200 229
178 200 229
177 199 228
176 199 228
176 198 228
175 198 228
175 198 228
175 198 228
174 198 228
175 198 228
174 198 228
173 197 228
174 197 228
173 197 228
173 197 228
173 197 228
173 197 228
172 197 228
172 197 228
172 196 228
171 196 228
171 196 228
170 196 228
170 196 228
169 195 228
170 195 228
169 195 228
169 195 228
169 195 228
169 195 228
169 195 228
168 195 228
169 195 228
168 195 228
168 195 228
168 194 228
167 194 228
168 194 228
168 194 228
168 194 228
167 194 228
166 193 228
167 194 228
166 193 228
166 194 228
166 194 228
166 193 228
165 193 228
166 193 228
165 193 228
166 194 228
166 193 228
165 193 228
166 193 228
166 193 228
165 193 228
166 193 228
165 193 228
165 193 228
166 193 228
166 193 228
166 193 228
166 193 228
166 193 228
166 193 228
166 193 228
166 193 228
167 194 228
167 194 228
167 194 228
168 194 228
168 194 228
169 195 228
168 195 228
169 195 228
170 196 229
171 196 229
171 197 229
177 201 232
176 200 231
180 203 234
182 205 235
185 207 236
191 212 240
204 224 252
206 227 254
208 228 255
208 228 255
208 228 255
208 228 255
208 228 255
208 228 255
207 228 255
207 228 255
207 228 255
207 228 255
207 228 255
207 228 255
207 228 255
207 228 255
207 228 255
207 228 255
207 228 255
207 228 255
207 228 255
207 228 255
207 227 255
207 227 255
207 227 255
207 227 255
207 227 255
206 227 255
206 227 255
206 227 255
206 227 255
206 227 255
206 227 255
206 227 255
206 227 255
206 227 255
206 227 255
206 227 255
206 227 255
206 227 255
206 227 255
206 227 255
206 227 255
206 227 255
206 227 255
206 227 255
205 227 255
205 227 255
205 227 255
205 227 255
205 227 255
205 227 255
205 227 255
205 227 255
205 227 255
205 227 255
205 227 255
205 227 255
205 227 255
205 227 255
205 226 255
205 226 255
205 226 255
205 226 255
205 226 255
205 226 255
205 226 255
205 226 255
205 226 255
205 226 255
205 226 255
205 226 255
204 226 255
204 226 255
204 226 255
204 226 255
204 226 255
204 226 255
204 226 255
204 226 255
204 226 255
204 226 255
204 226 255
204 226 255
204 226 255
204 226 255
204 226 255
204 226 255
204 226 255
204 226 255
204 226 255
204 226 255
204 226 255
204 226 255
204 226 255
204 226 255
204 226 255
204 226 255
204 226 255
204 226 255
204 226 255
204 226 255
204 226 255
204 226 255
204 226 255
204 226 255
204 226 255
204 226 255
204 226 255
204 226 255
204 226 255
204 226 255
204 226 255
204 226 255
204 226 255
204 226 255
204 226 255
204 226 255
204 226 255
204 226 255
204 226 255
204 226 255
204 226 255
204 226 255
204 226 255
204 226 255
204 226 255
204 226 255
205 226 255
205 226 255
205 226 255
205 226 255
205 226 255
205 226 255
205 226 255
205 226 255
205 226 255
205 226 255
205 226 255
205 226 255
205 227 255
205 227 255
205 227 255
205 227 255
205 227 255
205 227 255
205 227 255
205 227 255
205 227 255
205 227 255
205 227 255
205 227 255
205 227 255
205 227 255
206 227 255
206 227 255
206 227 255
206 227 255
206 227 255
206 227 255
206 227 255
206 227 255
206 227 255
206 227 255
206 227 255
206 227 255
206 227 255
206 227 255
206 227 255
206 227 255
206 227 255
206 227 255
206 227 255
206 227 255
207 227 255
207 227 255
207 227 255
207 227 255
207 228 255
207 228 255
207 228 255
207 228 255
207 228 255
207 228 255
207 228 255
207 228 255
207 228 255
207 228 255
207 228 255
207 228 255
207 228 255
207 228 255
208 228 255
208 228 255
208 228 255
208 228 255
208 228 255
208 228 255
206 225 250
199 213 223
195 206 208
191 199 192
192 201 195
190 199 191
184 191 172
186 193 178
183 188 166
188 196 186
185 192 175
185 192 177
183 189 169
183 190 171
190 199 192
184 191 174
183 188 166
182 187 165
182 188 165
186 194 180
183 190 172
182 186 160
182 188 166
185 192 175
184 190 171
184 189 168
181 186 161
181 184 155
181 186 161
182 188 165
185 192 177
182 188 165
178 182 150
185 191 171
184 189 168
180 184 155
182 189 168
182 187 161
181 183 151
181 186 161
186 192 174
183 189 166
181 186 160
187 193 177
182 188 165
181 184 153
185 190 168
185 191 171
184 188 163
187 192 174
183 187 163
183 185 156
184 190 169
182 184 153
187 192 174
185 190 169
186 191 170
183 185 153
185 191 171
183 188 165
184 188 162
187 192 171
185 189 165
184 185 154
187 193 175
185 189 165
189 194 175
183 185 155
189 194 176
187 192 172
184 185 152
187 193 174
190 196 182
186 188 160
191 198 184
189 196 182
188 192 169
186 189 163
191 196 181
182 183 148
190 195 177
186 190 167
187 191 169
190 195 178
191 195 177
187 190 166
191 198 187
186 189 163
189 195 179
188 193 173
192 199 186
191 196 178
186 190 165
192 197 182
192 200 189
192 199 188
191 198 184
192 198 184
195 203 194
195 203 197
196 203 195
198 207 206
191 210 236
190 210 236
187 207 234
190 209 236
188 207 234
187 207 234
182 203 230
185 206 233
184 204 232
183 203 230
181 202 230
181 202 230
179 200 229
179 201 229
177 199 228
177 199 228
176 199 228
176 199 228
176 199 228
176 199 228
175 198 228
175 198 228
175 198 228
175 198 228
174 198 228
174 198 228
174 197 228
173 197 228
173 197 228
173 197 228
172 197 228
172 197 228
171 196 228
172 197 228
171 196 228
172 196 228
171 196 228
170 195 228
171 196 228
170 196 228
170 195 228
170 196 228
169 195 228
169 195 228
169 195 228
169 195 228
168 195 228
168 194 228
168 195 228
168 195 228
168 194 228
168 194 228
167 194 228
167 194 228
166 194 228
167 194 228
166 194 228
166 194 228
166 193 228
166 193 228
166 194 228
166 193 228
165 193 228
165 193 228
165 193 228
166 193 228
165 193 228
165 193 228
165 193 228
165 193 228
164 193 228
165 193 228
164 193 228
165 193 228
164 193 228
165 193 228
165 193 228
165 193 228
165 193 228
165 193 228
165 193 228
165 193 228
165 193 228
166 193 228
166 193 228
166 193 228
166 194 228
166 194 228
167 194 228
168 194 228
167 194 228
168 194 228
169 195 228
169 195 228
171 196 229
172 197 229
173 198 230
176 200 232
179 202 233
182 205 235
186 208 237
186 208 237
197 218 246
203 224 251
208 228 255
208 228 255
208 228 255
208 228 255
208 228 255
208 228 255
208 228 255
208 228 255
207 228 255
207 228 255
207 228 255
207 228 255
207 228 255
207 228 255
207 228 255
207 228 255
207 228 255
207 228 255
207 228 255
207 228 255
207 228 255
207 228 255
207 227 255
207 227 255
207 227 255
207 227 255
207 227 255
206 227 255
206 227 255
206 227 255
206 227 255
206 227 255
206 227 255
206 227 255
206 227 255
206 227 255
206 227 255
206 227 255
206 227 255
206 227 255
206 227 255
206 227 255
206 227 255
206 227 255
206 227 255
206 227 255
206 227 255
206 227 255
205 227 255
205 227 255
205 227 255
205 227 255
205 227 255
205 227 255
205 227 255
205 227 255
205 227 255
205 227 255
205 227 255
205 227 255
205 227 255
205 227 255
205 227 255
205 226 255
205 226 255
205 226 255
205 226 255
205 226 255
205 226 255
205 226 255
205 226 255
205 226 255
205 226 255
205 226 255
205 226 255
205 226 255
205 226 255
205 226 255
205 226 255
204 226 255
204 226 255
204 226 255
204 226 255
204 226 255
204 226 255
204 226 255
204 226 255
204 226 255
204 226 255
204 226 255
204 226 255
204 226 255
204 226 255
204 226 255
204 226 255
204 226 255
204 226 255
204 226 255
204 226 255
204 226 255
204 226 255
204 226 255
204 226 255
204 226 255
204 226 255
204 226 255
204 226 255
204 226 255
204 226 255
204 226 255
204 226 255
204 226 255
204 226 255
205 226 255
205 226 255
205 226 255
205 226 255
205 226 255
205 226 255
205 226 255
205 226 255
205 226 255
205 226 255
205 226 255
205 226 255
205 226 255
205 226 255
205 226 255
205 226 255
205 227 255
205 227 255
205 227 255
205 227 255
205 227 255
205 227 255
205 227 255
205 227 255
205 227 255
205 227 255
205 227 255
205 227 255
205 227 255
205 227 255
205 227 255
206 227 255
206 227 255
206 227 255
206 227 255
206 227 255
206 227 255
206 227 255
206 227 255
206 227 255
206 227 255
206 227 255
206 227 255
206 227 255
206 227 255
206 227 255
206 227 255
206 227 255
206 227 255
206 227 255
206 227 255
206 227 255
207 227 255
207 227 255
207 227 255
207 227 255
207 227 255
207 228 255
207 228 255
207 228 255
207 228 255
207 228 255
207 228 255
207 228 255
207 228 255
207 228 255
207 228 255
207 228 255
207 228 255
207 228 255
207 228 255
208 228 255
208 228 255
208 228 255
208 228 255
208 228 255
208 228 255
208 228 255
208 228 255
205 224 247
194 206 208
188 196 186
188 196 186
187 196 186
185 193 177
184 191 172
184 190 172
186 194 181
184 191 172
186 194 181
185 191 174
182 187 165
183 190 171
184 190 169
182 188 168
183 190 171
182 187 165
184 191 172
183 189 168
183 187 163
185 193 178
184 189 168
180 185 158
183 188 166
182 186 160
179 183 151
182 185 158
182 187 165
184 193 180
184 190 171
181 186 160
180 183 151
182 188 165
183 189 169
180 184 156
184 190 169
182 188 165
179 181 148
183 188 165
184 187 161
181 184 155
184 189 166
182 187 163
185 190 168
182 186 160
183 187 161
182 185 156
186 192 175
186 190 169
184 188 161
183 188 163
178 180 142
182 186 158
187 193 175
182 185 156
184 188 161
184 188 163
184 186 158
185 190 170
184 188 162
186 188 161
189 195 179
185 188 163
184 188 163
184 188 162
183 186 159
188 193 174
181 184 154
186 191 170
186 191 169
186 189 162
185 187 160
186 189 165
186 189 163
187 190 166
190 194 176
187 191 168
194 200 191
187 189 161
186 190 167
189 193 174
188 191 166
188 190 166
187 192 170
191 196 179
187 191 169
187 192 170
189 192 170
191 197 182
189 193 174
190 196 180
193 199 185
190 194 174
191 199 188
189 195 177
191 197 182
191 197 182
192 199 187
193 200 190
189 193 171
189 194 175
187 191 169
194 203 196
189 208 235
189 208 235
189 208 235
186 206 233
186 206 233
184 205 232
182 202 230
180 201 229
182 203 231
180 201 229
178 200 228
178 200 228
178 200 228
177 199 228
177 199 228
177 199 228
176 199 228
176 199 228
176 199 228
175 198 228
176 198 228
175 198 228
174 198 228
174 198 228
174 198 228
173 197 228
173 197 228
173 197 228
172 197 228
172 197 228
172 197 228
172 196 228
172 196 228
171 196 228
171 196 228
171 196 228
170 196 228
171 196 228
170 196 228
170 195 228
170 195 228
170 195 228
169 195 228
169 195 228
169 195 228
169 195 228
168 194 228
168 194 228
168 195 228
168 195 228
167 194 228
167 194 228
167 194 228
167 194 228
167 194 228
167 194 228
167 194 228
166 193 228
166 193 228
165 193 228
165 193 228
165 193 228
166 193 228
165 193 228
165 193 228
165 193 228
165 193 228
165 193 228
164 192 228
165 193 228
164 193 228
165 193 228
164 192 228
164 193 228
164 192 228
165 193 228
164 192 228
164 193 228
164 193 228
164 193 228
164 193 228
164 193 228
165 193 228
165 193 228
165 193 228
165 193 228
166 193 228
165 193 228
166 193 228
166 193 228
166 194 228
167 194 228
167 194 228
167 194 228
168 194 228
168 195 228
169 195 228
170 196 229
172 197 229
174 198 230
178 201 232
176 200 231
180 203 233
186 208 237
193 214 242
201 221 249
208 228 255
208 228 255
208 228 255
208 228 255
208 228 255
208 228 255
208 228 255
208 228 255
208 228 255
208 228 255
207 228 255
207 228 255
207 228 255
207 228 255
207 228 255
207 228 255
207 228 255
207 228 255
207 228 255
207 228 255
207 228 255
207 228 255
207 228 255
207 228 255
207 228 255
207 227 255
207 227 255
207 227 255
207 227 255
207 227 255
206 227 255
206 227 255
206 227 255
206 227 255
206 227 255
206 227 255
206 227 255
206 227 255
206 227 255
206 227 255
206 227 255
206 227 255
206 227 255
206 227 255
206 227 255
206 227 255
206 227 255
206 227 255
206 227 255
206 227 255
206 227 255
206 227 255
205 227 255
205 227 255
205 227 255
205 227 255
205 227 255
205 227 255
205 227 255
205 227 255
205 227 255
205 227 255
205 227 255
205 227 255
205 227 255
205 227 255
205 227 255
205 227 255
205 227 255
205 227 255
205 226 255
205 226 255
205 226 255
205 226 255
205 226 255
205 226 255
205 226 255
205 226 255
205 226 255
205 226 255
205 226 255
205 226 255
205 226 255
205 226 255
205 226 255
205 226 255
205 226 255
205 226 255
205 226 255
205 226 255
205 226 255
205 226 255
205 226 255
205 226 255
205 226 255
205 226 255
205 226 255
205 226 255
205 226 255
205 226 255
205 226 255
205 226 255
205 226 255
205 226 255
205 226 255
205 226 255
205 226 255
205 226 255
205 226 255
205 226 255
205 226 255
205 226 255
205 226 255
205 226 255
205 226 255
205 226 255
205 226 255
205 226 255
205 227 255
205 227 255
205 227 255
205 227 255
205 227 255
205 227 255
205 227 255
205 227 255
205 227 255
205 227 255
205 227 255
205 227 255
205 227 255
205 227 255
205 227 255
205 227 255
205 227 255
205 227 255
206 227 255
206 227 255
206 227 255
206 227 255
206 227 255
206 227 255
206 227 255
206 227 255
206 227 255
206 227 255
206 227 255
206 227 255
206 227 255
206 227 255
206 227 255
206 227 255
206 227 255
206 227 255
206 227 255
206 227 255
206 227 255
206 227 255
207 227 255
207 227 255
207 227 255
207 227 255
207 227 255
207 228 255
207 228 255
207 228 255
207 228 255
207 228 255
207 228 255
207 228 255
207 228 255
207 228 255
207 228 255
207 228 255
207 228 255
207 228 255
207 228 255
207 228 255
208 228 255
208 228 255
208 228 255
208 228 255
208 228 255
208 228 255
208 228 255
208 228 255
208 228 255
208 228 255
202 219 235
194 206 207
189 197 186
190 198 190
186 193 177
186 193 178
187 194 181
185 192 177
184 189 169
183 189 169
188 197 187
183 190 171
183 189 169
184 191 172
183 189 168
183 187 163
183 188 165
184 190 171
181 186 161
179 182 151
186 193 178
180 184 155
185 192 174
184 189 166
180 184 156
181 185 158
184 190 169
185 191 172
184 191 172
181 186 160
184 189 166
183 189 166
184 189 168
185 192 174
182 186 161
182 188 166
184 190 169
178 180 144
181 184 153
182 186 158
184 187 161
184 188 165
181 185 156
184 189 166
181 185 156
183 186 158
184 187 160
186 190 168
185 191 172
182 185 156
181 186 160
184 187 159
183 187 160
183 186 156
185 189 164
183 187 161
184 188 161
184 185 154
186 192 172
188 193 176
185 189 164
187 191 170
184 187 160
185 189 165
186 191 170
184 188 163
190 195 178
187 191 169
184 187 158
185 189 166
185 189 163
187 191 170
187 191 168
181 185 156
187 192 173
184 188 162
188 192 171
191 198 185
184 187 160
186 190 167
191 196 181
186 191 170
189 194 177
188 193 174
183 186 156
186 191 170
187 189 162
186 190 166
191 196 178
188 192 171
188 193 174
190 194 175
187 190 165
190 195 178
194 199 186
190 196 180
190 197 184
188 193 174
189 194 177
189 192 170
191 194 173
194 199 185
189 191 167
192 198 185
190 196 179
190 193 171
186 206 232
186 206 233
185 205 232
182 202 229
182 203 230
184 204 231
181 202 230
179 201 229
179 200 228
179 201 228
179 200 228
178 200 228
178 199 228
177 199 228
176 199 228
176 199 228
176 199 228
175 198 228
176 199 228
175 198 228
176 199 228
175 198 228
174 198 228
174 198 228
174 198 228
172 197 228
173 197 228
172 196 228
172 197 228
171 196 228
172 197 228
172 197 228
171 196 228
171 196 228
171 196 228
171 196 228
170 195 228
171 196 228
170 195 228
169 195 228
169 195 228
169 195 228
168 195 228
169 195 228
169 195 228
168 194 228
168 195 228
168 195 228
168 194 228
167 194 228
167 194 228
167 194 228
167 194 228
167 194 228
167 194 228
166 194 228
165 193 228
166 193 228
166 194 228
165 193 228
166 193 228
165 193 228
165 193 228
165 193 228
165 193 228
165 193 228
164 193 228
164 193 228
165 193 228
164 193 228
164 192 228
164 192 228
163 192 228
164 192 228
164 192 228
164 192 228
164 192 228
164 192 228
164 192 228
164 192 228
164 192 228
164 192 228
164 192 228
164 192 228
164 192 228
164 193 228
164 193 228
165 193 228
165 193 228
165 193 228
165 193 228
166 193 228
166 194 228
167 194 228
166 194 228
167 194 228
167 194 228
168 194 228
169 195 228
169 195 228
170 195 228
173 198 230
174 198 230
176 200 231
180 203 233
184 206 236
193 214 242
201 221 248
207 227 255
208 228 255
208 228 255
208 228 255
208 228 255
208 228 255
208 228 255
208 228 255
208 228 255
208 228 255
208 228 255
208 228 255
208 228 255
207 228 255
207 228 255
207 228 255
207 228 255
207 228 255
207 228 255
207 228 255
207 228 255
207 228 255
207 228 255
207 228 255
207 228 255
207 228 255
207 228 255
207 227 255
207 227 255
207 227 255
207 227 255
207 227 255
207 227 255
206 227 255
206 227 255
206 227 255
206 227 255
206 227 255
206 227 255
206 227 255
206 227 255
206 227 255
206 227 255
206 227 255
206 227 255
206 227 255
206 227 255
206 227 255
206 227 255
206 227 255
206 227 255
206 227 255
206 227 255
206 227 255
206 227 255
206 227 255
206 227 255
205 227 255
205 227 255
205 227 255
205 227 255
205 227 255
205 227 255
205 227 255
205 227 255
205 227 255
205 227 255
205 227 255
205 227 255
205 227 255
205 227 255
205 227 255
205 227 255
205 227 255
205 227 255
205 227 255
205 227 255
205 227 255
205 227 255
205 227 255
205 227 255
205 227 255
205 227 255
205 226 255
205 226 255
205 226 255
205 226 255
205 226 255
205 226 255
205 226 255
205 226 255
205 226 255
205 226 255
205 226 255
205 226 255
205 226 255
205 226 255
205 226 255
205 226 255
205 226 255
205 226 255
205 226 255
205 227 255
205 227 255
205 227 255
205 227 255
205 227 255
205 227 255
205 227 255
205 227 255
205 227 255
205 227 255
205 227 255
205 227 255
205 227 255
205 227 255
205 227 255
205 227 255
205 227 255
205 227 255
205 227 255
205 227 255
205 227 255
205 227 255
205 227 255
205 227 255
205 227 255
205 227 255
206 227 255
206 227 255
206 227 255
206 227 255
206 227 255
206 227 255
206 227 255
206 227 255
206 227 255
206 227 255
206 227 255
206 227 255
206 227 255
206 227 255
206 227 255
206 227 255
206 227 255
206 227 255
206 227 255
206 227 255
206 227 255
206 227 255
206 227 255
207 227 255
207 227 255
207 227 255
207 227 255
207 227 255
207 228 255
207 228 255
207 228 255
207 228 255
207 228 255
207 228 255
207 228 255
207 228 255
207 228 255
207 228 255
207 228 255
207 228 255
207 228 255
207 228 255
207 228 255
207 228 255
208 228 255
208 228 255
208 228 255
208 228 255
208 228 255
208 228 255
208 228 255
208 228 255
208 228 255
208 228 255
208 228 255
207 225 249
203 220 239
194 206 207
188 196 186
189 197 187
188 197 187
182 187 163
185 191 174
187 196 184
185 191 174
187 194 180
183 189 168
184 191 174
186 194 180
180 186 161
186 193 178
184 191 172
185 192 175
185 193 180
183 190 172
180 184 156
183 188 165
182 187 163
182 189 168
182 187 165
181 187 165
180 183 151
184 189 168
180 184 155
183 188 163
185 191 174
183 188 165
177 181 148
182 187 163
186 193 177
185 191 171
182 185 156
180 183 151
181 184 153
183 187 163
180 182 148
185 190 168
183 188 163
185 189 166
186 189 165
181 184 151
183 187 163
185 188 163
181 183 151
181 183 150
181 184 155
185 190 167
184 188 163
181 184 154
184 187 160
183 186 158
184 188 163
184 186 158
185 189 163
181 183 149
185 190 168
182 185 154
185 190 167
185 189 164
186 192 174
182 182 146
187 191 167
185 189 163
187 192 174
185 187 159
185 188 160
184 187 158
186 191 169
180 182 148
187 192 170
184 187 161
187 190 167
181 181 142
190 196 181
188 192 172
183 188 164
186 191 169
184 188 162
185 187 156
188 191 166
188 191 169
188 193 173
188 192 171
189 196 181
186 190 165
188 195 179
187 190 164
189 193 172
185 189 163
189 192 170
189 192 168
187 189 161
190 196 181
189 195 178
189 192 171
194 199 187
184 186 156
192 198 185
190 194 176
194 200 188
193 199 188
191 195 176
187 190 164
188 192 169
185 205 231
183 203 230
183 204 231
184 204 231
180 201 229
180 201 228
180 201 229
178 200 228
178 200 228
178 200 228
178 200 228
178 200 228
177 199 228
178 199 228
175 198 228
175 198 228
177 199 228
175 198 228
175 198 228
174 198 228
175 198 228
174 198 228
174 198 228
174 198 228
174 198 228
174 198 228
172 197 228
172 197 228
173 197 228
172 197 228
172 196 228
172 197 228
171 196 228
172 196 228
171 196 228
171 196 228
170 195 228
171 196 228
170 196 228
170 196 228
169 195 228
170 195 228
169 195 228
169 195 228
168 194 228
168 194 228
168 194 228
168 194 228
167 194 228
168 194 228
167 194 228
167 194 228
167 194 228
166 194 228
166 194 228
166 193 228
166 193 228
166 193 228
166 193 228
165 193 228
165 193 228
165 193 228
165 193 228
165 193 228
165 193 228
164 192 228
165 193 228
164 193 228
164 192 228
164 192 228
164 192 228
164 192 228
164 192 228
164 192 228
163 192 228
163 192 228
164 192 228
163 192 228
163 192 228
163 192 228
163 192 228
163 192 228
163 192 228
163 192 228
163 192 228
164 192 228
164 192 228
164 192 228
164 192 228
164 192 228
165 193 228
165 193 228
165 193 228
166 193 228
166 193 228
165 193 228
166 194 228
166 194 228
167 194 228
168 194 228
169 195 228
169 195 228
171 197 229
172 197 230
175 199 231
176 200 231
178 201 232
183 205 235
191 212 240
199 219 246
207 228 255
208 228 255
208 228 255
208 228 255
208 228 255
208 228 255
208 228 255
208 228 255
208 228 255
208 228 255
208 228 255
208 228 255
208 228 255
208 228 255
208 228 255
207 228 255
207 228 255
207 228 255
207 228 255
207 228 255
207 228 255
207 228 255
207 228 255
207 228 255
207 228 255
207 228 255
207 228 255
207 228 255
207 228 255
207 228 255
207 228 255
207 227 255
207 227 255
207 227 255
207 227 255
207 227 255
206 227 255
206 227 255
206 227 255
206 227 255
206 227 255
206 227 255
206 227 255
206 227 255
206 227 255
206 227 255
206 227 255
206 227 255
206 227 255
206 227 255
206 227 255
206 227 255
206 227 255
206 227 255
206 227 255
206 227 255
206 227 255
206 227 255
206 227 255
206 227 255
206 227 255
206 227 255
206 227 255
205 227 255
205 227 255
205 227 255
205 227 255
205 227 255
205 227 255
205 227 255
205 227 255
205 227 255
205 227 255
205 227 255
205 227 255
205 227 255
205 227 255
205 227 255
205 227 255
205 227 255
205 227 255
205 227 255
205 227 255
205 227 255
205 227 255
205 227 255
205 227 255
205 227 255
199 221 252
198 220 251
197 218 250
198 220 251
205 227 255
205 227 255
205 227 255
205 227 255
205 227 255
205 227 255
205 227 255
205 227 255
205 227 255
205 227 255
205 227 255
205 227 255
205 227 255
205 227 255
205 227 255
205 227 255
205 227 255
205 227 255
205 227 255
205 227 255
205 227 255
205 227 255
205 227 255
205 227 255
205 227 255
206 227 255
206 227 255
206 227 255
206 227 255
206 227 255
206 227 255
206 227 255
206 227 255
206 227 255
206 227 255
206 227 255
206 227 255
206 227 255
206 227 255
206 227 255
206 227 255
206 227 255
206 227 255
206 227 255
206 227 255
206 227 255
206 227 255
206 227 255
206 227 255
206 227 255
206 227 255
206 227 255
207 227 255
207 227 255
207 227 255
207 227 255
207 227 255
207 227 255
207 228 255
207 228 255
207 228 255
207 228 255
207 228 255
207 228 255
207 228 255
207 228 255
207 228 255
207 228 255
207 228 255
207 228 255
207 228 255
207 228 255
208 228 255
208 228 255
208 228 255
208 228 255
208 228 255
208 228 255
208 228 255
208 228 255
208 228 255
208 228 255
208 228 255
208 228 255
208 228 255
208 228 255
208 228 255
208 228 254
199 214 225
193 203 200
192 202 198
188 194 180
188 197 187
189 198 188
184 190 171
185 191 172
186 194 181
186 194 180
183 189 169
185 191 172
185 192 175
187 193 178
185 192 175
181 186 160
184 188 165
183 189 169
181 186 160
181 187 166
183 188 166
182 187 163
181 185 158
184 191 174
182 187 163
181 185 158
182 187 163
178 183 155
184 190 169
183 189 168
182 186 160
182 186 160
180 184 155
183 188 166
182 186 158
184 188 163
178 180 142
185 190 169
181 185 158
181 184 153
181 185 156
182 186 160
182 186 160
183 188 163
180 182 148
181 185 156
184 187 160
181 182 148
181 183 149
186 191 171
184 188 164
182 186 158
182 184 151
181 184 151
183 187 160
181 184 154
182 185 154
186 191 169
181 184 154
183 186 158
183 186 156
180 181 146
184 185 154
182 184 153
186 189 164
186 191 169
182 184 153
185 188 159
179 180 141
183 186 156
184 187 160
182 185 156
185 189 164
183 187 161
186 187 158
187 191 167
189 194 177
185 189 164
185 185 153
186 190 166
185 188 161
187 192 172
185 189 164
186 191 169
187 191 169
185 190 169
186 189 164
186 190 165
187 190 165
185 187 159
189 195 179
188 191 169
187 189 163
187 191 167
191 197 181
189 194 176
188 189 160
188 193 173
189 194 175
188 193 173
187 190 165
184 186 155
194 202 193
187 191 168
190 194 174
188 193 173
193 201 190
187 191 167
189 192 169
188 193 171
183 203 230
184 204 230
183 202 229
180 201 229
180 201 228
179 201 228
180 201 228
178 200 228
177 199 228
178 200 228
178 200 228
179 200 228
177 199 228
176 199 228
176 199 228
175 198 228
175 198 228
175 198 228
176 199 228
175 198 228
175 198 228
174 198 228
173 197 228
174 197 228
174 198 228
173 197 228
173 197 228
173 197 228
173 197 228
172 197 228
172 196 228
172 197 228
171 196 228
171 196 228
170 196 228
170 196 228
170 196 228
170 195 228
170 195 228
170 196 228
169 195 228
169 195 228
169 195 228
168 195 228
169 195 228
168 194 228
168 194 228
168 194 228
167 194 228
167 194 228
167 194 228
167 194 228
166 194 228
166 194 228
166 194 228
166 193 228
166 194 228
166 193 228
165 193 228
165 193 228
166 193 228
165 193 228
165 193 228
165 193 228
164 193 228
164 193 228
164 192 228
164 192 228
164 192 228
164 192 228
164 192 228
164 192 228
164 192 228
163 192 228
163 192 228
163 192 228
163 192 228
163 192 228
163 192 228
163 192 228
163 192 228
163 192 228
163 192 228
163 192 228
163 192 228
163 192 228
163 192 228
163 192 228
164 192 228
164 192 228
164 192 228
164 192 228
164 193 228
164 193 228
165 193 228
165 193 228
165 193 228
166 193 228
166 193 228
167 194 228
167 194 228
168 194 228
168 195 228
170 195 228
169 195 228
172 197 229
176 200 232
178 201 232
180 202 232
183 205 234
194 215 243
199 219 247
207 227 254
208 228 255
208 228 255
208 228 255
208 228 255
208 228 255
208 228 255
208 228 255
208 228 255
208 228 255
208 228 255
208 228 255
208 228 255
208 228 255
208 228 255
208 228 255
208 228 255
208 228 255
207 228 255
207 228 255
207 228 255
207 228 255
207 228 255
207 228 255
207 228 255
207 228 255
207 228 255
207 228 255
207 228 255
207 228 255
207 228 255
207 228 255
207 228 255
207 228 255
207 227 255
207 227 255
207 227 255
207 227 255
207 227 255
207 227 255
206 227 255
206 227 255
206 227 255
206 227 255
206 227 255
206 227 255
206 227 255
206 227 255
206 227 255
206 227 255
206 227 255
206 227 255
206 227 255
206 227 255
206 227 255
206 227 255
206 227 255
206 227 255
206 227 255
206 227 255
206 227 255
206 227 255
206 227 255
206 227 255
206 227 255
206 227 255
206 227 255
206 227 255
206 227 255
206 227 255
206 227 255
206 227 255
206 227 255
205 227 255
205 227 255
205 227 255
205 227 255
204 226 255
194 215 248
167 190 231
145 169 217
127 152 206
112 139 199
102 130 191
71 105 180
62 99 177
61 98 179
63 99 177
62 99 178
62 99 180
62 99 176
80 112 185
90 120 190
110 137 196
134 159 210
144 168 217
166 189 227
189 211 244
205 227 255
205 227 255
205 227 255
205 227 255
205 227 255
206 227 255
206 227 255
206 227 255
206 227 255
206 227 255
206 227 255
206 227 255
206 227 255
206 227 255
206 227 255
206 227 255
206 227 255
206 227 255
206 227 255
206 227 255
206 227 255
206 227 255
206 227 255
206 227 255
206 227 255
206 227 255
206 227 255
206 227 255
206 227 255
206 227 255
206 227 255
206 227 255
206 227 255
206 227 255
206 227 255
206 227 255
206 227 255
206 227 255
207 227 255
207 227 255
207 227 255
207 227 255
207 227 255
207 227 255
207 228 255
207 228 255
207 228 255
207 228 255
207 228 255
207 228 255
207 228 255
207 228 255
207 228 255
207 228 255
207 228 255
207 228 255
207 228 255
207 228 255
207 228 255
207 228 255
208 228 255
208 228 255
208 228 255
208 228 255
208 228 255
208 228 255
208 228 255
208 228 255
208 228 255
208 228 255
208 228 255
208 228 255
208 228 255
208 228 255
208 228 255
208 228 255
208 228 255
208 228 254
200 215 227
191 201 195
190 198 190
191 202 200
189 196 183
188 197 188
185 192 175
185 190 169
190 200 194
184 191 174
185 193 178
184 190 171
182 189 169
182 187 163
177 180 147
182 187 165
180 185 161
184 191 172
181 185 156
184 190 171
182 188 165
181 186 160
181 186 161
183 188 165
186 192 175
181 184 155
182 186 160
182 187 161
185 190 168
179 183 151
181 186 160
181 186 163
181 183 150
181 185 156
183 187 161
184 189 166
183 187 161
183 185 156
181 185 156
183 188 163
183 186 156
180 183 150
182 185 155
184 189 168
184 190 169
178 180 144
179 183 151
183 185 156
185 190 168
181 183 150
183 186 158
181 184 153
182 185 156
182 185 156
181 183 150
183 185 156
183 185 154
182 184 151
186 190 165
182 184 151
183 184 151
185 190 167
187 190 165
184 187 158
183 186 156
185 188 163
184 186 158
183 186 157
186 189 162
185 188 160
184 188 161
182 184 151
185 187 159
183 187 162
185 188 161
188 192 170
186 189 162
189 191 167
182 185 154
184 184 149
185 189 163
187 192 172
184 186 157
185 188 159
185 188 161
184 187 158
189 193 173
182 185 153
183 183 145
187 192 170
184 186 156
188 191 168
188 191 168
188 192 168
186 190 166
185 188 161
190 195 179
190 195 176
191 195 178
187 191 170
188 193 174
190 193 170
191 195 177
187 192 170
190 194 174
188 190 165
190 194 175
190 195 178
190 195 178
188 191 168
192 198 185
192 195 175
181 201 228
181 202 229
180 201 228
180 201 228
179 200 228
179 200 228
179 200 228
179 200 228
177 199 228
178 200 228
176 199 228
176 199 228
177 199 228
176 199 228
176 199 228
176 199 228
176 199 228
175 198 228
174 198 228
174 198 228
175 198 228
174 197 228
174 198 228
173 197 228
174 197 228
173 197 228
172 197 228
173 197 228
173 197 228
172 196 228
172 196 228
171 196 228
171 196 228
171 196 228
171 196 228
171 196 228
170 196 228
169 195 228
170 196 228
170 196 228
169 195 228
170 195 228
169 195 228
169 195 228
169 195 228
168 194 228
168 195 228
168 194 228
168 194 228
167 194 228
167 194 228
167 194 228
167 194 228
167 194 228
167 194 228
166 193 228
166 193 228
166 193 228
165 193 228
166 193 228
165 193 228
165 193 228
165 193 228
165 193 228
164 193 228
165 193 228
164 193 228
164 192 228
164 192 228
164 192 228
164 192 228
163 192 228
163 192 228
163 192 228
163 192 228
163 192 228
163 192 228
163 192 228
163 192 228
163 192 228
163 192 228
163 192 228
163 192 228
163 192 228
163 192 228
163 192 228
163 192 228
163 192 228
163 192 228
163 192 228
164 192 228
163 192 228
164 192 228
164 192 228
164 192 228
164 193 228
164 193 228
165 193 228
166 193 228
166 193 228
166 194 228
167 194 228
168 194 228
168 194 228
168 195 228
169 195 228
170 196 228
172 197 229
173 198 230
174 198 230
183 205 235
185 206 236
191 212 240
199 219 247
209 228 255
208 228 255
208 228 255
208 228 255
208 228 255
208 228 255
208 228 255
208 228 255
208 228 255
208 228 255
208 228 255
208 228 255
208 228 255
208 228 255
208 228 255
208 228 255
208 228 255
208 228 255
208 228 255
208 228 255
208 228 255
207 228 255
207 228 255
207 228 255
207 228 255
207 228 255
207 228 255
207 228 255
207 228 255
207 228 255
207 228 255
207 228 255
207 228 255
207 228 255
207 228 255
207 228 255
207 228 255
207 228 255
207 227 255
207 227 255
207 227 255
207 227 255
207 227 255
207 227 255
206 227 255
206 227 255
206 227 255
206 227 255
206 227 255
206 227 255
206 227 255
206 227 255
206 227 255
206 227 255
206 227 255
206 227 255
206 227 255
206 227 255
206 227 255
206 227 255
206 227 255
206 227 255
206 227 255
206 227 255
206 227 255
206 227 255
206 227 255
206 227 255
206 227 255
206 227 255
206 227 255
201 222 252
184 206 241
144 168 214
117 143 200
68 103 180
62 99 175
62 99 178
63 99 177
62 99 176
63 99 175
62 99 177
62 99 177
62 99 174
62 99 174
62 99 175
62 98 173
62 99 177
62 99 176
62 99 176
62 99 176
62 99 175
62 99 176
62 99 176
63 99 177
61 98 172
73 107 179
124 149 205
152 175 217
176 198 236
205 226 255
206 227 255
206 227 255
206 227 255
206 227 255
206 227 255
206 227 255
206 227 255
206 227 255
206 227 255
206 227 255
206 227 255
206 227 255
206 227 255
206 227 255
206 227 255
206 227 255
206 227 255
206 227 255
206 227 255
206 227 255
206 227 255
206 227 255
206 227 255
206 227 255
206 227 255
206 227 255
206 227 255
207 227 255
207 227 255
207 227 255
207 227 255
207 227 255
207 227 255
207 228 255
207 228 255
207 228 255
207 228 255
207 228 255
207 228 255
207 228 255
207 228 255
207 228 255
207 228 255
207 228 255
207 228 255
207 228 255
207 228 255
207 228 255
207 228 255
207 228 255
208 228 255
208 228 255
208 228 255
208 228 255
208 228 255
208 228 255
208 228 255
208 228 255
208 228 255
208 228 255
208 228 255
208 228 255
208 228 255
208 228 255
208 228 255
208 228 255
208 228 255
208 228 255
208 228 255
208 228 255
208 228 254
204 221 240
193 203 200
189 197 187
188 195 183
189 198 191
186 192 177
183 188 165
186 192 175
185 191 174
181 187 163
186 192 175
178 182 153
188 195 181
179 184 156
183 188 166
181 187 164
181 187 166
179 182 150
184 190 171
183 189 168
180 184 155
182 187 163
184 190 169
181 186 161
179 184 156
182 187 163
179 182 151
182 188 165
179 180 144
181 185 156
180 184 156
181 186 160
183 186 158
178 181 146
182 185 158
180 183 150
182 186 158
182 187 163
181 185 156
182 184 151
181 184 155
180 184 156
183 186 160
181 184 155
180 182 146
182 185 156
181 184 153
180 181 142
184 187 160
181 182 146
185 189 165
181 184 154
179 181 145
183 184 151
183 185 155
183 186 158
181 184 153
185 189 166
182 186 160
182 183 149
186 190 169
185 189 163
186 189 165
184 186 157
186 189 164
182 186 159
181 184 151
183 186 159
181 183 151
184 188 161
184 186 156
188 191 166
184 184 151
185 187 158
185 187 159
185 188 161
183 186 156
185 189 163
184 188 161
184 187 160
187 191 169
188 190 164
185 188 160
185 187 157
186 190 165
187 189 161
185 187 156
184 186 157
182 184 152
181 185 155
184 187 157
184 187 159
182 184 149
188 192 170
184 186 154
188 193 174
190 194 176
188 191 166
187 189 163
185 190 167
186 191 169
190 192 167
187 189 161
189 193 171
188 191 167
187 190 163
186 189 161
187 191 169
189 194 174
191 195 175
187 190 164
189 194 176
188 191 168
190 195 177
180 201 228
180 201 228
179 200 228
180 201 228
179 200 228
179 200 228
178 200 228
178 200 228
178 199 228
178 200 228
177 199 228
177 199 228
177 199 228
176 199 228
176 198 228
176 198 228
175 198 228
175 198 228
176 199 228
174 198 228
174 197 228
174 198 228
174 198 228
174 198 228
173 197 228
172 197 228
172 197 228
172 197 228
172 196 228
172 197 228
171 196 228
171 196 228
172 196 228
171 196 228
170 196 228
171 196 228
170 196 228
170 195 228
170 196 228
169 195 228
170 196 228
169 195 228
169 195 228
169 195 228
169 195 228
169 195 228
168 194 228
167 194 228
168 194 228
167 194 228
167 194 228
167 194 228
166 193 228
167 194 228
167 194 228
166 193 228
166 193 228
166 193 228
166 193 228
166 193 228
166 193 228
165 193 228
165 193 228
164 193 228
165 193 228
164 193 228
164 192 228
164 192 228
164 192 228
164 192 228
164 192 228
163 192 228
164 192 228
163 192 228
164 192 228
163 192 228
163 192 228
163 192 228
163 192 228
163 192 228
163 192 228
163 192 228
163 192 228
163 192 228
163 192 228
163 192 228
163 192 228
163 192 228
163 192 228
163 192 228
163 192 228
163 192 228
163 192 228
164 192 228
164 192 228
164 192 228
164 192 228
164 192 228
164 193 228
165 193 228
165 193 228
165 193 228
166 193 228
166 194 228
167 194 228
168 195 228
168 195 228
169 195 228
170 196 228
171 196 228
174 198 230
176 200 230
179 202 232
185 207 236
193 213 241
203 223 250
209 229 255
209 229 255
209 228 255
209 228 255
208 228 255
208 228 255
208 228 255
208 228 255
208 228 255
208 228 255
208 228 255
208 228 255
208 228 255
208 228 255
208 228 255
208 228 255
208 228 255
208 228 255
208 228 255
208 228 255
208 228 255
208 228 255
208 228 255
208 228 255
208 228 255
207 228 255
207 228 255
207 228 255
207 228 255
207 228 255
207 228 255
207 228 255
207 228 255
207 228 255
207 228 255
207 228 255
207 228 255
207 228 255
207 228 255
207 228 255
207 228 255
207 228 255
207 228 255
207 227 255
207 227 255
207 227 255
207 227 255
207 227 255
207 227 255
207 227 255
206 227 255
206 227 255
206 227 255
206 227 255
206 227 255
206 227 255
206 227 255
206 227 255
206 227 255
206 227 255
206 227 255
206 227 255
206 227 255
206 227 255
206 227 255
206 227 255
201 222 252
164 186 227
132 156 207
92 121 187
62 99 179
62 99 177
62 99 172
62 99 174
62 98 171
63 99 177
62 99 174
62 99 176
62 99 175
63 100 179
62 99 175
63 99 175
62 99 174
62 99 175
62 98 173
62 99 178
62 98 170
62 99 178
62 99 173
62 99 177
62 99 175
62 99 174
62 98 171
62 99 177
62 99 175
61 98 175
62 99 178
61 98 175
70 104 178
137 161 212
181 203 238
201 223 252
206 227 255
206 227 255
206 227 255
206 227 255
206 227 255
206 227 255
206 227 255
206 227 255
206 227 255
206 227 255
206 227 255
206 227 255
206 227 255
206 227 255
206 227 255
206 227 255
207 227 255
207 227 255
207 227 255
207 227 255
207 227 255
207 227 255
207 227 255
207 228 255
207 228 255
207 228 255
207 228 255
207 228 255
207 228 255
207 228 255
207 228 255
207 228 255
207 228 255
207 228 255
207 228 255
207 228 255
207 228 255
207 228 255
207 228 255
207 228 255
207 228 255
208 228 255
208 228 255
208 228 255
208 228 255
208 228 255
208 228 255
208 228 255
208 228 255
208 228 255
208 228 255
208 228 255
208 228 255
208 228 255
208 228 255
208 228 255
208 228 255
208 228 255
208 228 255
208 228 255
208 228 255
208 228 255
209 228 255
209 228 255
209 229 255
209 229 255
205 223 244
195 206 208
191 198 188
185 191 172
188 196 187
188 195 181
186 192 175
183 189 169
186 193 178
183 191 178
183 189 169
184 190 172
183 189 168
184 189 168
185 190 171
184 189 168
182 185 156
180 185 158
179 181 146
180 184 156
181 186 161
178 180 144
179 181 148
183 190 174
180 184 156
181 186 163
184 190 169
182 186 161
179 182 150
181 185 158
181 185 159
179 180 144
181 185 159
180 182 150
180 184 155
183 187 161
184 188 163
182 186 160
180 183 151
183 185 156
183 188 164
183 187 161
182 185 155
181 183 151
181 183 151
181 183 150
185 187 160
183 186 158
180 182 148
183 185 155
179 179 139
182 183 148
180 183 153
184 187 161
181 183 149
179 180 142
180 181 145
183 185 153
183 185 154
183 185 155
188 193 174
182 186 158
183 186 158
183 184 149
184 186 156
183 184 150
187 191 169
181 184 152
187 189 163
181 182 147
180 179 137
182 183 150
183 185 154
183 186 159
181 182 146
184 188 161
183 183 148
184 187 160
188 192 169
185 190 167
187 191 167
182 184 150
185 188 160
183 183 147
184 187 161
187 192 173
185 188 162
186 188 161
187 191 166
187 191 167
187 191 168
186 189 164
186 190 165
185 187 158
188 190 165
189 193 171
187 191 167
184 184 149
184 186 156
187 190 164
183 184 151
188 190 162
188 192 169
187 191 167
186 187 154
189 192 167
187 191 168
185 187 158
191 195 175
187 190 165
191 194 172
190 195 175
190 194 175
189 192 168
186 187 157
189 193 170
179 200 228
180 201 228
179 200 228
179 200 228
179 200 228
179 200 228
178 200 228
178 200 228
178 200 228
178 200 228
178 200 228
176 199 228
177 199 228
177 199 228
176 199 228
176 199 228
176 199 228
176 199 228
175 198 228
174 198 228
174 198 228
173 197 228
174 198 228
173 197 228
173 197 228
174 197 228
173 197 228
173 197 228
172 197 228
172 196 228
172 196 228
171 196 228
172 196 228
171 196 228
171 196 228
170 196 228
171 196 228
170 196 228
170 196 228
170 195 228
169 195 228
169 195 228
169 195 228
170 195 228
168 194 228
168 195 228
168 195 228
168 194 228
168 194 228
168 195 228
168 194 228
167 194 228
167 194 228
166 194 228
167 194 228
166 194 228
166 193 228
166 193 228
165 193 228
166 193 228
165 193 228
165 193 228
165 193 228
165 193 228
165 193 228
164 193 228
165 193 228
164 193 228
164 193 228
164 192 228
164 192 228
164 192 228
164 192 228
163 192 228
163 192 228
163 192 228
163 192 228
163 192 228
163 192 228
163 192 228
163 192 228
163 192 228
163 192 228
163 192 228
163 192 228
163 192 228
163 192 228
163 192 228
163 192 228
163 192 228
163 192 228
163 192 228
163 192 228
163 192 228
163 192 228
164 192 228
163 192 228
164 192 228
164 192 228
164 193 228
164 193 228
165 193 228
165 193 228
166 193 228
166 194 228
167 194 228
167 194 228
168 195 228
169 195 228
170 195 228
171 196 228
173 197 229
176 200 231
177 200 231
182 204 233
186 208 236
194 214 242
206 226 253
209 229 255
209 229 255
209 229 255
209 229 255
209 229 255
209 228 255
209 228 255
208 228 255
208 228 255
208 228 255
208 228 255
208 228 255
208 228 255
208 228 255
208 228 255
208 228 255
208 228 255
208 228 255
208 228 255
208 228 255
208 228 255
208 228 255
208 228 255
208 228 255
208 228 255
208 228 255
208 228 255
208 228 255
207 228 255
207 228 255
207 228 255
207 228 255
207 228 255
207 228 255
207 228 255
207 228 255
207 228 255
207 228 255
207 228 255
207 228 255
207 228 255
207 228 255
207 228 255
207 228 255
207 228 255
207 228 255
207 228 255
207 228 255
207 228 255
207 227 255
207 227 255
207 227 255
207 227 255
207 227 255
207 227 255
207 227 255
207 227 255
207 227 255
206 227 255
206 227 255
206 227 255
206 227 255
185 207 242
130 155 207
68 103 177
62 99 176
61 98 173
61 98 173
62 99 176
62 99 172
62 98 172
61 98 171
62 99 174
63 99 175
62 99 175
63 99 172
62 99 174
62 99 176
62 98 170
63 99 176
62 99 175
62 98 171
62 99 175
61 98 172
61 98 171
62 99 175
62 98 168
62 98 171
62 99 172
62 99 175
61 98 173
62 99 174
62 99 174
61 98 171
62 99 177
62 99 172
62 97 170
62 98 171
62 98 176
68 103 181
132 156 208
182 204 239
206 227 255
206 227 255
206 227 255
206 227 255
206 227 255
207 227 255
207 227 255
207 227 255
207 227 255
207 227 255
207 227 255
207 227 255
207 227 255
207 228 255
207 228 255
207 228 255
207 228 255
207 228 255
207 228 255
207 228 255
207 228 255
207 228 255
207 228 255
207 228 255
207 228 255
207 228 255
207 228 255
207 228 255
207 228 255
207 228 255
207 228 255
207 228 255
207 228 255
207 228 255
208 228 255
208 228 255
208 228 255
208 228 255
208 228 255
208 228 255
208 228 255
208 228 255
208 228 255
208 228 255
208 228 255
208 228 255
208 228 255
208 228 255
208 228 255
208 228 255
208 228 255
208 228 255
208 228 255
208 228 255
208 228 255
209 228 255
209 228 255
209 229 255
209 229 255
209 229 255
209 229 255
209 229 255
205 223 245
197 209 213
188 194 180
189 196 184
190 197 187
187 195 184
184 189 168
184 191 174
189 197 186
186 193 178
183 188 166
184 190 171
180 184 159
179 184 158
181 186 160
183 189 166
180 184 156
180 185 161
179 182 151
185 191 171
183 187 163
183 188 166
178 180 146
181 185 158
181 186 161
181 185 156
183 188 165
180 184 156
184 189 166
178 180 146
178 181 149
182 185 156
178 180 144
182 185 156
181 184 156
178 180 144
184 187 161
181 182 148
178 180 144
184 187 160
181 184 151
179 180 142
180 180 141
182 184 153
180 183 153
182 185 156
182 183 147
180 182 150
181 184 153
181 183 150
182 184 153
180 182 148
185 187 160
181 185 155
180 182 147
182 184 152
180 181 144
184 186 158
180 181 142
185 187 158
182 183 150
182 184 152
181 184 152
181 183 147
184 185 154
185 188 161
182 183 147
179 178 135
185 187 157
181 182 145
180 181 144
186 188 159
185 186 156
190 194 175
183 186 157
182 182 146
183 183 146
182 183 148
181 181 142
181 182 147
186 188 158
185 189 165
188 190 165
186 188 159
184 187 158
183 185 154
184 189 165
187 190 163
187 191 167
186 188 158
186 189 164
187 190 167
186 187 157
185 188 161
186 188 160
188 191 168
187 190 166
186 188 159
188 193 171
191 195 177
188 191 168
184 185 151
187 189 162
190 194 174
187 189 162
187 190 165
188 190 165
189 192 169
185 186 154
187 192 171
191 195 175
188 189 161
190 195 175
189 192 169
191 195 175
188 190 164
190 195 178
191 195 175
180 201 228
180 201 228
179 200 228
178 200 228
179 200 228
179 200 228
177 199 228
179 200 228
178 200 228
178 199 228
178 199 228
177 199 228
176 199 228
176 199 228
176 199 228
176 199 228
176 198 228
175 198 228
175 198 228
174 198 228
174 198 228
173 197 228
174 197 228
174 198 228
174 198 228
174 198 228
172 197 228
174 197 228
173 197 228
173 197 228
172 197 228
171 196 228
172 197 228
171 196 228
171 196 228
171 196 228
170 196 228
170 196 228
170 195 228
170 195 228
169 195 228
169 195 228
169 195 228
169 195 228
169 195 228
169 195 228
169 195 228
169 195 228
168 194 228
168 194 228
168 194 228
167 194 228
168 194 228
167 194 228
167 194 228
167 194 228
166 193 228
167 194 228
166 193 228
165 193 228
165 193 228
165 193 228
165 193 228
165 193 228
165 193 228
165 193 228
165 193 228
164 193 228
164 193 228
164 193 228
164 192 228
164 192 228
164 192 228
164 192 228
164 192 228
163 192 228
163 192 228
163 192 228
163 192 228
163 192 228
163 192 228
163 192 228
163 192 228
163 192 228
163 192 228
163 192 228
163 192 228
163 192 228
163 192 228
163 192 228
163 192 228
163 192 228
163 192 228
163 192 228
163 192 228
163 192 228
163 192 228
163 192 228
164 192 228
164 192 228
164 192 228
164 193 228
165 193 228
165 193 228
165 193 228
166 193 228
166 194 228
167 194 228
168 194 228
168 195 228
169 195 228
170 196 228
171 196 228
172 197 228
175 199 230
178 201 231
183 205 235
187 208 237
200 220 247
209 229 255
209 229 255
209 229 255
209 229 255
209 229 255
209 229 255
209 229 255
209 229 255
209 229 255
209 228 255
209 228 255
208 228 255
208 228 255
208 228 255
208 228 255
208 228 255
208 228 255
208 228 255
208 228 255
208 228 255
208 228 255
208 228 255
208 228 255
208 228 255
208 228 255
208 228 255
208 228 255
208 228 255
208 228 255
208 228 255
208 228 255
208 228 255
208 228 255
208 228 255
207 228 255
207 228 255
207 228 255
207 228 255
207 228 255
207 228 255
207 228 255
207 228 255
207 228 255
207 228 255
207 228 255
207 228 255
207 228 255
207 228 255
207 228 255
207 228 255
207 228 255
207 228 255
207 228 255
207 228 255
207 228 255
207 228 255
207 228 255
207 228 255
206 227 255
172 193 232
102 130 191
63 99 177
62 98 173
62 99 173
62 98 169
61 98 171
62 99 176
61 98 166
62 98 172
62 98 167
62 99 176
62 98 171
62 98 171
63 99 176
63 99 176
62 99 171
63 99 176
61 98 170
62 99 171
61 98 168
62 99 172
62 99 170
62 98 170
62 99 173
63 99 170
62 99 171
63 99 170
62 99 172
62 99 171
63 99 175
62 98 172
62 98 170
62 98 170
62 99 175
63 99 174
62 99 174
62 99 172
62 98 169
62 99 175
62 99 179
62 99 176
106 133 194
166 188 229
204 225 254
207 228 255
207 228 255
207 228 255
207 228 255
207 228 255
207 228 255
207 228 255
207 228 255
207 228 255
207 228 255
207 228 255
207 228 255
207 228 255
207 228 255
207 228 255
207 228 255
207 228 255
207 228 255
207 228 255
207 228 255
207 228 255
207 228 255
207 228 255
207 228 255
208 228 255
208 228 255
208 228 255
208 228 255
208 228 255
208 228 255
208 228 255
208 228 255
208 228 255
208 228 255
208 228 255
208 228 255
208 228 255
208 228 255
208 228 255
208 228 255
208 228 255
208 228 255
208 228 255
208 228 255
208 228 255
208 228 255
208 228 255
209 228 255
209 228 255
209 229 255
209 229 255
209 229 255
209 229 255
209 229 255
209 229 255
209 229 255
209 229 255
208 227 251
200 215 227
191 199 191
191 199 191
186 192 172
187 194 180
188 195 183
181 185 156
185 192 177
179 183 160
180 184 158
184 191 172
181 187 166
183 190 173
184 190 173
179 183 156
182 187 161
179 183 156
182 187 161
180 185 162
182 186 158
183 187 163
182 184 153
178 180 146
179 183 156
179 181 146
178 181 148
180 184 156
183 186 160
179 181 146
182 185 155
179 183 154
180 184 155
179 181 146
182 185 156
178 183 155
179 181 148
181 184 153
183 185 155
179 180 144
180 183 151
184 189 166
182 184 153
179 181 146
182 185 156
181 184 153
183 186 158
180 181 142
180 181 146
181 185 156
181 182 146
183 184 151
181 184 154
179 181 145
180 181 142
181 183 149
180 182 149
186 189 164
182 182 146
182 183 150
184 186 157
182 182 142
181 183 149
183 185 153
181 181 142
189 194 175
183 182 143
182 184 151
182 182 143
183 184 150
184 185 154
185 186 156
182 183 149
183 184 149
182 184 151
185 189 165
181 183 149
183 184 149
181 182 146
185 185 151
183 184 148
185 188 160
185 189 163
185 188 159
186 189 161
185 187 158
188 191 168
182 185 154
184 185 151
184 186 154
183 184 150
183 184 149
182 182 145
186 189 161
184 186 153
182 182 144
188 191 166
184 187 159
185 186 152
185 185 151
184 185 153
184 185 152
184 187 157
188 191 168
186 189 162
182 183 147
189 192 169
188 191 165
187 189 160
187 189 160
189 192 168
186 190 164
188 190 163
190 193 170
187 189 162
190 193 171
187 187 154
190 193 172
185 187 158
191 194 174
180 201 228
179 200 228
180 201 228
179 200 228
179 200 228
178 200 228
179 200 228
178 200 228
178 200 228
177 199 228
178 200 228
177 199 228
176 199 228
176 198 228
175 198 228
176 198 228
175 198 228
175 198 228
174 198 228
175 198 228
175 198 228
175 198 228
174 197 228
173 197 228
174 198 228
173 197 228
173 197 228
173 197 228
172 197 228
172 196 228
172 196 228
172 196 228
172 197 228
172 196 228
171 196 228
171 196 228
171 196 228
171 196 228
170 196 228
170 195 228
170 196 228
170 195 228
170 195 228
169 195 228
169 195 228
169 195 228
169 195 228
168 194 228
168 195 228
168 194 228
167 194 228
167 194 228
167 194 228
167 194 228
167 194 228
166 194 228
166 194 228
166 194 228
167 194 228
166 193 228
166 193 228
166 193 228
166 193 228
165 193 228
165 193 228
165 193 228
165 193 228
164 193 228
165 193 228
164 193 228
165 193 228
164 192 228
164 192 228
164 192 228
164 192 228
164 192 228
163 192 228
163 192 228
163 192 228
163 192 228
163 192 228
163 192 228
163 192 228
163 192 228
163 192 228
163 192 228
163 192 228
163 192 228
163 192 228
163 192 228
163 192 228
163 192 228
163 192 228
163 192 228
163 192 228
163 192 228
163 192 228
163 192 228
163 192 228
164 192 228
164 192 228
164 192 228
164 193 228
164 193 228
165 193 228
165 193 228
166 193 228
166 193 228
166 194 228
167 194 228
168 194 228
168 195 228
170 195 228
170 196 228
172 196 228
173 197 229
179 202 233
179 202 232
185 207 236
194 215 243
206 225 252
209 229 255
209 229 255
209 229 255
209 229 255
209 229 255
209 229 255
209 229 255
209 229 255
209 229 255
209 229 255
209 229 255
209 229 255
209 229 255
209 228 255
208 228 255
208 228 255
208 228 255
208 228 255
208 228 255
208 228 255
208 228 255
208 228 255
208 228 255
208 228 255
208 228 255
208 228 255
208 228 255
208 228 255
208 228 255
208 228 255
208 228 255
208 228 255
208 228 255
208 228 255
208 228 255
208 228 255
208 228 255
208 228 255
208 228 255
207 228 255
207 228 255
207 228 255
207 228 255
207 228 255
207 228 255
207 228 255
207 228 255
207 228 255
207 228 255
207 228 255
207 228 255
207 228 255
207 228 255
207 228 255
207 228 255
159 181 224
94 123 185
62 99 174
61 98 176
62 99 176
61 98 171
62 99 172
62 99 177
62 99 175
62 98 168
61 98 170
63 100 175
62 99 169
62 99 170
62 99 171
63 99 175
62 99 171
61 98 170
62 99 173
63 99 174
62 99 169
61 98 167
63 99 172
62 99 173
62 99 171
62 99 172
63 99 174
62 99 169
62 98 168
63 99 174
62 98 166
62 99 169
62 99 173
62 99 172
62 99 172
61 98 167
62 99 172
62 98 170
61 97 168
63 99 177
62 99 175
62 99 173
61 98 174
62 99 177
62 99 175
62 98 171
88 119 186
164 186 226
207 228 255
207 228 255
207 228 255
207 228 255
207 228 255
207 228 255
207 228 255
207 228 255
207 228 255
207 228 255
207 228 255
207 228 255
207 228 255
207 228 255
207 228 255
207 228 255
208 228 255
208 228 255
208 228 255
208 228 255
208 228 255
208 228 255
208 228 255
208 228 255
208 228 255
208 228 255
208 228 255
208 228 255
208 228 255
208 228 255
208 228 255
208 228 255
208 228 255
208 228 255
208 228 255
208 228 255
208 228 255
208 228 255
208 228 255
208 228 255
208 228 255
209 228 255
209 228 255
209 229 255
209 229 255
209 229 255
209 229 255
209 229 255
209 229 255
209 229 255
209 229 255
209 229 255
209 229 255
209 229 255
209 229 255
207 224 246
193 204 203
190 198 191
188 195 185
188 195 181
185 191 174
187 194 180
183 189 168
182 187 166
184 190 173
181 186 160
181 187 166
182 186 161
179 182 151
184 188 163
177 181 152
181 186 160
181 187 166
181 186 164
180 185 159
182 187 166
178 182 153
180 184 157
180 184 155
182 187 164
182 186 160
179 182 150
179 182 152
178 180 144
180 182 148
180 182 150
183 185 155
180 182 148
181 184 153
182 186 158
179 181 144
181 183 151
180 182 146
180 182 148
180 180 141
178 181 148
178 179 139
181 182 148
180 181 146
183 186 156
181 183 148
181 182 146
183 186 156
181 181 142
182 184 151
184 186 156
183 184 151
180 181 144
183 184 151
183 184 150
183 183 148
183 186 159
184 188 164
181 180 141
180 180 140
181 183 149
181 180 140
180 180 140
180 182 147
180 179 136
182 184 151
186 190 167
182 183 149
182 183 146
183 185 154
181 183 148
182 182 146
182 182 142
182 181 139
184 185 150
182 182 146
187 189 163
182 183 149
182 185 154
184 186 156
182 182 143
186 189 163
182 181 142
184 185 151
183 185 153
185 185 152
181 182 146
185 187 157
183 183 147
183 183 146
183 182 142
186 187 156
181 180 139
189 193 173
188 192 172
183 183 144
180 181 142
185 188 162
187 190 165
186 186 154
186 186 154
187 189 160
184 185 150
187 188 160
188 190 161
186 187 156
190 193 172
188 190 163
188 191 167
187 188 157
183 184 150
187 190 163
186 188 159
185 184 147
190 194 173
189 192 168
191 195 175
188 193 170
189 191 166
187 189 159
191 195 176
180 201 228
180 201 228
180 201 228
178 200 228
179 200 228
179 200 228
179 200 228
178 200 228
179 200 228
178 200 228
176 199 228
177 199 228
176 199 228
176 199 228
175 198 228
176 199 228
175 198 228
176 199 228
176 199 228
175 198 228
175 198 228
175 198 228
174 198 228
173 197 228
173 197 228
173 197 228
172 197 228
173 197 228
172 197 228
173 197 228
172 197 228
172 197 228
172 197 228
172 196 228
171 196 228
171 196 228
172 196 228
170 196 228
170 196 228
170 196 228
170 195 228
170 195 228
169 195 228
169 195 228
170 195 228
169 195 228
169 195 228
169 195 228
169 195 228
167 194 228
168 194 228
168 194 228
168 194 228
168 194 228
167 194 228
167 194 228
167 194 228
167 194 228
166 194 228
166 193 228
166 193 228
166 193 228
166 193 228
165 193 228
166 193 228
165 193 228
165 193 228
165 193 228
165 193 228
164 192 228
164 193 228
164 192 228
164 193 228
164 192 228
164 192 228
164 192 228
164 192 228
163 192 228
163 192 228
163 192 228
163 192 228
163 192 228
163 192 228
163 192 228
163 192 228
163 192 228
163 192 228
163 192 228
163 192 228
163 192 228
163 192 228
163 192 228
163 192 228
163 192 228
163 192 228
163 192 228
163 192 228
163 192 228
163 192 228
163 192 228
163 192 228
164 192 228
164 192 228
164 193 228
165 193 228
165 193 228
165 193 228
166 193 228
166 193 228
166 194 228
167 194 228
168 194 228
168 194 228
168 195 228
170 195 228
171 196 228
172 197 229
175 199 230
180 202 232
181 203 233
187 208 236
200 220 247
209 229 255
209 229 255
209 229 255
209 229 255
209 229 255
209 229 255
209 229 255
209 229 255
209 229 255
209 229 255
209 229 255
209 229 255
209 229 255
209 229 255
209 229 255
209 229 255
209 229 255
209 229 255
209 228 255
208 228 255
208 228 255
208 228 255
208 228 255
208 228 255
208 228 255
208 228 255
208 228 255
208 228 255
208 228 255
208 228 255
208 228 255
208 228 255
208 228 255
208 228 255
208 228 255
208 228 255
208 228 255
208 228 255
208 228 255
208 228 255
208 228 255
208 228 255
208 228 255
208 228 255
208 228 255
208 228 255
207 228 255
207 228 255
207 228 255
207 228 255
207 228 255
207 228 255
179 200 236
94 123 187
62 98 176
62 99 174
62 98 171
61 98 172
63 99 172
62 99 174
63 100 174
62 99 170
62 98 170
62 99 173
62 99 175
62 98 168
61 98 167
62 99 172
61 98 167
62 98 171
62 99 169
62 98 167
62 98 165
62 98 171
62 99 175
62 98 173
62 98 167
62 98 168
63 99 168
62 98 170
62 98 163
62 99 172
63 99 172
62 99 171
62 99 171
61 98 165
62 98 170
63 99 168
63 99 169
62 98 169
61 98 165
62 98 171
62 98 172
61 98 167
63 99 174
62 98 174
63 99 172
63 99 173
61 97 169
62 98 170
61 97 168
61 98 171
96 124 186
177 198 234
207 228 255
207 228 255
207 228 255
207 228 255
207 228 255
208 228 255
208 228 255
208 228 255
208 228 255
208 228 255
208 228 255
208 228 255
208 228 255
208 228 255
208 228 255
208 228 255
208 228 255
208 228 255
208 228 255
208 228 255
208 228 255
208 228 255
208 228 255
208 228 255
208 228 255
208 228 255
208 228 255
208 228 255
208 228 255
208 228 255
208 228 255
208 228 255
208 228 255
209 228 255
209 228 255
209 229 255
209 229 255
209 229 255
209 229 255
209 229 255
209 229 255
209 229 255
209 229 255
209 229 255
209 229 255
209 229 255
209 229 255
209 229 255
209 229 255
209 229 255
209 229 255
209 228 254
202 216 228
190 198 187
190 199 191
185 192 178
188 196 185
188 195 184
186 194 183
183 189 167
189 196 187
184 189 170
181 187 168
177 182 153
180 186 164
186 193 180
184 190 172
184 190 172
183 189 169
177 180 151
180 182 149
184 190 172
181 185 158
177 181 151
183 187 161
182 186 161
182 187 164
180 184 156
172 174 136
182 186 160
177 180 147
180 184 158
182 186 158
179 182 149
177 177 135
180 182 146
179 181 146
178 179 139
182 184 153
182 183 148
181 185 158
184 185 156
178 178 137
183 186 158
180 179 137
178 178 137
184 184 150
182 184 150
182 184 153
182 182 144
180 180 141
181 183 148
182 184 151
181 181 144
180 180 140
179 180 142
181 183 149
179 179 139
178 178 134
182 183 149
186 187 155
180 180 141
181 181 143
181 180 137
182 183 147
183 183 146
183 184 149
181 181 141
182 182 143
181 183 150
184 185 154
181 181 142
183 184 150
181 183 150
181 182 146
182 182 143
182 184 151
183 183 147
185 187 157
182 182 146
185 188 160
186 187 158
185 187 156
181 182 145
183 184 149
183 183 146
187 189 161
184 187 157
186 187 156
184 185 151
183 183 145
188 191 166
182 183 147
183 184 149
185 184 149
183 184 149
183 182 141
182 182 146
181 182 143
186 186 151
184 185 152
186 188 160
186 189 161
188 190 161
184 186 154
185 186 154
191 193 170
186 188 160
182 182 144
188 193 172
186 187 156
186 187 155
187 186 151
185 184 145
189 191 165
186 188 160
184 185 150
185 186 154
190 193 170
188 191 166
184 185 150
187 188 158
191 194 173
190 194 174
180 201 228
180 201 228
180 201 228
179 200 228
178 200 228
179 200 228
178 200 228
178 200 228
178 200 228
177 199 228
177 199 228
177 199 228
176 199 228
177 199 228
176 199 228
176 199 228
177 199 228
175 198 228
175 198 228
174 198 228
175 198 228
175 198 228
174 198 228
174 198 228
175 198 228
174 197 228
173 197 228
174 197 228
173 197 228
173 197 228
173 197 228
172 197 228
172 197 228
171 196 228
172 196 228
172 196 228
171 196 228
171 196 228
170 196 228
171 196 228
171 196 228
170 195 228
170 195 228
170 196 228
169 195 228
169 195 228
168 195 228
169 195 228
169 195 228
168 195 228
168 194 228
168 194 228
168 194 228
168 194 228
167 194 228
167 194 228
167 194 228
167 194 228
167 194 228
166 194 228
166 194 228
166 194 228
166 193 228
166 194 228
166 193 228
166 193 228
166 193 228
165 193 228
166 193 228
165 193 228
165 193 228
165 193 228
165 193 228
164 193 228
164 192 228
164 192 228
164 192 228
164 192 228
164 192 228
164 192 228
164 192 228
163 192 228
163 192 228
163 192 228
163 192 228
163 192 228
163 192 228
163 192 228
163 192 228
163 192 228
163 192 228
163 192 228
163 192 228
163 192 228
163 192 228
163 192 228
163 192 228
163 192 228
163 192 228
163 192 228
164 192 228
164 192 228
164 192 228
164 192 228
164 192 228
165 193 228
165 193 228
165 193 228
166 193 228
166 193 228
166 193 228
167 194 228
167 194 228
168 195 228
169 195 228
169 195 228
170 196 228
172 196 228
174 198 230
175 199 230
181 203 232
183 205 233
195 215 242
207 226 253
209 229 255
209 229 255
209 229 255
209 229 255
209 229 255
209 229 255
209 229 255
209 229 255
209 229 255
209 229 255
209 229 255
209 229 255
209 229 255
209 229 255
209 229 255
209 229 255
209 229 255
209 229 255
209 229 255
209 229 255
209 229 255
209 229 255
209 228 255
208 228 255
208 228 255
208 228 255
208 228 255
208 228 255
208 228 255
208 228 255
208 228 255
208 228 255
208 228 255
208 228 255
208 228 255
208 228 255
208 228 255
208 228 255
208 228 255
208 228 255
208 228 255
208 228 255
208 228 255
208 228 255
208 228 255
208 228 255
208 228 255
208 228 255
191 212 244
123 148 203
62 98 172
63 100 179
62 99 175
62 99 174
62 99 170
63 99 174
62 98 171
63 99 170
62 98 164
63 99 170
62 99 170
62 99 171
62 98 167
63 99 169
61 98 172
62 98 169
62 99 171
62 99 173
62 98 169
62 99 171
62 98 165
62 98 168
62 98 166
62 98 166
63 99 170
62 99 168
62 98 162
62 98 170
62 98 170
63 99 170
63 99 172
62 98 168
62 99 172
61 97 166
62 98 168
62 98 167
62 99 169
62 99 173
63 99 171
62 99 173
62 99 170
62 98 164
62 98 172
62 98 168
62 99 172
62 97 162
62 98 168
63 99 175
61 97 165
62 98 171
62 98 168
62 98 169
110 136 194
191 212 244
208 228 255
208 228 255
208 228 255
208 228 255
208 228 255
208 228 255
208 228 255
208 228 255
208 228 255
208 228 255
208 228 255
208 228 255
208 228 255
208 228 255
208 228 255
208 228 255
208 228 255
208 228 255
208 228 255
208 228 255
208 228 255
208 228 255
208 228 255
208 228 255
208 228 255
209 228 255
209 229 255
209 229 255
209 229 255
209 229 255
209 229 255
209 229 255
209 229 255
209 229 255
209 229 255
209 229 255
209 229 255
209 229 255
209 229 255
209 229 255
209 229 255
209 229 255
209 229 255
209 229 255
209 229 255
209 229 255
209 229 255
209 229 255
207 225 246
196 207 207
185 194 186
186 192 175
183 189 174
186 194 185
184 191 175
184 190 173
184 190 171
181 187 166
184 191 178
182 187 165
180 187 168
182 186 163
179 183 157
183 188 167
178 181 149
180 183 153
177 180 147
179 183 154
178 181 151
178 181 152
178 181 151
178 181 146
179 181 149
180 184 159
180 185 161
181 186 160
178 179 142
178 181 149
181 185 162
177 179 146
179 182 151
181 183 153
182 184 153
180 181 146
178 180 144
180 181 144
181 182 148
178 181 149
178 179 139
179 180 142
178 180 144
178 179 139
183 184 151
183 185 153
183 184 151
180 180 142
182 182 144
180 180 142
180 181 144
183 185 154
182 183 148
182 183 150
183 185 155
179 180 141
184 186 154
182 183 148
181 183 147
184 186 155
179 179 138
183 184 149
181 182 147
182 183 147
182 184 152
183 184 150
178 177 131
181 182 145
180 180 141
180 180 140
181 181 142
183 184 151
182 183 148
184 184 148
179 178 135
180 179 136
185 187 156
183 181 141
184 185 151
179 180 141
183 185 151
188 190 163
182 183 147
184 187 158
182 182 145
183 184 149
180 181 143
184 185 152
185 187 156
184 186 154
185 188 159
188 190 163
183 185 151
185 186 152
185 186 152
185 186 153
189 190 163
184 187 157
183 185 153
185 188 160
184 184 150
186 188 158
185 185 149
184 187 156
184 186 154
188 188 158
186 187 156
187 188 160
185 185 151
187 190 164
184 185 151
184 186 153
186 188 159
187 188 157
187 188 156
189 192 168
188 190 163
187 188 159
188 189 159
188 190 163
188 190 163
193 197 179
189 193 172
187 189 160
181 201 228
180 201 228
179 200 228
180 201 228
179 200 228
178 200 228
178 199 228
179 200 228
178 200 228
177 199 228
178 200 228
177 199 228
178 200 228
176 199 228
176 199 228
177 199 228
176 199 228
176 199 228
175 198 228
176 199 228
175 198 228
175 198 228
175 198 228
174 198 228
173 197 228
174 198 228
175 198 228
173 197 228
173 197 228
173 197 228
172 197 228
173 197 228
171 196 228
172 197 228
173 197 228
172 196 228
171 196 228
171 196 228
172 196 228
171 196 228
171 196 228
170 196 228
171 196 228
169 195 228
169 195 228
170 195 228
169 195 228
169 195 228
169 195 228
169 195 228
169 195 228
168 195 228
168 195 228
168 194 228
168 194 228
167 194 228
167 194 228
167 194 228
167 194 228
167 194 228
167 194 228
166 194 228
165 193 228
166 193 228
166 193 228
166 193 228
165 193 228
166 193 228
166 193 228
165 193 228
165 193 228
165 193 228
165 193 228
165 193 228
165 193 228
164 193 228
164 193 228
164 192 228
164 192 228
164 192 228
164 192 228
164 192 228
164 192 228
163 192 228
163 192 228
163 192 228
163 192 228
163 192 228
163 192 228
163 192 228
163 192 228
163 192 228
163 192 228
163 192 228
163 192 228
163 192 228
163 192 228
163 192 228
163 192 228
163 192 228
164 192 228
164 192 228
164 192 228
164 192 228
164 192 228
164 193 228
165 193 228
165 193 228
165 193 228
165 193 228
166 193 228
166 194 228
167 194 228
168 194 228
167 194 228
168 195 228
169 195 228
171 196 228
172 197 228
172 197 228
175 199 229
179 201 231
181 203 233
189 210 237
201 221 248
210 229 255
210 229 255
210 229 255
210 229 255
210 229 255
209 229 255
209 229 255
209 229 255
209 229 255
209 229 255
209 229 255
209 229 255
209 229 255
209 229 255
209 229 255
209 229 255
209 229 255
209 229 255
209 229 255
209 229 255
209 229 255
209 229 255
209 229 255
209 229 255
209 229 255
209 229 255
209 229 255
209 229 255
209 228 255
209 228 255
208 228 255
208 228 255
208 228 255
208 228 255
208 228 255
208 228 255
208 228 255
208 228 255
208 228 255
208 228 255
208 228 255
208 228 255
208 228 255
208 228 255
208 228 255
206 226 254
156 178 218
81 113 184
62 99 175
62 98 172
62 98 171
62 99 176
61 98 169
62 99 174
62 99 167
62 99 171
62 98 167
62 99 173
62 98 169
61 98 170
61 97 164
62 98 163
62 98 167
62 98 171
62 98 167
62 98 170
63 99 175
62 99 170
62 99 170
61 98 165
62 98 168
62 98 167
62 98 165
61 98 168
61 98 164
63 99 171
62 98 166
62 98 168
62 98 165
63 99 170
63 99 171
63 99 170
62 98 169
62 98 169
63 99 173
61 97 161
62 98 161
62 98 169
62 98 165
62 98 167
62 98 164
61 97 167
62 98 168
62 98 170
62 98 170
62 98 164
62 98 167
62 98 169
62 98 172
61 97 163
61 97 170
61 97 165
68 102 175
162 184 224
205 225 254
208 228 255
208 228 255
208 228 255
208 228 255
208 228 255
208 228 255
208 228 255
208 228 255
208 228 255
208 228 255
208 228 255
208 228 255
208 228 255
208 228 255
208 228 255
209 228 255
209 228 255
209 229 255
209 229 255
209 229 255
209 229 255
209 229 255
209 229 255
209 229 255
209 229 255
209 229 255
209 229 255
209 229 255
209 229 255
209 229 255
209 229 255
209 229 255
209 229 255
209 229 255
209 229 255
209 229 255
209 229 255
209 229 255
209 229 255
209 229 255
210 229 255
210 229 255
210 229 255
210 229 255
210 229 255
202 217 230
190 198 187
187 195 184
186 194 183
188 196 188
183 188 169
181 188 170
186 192 175
185 191 175
179 185 166
184 191 174
181 186 164
182 187 167
177 182 158
182 188 169
177 179 150
180 185 165
179 183 157
181 187 167
175 179 147
180 183 154
179 184 162
178 181 152
179 182 151
181 185 161
182 185 156
178 182 156
178 181 151
174 176 139
178 180 147
180 182 150
180 182 149
182 184 154
176 177 140
179 182 149
179 181 148
180 182 151
177 179 142
177 177 134
183 185 153
181 183 149
179 179 139
179 180 145
180 179 135
180 181 142
180 181 145
179 180 140
181 180 138
179 181 143
181 183 148
182 183 152
183 183 147
181 181 141
183 184 150
182 182 144
181 182 147
180 181 144
183 183 147
181 181 142
183 183 148
181 179 133
181 181 143
180 181 145
178 178 136
178 179 138
184 185 151
179 178 133
182 183 147
184 184 147
180 180 138
180 181 143
182 182 145
184 182 141
182 183 151
184 183 146
185 186 154
184 185 153
183 183 144
184 185 150
184 184 147
182 182 144
179 180 140
183 183 148
182 184 151
182 183 148
187 188 157
182 184 151
183 186 157
186 189 162
184 182 142
182 180 134
184 185 151
185 187 156
183 181 138
181 181 142
181 181 139
181 181 141
185 188 159
184 185 152
186 189 161
185 187 156
187 190 164
182 182 143
186 188 160
184 184 148
184 187 156
187 190 164
184 186 156
190 192 167
185 185 151
184 185 152
189 191 165
183 183 146
187 189 161
190 194 175
187 190 165
187 189 162
185 186 154
187 189 161
189 192 167
185 186 153
186 188 159
187 190 165
188 188 155
190 193 172
180 201 228
180 201 228
180 201 228
179 200 228
179 200 228
180 201 228
179 200 228
178 200 228
178 200 228
178 199 228
177 199 228
177 199 228
177 199 228
177 199 228
176 199 228
176 199 228
176 199 228
176 199 228
176 198 228
176 198 228
176 199 228
176 199 228
175 198 228
174 198 228
174 198 228
174 198 228
174 198 228
174 197 228
174 198 228
173 197 228
174 197 228
173 197 228
172 197 228
173 197 228
172 196 228
172 197 228
172 197 228
171 196 228
172 197 228
171 196 228
171 196 228
171 196 228
171 196 228
170 195 228
170 195 228
169 195 228
170 195 228
169 195 228
170 195 228
170 195 228
169 195 228
168 194 228
169 195 228
168 195 228
168 195 228
168 194 228
168 194 228
168 194 228
168 195 228
167 194 228
167 194 228
166 194 228
167 194 228
166 194 228
166 193 228
167 194 228
167 194 228
166 193 228
166 194 228
166 193 228
165 193 228
165 193 228
165 193 228
165 193 228
165 193 228
165 193 228
165 193 228
164 193 228
164 193 228
164 192 228
164 192 228
164 192 228
164 192 228
164 192 228
163 192 228
164 192 228
164 192 228
163 192 228
164 192 228
163 192 228
163 192 228
163 192 228
163 192 228
163 192 228
163 192 228
163 192 228
163 192 228
163 192 228
163 192 228
163 192 228
164 192 228
163 192 228
164 192 228
164 192 228
164 192 228
165 193 228
164 193 228
165 193 228
165 193 228
165 193 228
166 193 228
166 193 228
167 194 228
167 194 228
168 194 228
168 194 228
169 195 228
169 195 228
171 196 228
172 196 228
172 197 228
174 197 228
177 200 230
182 203 232
184 205 233
197 217 244
209 228 254
210 229 255
210 229 255
210 229 255
210 229 255
210 229 255
210 229 255
210 229 255
210 229 255
210 229 255
209 229 255
209 229 255
209 229 255
209 229 255
209 229 255
209 229 255
209 229 255
209 229 255
209 229 255
209 229 255
209 229 255
209 229 255
209 229 255
209 229 255
209 229 255
209 229 255
209 229 255
209 229 255
209 229 255
209 229 255
209 229 255
209 229 255
209 229 255
209 229 255
209 228 255
209 228 255
208 228 255
208 228 255
208 228 255
208 228 255
208 228 255
208 228 255
208 228 255
197 217 247
106 133 192
61 97 168
62 99 175
62 99 175
61 98 169
62 99 170
62 98 170
62 99 171
63 99 171
62 98 166
62 98 170
62 99 168
62 98 164
62 99 174
62 98 167
63 99 167
62 98 168
63 99 171
62 98 165
62 98 168
61 98 161
61 98 173
63 99 172
62 98 165
63 99 170
62 98 167
62 98 164
61 98 168
63 99 173
62 99 167
62 98 167
61 98 165
61 97 162
62 98 162
62 99 171
62 99 167
61 97 163
63 99 171
62 99 168
62 99 167
61 97 162
62 98 162
62 98 166
62 99 170
62 98 170
62 98 164
62 98 170
61 98 167
62 98 167
61 97 159
62 98 161
62 98 168
61 97 167
62 98 163
62 98 173
61 97 165
62 98 170
62 98 169
62 98 170
104 131 188
195 216 246
208 228 255
208 228 255
208 228 255
208 228 255
208 228 255
208 228 255
209 228 255
209 228 255
209 228 255
209 229 255
209 229 255
209 229 255
209 229 255
209 229 255
209 229 255
209 229 255
209 229 255
209 229 255
209 229 255
209 229 255
209 229 255
209 229 255
209 229 255
209 229 255
209 229 255
209 229 255
209 229 255
209 229 255
209 229 255
209 229 255
209 229 255
209 229 255
209 229 255
210 229 255
210 229 255
210 229 255
210 229 255
210 229 255
210 229 255
210 229 255
210 229 255
210 229 255
210 229 255
202 216 227
193 203 200
189 196 185
184 190 172
187 193 181
180 186 169
183 189 170
183 188 167
183 190 179
181 188 173
179 184 159
175 181 165
179 183 157
179 184 159
180 185 162
175 178 146
174 176 141
180 184 159
177 180 153
180 184 159
180 184 156
175 178 147
176 178 146
181 184 155
177 179 147
181 185 158
179 183 154
180 181 146
177 179 144
177 180 150
179 181 148
176 177 136
181 184 154
176 177 138
176 177 138
177 176 131
179 181 145
179 179 139
178 178 140
180 181 146
179 180 141
183 185 155
180 182 147
178 178 137
179 179 139
181 182 147
182 183 149
180 182 147
177 178 138
182 184 151
187 189 161
180 179 138
182 185 153
181 182 146
178 178 137
181 181 142
178 178 135
180 177 131
180 181 145
181 179 134
183 182 144
182 182 144
178 177 131
183 183 146
183 182 141
183 184 150
183 183 145
181 182 144
179 179 139
182 182 142
184 186 156
183 183 146
183 184 151
183 185 151
182 184 152
181 177 125
181 182 146
180 179 137
183 183 145
180 179 136
183 182 142
185 186 152
181 181 143
185 184 147
179 180 140
182 182 143
186 189 162
185 186 154
183 184 151
185 185 150
184 185 149
184 187 158
184 184 148
187 189 160
182 183 146
184 184 147
186 188 159
184 183 145
182 180 135
185 186 151
188 189 160
187 190 165
187 190 163
185 188 161
180 180 137
183 183 147
185 187 158
186 187 155
182 181 139
184 185 151
186 187 155
187 188 157
189 193 174
187 190 162
182 181 140
186 187 156
185 186 154
187 190 163
187 189 162
185 188 159
189 193 170
189 192 166
185 187 156
188 192 169
186 187 156
188 190 163
180 201 228
180 201 228
179 200 228
179 200 228
180 201 228
179 200 228
178 200 228
178 200 228
178 200 228
178 200 228
178 200 228
179 200 228
177 199 228
177 199 228
178 200 228
177 199 228
177 199 228
176 199 228
176 199 228
176 199 228
175 198 228
175 198 228
175 198 228
175 198 228
174 198 228
175 198 228
174 198 228
174 197 228
175 198 228
174 198 228
174 198 228
173 197 228
174 197 228
173 197 228
173 197 228
172 197 228
172 197 228
172 196 228
171 196 228
172 196 228
172 196 228
172 196 228
171 196 228
170 196 228
171 196 228
170 195 228
171 196 228
170 196 228
170 196 228
170 195 228
170 195 228
169 195 228
169 195 228
169 195 228
169 195 228
169 195 228
169 195 228
168 194 228
168 194 228
168 194 228
168 194 228
167 194 228
167 194 228
167 194 228
167 194 228
167 194 228
167 194 228
166 194 228
167 194 228
165 193 228
166 193 228
166 193 228
166 193 228
166 193 228
165 193 228
165 193 228
165 193 228
165 193 228
165 193 228
165 193 228
165 193 228
165 193 228
164 193 228
164 193 228
164 192 228
164 192 228
164 192 228
164 193 228
164 192 228
163 192 228
164 192 228
164 192 228
164 192 228
164 192 228
163 192 228
163 192 228
164 192 228
164 192 228
164 192 228
164 192 228
163 192 228
164 192 228
164 192 228
164 192 228
164 193 228
164 193 228
165 193 228
164 193 228
165 193 228
165 193 228
166 193 228
166 193 228
166 193 228
167 194 228
167 194 228
168 194 228
168 194 228
169 195 228
169 195 228
170 195 228
171 196 228
173 197 228
173 197 228
177 200 230
178 201 230
186 207 235
192 212 239
208 227 254
210 229 255
210 229 255
210 229 255
210 229 255
210 229 255
210 229 255
210 229 255
210 229 255
210 229 255
210 229 255
210 229 255
210 229 255
210 229 255
210 229 255
209 229 255
209 229 255
209 229 255
209 229 255
209 229 255
209 229 255
209 229 255
209 229 255
209 229 255
209 229 255
209 229 255
209 229 255
209 229 255
209 229 255
209 229 255
209 229 255
209 229 255
209 229 255
209 229 255
209 229 255
209 229 255
209 229 255
209 229 255
209 229 255
209 229 255
209 229 255
188 208 242
73 106 175
60 97 167
62 98 172
62 98 170
62 98 173
63 99 172
61 98 167
62 99 175
62 98 171
61 97 163
62 98 168
62 98 169
62 98 169
62 98 167
62 99 169
62 98 168
62 98 166
62 98 169
62 98 166
62 98 167
62 98 163
63 99 171
62 99 164
62 98 166
62 98 162
61 97 160
61 98 166
63 99 171
62 99 169
62 99 168
62 99 166
62 98 166
62 98 164
63 99 169
62 98 168
62 98 163
62 99 170
63 99 174
62 98 162
62 98 168
63 99 169
62 99 169
62 98 165
63 99 173
62 97 162
61 98 165
62 99 168
62 98 170
62 98 165
62 98 170
61 97 165
62 99 171
62 98 167
62 97 166
62 98 167
62 99 171
62 98 167
61 98 174
62 98 169
62 98 166
61 97 166
68 102 174
186 207 240
209 229 255
209 229 255
209 229 255
209 229 255
209 229 255
209 229 255
209 229 255
209 229 255
209 229 255
209 229 255
209 229 255
209 229 255
209 229 255
209 229 255
209 229 255
209 229 255
209 229 255
209 229 255
209 229 255
209 229 255
209 229 255
209 229 255
209 229 255
209 229 255
209 229 255
209 229 255
210 229 255
210 229 255
210 229 255
210 229 255
210 229 255
210 229 255
210 229 255
210 229 255
210 229 255
210 229 255
210 229 255
210 229 255
210 229 255
210 229 255
210 229 254
197 208 210
186 193 179
190 197 185
189 196 185
181 188 172
185 191 173
185 191 175
182 186 161
184 189 171
183 189 173
177 182 158
181 187 167
184 191 174
175 178 149
181 184 155
179 186 169
181 184 158
178 182 154
172 175 142
178 182 157
179 183 156
176 178 143
178 181 152
179 182 153
178 181 152
183 187 163
178 181 149
182 184 153
176 178 143
177 179 142
180 182 151
178 180 144
177 180 147
179 180 141
178 181 151
178 179 140
176 178 140
176 176 132
183 185 155
176 175 128
182 183 146
178 177 134
179 179 140
178 180 145
181 180 137
176 176 132
182 182 142
177 175 127
181 180 139
182 184 151
180 181 142
176 176 129
178 177 132
179 177 129
182 182 144
181 181 142
181 182 143
180 178 131
182 182 144
184 185 151
181 180 136
183 185 152
179 180 141
183 183 146
180 181 143
183 183 145
181 182 144
183 182 144
183 184 151
182 182 144
180 180 139
181 180 139
181 179 134
184 184 149
181 180 139
182 182 143
183 184 149
182 183 148
180 180 140
181 180 137
183 182 143
184 183 146
182 182 144
185 185 151
182 180 137
181 182 147
185 184 148
181 180 139
182 182 143
185 187 158
184 186 156
178 179 135
185 185 150
186 185 147
187 191 166
183 184 149
184 186 153
185 186 154
185 186 153
181 178 129
186 188 158
185 186 154
182 182 142
187 191 167
186 188 158
180 180 139
186 187 157
183 183 147
183 183 144
188 190 162
187 186 150
186 187 156
185 186 153
184 185 151
188 191 166
187 192 170
186 187 156
189 190 163
186 188 158
187 190 164
186 187 155
188 191 164
188 190 164
189 193 171
189 193 171
185 187 154
185 186 153
181 201 228
179 200 228
180 201 228
180 201 228
180 201 228
179 200 228
179 200 228
179 200 228
178 200 228
178 200 228
178 200 228
178 200 228
178 200 228
177 199 228
178 200 228
176 199 228
176 198 228
176 199 228
178 200 228
177 199 228
176 199 228
175 198 228
176 199 228
175 198 228
176 199 228
175 198 228
175 198 228
174 198 228
173 197 228
174 198 228
174 197 228
173 197 228
174 197 228
173 197 228
173 197 228
173 197 228
172 197 228
174 197 228
172 197 228
172 197 228
173 197 228
171 196 228
171 196 228
171 196 228
171 196 228
171 196 228
171 196 228
170 196 228
170 196 228
169 195 228
170 195 228
170 195 228
170 195 228
170 195 228
169 195 228
169 195 228
168 195 228
168 195 228
168 195 228
168 195 228
169 195 228
168 194 228
169 195 228
168 194 228
167 194 228
168 194 228
167 194 228
167 194 228
167 194 228
166 194 228
166 194 228
167 194 228
166 193 228
166 193 228
166 193 228
166 193 228
165 193 228
165 193 228
165 193 228
165 193 228
165 193 228
165 193 228
164 193 228
164 193 228
165 193 228
164 193 228
164 193 228
164 193 228
164 192 228
164 193 228
164 192 228
164 192 228
164 192 228
164 192 228
164 192 228
164 192 228
164 192 228
164 192 228
164 192 228
164 192 228
164 193 228
164 193 228
164 192 228
164 193 228
165 193 228
165 193 228
165 193 228
165 193 228
165 193 228
165 193 228
165 193 228
166 193 228
166 194 228
167 194 228
167 194 228
167 194 228
169 195 228
168 195 228
169 195 228
171 196 228
170 196 228
171 196 228
172 197 228
173 197 228
175 198 229
180 202 232
185 206 234
190 210 237
207 226 252
210 229 255
210 229 255
210 229 255
210 229 255
210 229 255
210 229 255
210 229 255
210 229 255
210 229 255
210 229 255
210 229 255
210 229 255
210 229 255
210 229 255
210 229 255
210 229 255
210 229 255
210 229 255
210 229 255
210 229 255
209 229 255
209 229 255
209 229 255
209 229 255
209 229 255
209 229 255
209 229 255
209 229 255
209 229 255
209 229 255
209 229 255
209 229 255
209 229 255
209 229 255
209 229 255
209 229 255
209 229 255
209 229 255
151 173 216
65 100 171
61 98 171
62 99 175
62 98 172
61 98 170
61 98 169
62 98 171
62 98 161
62 98 173
62 98 168
62 99 171
63 99 170
62 99 169
63 99 168
63 99 170
62 99 169
62 98 164
62 98 164
61 97 160
62 98 160
62 98 168
62 98 163
61 98 163
62 99 170
62 98 166
62 99 168
62 98 165
62 98 164
62 99 167
62 98 164
63 99 167
63 99 169
61 98 164
63 99 167
63 99 167
61 97 155
62 97 156
61 97 161
62 98 162
62 99 173
62 98 163
62 98 166
63 99 166
61 97 163
62 98 167
62 98 169
61 97 161
61 97 162
61 97 164
62 98 168
62 98 168
61 98 166
62 98 169
62 97 159
63 100 176
62 98 164
61 97 165
61 96 162
62 98 165
62 98 166
61 97 168
62 98 171
62 98 173
65 99 166
144 167 211
209 229 255
209 229 255
209 229 255
209 229 255
209 229 255
209 229 255
209 229 255
209 229 255
209 229 255
209 229 255
209 229 255
209 229 255
209 229 255
209 229 255
209 229 255
209 229 255
209 229 255
209 229 255
210 229 255
210 229 255
210 229 255
210 229 255
210 229 255
210 229 255
210 229 255
210 229 255
210 229 255
210 229 255
210 229 255
210 229 255
210 229 255
210 229 255
210 229 255
210 229 255
210 229 255
210 229 255
210 229 255
210 229 255
205 221 237
193 203 203
190 197 183
185 193 184
187 195 184
187 194 179
184 190 173
175 180 157
179 183 155
178 183 159
180 184 158
180 187 172
181 186 165
182 187 166
177 180 152
179 181 147
177 182 160
176 181 155
173 177 148
178 181 152
178 181 150
179 180 145
178 183 157
175 180 154
173 173 133
180 183 154
174 175 134
180 183 153
175 176 138
175 175 134
176 179 147
180 182 149
179 180 144
179 179 140
176 177 141
178 178 140
180 182 147
182 184 153
176 175 130
178 177 131
179 179 137
183 186 156
181 183 151
178 178 138
181 180 140
178 178 139
183 184 151
183 183 148
181 183 148
183 183 147
177 177 134
179 179 138
181 181 145
182 181 142
178 177 131
178 177 133
178 178 136
182 181 141
179 177 130
180 178 134
180 178 134
179 179 137
179 178 134
182 181 139
185 186 154
181 182 145
180 180 140
182 182 145
180 179 135
180 180 138
180 179 136
179 178 135
179 179 136
182 181 142
186 187 158
179 177 130
180 178 132
184 186 154
184 186 154
181 183 150
180 177 129
181 180 140
184 183 145
182 183 148
184 183 142
179 177 130
183 183 145
186 187 155
182 181 140
183 182 144
183 183 146
181 181 142
181 180 138
185 186 154
183 183 147
183 184 147
184 184 147
187 190 163
185 185 149
186 187 155
184 182 142
183 184 149
181 182 146
183 184 148
183 183 147
181 183 148
188 191 165
183 184 148
185 188 159
185 185 151
189 190 161
183 183 146
186 186 152
186 189 161
180 180 138
184 185 152
187 188 156
186 187 156
183 185 153
190 193 169
184 183 142
186 186 153
188 192 168
186 189 163
187 191 168
186 188 158
188 189 160
188 189 160
191 194 170
181 201 228
180 201 228
181 201 228
180 201 228
179 200 228
179 200 228
179 200 228
179 200 228
179 200 228
178 200 228
178 200 228
177 199 228
178 200 228
177 199 228
178 200 228
177 199 228
177 199 228
178 200 228
177 199 228
177 199 228
176 199 228
177 199 228
175 198 228
176 198 228
176 198 228
175 198 228
175 198 228
175 198 228
175 198 228
175 198 228
175 198 228
174 198 228
174 197 228
174 198 228
174 198 228
174 197 228
173 197 228
173 197 228
172 197 228
173 197 228
172 197 228
172 196 228
172 197 228
172 196 228
171 196 228
171 196 228
171 196 228
172 196 228
170 196 228
170 196 228
171 196 228
170 195 228
170 196 228
170 195 228
170 196 228
169 195 228
170 195 228
170 196 228
169 195 228
168 195 228
169 195 228
169 195 228
168 195 228
168 194 228
168 194 228
168 194 228
168 194 228
167 194 228
167 194 228
167 194 228
167 194 228
167 194 228
166 194 228
167 194 228
166 193 228
166 193 228
165 193 228
165 193 228
166 193 228
165 193 228
165 193 228
166 193 228
165 193 228
166 193 228
165 193 228
166 193 228
165 193 228
165 193 228
165 193 228
165 193 228
165 193 228
164 193 228
165 193 228
164 193 228
164 193 228
164 192 228
164 193 228
164 193 228
164 192 228
164 193 228
164 193 228
164 193 228
164 193 228
165 193 228
165 193 228
165 193 228
165 193 228
165 193 228
165 193 228
166 193 228
165 193 228
166 193 228
166 194 228
167 194 228
166 194 228
167 194 228
167 194 228
168 195 228
169 195 228
169 195 228
170 196 228
171 196 228
171 196 228
173 197 228
174 197 228
176 199 229
178 200 230
184 205 233
188 208 236
206 225 251
210 230 255
210 230 255
210 230 255
210 229 255
210 229 255
210 229 255
210 229 255
210 229 255
210 229 255
210 229 255
210 229 255
210 229 255
210 229 255
210 229 255
210 229 255
210 229 255
210 229 255
210 229 255
210 229 255
210 229 255
210 229 255
210 229 255
210 229 255
210 229 255
210 229 255
210 229 255
210 229 255
209 229 255
209 229 255
209 229 255
209 229 255
209 229 255
209 229 255
209 229 255
209 229 255
202 222 251
121 145 199
61 98 172
62 98 172
62 98 172
62 98 168
62 98 168
61 98 165
61 97 161
61 97 163
62 98 171
63 99 169
63 99 170
64 100 174
61 98 165
62 98 168
62 98 166
61 97 164
62 98 167
62 98 169
61 97 165
62 98 168
63 99 172
62 98 163
62 98 165
62 98 161
62 98 164
62 99 168
62 98 160
62 98 166
62 98 164
61 97 160
61 97 155
61 98 167
62 99 164
62 97 153
61 97 156
62 98 164
62 98 164
62 98 158
62 98 167
62 99 169
62 98 163
62 98 163
62 98 166
61 97 160
62 98 166
63 99 168
62 99 170
62 98 171
62 98 166
62 98 161
61 97 165
62 98 164
63 99 169
62 98 167
61 97 162
63 99 170
61 97 168
61 97 162
61 96 161
62 99 170
61 97 164
62 97 165
62 98 168
62 97 163
62 98 167
61 97 164
139 161 205
208 228 255
209 229 255
209 229 255
209 229 255
209 229 255
209 229 255
209 229 255
209 229 255
209 229 255
210 229 255
210 229 255
210 229 255
210 229 255
210 229 255
210 229 255
210 229 255
210 229 255
210 229 255
210 229 255
210 229 255
210 229 255
210 229 255
210 229 255
210 229 255
210 229 255
210 229 255
210 229 255
210 229 255
210 229 255
210 229 255
210 229 255
210 229 255
210 229 255
210 230 255
210 230 255
210 230 255
202 216 227
189 196 183
187 193 177
191 198 188
185 192 180
185 192 179
184 190 173
181 185 159
175 180 156
178 183 159
181 187 166
180 185 160
181 186 161
176 179 151
180 185 163
180 184 163
177 179 150
178 181 153
176 180 154
173 176 147
177 180 149
175 179 147
178 182 152
174 177 147
173 174 135
178 180 149
177 179 145
180 182 151
178 180 147
181 182 148
178 179 143
175 176 139
176 177 141
176 176 136
176 175 132
175 176 139
182 183 148
180 181 142
177 178 140
180 181 145
179 180 145
178 178 139
180 181 146
179 177 133
180 182 147
179 179 140
178 176 129
179 178 137
180 179 134
182 182 142
174 173 124
180 180 139
180 178 134
181 180 138
181 180 136
180 180 138
181 180 138
176 176 131
180 179 136
181 180 138
181 181 142
178 178 136
184 185 153
178 176 127
182 180 138
178 177 130
179 180 140
181 179 133
183 184 148
180 179 134
181 180 136
180 180 137
182 182 145
180 179 134
183 183 146
180 179 135
180 179 137
182 180 134
180 180 139
184 184 149
182 183 147
182 182 143
183 181 140
182 181 141
185 185 148
182 182 144
183 180 136
181 182 144
184 185 152
180 179 134
182 182 142
184 185 151
183 182 142
180 180 136
181 181 141
181 179 135
184 181 139
181 180 138
184 184 147
184 183 146
183 185 153
183 183 146
183 182 140
185 186 154
185 186 151
180 178 131
183 185 150
187 189 160
184 185 149
183 182 141
186 187 155
185 186 153
185 186 154
179 178 132
187 188 160
187 188 158
185 187 155
187 188 158
183 182 143
191 194 171
186 188 158
187 189 160
187 190 163
184 186 153
186 188 159
183 185 150
188 190 161
184 185 150
188 189 159
187 191 166
181 201 228
181 201 228
180 201 228
180 201 228
180 201 228
179 200 228
180 201 228
179 200 228
179 200 228
179 200 228
179 200 228
178 200 228
179 200 228
178 200 228
178 200 228
178 200 228
177 199 228
177 199 228
176 199 228
176 199 228
176 199 228
176 199 228
177 199 228
175 198 228
175 198 228
176 199 228
176 199 228
176 199 228
175 198 228
174 198 228
175 198 228
175 198 228
174 198 228
174 198 228
174 197 228
175 198 228
174 198 228
174 197 228
173 197 228
172 197 228
173 197 228
173 197 228
173 197 228
172 197 228
171 196 228
172 196 228
171 196 228
172 196 228
171 196 228
171 196 228
171 196 228
171 196 228
171 196 228
170 196 228
170 195 228
169 195 228
170 195 228
169 195 228
169 195 228
170 195 228
169 195 228
169 195 228
169 195 228
169 195 228
168 194 228
168 195 228
167 194 228
167 194 228
168 194 228
168 194 228
167 194 228
167 194 228
167 194 228
167 194 228
166 194 228
166 194 228
166 194 228
166 194 228
166 193 228
166 193 228
166 193 228
166 193 228
166 193 228
165 193 228
166 193 228
166 193 228
165 193 228
165 193 228
166 193 228
165 193 228
165 193 228
165 193 228
165 193 228
165 193 228
165 193 228
165 193 228
165 193 228
164 193 228
165 193 228
165 193 228
165 193 228
164 193 228
164 193 228
165 193 228
165 193 228
165 193 228
165 193 228
166 193 228
166 193 228
165 193 228
166 194 228
166 194 228
167 194 228
167 194 228
166 193 228
167 194 228
168 194 228
168 194 228
168 195 228
168 195 228
170 195 228
170 195 228
171 196 228
172 196 228
172 197 228
174 197 228
175 198 228
178 200 230
181 203 231
189 209 237
202 221 247
211 230 255
211 230 255
211 230 255
211 230 255
211 230 255
211 230 255
210 230 255
210 230 255
210 229 255
210 229 255
210 229 255
210 229 255
210 229 255
210 229 255
210 229 255
210 229 255
210 229 255
210 229 255
210 229 255
210 229 255
210 229 255
210 229 255
210 229 255
210 229 255
210 229 255
210 229 255
210 229 255
210 229 255
210 229 255
210 229 255
210 229 255
210 229 255
210 229 255
202 221 250
112 138 191
62 98 172
61 98 173
61 97 168
62 98 170
62 98 171
61 97 163
61 97 164
61 97 163
61 97 164
62 98 164
62 98 168
62 98 165
62 99 171
61 98 165
62 99 173
61 98 164
62 99 170
62 98 164
61 97 160
62 98 161
61 98 161
63 99 165
62 98 161
62 98 167
62 99 168
62 99 163
63 99 169
61 98 164
62 98 166
62 99 167
62 98 164
61 98 160
62 98 159
61 97 158
62 98 163
62 98 161
61 98 160
62 98 165
62 99 167
62 98 168
61 97 156
62 98 167
62 98 165
62 99 170
62 98 165
62 98 164
62 98 166
61 97 156
61 98 164
63 99 166
62 98 170
61 97 159
62 98 166
63 98 171
62 98 169
62 98 163
62 98 165
63 99 168
61 96 163
62 98 169
61 96 156
62 97 161
61 97 161
62 97 163
61 97 165
61 97 165
62 97 165
62 98 167
107 133 186
200 219 248
210 229 255
210 229 255
210 229 255
210 229 255
210 229 255
210 229 255
210 229 255
210 229 255
210 229 255
210 229 255
210 229 255
210 229 255
210 229 255
210 229 255
210 229 255
210 229 255
210 229 255
210 229 255
210 229 255
210 229 255
210 229 255
210 229 255
210 229 255
210 229 255
210 230 255
210 230 255
210 230 255
211 230 255
211 230 255
211 230 255
211 230 255
211 230 255
211 230 255
200 212 218
190 198 187
182 189 176
189 197 185
184 192 181
185 193 184
183 190 174
177 185 170
180 187 174
182 188 167
176 182 164
177 183 161
174 180 163
182 188 171
180 184 159
171 175 148
177 181 153
176 182 161
174 176 141
175 179 154
180 184 162
174 178 149
178 179 148
173 176 146
177 179 146
178 181 149
175 177 140
177 178 142
177 180 150
176 178 145
177 179 148
179 181 149
172 172 133
179 181 147
175 176 139
176 176 138
181 182 149
178 179 142
179 182 150
178 178 136
179 181 147
180 180 142
183 185 155
179 180 142
176 176 134
181 181 144
181 183 149
179 178 133
179 178 137
181 182 146
178 176 129
178 176 131
181 181 144
180 177 129
179 179 140
180 179 137
179 176 125
178 177 130
180 179 135
181 181 141
180 180 139
182 180 138
178 176 126
182 182 144
181 179 134
184 182 139
179 177 131
182 180 135
182 180 135
181 179 132
180 177 125
181 180 135
180 179 134
183 181 138
180 178 132
183 182 142
178 178 135
181 180 136
180 180 139
187 189 160
181 180 138
181 181 142
181 179 136
183 181 137
182 180 136
182 180 137
183 183 145
183 183 147
182 181 139
182 181 138
180 178 134
183 183 144
182 181 140
184 183 145
185 185 149
184 185 151
182 181 140
182 181 138
183 181 137
186 186 152
185 185 149
185 185 151
181 179 135
180 179 135
183 183 144
181 181 142
180 180 138
185 185 151
184 185 151
185 186 153
188 189 158
184 184 147
186 188 158
189 192 168
186 186 150
179 176 126
184 184 147
186 186 154
185 182 137
188 191 165
186 187 156
185 186 151
186 185 148
188 190 161
187 188 157
186 188 157
189 190 162
189 190 160
193 197 178
192 195 175
188 190 163
181 202 228
181 201 228
182 202 228
181 201 228
180 201 228
180 201 228
180 201 228
180 201 228
180 201 228
179 200 228
179 200 228
179 200 228
179 200 228
178 200 228
178 200 228
178 200 228
177 199 228
178 200 228
177 199 228
178 200 228
178 200 228
177 199 228
177 199 228
176 199 228
176 199 228
176 199 228
176 199 228
176 198 228
177 199 228
175 198 228
176 199 228
175 198 228
174 198 228
174 198 228
174 198 228
174 198 228
174 198 228
174 197 228
174 198 228
173 197 228
173 197 228
173 197 228
172 197 228
172 196 228
172 197 228
172 196 228
171 196 228
172 196 228
171 196 228
172 196 228
171 196 228
172 196 228
170 196 228
171 196 228
170 196 228
171 196 228
170 195 228
171 196 228
170 195 228
170 195 228
169 195 228
170 195 228
170 196 228
169 195 228
169 195 228
168 195 228
168 195 228
168 195 228
168 195 228
168 195 228
168 195 228
168 194 228
168 194 228
167 194 228
167 194 228
167 194 228
166 194 228
167 194 228
166 194 228
167 194 228
167 194 228
166 194 228
166 194 228
166 194 228
166 193 228
166 194 228
166 193 228
166 193 228
166 193 228
166 193 228
165 193 228
166 193 228
166 193 228
166 193 228
165 193 228
165 193 228
165 193 228
165 193 228
166 193 228
165 193 228
166 193 228
166 193 228
165 193 228
165 193 228
166 193 228
166 193 228
166 193 228
166 193 228
166 193 228
166 193 228
166 193 228
166 194 228
167 194 228
167 194 228
167 194 228
167 194 228
168 194 228
168 194 228
168 195 228
168 194 228
169 195 228
170 195 228
171 196 228
170 196 228
172 197 228
173 197 228
174 198 228
176 199 228
176 199 229
180 202 231
188 208 236
201 221 247
211 230 255
211 230 255
211 230 255
211 230 255
211 230 255
211 230 255
211 230 255
211 230 255
211 230 255
211 230 255
211 230 255
211 230 255
210 230 255
210 230 255
210 230 255
210 229 255
210 229 255
210 229 255
210 229 255
210 229 255
210 229 255
210 229 255
210 229 255
210 229 255
210 229 255
210 229 255
210 229 255
210 229 255
210 229 255
210 229 255
210 229 255
201 221 249
112 137 192
61 97 167
60 96 167
61 98 169
61 97 163
60 96 155
62 98 173
62 98 166
62 97 164
61 97 164
61 97 165
62 98 166
62 98 164
62 98 169
62 98 168
62 98 162
61 97 163
62 98 167
63 99 165
62 98 163
62 98 162
62 98 162
62 98 163
63 99 169
62 98 159
61 98 161
62 98 162
61 97 157
62 99 170
63 99 165
61 97 161
62 98 161
63 99 166
62 97 153
62 98 163
61 97 155
61 97 158
62 99 166
63 99 162
62 98 164
63 99 171
62 97 162
61 97 159
62 99 164
62 98 165
62 98 164
62 97 160
61 98 159
62 99 167
62 99 167
62 98 168
61 97 162
62 98 164
61 97 163
61 96 159
62 98 163
62 98 168
62 97 159
62 98 163
62 98 167
61 97 163
61 96 157
62 98 165
62 97 163
62 98 166
62 98 166
61 96 157
60 95 159
61 96 160
61 96 160
62 98 170
101 128 186
203 223 251
210 229 255
210 229 255
210 229 255
210 229 255
210 229 255
210 229 255
210 229 255
210 229 255
210 229 255
210 229 255
210 229 255
210 229 255
210 229 255
210 229 255
210 229 255
210 229 255
210 230 255
210 230 255
210 230 255
211 230 255
211 230 255
211 230 255
211 230 255
211 230 255
211 230 255
211 230 255
211 230 255
211 230 255
211 230 255
211 230 255
211 230 255
202 217 229
191 200 196
185 190 173
185 190 173
182 187 169
177 183 167
180 184 159
178 185 171
181 186 165
175 180 157
178 183 162
177 183 165
173 177 150
178 183 161
177 179 145
176 180 157
176 180 156
179 184 164
179 181 149
169 171 135
175 176 141
174 177 149
174 177 147
176 180 153
173 174 132
176 177 139
177 179 145
176 179 149
176 178 146
176 177 141
179 180 146
178 179 143
177 178 138
178 179 143
177 178 142
174 175 137
178 179 143
176 176 135
178 177 138
176 177 141
178 177 134
176 177 137
178 179 141
180 179 138
178 178 135
179 178 135
178 178 138
178 177 134
180 181 141
181 181 141
182 181 140
185 185 152
179 176 126
181 180 138
177 175 127
178 175 124
182 181 142
183 183 144
180 180 140
181 181 141
177 176 131
179 179 138
180 177 127
177 174 121
179 177 131
181 180 136
179 177 127
181 180 136
182 182 142
180 179 135
184 183 144
183 183 145
182 179 134
180 179 137
181 179 134
180 178 130
181 180 136
182 180 138
179 177 130
182 181 141
180 180 139
182 181 142
181 180 136
180 178 131
185 184 148
182 181 141
182 183 145
182 182 142
182 179 134
184 183 144
182 182 142
180 177 127
180 177 127
178 176 126
182 181 139
181 180 136
181 180 138
182 183 147
181 181 143
184 183 145
180 179 135
183 181 138
185 186 152
185 186 154
185 184 145
184 183 142
184 185 151
182 182 144
184 185 151
183 183 145
185 184 145
184 183 141
183 181 137
185 184 146
186 185 148
184 184 147
183 183 145
185 184 143
187 186 150
183 183 142
184 185 149
182 181 136
183 184 148
184 184 146
186 188 158
184 184 147
184 185 151
182 181 140
189 191 167
189 192 167
187 188 158
185 187 157
181 201 228
182 202 228
181 201 228
180 201 228
180 201 228
180 201 228
180 201 228
181 201 228
180 201 228
179 200 228
180 201 228
179 200 228
178 200 228
179 200 228
179 200 228
178 200 228
179 200 228
178 200 228
177 199 228
178 200 228
178 200 228
177 199 228
177 199 228
177 199 228
176 199 228
178 199 228
177 199 228
176 199 228
177 199 228
176 199 228
176 199 228
175 198 228
176 199 228
175 198 228
175 198 228
175 198 228
174 198 228
175 198 228
175 198 228
174 198 228
174 198 228
174 198 228
174 197 228
173 197 228
173 197 228
173 197 228
173 197 228
172 196 228
172 196 228
171 196 228
172 196 228
172 196 228
172 196 228
171 196 228
170 196 228
170 196 228
171 196 228
170 196 228
171 196 228
170 196 228
171 196 228
170 196 228
170 196 228
169 195 228
169 195 228
170 195 228
169 195 228
169 195 228
169 195 228
169 195 228
168 194 228
168 194 228
168 195 228
168 194 228
168 195 228
168 195 228
167 194 228
167 194 228
168 194 228
167 194 228
168 194 228
167 194 228
167 194 228
166 194 228
167 194 228
166 194 228
166 194 228
166 194 228
167 194 228
166 194 228
167 194 228
166 194 228
166 193 228
166 193 228
166 193 228
166 193 228
166 193 228
166 193 228
166 194 228
166 193 228
166 193 228
166 193 228
166 193 228
165 193 228
165 193 228
166 193 228
166 193 228
166 194 228
166 194 228
166 194 228
166 194 228
166 193 228
167 194 228
167 194 228
167 194 228
167 194 228
167 194 228
167 194 228
168 195 228
168 195 228
169 195 228
169 195 228
170 196 228
171 196 228
172 197 228
173 197 228
173 197 228
175 198 228
177 199 229
179 201 230
184 205 233
188 209 236
198 218 244
211 230 255
211 230 255
211 230 255
211 230 255
211 230 255
211 230 255
211 230 255
211 230 255
211 230 255
211 230 255
211 230 255
211 230 255
211 230 255
211 230 255
211 230 255
211 230 255
211 230 255
211 230 255
211 230 255
210 230 255
210 230 255
210 230 255
210 230 255
210 229 255
210 229 255
210 229 255
210 229 255
210 229 255
210 229 255
200 220 248
96 124 180
61 97 170
60 97 169
61 97 166
62 98 165
61 97 164
62 98 168
61 98 165
61 97 164
61 97 163
62 98 173
62 98 165
61 97 161
62 98 163
62 98 165
60 96 159
62 98 167
61 97 162
62 98 166
63 99 171
62 98 166
62 98 164
61 97 163
62 98 167
61 97 161
61 97 164
62 98 165
62 98 162
61 97 159
63 99 164
61 97 153
62 98 165
62 98 161
63 99 170
63 99 164
62 98 162
62 98 162
62 98 159
62 98 162
61 96 148
61 97 156
62 98 165
61 97 163
61 98 164
61 97 158
61 98 166
61 97 158
62 98 165
62 98 160
62 98 161
62 98 163
62 98 160
63 99 167
61 96 154
62 98 165
61 97 161
61 97 160
63 99 165
61 97 158
61 97 156
62 97 161
61 97 161
61 97 160
61 97 159
62 98 162
61 97 163
62 97 168
61 97 167
61 96 164
61 96 159
62 97 162
61 97 166
61 96 161
99 126 184
201 221 250
210 229 255
210 229 255
210 229 255
210 229 255
210 229 255
210 229 255
210 229 255
210 230 255
210 230 255
211 230 255
211 230 255
211 230 255
211 230 255
211 230 255
211 230 255
211 230 255
211 230 255
211 230 255
211 230 255
211 230 255
211 230 255
211 230 255
211 230 255
211 230 255
211 230 255
211 230 255
211 230 255
211 230 255
210 229 254
199 210 215
189 196 187
185 192 182
188 195 184
179 187 175
180 185 163
182 185 159
182 189 174
182 191 184
177 181 156
181 187 170
174 178 154
177 181 158
171 176 154
175 178 152
177 180 151
183 189 170
173 176 147
170 173 144
173 177 152
175 180 156
168 170 133
172 175 144
173 176 145
174 175 139
173 176 145
172 173 135
177 178 143
173 174 139
176 176 134
174 174 130
178 179 142
178 178 137
179 180 144
175 175 133
178 179 142
175 174 131
175 175 131
178 178 137
176 176 136
173 174 137
174 172 124
178 178 139
176 176 137
180 179 137
181 183 152
179 181 145
180 180 143
179 178 135
176 176 134
176 174 125
178 178 135
179 177 129
181 182 146
178 177 132
179 177 132
182 181 141
181 180 138
178 176 128
183 183 146
179 176 124
180 178 131
179 177 128
180 177 129
182 181 141
182 182 143
182 179 131
181 177 128
181 179 134
183 180 133
181 179 134
181 179 134
180 178 132
181 179 134
182 180 136
180 177 129
180 178 130
185 186 154
181 179 132
183 181 138
185 185 147
182 180 138
184 182 142
185 184 146
179 176 125
183 183 144
179 177 131
180 178 134
185 184 147
181 181 140
181 181 143
181 180 136
183 182 140
181 181 142
182 181 141
182 180 136
182 180 137
181 180 137
180 179 136
182 182 142
184 185 151
184 184 147
180 180 138
180 177 126
185 184 147
180 180 138
182 182 142
184 185 152
185 184 147
183 183 144
185 184 147
186 187 156
189 191 165
182 183 147
183 182 142
188 188 154
187 187 156
184 183 144
187 190 162
181 180 135
184 184 145
185 185 149
184 183 144
184 183 143
185 185 150
184 185 151
184 184 148
189 192 168
184 184 145
188 189 161
188 189 159
184 184 144
185 183 142
182 202 228
181 202 228
181 201 228
181 201 228
181 202 228
180 201 228
180 201 228
180 201 228
179 201 228
180 201 228
180 201 228
179 200 228
180 201 228
179 200 228
179 200 228
179 200 228
179 200 228
179 200 228
179 200 228
178 200 228
179 200 228
177 199 228
177 199 228
177 199 228
176 199 228
177 199 228
176 199 228
177 199 228
176 199 228
177 199 228
176 199 228
175 198 228
176 198 228
176 199 228
175 198 228
175 198 228
174 198 228
174 197 228
174 198 228
173 197 228
174 198 228
175 198 228
174 197 228
174 198 228
173 197 228
174 197 228
173 197 228
173 197 228
173 197 228
173 197 228
172 197 228
172 196 228
172 197 228
172 197 228
172 196 228
171 196 228
172 196 228
172 197 228
171 196 228
171 196 228
171 196 228
169 195 228
170 195 228
170 195 228
170 195 228
170 196 228
170 195 228
169 195 228
170 196 228
169 195 228
169 195 228
169 195 228
169 195 228
169 195 228
169 195 228
169 195 228
168 195 228
168 194 228
168 194 228
168 195 228
167 194 228
167 194 228
168 194 228
168 194 228
167 194 228
167 194 228
167 194 228
166 194 228
166 194 228
167 194 228
167 194 228
167 194 228
167 194 228
167 194 228
166 194 228
166 193 228
166 193 228
166 194 228
166 194 228
166 194 228
166 194 228
166 193 228
166 194 228
167 194 228
166 194 228
166 194 228
166 194 228
166 193 228
167 194 228
166 193 228
167 194 228
167 194 228
167 194 228
167 194 228
168 194 228
167 194 228
167 194 228
168 195 228
169 195 228
169 195 228
169 195 228
171 196 228
171 196 228
170 196 228
172 196 228
171 196 228
172 197 228
174 198 228
175 198 228
176 198 228
179 200 229
181 202 230
187 207 234
200 219 245
211 230 255
211 230 255
211 230 255
211 230 255
211 230 255
211 230 255
211 230 255
211 230 255
211 230 255
211 230 255
211 230 255
211 230 255
211 230 255
211 230 255
211 230 255
211 230 255
211 230 255
211 230 255
211 230 255
211 230 255
211 230 255
211 230 255
211 230 255
211 230 255
211 230 255
211 230 255
211 230 255
210 229 255
97 124 184
61 97 170
61 98 171
61 97 163
60 96 165
61 97 162
62 98 167
61 97 163
62 98 165
62 99 171
62 98 169
62 98 162
61 97 159
62 97 165
62 98 169
62 98 157
62 98 166
62 98 166
61 97 157
61 97 163
62 98 161
62 98 165
61 97 162
61 97 164
61 97 158
61 97 154
61 97 161
62 98 156
62 97 157
61 97 159
62 98 165
62 98 165
61 97 160
62 98 164
62 98 162
62 98 162
62 98 162
62 98 162
61 97 163
62 98 160
61 97 161
63 99 167
62 99 167
62 98 162
61 97 156
62 98 160
63 99 166
62 98 163
62 99 162
61 97 161
62 98 167
62 98 161
62 98 163
61 97 156
61 97 156
62 97 158
62 98 165
62 98 160
61 97 162
62 98 159
61 97 163
62 98 170
61 97 159
62 98 164
62 97 162
62 98 165
61 97 162
62 97 156
62 98 164
62 97 162
62 97 161
62 98 164
61 96 162
61 95 155
60 95 160
114 139 190
203 222 250
211 230 255
211 230 255
211 230 255
211 230 255
211 230 255
211 230 255
211 230 255
211 230 255
211 230 255
211 230 255
211 230 255
211 230 255
211 230 255
211 230 255
211 230 255
211 230 255
211 230 255
211 230 255
211 230 255
211 230 255
211 230 255
211 230 255
211 230 255
211 230 255
211 230 255
211 230 255
211 230 255
200 211 216
187 193 177
188 195 187
187 194 183
175 183 169
183 189 173
183 190 175
172 177 153
172 178 158
179 183 160
179 183 158
172 177 154
173 177 151
173 179 159
180 185 167
176 180 157
178 184 165
168 172 143
178 181 152
179 183 160
177 182 157
175 177 145
174 177 150
166 169 137
173 175 142
176 179 148
172 174 141
176 176 140
171 173 138
175 176 141
176 178 147
175 176 138
179 179 142
171 171 129
176 178 140
178 178 141
176 174 125
177 178 140
170 170 124
178 179 143
172 170 119
177 175 128
176 176 134
177 176 133
176 174 124
179 178 136
180 181 146
177 176 134
177 176 128
176 176 135
178 177 132
180 177 128
178 177 131
180 176 125
178 176 127
177 176 130
183 182 141
181 178 131
181 181 142
176 173 117
182 181 141
180 178 134
177 174 120
180 178 133
180 178 131
181 179 137
182 179 131
181 179 135
182 182 142
183 183 146
178 177 129
183 181 139
179 176 124
178 177 130
182 181 141
181 179 133
180 177 129
183 182 143
182 180 137
180 178 133
182 180 138
185 183 143
181 179 132
185 184 147
179 178 132
179 177 127
185 184 145
184 184 146
182 181 139
180 177 129
179 177 127
185 185 149
182 180 137
181 180 136
180 179 132
185 183 142
184 185 151
184 182 140
184 181 138
180 178 131
183 183 146
180 180 136
181 182 142
179 177 131
184 185 150
179 179 134
182 179 133
184 182 138
185 184 147
185 184 146
185 184 147
181 179 130
183 182 142
186 185 147
183 182 141
187 189 159
186 187 156
185 185 148
186 187 154
185 186 154
185 185 147
184 183 142
186 185 148
187 190 163
184 184 145
181 179 131
186 187 154
189 192 165
185 185 151
185 187 154
190 193 168
190 192 169
188 190 161
186 188 159
181 201 228
181 202 228
182 202 228
182 202 228
181 201 228
181 202 228
181 201 228
181 201 228
181 201 228
181 201 228
179 200 228
179 201 228
179 200 228
179 200 228
180 201 228
179 200 228
179 200 228
179 200 228
179 200 228
178 200 228
178 200 228
178 200 228
178 199 228
178 200 228
177 199 228
178 200 228
178 200 228
177 199 228
176 199 228
176 199 228
176 199 228
177 199 228
176 199 228
176 199 228
175 198 228
175 198 228
175 198 228
176 199 228
175 198 228
175 198 228
175 198 228
174 198 228
174 198 228
174 198 228
174 198 228
174 197 228
174 197 228
173 197 228
173 197 228
173 197 228
173 197 228
172 197 228
173 197 228
172 197 228
172 197 228
172 196 228
172 197 228
172 196 228
172 197 228
172 197 228
171 196 228
171 196 228
171 196 228
171 196 228
171 196 228
171 196 228
170 195 228
170 195 228
170 195 228
170 195 228
169 195 228
170 196 228
170 196 228
169 195 228
168 195 228
168 195 228
169 195 228
169 195 228
169 195 228
169 195 228
169 195 228
169 195 228
168 194 228
168 195 228
168 194 228
168 194 228
168 194 228
168 194 228
168 194 228
168 194 228
167 194 228
167 194 228
167 194 228
167 194 228
167 194 228
167 194 228
167 194 228
167 194 228
167 194 228
167 194 228
166 194 228
167 194 228
167 194 228
167 194 228
167 194 228
167 194 228
167 194 228
166 194 228
167 194 228
167 194 228
167 194 228
167 194 228
168 194 228
167 194 228
168 194 228
168 194 228
168 195 228
169 195 228
168 195 228
169 195 228
169 195 228
170 195 228
171 196 228
169 195 228
171 196 228
172 196 228
172 197 228
173 197 228
175 198 228
175 198 228
177 199 228
179 201 230
183 204 231
185 205 232
201 220 246
212 230 255
212 230 255
212 230 255
212 230 255
211 230 255
211 230 255
211 230 255
211 230 255
211 230 255
211 230 255
211 230 255
211 230 255
211 230 255
211 230 255
211 230 255
211 230 255
211 230 255
211 230 255
211 230 255
211 230 255
211 230 255
211 230 255
211 230 255
211 230 255
211 230 255
207 226 252
119 143 196
61 97 168
61 98 172
61 97 165
60 96 162
61 97 163
61 96 156
62 98 168
62 98 160
62 98 165
61 97 161
61 97 161
62 98 164
61 97 167
62 98 168
61 97 166
61 97 161
62 98 163
61 97 160
62 98 162
61 97 156
62 98 160
61 97 155
61 97 161
61 96 155
61 97 156
62 98 163
62 98 161
63 99 163
60 96 161
62 98 157
62 98 158
63 99 168
61 97 158
61 97 156
63 99 162
62 98 158
61 97 159
62 97 160
63 99 164
62 98 161
61 97 157
62 98 161
61 97 162
62 98 163
62 98 167
62 99 163
62 98 162
62 98 163
60 96 152
62 98 160
63 99 163
61 97 162
61 96 155
61 97 159
62 98 166
61 97 159
62 98 164
62 97 164
62 98 164
62 98 167
62 97 159
63 99 167
62 98 164
62 97 166
62 97 161
62 98 162
62 98 162
61 97 158
62 97 159
62 97 159
62 97 161
62 97 159
62 97 167
62 98 165
61 96 165
61 95 159
125 148 198
209 228 254
211 230 255
211 230 255
211 230 255
211 230 255
211 230 255
211 230 255
211 230 255
211 230 255
211 230 255
211 230 255
211 230 255
211 230 255
211 230 255
211 230 255
211 230 255
211 230 255
211 230 255
211 230 255
211 230 255
211 230 255
211 230 255
212 230 255
212 230 255
212 230 255
212 230 255
203 218 232
185 193 184
183 190 177
182 187 171
183 189 174
182 189 181
178 183 167
176 183 164
177 184 168
173 180 165
174 178 153
173 179 161
170 174 150
175 179 156
176 179 153
173 177 154
180 184 161
171 177 155
168 171 140
174 177 146
175 178 149
173 174 139
169 171 134
178 180 149
171 173 140
179 180 147
177 179 145
172 177 150
171 170 126
174 175 137
171 171 132
172 173 135
170 170 131
171 171 131
173 174 137
181 181 146
174 173 130
178 177 135
176 177 144
177 177 137
176 176 136
176 175 129
177 177 139
178 177 133
177 176 133
176 176 137
176 176 132
177 175 128
177 177 133
177 177 131
176 175 128
175 173 123
179 177 130
178 177 132
179 178 135
178 176 127
179 176 129
179 178 137
179 177 130
180 179 134
178 176 127
180 179 134
179 177 130
180 178 130
179 178 132
180 178 132
178 176 127
180 179 133
182 179 132
181 179 133
181 179 133
181 180 137
183 182 142
179 176 123
181 180 137
181 177 126
184 184 148
181 179 134
181 180 137
181 178 127
180 180 137
181 181 139
185 184 146
184 181 137
181 177 125
181 178 129
183 183 143
179 177 128
182 179 130
182 182 144
182 181 139
179 176 126
186 185 148
184 183 143
179 177 129
182 181 140
182 181 136
184 182 142
181 177 126
185 186 151
182 179 131
181 180 136
185 182 139
182 182 143
182 181 138
183 182 141
182 181 141
184 183 142
184 184 150
183 181 138
182 180 135
184 185 149
185 186 151
182 181 140
182 181 139
182 182 141
185 185 148
183 182 141
183 183 143
183 183 146
191 192 166
184 185 148
187 186 149
185 185 150
185 186 152
190 192 164
186 187 154
186 186 150
185 188 158
187 188 155
184 182 140
188 189 159
185 186 152
188 188 155
190 193 169
183 202 228
182 202 228
181 201 228
182 202 228
181 202 228
181 201 228
181 202 228
181 201 228
182 202 228
181 201 228
179 200 228
181 201 228
179 200 228
180 201 228
179 200 228
180 201 228
179 201 228
179 200 228
179 200 228
180 201 228
179 200 228
179 200 228
179 200 228
178 200 228
178 200 228
178 200 228
178 200 228
178 200 228
177 199 228
177 199 228
176 199 228
177 199 228
177 199 228
177 199 228
176 199 228
176 199 228
176 199 228
176 199 228
175 198 228
175 198 228
176 199 228
175 198 228
175 198 228
175 198 228
175 198 228
174 198 228
174 198 228
174 198 228
173 197 228
173 197 228
173 197 228
174 198 228
174 197 228
173 197 228
172 197 228
173 197 228
173 197 228
173 197 228
172 197 228
172 196 228
172 196 228
172 197 228
172 197 228
171 196 228
171 196 228
171 196 228
171 196 228
171 196 228
171 196 228
170 196 228
171 196 228
170 196 228
170 196 228
170 196 228
170 195 228
170 195 228
170 195 228
169 195 228
169 195 228
169 195 228
169 195 228
169 195 228
169 195 228
169 195 228
168 195 228
168 195 228
169 195 228
168 195 228
168 195 228
168 195 228
168 194 228
168 194 228
168 194 228
168 194 228
167 194 228
168 195 228
168 194 228
167 194 228
167 194 228
168 194 228
167 194 228
168 194 228
167 194 228
167 194 228
168 194 228
167 194 228
168 194 228
167 194 228
168 194 228
168 194 228
167 194 228
168 194 228
168 194 228
168 195 228
168 195 228
168 195 228
169 195 228
169 195 228
169 195 228
169 195 228
169 195 228
170 195 228
170 196 228
170 196 228
172 196 228
171 196 228
172 197 228
173 197 228
173 197 228
175 198 228
176 199 228
177 199 228
179 200 229
184 204 232
189 209 235
205 224 249
212 230 255
212 230 255
212 230 255
212 230 255
212 230 255
212 230 255
212 230 255
212 230 255
212 230 255
212 230 255
212 230 255
211 230 255
211 230 255
211 230 255
211 230 255
211 230 255
211 230 255
211 230 255
211 230 255
211 230 255
211 230 255
211 230 255
211 230 255
211 230 255
135 158 205
60 96 166
61 97 166
61 97 166
61 96 165
62 98 166
62 98 165
60 96 160
60 95 154
61 97 161
61 97 157
61 98 169
63 99 165
61 97 163
62 98 166
63 98 163
62 98 164
62 98 166
62 98 159
61 97 154
61 96 159
62 98 164
61 97 160
62 98 164
62 98 159
61 97 152
61 97 153
62 97 157
62 98 162
63 98 161
61 97 151
62 98 159
62 97 157
60 96 156
63 99 165
62 99 167
63 99 165
62 98 160
61 97 157
61 97 158
61 97 155
61 96 149
61 97 155
61 97 159
63 99 163
63 99 166
61 97 152
62 98 158
62 97 158
62 98 157
61 97 153
62 97 162
62 98 163
61 97 161
62 98 160
61 97 156
62 98 164
62 98 154
62 97 158
61 96 157
62 98 160
61 97 156
62 97 164
61 97 161
62 97 165
63 99 165
62 97 162
61 96 154
61 97 155
63 98 163
62 97 161
60 95 157
62 98 168
61 97 162
61 96 156
62 97 166
61 95 161
61 96 163
62 96 165
143 164 206
211 230 255
211 230 255
211 230 255
211 230 255
211 230 255
211 230 255
211 230 255
211 230 255
211 230 255
211 230 255
211 230 255
211 230 255
211 230 255
212 230 255
212 230 255
212 230 255
212 230 255
212 230 255
212 230 255
212 230 255
212 230 255
212 230 255
212 230 255
212 230 255
202 216 227
186 193 183
182 188 173
178 184 167
181 188 179
184 192 185
171 176 154
175 180 158
175 181 164
172 176 152
167 171 144
178 184 169
172 176 149
174 179 160
169 172 142
173 174 140
168 172 143
174 178 152
171 175 151
170 173 144
176 180 156
176 177 142
171 174 143
175 179 152
175 177 145
174 176 144
169 172 139
172 174 139
166 166 123
174 176 144
172 173 134
173 172 130
176 176 140
174 174 135
175 176 142
174 174 132
175 175 135
175 175 133
177 176 134
171 170 123
174 174 137
176 174 125
173 172 127
176 175 131
177 174 124
175 174 127
176 174 125
177 172 116
179 178 132
179 179 135
180 178 135
177 173 117
177 172 118
178 177 134
179 176 128
178 175 125
181 180 138
179 176 124
180 176 124
183 183 144
180 178 135
178 176 128
179 177 131
178 175 126
181 179 133
178 175 126
182 180 134
177 176 126
182 180 134
181 179 131
180 176 123
179 179 136
181 179 134
182 181 138
179 177 129
180 178 129
183 182 140
182 181 140
179 178 132
180 178 132
183 182 140
182 180 134
177 174 120
184 182 138
184 184 146
179 175 121
179 176 123
183 182 142
176 173 118
182 183 145
183 179 132
182 181 140
180 176 122
182 180 134
182 180 136
184 183 141
179 177 128
180 179 133
181 180 136
183 180 135
185 182 141
182 179 132
181 181 139
182 178 129
184 183 143
184 184 145
185 185 150
183 180 132
185 185 147
182 180 134
182 181 137
186 186 151
186 187 154
185 186 154
184 184 147
183 181 138
185 185 150
184 184 147
180 177 124
186 187 154
185 186 152
184 183 143
179 177 128
184 184 147
185 183 142
187 186 151
185 184 146
185 184 143
186 186 150
189 191 165
185 183 143
181 181 141
188 189 160
185 186 151
188 188 156
186 186 151
183 202 228
183 202 228
182 202 228
182 202 228
181 201 228
182 202 228
181 201 228
182 202 228
181 202 228
181 201 228
181 201 228
180 201 228
180 201 228
181 201 228
180 201 228
179 200 228
180 201 228
180 201 228
180 201 228
180 201 228
180 201 228
179 200 228
178 200 228
179 200 228
179 200 228
179 200 228
179 200 228
178 200 228
178 200 228
177 199 228
178 199 228
177 199 228
176 199 228
176 199 228
177 199 228
176 199 228
177 199 228
177 199 228
176 199 228
177 199 228
176 199 228
176 199 228
175 198 228
175 198 228
175 198 228
175 198 228
174 198 228
175 198 228
175 198 228
175 198 228
174 198 228
174 198 228
174 198 228
173 197 228
173 197 228
173 197 228
173 197 228
173 197 228
174 197 228
174 197 228
173 197 228
173 197 228
173 197 228
172 197 228
172 197 228
172 196 228
172 196 228
172 196 228
172 196 228
172 196 228
171 196 228
171 196 228
171 196 228
170 196 228
171 196 228
171 196 228
169 195 228
170 195 228
170 195 228
169 195 228
170 196 228
169 195 228
169 195 228
169 195 228
169 195 228
169 195 228
170 195 228
169 195 228
168 195 228
168 195 228
168 195 228
169 195 228
168 195 228
168 195 228
168 194 228
168 195 228
168 195 228
169 195 228
168 194 228
168 194 228
168 195 228
168 195 228
168 194 228
168 194 228
168 194 228
169 195 228
168 194 228
168 194 228
168 195 228
168 194 228
168 195 228
168 195 228
168 194 228
168 195 228
169 195 228
169 195 228
169 195 228
169 195 228
169 195 228
170 195 228
170 196 228
171 196 228
171 196 228
171 196 228
171 196 228
172 196 228
172 197 228
174 197 228
174 198 228
174 198 228
176 199 228
176 199 228
178 200 228
179 201 229
184 204 232
191 211 237
205 223 248
212 230 255
212 230 255
212 230 255
212 230 255
212 230 255
212 230 255
212 230 255
212 230 255
212 230 255
212 230 255
212 230 255
212 230 255
212 230 255
212 230 255
212 230 255
212 230 255
212 230 255
212 230 255
212 230 255
212 230 255
211 230 255
211 230 255
161 182 222
60 95 164
59 95 164
61 96 163
63 99 172
61 97 161
61 98 165
61 96 154
61 96 159
61 96 156
61 96 159
60 96 155
61 97 157
61 96 153
61 97 160
61 97 161
60 96 157
61 97 157
61 97 159
61 97 152
62 98 159
61 96 158
61 96 156
62 97 161
62 98 164
62 98 162
61 97 154
62 98 161
61 96 152
62 97 157
61 97 157
62 98 162
62 99 166
62 98 166
62 98 161
62 98 160
62 98 163
62 98 157
62 98 157
62 98 158
61 97 156
61 97 152
62 98 162
61 97 151
61 97 156
62 98 160
62 98 160
62 98 164
62 97 159
62 98 161
62 98 157
62 97 161
62 97 161
61 96 150
61 96 160
61 96 152
61 97 153
61 97 161
62 98 162
62 97 164
60 96 155
62 98 164
62 97 162
61 97 155
62 98 165
61 97 157
61 96 153
61 96 155
62 97 162
61 97 157
61 96 159
61 97 158
61 96 163
62 97 164
61 95 150
62 97 161
60 94 152
62 97 161
61 96 159
61 96 158
61 95 161
170 190 225
211 230 255
211 230 255
212 230 255
212 230 255
212 230 255
212 230 255
212 230 255
212 230 255
212 230 255
212 230 255
212 230 255
212 230 255
212 230 255
212 230 255
212 230 255
212 230 255
212 230 255
212 230 255
212 230 255
212 230 255
212 230 255
212 230 255
203 217 229
181 188 174
182 189 178
181 188 175
170 176 156
182 189 176
185 193 184
174 179 160
173 180 165
173 177 155
171 177 157
166 172 154
167 172 150
177 182 160
173 177 153
167 169 135
178 182 159
169 173 147
167 172 147
170 172 140
168 170 139
169 172 146
173 175 142
167 170 140
175 177 145
164 166 131
168 168 127
170 171 135
171 173 142
174 177 146
170 171 131
173 173 137
174 175 140
172 172 130
173 175 138
171 171 131
173 173 129
175 175 138
177 177 142
171 170 126
171 170 128
177 177 140
173 172 125
177 176 133
177 177 136
179 176 126
176 175 127
179 175 123
177 175 127
176 174 126
178 178 135
177 175 129
176 173 122
177 175 126
175 173 118
179 176 129
176 174 120
179 176 127
177 174 123
177 174 121
179 176 126
180 178 131
181 181 140
180 179 138
181 179 133
178 177 131
178 175 123
176 173 117
179 177 129
179 177 129
179 175 123
179 178 131
178 175 124
180 177 125
181 179 135
183 180 136
181 179 134
181 176 120
180 177 125
180 177 127
181 180 136
182 178 128
177 174 121
183 181 138
179 177 127
182 182 143
181 179 133
180 176 124
179 177 127
184 179 130
179 175 122
182 177 125
179 176 126
182 179 133
180 179 134
186 188 157
180 180 137
182 180 134
184 184 145
184 183 144
183 181 138
183 181 137
181 179 132
180 178 129
184 181 137
185 183 140
184 182 140
182 180 135
181 181 138
186 188 158
182 181 136
181 181 138
183 181 138
183 182 140
184 182 141
184 184 144
181 180 137
183 182 144
182 179 129
184 183 144
184 183 144
184 183 146
182 181 140
188 188 156
184 183 141
185 186 151
188 190 162
183 182 138
185 184 146
185 183 140
186 188 158
183 181 137
184 182 138
186 186 151
188 188 156
185 187 154
188 189 160
183 202 228
183 202 228
183 202 228
183 202 228
182 202 228
183 203 228
182 202 228
182 202 228
182 202 228
182 202 228
181 201 228
181 202 228
180 201 228
180 201 228
181 201 228
180 201 228
180 201 228
180 201 228
180 201 228
179 200 228
179 201 228
180 201 228
179 200 228
180 201 228
178 200 228
179 200 228
179 200 228
178 200 228
179 200 228
178 200 228
178 200 228
177 199 228
177 199 228
177 199 228
178 200 228
177 199 228
178 200 228
176 199 228
177 199 228
177 199 228
176 199 228
177 199 228
177 199 228
176 199 228
176 199 228
175 198 228
175 198 228
175 198 228
175 198 228
175 198 228
175 198 228
175 198 228
175 198 228
174 198 228
174 198 228
173 197 228
174 197 228
174 197 228
174 197 228
174 197 228
173 197 228
174 198 228
172 197 228
173 197 228
173 197 228
173 197 228
172 196 228
172 197 228
172 196 228
172 196 228
172 196 228
172 197 228
171 196 228
172 196 228
172 196 228
171 196 228
170 196 228
171 196 228
170 196 228
171 196 228
170 196 228
170 196 228
171 196 228
170 195 228
171 196 228
170 196 228
170 195 228
170 195 228
170 195 228
170 195 228
169 195 228
170 195 228
170 195 228
169 195 228
170 195 228
169 195 228
169 195 228
168 195 228
169 195 228
169 195 228
169 195 228
169 195 228
169 195 228
169 195 228
169 195 228
169 195 228
169 195 228
168 195 228
169 195 228
169 195 228
169 195 228
169 195 228
169 195 228
169 195 228
170 195 228
170 195 228
170 196 228
170 195 228
170 195 228
171 196 228
170 196 228
170 196 228
171 196 228
172 196 228
172 197 228
172 196 228
172 196 228
172 197 228
174 198 228
174 198 228
175 198 228
176 199 228
177 199 228
179 200 228
180 201 229
184 204 231
190 209 234
208 226 251
212 231 255
212 231 255
212 231 255
212 231 255
212 231 255
212 230 255
212 230 255
212 230 255
212 230 255
212 230 255
212 230 255
212 230 255
212 230 255
212 230 255
212 230 255
212 230 255
212 230 255
212 230 255
212 230 255
212 230 255
185 204 237
62 96 164
61 97 169
60 95 164
60 96 165
60 95 159
60 96 156
60 95 151
60 96 158
61 96 159
62 98 160
61 97 162
61 97 155
62 98 166
61 97 161
61 97 161
62 98 161
62 98 166
61 97 160
62 98 163
61 97 155
61 97 157
61 97 151
62 98 163
62 98 165
62 98 163
61 97 161
63 99 168
62 98 158
61 97 153
61 96 154
62 98 160
61 97 158
62 98 164
61 97 153
62 98 159
62 98 161
63 98 161
61 97 154
62 97 154
61 97 156
63 99 162
62 98 160
62 98 164
61 97 155
61 97 153
62 97 161
60 96 149
61 97 152
62 98 160
61 97 162
62 97 155
63 98 160
62 98 158
62 98 162
62 98 159
62 98 160
62 98 161
62 97 161
62 97 158
61 97 158
61 96 149
61 97 158
62 97 159
62 97 156
62 98 164
61 97 156
61 97 158
61 97 159
62 98 163
61 96 151
60 95 154
62 98 163
62 99 167
60 96 157
60 94 152
61 97 163
60 95 156
61 96 157
61 96 160
60 94 152
61 96 159
67 99 162
186 205 234
212 230 255
212 230 255
212 230 255
212 230 255
212 230 255
212 230 255
212 230 255
212 230 255
212 230 255
212 230 255
212 230 255
212 230 255
212 230 255
212 230 255
212 230 255
212 231 255
212 231 255
212 231 255
212 231 255
212 231 255
210 227 248
190 197 186
178 186 177
183 188 171
176 183 166
185 193 185
171 177 159
171 179 170
177 182 162
171 174 146
169 175 158
169 175 157
168 173 153
177 184 167
168 172 142
168 171 143
174 179 159
175 179 156
170 172 141
173 177 151
165 170 145
169 172 144
171 172 137
167 169 130
167 168 131
168 170 140
168 167 124
169 169 130
163 164 126
173 173 133
165 167 132
176 175 133
175 177 144
173 172 129
172 171 129
169 170 130
176 176 134
174 174 132
169 168 123
174 172 122
176 174 126
174 174 132
171 170 120
175 174 128
177 176 136
177 176 134
176 174 127
179 177 129
176 173 125
177 177 136
178 176 125
180 178 132
178 178 134
179 178 134
177 174 121
181 179 135
177 176 127
175 173 122
181 177 128
180 179 136
179 177 129
177 175 124
178 176 126
179 177 128
180 177 127
179 176 125
178 174 120
180 177 129
178 174 117
180 177 129
180 177 127
179 177 129
180 176 125
180 177 129
181 178 130
178 174 118
176 174 120
179 177 127
182 177 125
183 180 134
181 178 132
179 177 129
183 182 141
181 177 125
181 180 138
181 178 130
183 180 136
181 180 134
179 178 133
180 178 128
179 176 124
181 179 134
181 179 132
182 179 132
180 178 130
182 179 131
178 174 117
180 177 125
180 176 121
183 182 140
180 177 125
179 176 126
180 179 134
185 184 145
182 181 138
176 176 127
183 183 144
183 182 142
183 182 142
181 179 130
184 182 141
183 181 137
182 181 137
179 177 126
186 184 142
179 177 130
180 177 129
188 187 152
180 178 131
185 183 143
184 181 137
186 186 151
185 187 155
184 184 148
184 184 146
183 183 143
187 188 156
189 193 170
186 188 158
188 189 157
183 184 149
187 187 154
183 183 144
186 186 150
188 188 154
188 189 159
187 188 154
186 186 152
183 203 228
183 202 228
183 202 228
183 202 228
183 202 228
183 202 228
182 202 228
182 202 228
183 202 228
182 202 228
181 201 228
181 202 228
181 202 228
181 201 228
182 202 228
182 202 228
181 201 228
180 201 228
181 201 228
181 201 228
180 201 228
180 201 228
180 201 228
180 201 228
181 201 228
179 200 228
179 200 228
180 201 228
180 201 228
179 200 228
179 200 228
178 200 228
178 200 228
178 200 228
177 199 228
178 200 228
177 199 228
177 199 228
176 199 228
177 199 228
177 199 228
177 199 228
177 199 228
176 199 228
176 199 228
176 199 228
176 198 228
176 199 228
176 199 228
175 198 228
175 198 228
176 199 228
175 198 228
175 198 228
174 198 228
175 198 228
174 198 228
174 198 228
174 198 228
175 198 228
174 198 228
173 197 228
174 198 228
173 197 228
173 197 228
173 197 228
173 197 228
173 197 228
173 197 228
173 197 228
172 197 228
172 197 228
172 197 228
171 196 228
172 196 228
172 196 228
172 197 228
172 196 228
172 196 228
172 197 228
171 196 228
171 196 228
171 196 228
171 196 228
170 196 228
171 196 228
171 196 228
170 196 228
170 195 228
170 196 228
170 196 228
170 195 228
170 196 228
170 195 228
170 196 228
169 195 228
169 195 228
169 195 228
170 195 228
169 195 228
169 195 228
170 195 228
169 195 228
169 195 228
170 195 228
169 195 228
169 195 228
168 195 228
169 195 228
169 195 228
170 195 228
169 195 228
169 195 228
170 195 228
170 196 228
170 195 228
170 195 228
170 196 228
170 196 228
170 196 228
172 197 228
171 196 228
171 196 228
171 196 228
172 196 228
173 197 228
173 197 228
173 197 228
174 198 228
174 198 228
174 198 228
175 198 228
176 199 228
178 200 228
178 200 228
183 203 230
186 206 232
195 214 239
210 228 253
213 231 255
213 231 255
213 231 255
212 231 255
212 231 255
212 231 255
212 231 255
212 231 255
212 231 255
212 231 255
212 231 255
212 231 255
212 231 255
212 230 255
212 230 255
212 230 255
212 230 255
212 230 255
210 229 254
90 118 180
60 96 164
60 95 160
61 97 161
60 95 159
60 95 161
61 97 164
60 96 163
61 96 153
61 97 163
61 96 155
62 97 162
61 96 162
61 97 162
61 97 154
61 97 163
62 97 159
62 98 162
61 97 155
62 98 163
61 97 154
62 98 159
60 96 154
62 98 163
63 99 166
61 97 154
61 97 153
62 97 161
62 97 161
62 98 167
62 98 160
62 97 154
62 98 158
62 97 154
62 97 157
63 98 160
62 98 159
62 98 158
62 98 157
61 97 160
62 98 162
61 96 154
62 98 163
62 98 156
62 98 159
61 97 160
61 97 155
61 97 156
60 96 152
62 97 156
62 98 163
61 97 156
61 97 154
62 98 155
62 97 156
61 97 153
63 99 164
62 98 161
60 96 155
62 98 161
62 97 158
62 97 155
62 97 159
62 98 160
61 96 156
61 96 158
63 99 164
62 97 158
61 97 160
60 96 148
62 97 163
60 95 153
61 96 155
61 96 161
62 97 160
62 97 163
61 96 157
60 94 156
61 96 161
62 96 156
60 95 153
62 96 160
61 95 158
95 120 172
205 224 250
212 230 255
212 230 255
212 230 255
212 230 255
212 230 255
212 231 255
212 231 255
212 231 255
212 231 255
212 231 255
212 231 255
212 231 255
212 231 255
212 231 255
213 231 255
213 231 255
213 231 255
213 231 255
210 227 247
194 204 205
172 175 150
179 184 166
182 187 173
174 180 163
174 182 172
178 185 173
164 171 159
169 174 153
170 176 158
171 176 154
168 172 147
170 173 144
165 171 151
171 175 151
170 174 149
169 174 150
165 169 142
165 167 137
169 173 144
165 169 140
171 172 137
169 169 131
172 174 141
163 164 125
160 161 124
169 170 134
175 177 144
172 175 147
164 166 130
169 172 141
172 172 130
175 175 137
170 171 133
172 172 131
173 172 130
173 172 129
172 171 126
175 176 143
171 170 126
173 172 128
175 174 126
169 168 121
176 175 136
176 176 132
175 173 125
179 178 134
176 174 127
176 174 124
177 175 131
176 174 121
176 175 130
177 174 121
180 179 135
176 172 118
180 179 135
176 175 129
180 177 131
177 175 126
178 176 127
178 175 125
177 174 123
179 177 132
177 175 122
178 174 116
180 178 131
179 177 126
179 175 122
182 181 142
176 173 115
176 173 117
179 176 124
181 178 127
180 178 129
179 177 129
180 176 125
179 177 128
179 175 120
181 179 134
178 175 121
182 178 127
178 174 118
181 178 129
180 179 133
179 176 125
181 178 129
183 179 130
181 178 130
184 181 135
183 180 134
182 178 124
182 180 134
180 177 126
181 181 141
181 179 132
179 177 126
181 178 128
178 176 124
184 183 142
179 178 132
180 178 130
181 179 131
182 179 129
185 183 142
184 183 141
181 178 128
180 178 132
184 182 141
182 181 137
184 182 139
185 184 146
184 184 146
182 179 131
185 184 144
181 180 136
179 176 123
186 187 154
183 182 141
186 186 151
181 180 134
183 182 138
180 178 130
185 185 148
185 184 145
185 186 152
181 178 130
184 183 142
183 182 141
183 182 141
183 183 145
186 185 148
184 183 139
186 184 143
184 183 144
186 186 152
187 186 149
188 188 157
190 193 171
185 203 228
184 203 228
184 203 228
182 202 228
183 202 228
183 202 228
183 202 228
183 202 228
184 203 228
182 202 228
183 203 228
183 202 228
182 202 228
182 202 228
181 202 228
182 202 228
181 201 228
182 202 228
181 201 228
181 201 228
181 201 228
181 201 228
181 201 228
181 201 228
180 201 228
180 201 228
180 201 228
180 201 228
180 201 228
179 200 228
179 200 228
180 201 228
178 200 228
178 200 228
179 200 228
178 200 228
178 200 228
178 200 228
179 200 228
178 200 228
178 200 228
176 199 228
177 199 228
178 200 228
177 199 228
177 199 228
176 199 228
177 199 228
176 199 228
177 199 228
176 199 228
176 198 228
176 199 228
175 198 228
176 199 228
175 198 228
175 198 228
175 198 228
175 198 228
174 198 228
174 198 228
175 198 228
175 198 228
175 198 228
173 197 228
175 198 228
174 198 228
174 198 228
173 197 228
174 197 228
173 197 228
173 197 228
173 197 228
173 197 228
173 197 228
173 197 228
173 197 228
173 197 228
173 197 228
173 197 228
172 197 228
172 196 228
172 197 228
172 196 228
172 196 228
172 196 228
171 196 228
170 196 228
171 196 228
171 196 228
171 196 228
170 196 228
171 196 228
171 196 228
171 196 228
171 196 228
170 196 228
170 195 228
170 196 228
170 196 228
169 195 228
171 196 228
169 195 228
170 196 228
170 196 228
170 195 228
169 195 228
170 195 228
170 195 228
171 196 228
170 195 228
170 196 228
171 196 228
170 196 228
171 196 228
170 196 228
170 196 228
171 196 228
170 196 228
172 196 228
171 196 228
172 196 228
171 196 228
172 197 228
172 197 228
173 197 228
172 197 228
173 197 228
173 197 228
174 198 228
175 198 228
176 199 228
177 199 228
177 199 228
179 200 228
180 201 228
183 203 230
190 209 235
197 216 240
213 231 255
213 231 255
213 231 255
213 231 255
213 231 255
213 231 255
213 231 255
213 231 255
213 231 255
213 231 255
213 231 255
213 231 255
213 231 255
212 231 255
212 231 255
212 231 255
212 231 255
212 231 255
127 150 199
60 95 168
60 96 165
60 96 165
61 97 162
61 97 162
61 96 166
61 96 160
61 97 156
61 97 154
61 97 165
61 96 159
61 97 163
61 97 161
61 97 159
61 97 154
61 96 155
61 97 157
61 97 156
63 99 162
62 98 165
61 96 158
62 98 160
61 97 161
61 97 152
62 98 161
62 98 161
62 98 158
62 98 161
61 96 156
62 98 163
62 98 161
62 99 164
61 97 152
61 97 155
62 99 164
61 96 147
61 97 151
62 98 162
62 98 159
61 97 157
61 97 157
60 96 153
63 98 165
61 97 154
61 97 156
62 97 160
62 98 162
61 96 151
62 98 157
62 98 163
62 97 152
60 96 150
60 96 148
62 98 159
62 98 163
63 98 154
60 96 144
61 97 155
63 99 162
61 96 159
60 96 145
61 95 145
61 97 157
60 96 155
60 95 153
63 98 165
61 96 156
62 97 159
62 98 163
62 97 155
62 98 163
61 95 155
61 96 154
61 96 158
62 97 159
61 96 155
61 95 155
61 95 155
61 96 154
60 95 153
61 95 153
61 96 161
60 93 151
61 94 161
150 170 207
212 231 255
212 231 255
212 231 255
212 231 255
212 231 255
213 231 255
213 231 255
213 231 255
213 231 255
213 231 255
213 231 255
213 231 255
213 231 255
213 231 255
213 231 255
213 231 255
213 231 255
212 230 253
193 204 207
183 190 181
182 190 180
177 182 167
179 186 175
175 181 166
175 181 168
173 179 165
166 172 155
165 170 151
162 169 154
167 172 150
178 182 161
158 162 137
161 165 141
164 169 145
165 169 148
159 162 128
164 168 141
164 168 140
164 166 134
173 174 137
168 170 137
170 173 143
160 162 125
170 170 132
166 168 135
167 168 126
163 164 122
168 168 128
174 175 138
170 169 126
162 162 115
166 166 120
176 176 139
172 172 133
168 167 124
174 172 127
172 172 137
171 171 129
172 170 122
175 174 132
176 174 129
173 172 128
173 172 122
175 173 126
171 170 124
176 173 123
173 170 117
176 174 124
174 172 122
179 177 132
177 176 130
175 174 125
178 177 131
173 171 122
180 177 129
177 174 121
176 173 119
180 177 127
175 173 121
178 174 120
176 173 119
176 173 119
181 177 126
177 174 122
177 174 120
179 177 128
178 174 117
181 178 127
176 173 117
180 177 126
178 175 121
178 174 120
179 175 120
179 174 116
178 174 116
183 180 132
181 180 134
179 176 123
180 177 125
179 175 120
180 178 132
181 178 127
180 178 129
184 179 125
178 175 118
178 175 121
178 176 125
183 179 130
181 178 130
180 176 121
182 180 134
179 176 126
181 179 134
179 177 127
183 181 136
182 179 132
181 179 134
181 178 130
178 175 125
182 180 135
184 185 148
182 180 136
181 179 132
180 178 129
182 178 129
182 179 129
183 182 138
181 176 123
182 180 133
181 178 129
182 180 136
182 183 143
182 179 131
183 181 138
183 183 145
186 185 149
186 185 148
182 180 136
182 180 135
182 181 138
185 183 142
182 180 135
183 182 141
186 185 146
183 182 139
186 185 147
187 187 154
184 183 143
188 188 154
184 182 139
185 185 149
186 184 145
185 183 142
183 182 140
185 184 146
183 184 147
180 178 130
184 203 228
184 203 228
184 203 228
184 203 228
184 203 228
184 203 228
183 202 228
182 202 228
183 203 228
182 202 228
182 202 228
182 202 228
182 202 228
182 202 228
181 201 228
182 202 228
182 202 228
182 202 228
181 201 228
181 201 228
180 201 228
182 202 228
181 201 228
181 201 228
180 201 228
180 201 228
180 201 228
180 201 228
180 201 228
180 201 228
180 201 228
180 201 228
180 201 228
179 200 228
178 200 228
179 200 228
179 200 228
180 201 228
180 201 228
179 200 228
177 199 228
178 199 228
177 199 228
177 199 228
177 199 228
178 200 228
177 199 228
176 199 228
177 199 228
177 199 228
177 199 228
176 199 228
176 199 228
176 199 228
177 199 228
177 199 228
177 199 228
176 199 228
175 198 228
176 199 228
175 198 228
176 199 228
175 198 228
176 198 228
174 198 228
175 198 228
175 198 228
175 198 228
175 198 228
174 198 228
174 198 228
173 197 228
174 197 228
173 197 228
174 197 228
173 197 228
174 197 228
173 197 228
173 197 228
173 197 228
173 197 228
173 197 228
172 197 228
173 197 228
173 197 228
172 196 228
173 197 228
172 197 228
172 197 228
171 196 228
172 196 228
171 196 228
172 196 228
171 196 228
171 196 228
172 196 228
171 196 228
172 196 228
171 196 228
171 196 228
172 196 228
170 196 228
171 196 228
170 196 228
171 196 228
171 196 228
172 196 228
172 196 228
171 196 228
171 196 228
171 196 228
171 196 228
170 196 228
172 196 228
170 196 228
172 196 228
172 196 228
172 196 228
172 197 228
172 197 228
173 197 228
172 197 228
172 197 228
172 197 228
173 197 228
172 197 228
173 197 228
174 198 228
174 197 228
174 198 228
175 198 228
176 199 228
176 199 228
178 200 228
179 200 228
179 200 228
180 201 228
184 203 230
189 208 234
205 223 247
213 231 255
213 231 255
213 231 255
213 231 255
213 231 255
213 231 255
213 231 255
213 231 255
213 231 255
213 231 255
213 231 255
213 231 255
213 231 255
213 231 255
213 231 255
213 231 255
175 194 228
60 95 165
60 95 158
62 98 171
61 97 167
60 96 166
61 97 161
60 96 164
60 96 155
62 97 163
61 97 163
63 98 168
61 97 160
60 96 160
61 96 158
62 98 166
61 96 151
62 98 161
61 96 157
62 98 160
61 97 160
62 97 156
62 98 159
61 97 152
61 97 161
62 98 164
61 96 153
61 97 157
62 98 166
61 97 156
61 97 156
61 97 154
62 98 159
61 98 159
62 98 161
61 97 156
61 97 154
61 96 152
62 98 159
61 97 157
62 97 157
62 98 158
62 97 157
61 97 151
62 98 156
61 97 157
63 99 167
62 98 161
61 97 156
62 98 159
62 97 154
62 98 159
62 97 156
61 96 151
61 96 153
62 98 161
61 96 149
61 97 159
61 96 152
63 99 160
62 98 161
62 97 154
61 96 155
62 98 161
60 96 150
62 97 160
62 98 159
61 96 154
63 97 158
61 96 147
62 97 160
62 98 158
62 98 163
61 96 155
62 98 163
61 96 157
62 98 156
62 97 159
61 96 158
61 95 148
61 95 150
60 95 156
60 94 153
60 94 151
61 95 159
60 94 155
61 95 158
187 205 234
213 231 255
213 231 255
213 231 255
213 231 255
213 231 255
213 231 255
213 231 255
213 231 255
213 231 255
213 231 255
213 231 255
213 231 255
213 231 255
213 231 255
213 231 255
213 231 255
203 216 226
181 187 171
176 181 164
181 188 176
178 185 175
175 184 177
178 185 171
169 176 165
170 176 160
170 176 159
164 168 144
175 181 167
163 167 144
164 168 144
168 171 145
162 168 149
163 167 140
167 171 147
170 171 139
167 170 142
163 168 146
171 174 148
169 172 144
170 171 136
170 172 142
165 168 138
172 173 139
175 175 137
166 166 127
169 169 132
169 170 133
169 170 134
166 167 129
172 171 130
169 167 115
172 171 129
170 170 128
173 173 129
171 169 122
174 172 125
175 173 124
170 169 122
174 173 129
175 174 129
173 169 119
176 174 126
175 171 120
173 172 128
175 173 127
171 169 119
173 169 113
174 171 119
176 174 126
178 174 121
180 178 135
179 175 122
180 179 138
177 174 122
178 174 121
179 177 130
178 174 116
180 176 123
176 172 113
178 175 121
184 180 134
178 175 121
180 175 120
174 171 109
178 175 122
176 173 117
176 173 117
176 171 111
181 177 126
180 176 122
180 177 125
180 177 127
176 172 114
179 176 123
180 178 131
180 177 126
179 176 125
177 174 120
181 178 129
181 179 134
182 177 122
180 176 124
181 178 126
179 175 118
177 174 117
181 178 129
181 178 126
180 178 132
184 181 135
184 181 136
178 176 128
181 179 131
180 178 131
181 177 123
180 177 127
183 181 137
182 178 128
181 179 133
182 178 128
183 180 133
180 177 127
183 182 139
183 181 137
179 177 127
180 177 127
182 179 131
182 179 132
183 180 133
185 182 139
180 178 131
182 181 139
181 178 127
184 180 133
184 185 151
184 183 141
184 184 145
182 180 133
186 186 152
182 179 132
186 185 149
184 180 133
185 186 152
181 179 135
187 186 150
185 184 145
184 184 146
186 184 144
184 183 142
187 187 154
182 182 140
188 188 154
186 186 151
187 189 159
185 184 144
187 188 154
184 185 150
185 204 228
184 203 228
185 203 228
183 203 228
184 203 228
184 203 228
184 203 228
184 203 228
183 202 228
184 203 228
182 202 228
183 202 228
182 202 228
183 202 228
183 202 228
183 202 228
183 202 228
182 202 228
181 201 228
181 201 228
182 202 228
181 201 228
181 201 228
182 202 228
181 201 228
181 201 228
181 201 228
181 201 228
181 201 228
180 201 228
180 201 228
181 201 228
180 201 228
180 201 228
180 201 228
179 200 228
180 201 228
179 200 228
180 201 228
179 200 228
178 200 228
180 201 228
179 200 228
177 199 228
179 200 228
177 199 228
178 200 228
178 200 228
178 200 228
178 200 228
178 200 228
178 200 228
177 199 228
178 200 228
178 199 228
177 199 228
176 199 228
177 199 228
176 199 228
176 199 228
177 199 228
176 199 228
176 199 228
175 198 228
176 199 228
175 198 228
175 198 228
175 198 228
176 198 228
174 198 228
175 198 228
175 198 228
175 198 228
174 198 228
175 198 228
175 198 228
175 198 228
174 198 228
174 197 228
173 197 228
174 198 228
174 197 228
173 197 228
173 197 228
174 198 228
173 197 228
173 197 228
173 197 228
172 197 228
173 197 228
172 197 228
172 197 228
173 197 228
172 197 228
173 197 228
173 197 228
172 197 228
172 197 228
172 196 228
172 196 228
172 196 228
171 196 228
172 196 228
172 196 228
172 196 228
172 196 228
172 196 228
172 196 228
171 196 228
172 197 228
172 197 228
172 196 228
172 196 228
171 196 228
172 197 228
172 196 228
173 197 228
172 196 228
173 197 228
172 197 228
173 197 228
173 197 228
174 197 228
172 196 228
172 196 228
170 194 226
173 197 228
171 195 227
172 196 227
171 194 226
175 198 228
176 199 228
177 199 228
178 200 228
178 200 228
180 201 228
179 200 228
183 203 229
187 206 232
192 211 236
210 227 252
213 231 255
213 231 255
213 231 255
213 231 255
213 231 255
213 231 255
213 231 255
213 231 255
213 231 255
213 231 255
213 231 255
213 231 255
213 231 255
213 231 255
208 226 252
87 114 169
59 95 165
60 95 163
61 96 161
59 94 154
60 96 163
60 96 160
61 96 160
61 97 158
59 94 149
60 95 152
61 97 155
61 96 147
61 97 156
60 95 148
61 97 155
61 97 162
61 97 157
62 98 161
62 97 154
62 98 157
61 96 155
61 96 150
61 97 158
63 98 158
62 98 164
61 96 154
62 97 157
60 96 150
62 98 161
61 96 147
62 97 152
62 98 160
61 96 156
61 97 151
60 95 140
62 98 153
61 97 154
61 97 154
61 97 155
62 97 158
63 99 162
61 97 156
62 98 159
62 97 155
61 97 152
62 97 156
62 97 157
62 98 160
62 97 157
61 96 149
62 98 160
62 98 164
62 98 158
62 98 166
62 97 154
62 97 152
63 98 160
59 95 150
61 97 153
60 96 149
62 98 161
62 97 152
61 96 152
62 98 162
61 96 155
62 98 155
63 98 162
63 98 160
60 95 151
61 96 152
60 95 147
62 97 160
61 96 153
61 96 156
61 96 160
61 96 151
60 95 152
62 97 165
62 97 162
62 96 157
62 97 158
61 96 151
61 94 150
60 93 152
60 94 152
60 93 155
99 122 166
207 225 249
213 231 255
213 231 255
213 231 255
213 231 255
213 231 255
213 231 255
213 231 255
213 231 255
213 231 255
213 231 255
213 231 255
213 231 255
213 231 255
213 231 255
211 228 249
193 202 201
182 188 175
176 182 168
171 176 161
176 182 167
170 177 166
169 175 158
163 169 151
160 165 139
170 175 157
168 174 160
161 166 141
161 165 138
160 161 125
160 166 144
167 172 150
162 165 135
167 171 148
161 162 126
169 173 147
163 164 131
165 167 135
163 165 130
166 166 125
170 174 147
161 163 124
155 155 114
166 167 128
163 164 124
159 160 119
163 164 129
161 162 122
168 168 128
171 171 129
175 174 133
169 167 116
173 171 126
169 167 120
172 170 120
172 171 123
175 174 136
174 173 127
168 167 119
169 168 119
172 170 123
173 170 114
173 171 120
168 166 111
172 170 119
172 169 116
177 173 118
178 175 129
177 176 131
178 175 124
178 175 122
176 172 122
180 178 132
178 175 127
178 174 119
173 170 117
178 174 118
176 173 118
182 179 132
179 176 125
179 175 122
178 174 119
178 175 121
180 180 139
176 173 116
177 173 116
175 173 118
178 175 121
179 176 123
179 176 122
180 176 122
177 175 126
180 177 127
179 176 124
178 173 114
180 177 126
181 177 124
180 177 126
179 176 123
180 178 131
181 178 129
181 177 126
178 174 117
180 178 129
181 181 140
177 175 126
178 175 120
181 178 127
184 180 133
183 181 139
182 179 131
183 180 134
180 178 129
177 174 117
184 181 136
182 179 133
181 179 134
186 182 137
180 178 131
181 177 124
182 180 137
176 172 109
182 178 127
183 181 139
182 180 138
182 180 134
182 180 132
180 178 132
186 184 144
185 183 140
181 179 134
182 177 123
182 182 140
179 175 118
184 183 143
182 181 137
185 182 138
184 183 145
182 180 135
185 186 150
182 181 135
182 180 135
184 182 138
187 188 156
183 183 142
183 182 142
184 181 134
186 185 146
184 184 146
183 183 145
182 182 140
183 182 138
189 189 156
182 183 143
184 183 143
183 182 142
185 204 228
185 203 228
184 203 228
185 203 228
184 203 228
184 203 228
185 203 228
184 203 228
183 202 228
183 203 228
184 203 228
183 203 228
184 203 228
184 203 228
184 203 228
183 202 228
182 202 228
183 202 228
183 202 228
182 202 228
182 202 228
182 202 228
182 202 228
181 201 228
182 202 228
182 202 228
181 201 228
182 202 228
181 201 228
180 201 228
181 201 228
181 202 228
181 201 228
181 201 228
180 201 228
179 200 228
181 201 228
180 201 228
179 200 228
180 201 228
179 200 228
179 200 228
179 200 228
179 200 228
179 200 228
178 200 228
179 200 228
178 200 228
178 200 228
179 200 228
179 200 228
178 200 228
178 200 228
178 200 228
177 199 228
178 200 228
178 199 228
176 199 228
177 199 228
177 199 228
178 200 228
177 199 228
177 199 228
176 199 228
177 199 228
176 199 228
176 199 228
176 199 228
176 199 228
175 198 228
176 198 228
176 198 228
174 198 228
176 199 228
175 198 228
175 198 228
175 198 228
175 198 228
175 198 228
174 198 228
174 197 228
174 198 228
174 198 228
174 198 228
173 197 228
173 197 228
174 198 228
174 198 228
173 197 228
173 197 228
173 197 228
173 197 228
173 197 228
173 197 228
174 197 228
173 197 228
172 197 228
173 197 228
173 197 228
173 197 228
171 196 228
173 197 228
173 197 228
173 197 228
172 197 228
172 197 228
172 197 228
174 197 228
172 197 228
172 197 228
173 197 228
173 197 228
172 196 228
173 197 228
173 197 228
173 197 228
173 197 228
173 197 228
173 197 228
173 197 228
172 196 228
172 196 228
173 197 228
171 195 226
171 195 227
163 187 221
166 190 222
165 189 223
167 190 223
168 191 224
169 192 224
170 192 224
173 195 225
178 200 228
179 200 228
180 201 228
181 201 228
180 201 228
184 204 230
188 207 232
197 215 239
213 231 255
214 231 255
214 231 255
214 231 255
214 231 255
214 231 255
214 231 255
213 231 255
213 231 255
213 231 255
213 231 255
213 231 255
213 231 255
213 231 255
151 171 211
59 95 162
60 95 161
61 96 162
60 96 160
60 95 155
60 96 154
61 96 157
60 95 160
61 96 158
60 95 154
61 96 154
61 97 160
62 97 156
60 96 159
61 97 154
60 95 150
61 97 160
61 97 157
61 97 157
62 98 159
62 98 159
61 96 152
60 96 152
62 97 156
62 98 159
61 97 151
61 97 157
62 98 162
62 97 157
61 97 157
62 98 158
62 98 157
63 98 160
62 97 152
62 98 161
61 96 156
61 97 150
63 98 154
61 97 149
61 97 154
62 97 150
61 97 158
61 96 152
62 97 154
62 97 153
62 97 158
61 97 155
62 98 159
61 97 156
62 98 160
61 96 151
61 97 153
62 98 161
61 96 147
61 97 153
62 98 161
61 97 155
61 97 152
60 95 147
63 98 155
62 98 159
61 97 151
61 97 151
61 97 152
61 96 156
62 97 157
62 97 160
62 97 158
61 96 154
62 97 153
62 98 157
62 97 157
62 97 162
62 97 154
60 94 151
62 97 158
60 94 144
62 97 159
61 95 154
61 96 155
61 95 153
61 96 160
62 97 160
60 94 148
61 94 154
59 93 147
59 93 152
60 94 156
151 171 204
213 231 255
213 231 255
213 231 255
213 231 255
213 231 255
213 231 255
213 231 255
214 231 255
214 231 255
214 231 255
214 231 255
214 231 255
214 231 255
213 230 252
193 202 200
187 195 189
174 181 169
170 174 156
172 179 167
170 175 156
160 167 153
165 172 156
174 180 165
165 171 153
161 167 147
164 172 162
158 163 143
152 157 133
162 168 147
163 168 145
167 170 143
162 165 134
160 163 134
158 160 131
166 170 147
160 163 135
164 165 132
165 166 127
168 170 138
169 172 142
165 167 132
167 168 132
159 160 119
163 162 120
170 170 130
164 163 117
165 165 123
166 166 128
173 173 134
168 168 127
173 171 124
171 170 127
172 171 128
171 170 130
172 172 134
172 169 121
173 171 121
163 161 108
171 170 124
176 173 121
173 171 120
172 168 115
176 173 125
178 177 132
173 169 114
176 174 124
179 175 119
177 173 117
177 175 126
176 173 121
176 174 126
179 177 129
175 170 109
179 174 117
179 174 115
177 172 114
177 174 124
175 173 123
175 172 117
180 175 119
179 176 123
178 175 125
177 172 114
177 175 124
181 178 128
178 173 115
178 174 119
178 174 116
178 173 114
177 173 114
178 174 115
178 173 117
180 176 122
175 172 117
179 175 120
181 178 129
180 177 127
178 175 121
179 176 122
176 173 115
177 174 117
176 174 120
180 176 124
180 175 120
180 177 128
180 179 132
179 175 120
178 175 123
183 180 133
183 180 135
182 178 125
180 177 125
184 181 133
180 179 133
181 178 128
182 179 132
181 179 132
177 176 125
181 179 131
180 175 118
180 176 120
181 177 122
184 183 141
181 177 123
184 182 140
181 178 130
181 177 125
181 179 131
180 178 129
182 181 139
181 178 129
187 187 153
181 177 124
181 178 127
181 179 135
184 184 148
185 184 146
182 179 131
186 186 149
179 176 123
185 183 141
182 180 135
185 186 151
188 188 156
186 184 145
184 184 150
182 182 142
184 184 145
179 176 123
185 185 150
188 187 151
186 187 154
186 185 148
183 182 139
185 184 145
186 204 228
186 204 228
185 204 228
185 203 228
185 203 228
185 203 228
184 203 228
184 203 228
184 203 228
184 203 228
184 203 228
183 203 228
184 203 228
184 203 228
184 203 228
184 203 228
183 202 228
183 202 228
183 202 228
183 202 228
182 202 228
182 202 228
183 203 228
182 202 228
182 202 228
182 202 228
182 202 228
182 202 228
180 201 228
182 202 228
182 202 228
182 202 228
182 202 228
181 201 228
180 201 228
181 201 228
181 201 228
180 201 228
180 201 228
181 202 228
180 201 228
180 201 228
180 201 228
180 201 228
179 200 228
180 201 228
181 201 228
179 200 228
179 200 228
179 200 228
179 200 228
180 201 228
178 200 228
179 200 228
178 200 228
179 200 228
178 200 228
178 200 228
177 199 228
177 199 228
176 199 228
177 199 228
178 200 228
178 200 228
177 199 228
177 199 228
176 199 228
176 199 228
177 199 228
177 199 228
176 199 228
176 199 228
175 198 228
176 199 228
176 198 228
176 199 228
176 198 228
176 199 228
176 199 228
176 199 228
176 198 228
176 198 228
175 198 228
175 198 228
174 198 228
175 198 228
175 198 228
174 198 228
174 198 228
174 198 228
175 198 228
174 198 228
174 198 228
175 198 228
174 198 228
174 197 228
175 198 228
174 198 228
174 198 228
174 198 228
174 198 228
173 197 228
173 197 228
174 197 228
174 197 228
173 197 228
173 197 228
173 197 228
173 197 228
173 197 228
174 198 228
173 197 228
174 198 228
173 197 228
173 197 228
174 198 228
173 197 228
173 197 228
174 198 228
172 196 227
173 196 227
167 190 223
168 192 225
164 188 221
162 185 219
165 188 221
162 185 218
162 185 219
166 190 222
161 185 219
165 188 221
164 186 219
168 191 222
168 190 221
173 195 225
178 199 227
179 200 228
180 201 228
182 202 228
186 205 231
190 208 233
202 220 244
214 231 255
214 231 255
214 231 255
214 231 255
214 231 255
214 231 255
214 231 255
214 231 255
214 231 255
214 231 255
214 231 255
214 231 255
201 219 247
62 96 159
59 94 158
59 94 159
60 96 167
59 94 152
60 95 162
61 96 155
60 96 161
61 97 159
60 96 157
60 96 157
62 97 159
62 98 158
60 95 149
61 96 157
61 97 156
61 97 159
61 97 158
62 97 156
61 97 159
61 96 152
61 97 153
61 97 156
61 97 151
62 98 162
62 98 160
62 97 159
62 97 156
61 96 152
61 96 149
63 98 162
61 96 154
61 97 150
62 97 154
61 97 154
62 98 160
62 98 158
61 97 148
61 97 156
61 96 153
62 98 158
61 96 153
61 96 153
62 97 147
62 97 152
61 96 153
63 98 156
62 97 156
60 95 143
62 97 158
61 96 149
62 98 154
61 97 161
60 96 147
61 97 155
61 96 145
62 97 156
61 97 153
62 98 160
62 98 161
60 95 147
62 97 158
62 97 159
60 95 147
61 96 151
61 96 150
63 99 163
61 97 154
61 97 158
61 96 152
61 96 154
61 97 158
61 96 156
61 96 150
61 96 155
62 96 155
61 96 157
62 96 156
61 96 146
61 95 150
61 95 151
60 95 151
61 95 153
60 94 153
60 94 149
58 91 141
61 94 150
60 93 150
60 94 154
78 106 156
199 217 243
214 231 255
214 231 255
214 231 255
214 231 255
214 231 255
214 231 255
214 231 255
214 231 255
214 231 255
214 231 255
214 231 255
214 231 255
200 213 223
175 181 165
176 182 172
175 180 164
176 183 174
167 174 162
168 175 165
172 180 172
161 165 139
162 168 152
175 180 162
161 167 152
163 169 151
171 176 155
158 163 142
163 167 144
153 158 136
155 160 136
152 157 134
166 170 145
165 168 136
160 162 130
164 165 134
163 165 130
160 163 132
161 160 116
167 168 130
167 169 137
171 172 135
166 167 131
163 162 120
165 165 127
171 170 127
171 169 119
173 171 121
175 174 131
166 163 114
172 170 125
174 175 138
173 171 127
173 171 127
173 170 116
174 174 131
171 169 120
174 171 125
173 171 122
167 164 108
170 167 109
175 171 115
174 171 117
172 169 116
172 169 118
176 174 125
172 170 120
173 170 118
176 171 114
168 166 114
175 172 125
175 172 118
175 172 115
179 176 126
176 174 125
176 173 120
178 175 124
179 175 120
175 171 112
178 175 122
174 170 107
180 175 122
177 174 117
178 175 124
178 174 114
180 177 124
179 176 124
178 174 119
181 177 126
180 177 126
180 176 122
177 173 117
179 175 118
179 177 127
181 178 127
179 175 121
182 179 134
181 177 124
178 174 117
178 174 117
177 174 118
180 177 122
177 174 121
181 178 127
177 174 117
179 176 124
181 177 127
180 177 124
182 179 130
179 176 126
181 179 131
180 176 121
181 178 130
176 171 108
176 173 115
181 178 129
179 176 124
180 178 131
181 179 134
180 176 121
176 173 118
177 175 122
183 180 132
181 179 132
183 180 134
184 182 140
183 180 132
184 185 150
184 183 140
181 179 131
183 180 132
181 179 133
180 178 132
183 179 129
187 186 149
183 180 133
184 182 137
187 186 150
184 181 136
183 182 138
182 181 135
186 184 145
182 181 138
183 182 140
187 188 155
187 187 151
183 182 139
186 184 144
185 184 142
186 184 142
184 183 142
186 186 149
182 180 134
183 181 134
187 188 155
186 204 228
185 204 228
186 204 228
185 203 228
186 204 228
185 204 228
186 204 228
185 203 228
185 204 228
185 203 228
184 203 228
185 203 228
185 203 228
184 203 228
184 203 228
183 203 228
184 203 228
183 203 228
183 202 228
183 202 228
183 202 228
183 203 228
183 203 228
182 202 228
184 203 228
182 202 228
182 202 228
183 202 228
183 202 228
183 202 228
181 201 228
181 201 228
182 202 228
182 202 228
182 202 228
181 202 228
181 201 228
180 201 228
182 202 228
181 202 228
181 201 228
180 201 228
180 201 228
181 201 228
180 201 228
180 201 228
180 201 228
180 201 228
180 201 228
181 201 228
179 200 228
179 200 228
180 201 228
180 201 228
180 201 228
180 201 228
178 200 228
178 200 228
180 201 228
178 199 228
178 200 228
178 200 228
179 200 228
179 200 228
178 200 228
177 199 228
178 200 228
178 200 228
177 199 228
178 199 228
177 199 228
177 199 228
177 199 228
177 199 228
177 199 228
176 199 228
177 199 228
176 199 228
176 199 228
177 199 228
175 198 228
177 199 228
176 198 228
175 198 228
176 199 228
176 199 228
176 198 228
175 198 228
176 199 228
175 198 228
176 198 228
175 198 228
175 198 228
175 198 228
175 198 228
174 198 228
175 198 228
174 198 228
175 198 228
175 198 228
175 198 228
175 198 228
174 198 228
173 197 228
174 198 228
175 198 228
175 198 228
174 198 228
174 198 228
174 198 228
174 198 228
174 198 228
174 198 228
174 198 228
175 198 228
175 198 228
174 198 228
173 196 228
173 196 227
170 194 226
171 194 226
162 185 220
159 182 216
158 182 216
166 190 223
161 185 219
155 179 215
153 176 213
157 180 216
145 168 207
161 184 218
154 177 211
150 173 209
167 189 219
167 189 221
167 189 220
176 197 226
180 201 228
182 202 228
184 203 229
188 207 232
192 210 235
211 228 252
214 232 255
214 232 255
214 232 255
214 232 255
214 232 255
214 232 255
214 232 255
214 231 255
214 231 255
214 231 255
214 231 255
137 158 201
59 93 157
60 95 160
59 94 155
60 96 160
61 96 154
60 96 158
61 96 158
60 96 158
62 97 161
60 95 150
60 95 152
60 95 147
60 96 153
61 97 159
61 96 151
61 96 155
61 97 159
62 98 159
61 97 160
61 96 154
61 96 146
62 97 159
61 97 151
62 98 158
61 96 150
61 96 143
62 97 161
61 97 158
61 97 160
59 95 149
62 98 159
60 96 151
61 97 155
62 97 152
61 97 158
61 96 150
59 95 149
61 97 153
61 96 153
62 98 165
61 97 155
62 98 155
62 98 159
62 97 155
62 97 154
62 97 154
61 96 151
61 97 156
61 97 156
62 98 158
63 99 163
62 97 160
60 96 152
60 96 147
62 97 153
62 98 159
62 97 153
62 98 159
61 96 155
61 96 152
61 97 154
61 96 149
62 97 151
61 96 147
62 98 161
62 97 151
60 96 149
62 97 157
62 97 157
60 95 148
61 96 154
61 96 156
62 97 157
61 95 155
61 95 151
61 96 148
61 96 154
60 94 146
61 96 155
61 96 155
61 96 154
62 96 154
61 95 154
59 92 146
61 94 151
61 95 154
61 95 156
61 94 154
59 93 154
61 94 158
141 161 199
214 231 255
214 231 255
214 231 255
214 232 255
214 232 255
214 232 255
214 232 255
214 232 255
214 232 255
214 232 255
214 232 255
210 225 244
184 187 166
180 188 181
173 180 171
173 181 175
162 168 153
161 168 156
163 169 152
161 169 159
157 163 151
168 175 163
153 160 142
150 156 136
154 161 142
160 165 143
157 162 138
155 160 142
156 159 129
157 161 139
158 162 136
162 164 130
150 154 126
155 157 120
162 164 133
159 160 126
165 168 139
164 165 127
155 156 121
160 159 115
163 163 120
161 162 119
162 163 128
161 160 115
163 163 123
169 170 136
158 158 116
161 161 121
166 165 124
169 167 118
170 168 119
166 164 114
170 169 126
172 168 113
167 165 115
170 166 112
171 170 120
171 169 120
173 170 115
173 171 125
170 166 110
175 172 121
173 169 112
170 167 109
172 169 115
177 172 118
175 171 121
180 178 133
178 174 119
178 174 117
174 170 112
177 174 122
177 173 120
175 172 118
177 173 114
180 176 123
177 174 118
174 171 113
179 175 120
177 172 114
179 175 125
178 173 115
178 174 122
177 174 118
178 176 126
181 177 126
178 176 125
179 175 120
178 174 115
178 174 118
179 175 121
179 177 127
178 175 121
177 175 122
177 174 119
178 174 118
178 173 114
180 176 122
178 173 112
179 175 117
181 176 120
180 175 119
180 175 116
179 174 114
177 173 115
177 175 123
177 174 118
181 178 129
184 180 131
180 176 122
180 175 117
180 176 124
181 178 130
182 180 135
181 179 133
179 175 121
182 178 127
180 177 124
175 172 112
181 179 132
179 176 125
179 176 123
182 179 132
182 180 134
184 184 145
177 175 123
181 180 135
183 182 140
182 180 131
179 176 122
182 178 124
183 182 138
180 178 125
183 181 138
182 180 133
180 177 125
181 178 127
180 178 130
186 186 150
186 184 142
186 185 147
185 184 143
184 182 138
182 180 133
184 182 139
181 178 130
184 182 138
186 184 144
186 186 151
185 185 146
188 188 155
186 185 147
188 187 151
183 181 136
186 204 228
186 204 228
186 204 228
187 204 228
185 203 228
186 204 228
186 204 228
186 204 228
185 204 228
185 203 228
184 203 228
184 203 228
185 204 228
184 203 228
185 203 228
184 203 228
184 203 228
184 203 228
184 203 228
184 203 228
183 202 228
184 203 228
184 203 228
184 203 228
183 202 228
183 203 228
182 202 228
183 203 228
183 202 228
182 202 228
183 203 228
182 202 228
182 202 228
183 203 228
183 202 228
182 202 228
182 202 228
183 202 228
181 201 228
181 201 228
182 202 228
182 202 228
182 202 228
181 201 228
181 201 228
181 201 228
181 201 228
181 201 228
181 201 228
180 201 228
180 201 228
181 201 228
180 201 228
180 201 228
181 201 228
180 201 228
180 201 228
180 201 228
180 201 228
180 201 228
179 200 228
179 200 228
179 200 228
178 200 228
179 200 228
178 200 228
178 200 228
178 200 228
177 199 228
178 200 228
179 200 228
179 200 228
179 200 228
177 199 228
177 199 228
177 199 228
178 200 228
178 199 228
178 200 228
176 199 228
177 199 228
177 199 228
177 199 228
177 199 228
175 198 228
177 199 228
176 198 228
176 199 228
176 199 228
176 199 228
176 199 228
175 198 228
176 199 228
175 198 228
175 198 228
175 198 228
175 198 228
175 198 228
175 198 228
176 199 228
175 198 228
176 199 228
175 198 228
174 198 228
174 198 228
175 198 228
175 198 228
174 198 228
175 198 228
175 198 228
175 198 228
176 198 228
174 198 228
176 199 228
175 198 228
175 198 228
174 197 227
173 196 227
172 195 227
164 187 221
158 181 215
159 182 216
158 181 217
150 174 210
158 181 216
151 174 210
148 171 208
145 168 206
146 169 206
146 169 206
151 173 209
148 171 208
146 169 207
157 180 214
166 188 219
165 186 217
166 187 218
176 197 226
181 202 228
183 202 228
186 205 230
190 208 233
202 219 243
214 232 255
214 232 255
214 232 255
214 232 255
214 232 255
214 232 255
214 232 255
214 232 255
214 232 255
214 232 255
195 213 240
60 93 150
58 93 157
58 93 156
60 95 155
60 95 156
59 94 151
60 95 151
59 94 152
60 96 158
60 95 153
60 96 154
61 96 154
60 95 144
60 95 149
61 96 157
61 97 158
61 97 161
60 95 145
61 96 151
61 97 154
61 97 155
61 96 146
60 95 149
61 97 151
63 99 160
61 96 152
61 97 152
61 97 152
61 97 149
60 95 143
62 98 158
61 97 152
61 96 149
62 97 150
61 97 154
61 96 151
62 98 153
61 97 154
61 97 153
62 97 154
62 97 151
61 97 154
61 97 148
62 98 153
62 97 155
62 97 156
60 95 147
61 97 152
61 97 152
62 98 155
61 96 150
61 97 152
61 97 152
62 97 149
61 96 149
61 96 149
62 97 154
62 97 150
60 95 149
62 97 154
62 98 161
62 97 161
61 96 145
62 97 150
62 97 156
60 95 149
61 96 147
62 97 156
62 97 150
61 97 156
62 97 157
61 97 156
61 97 156
60 95 144
62 98 160
61 95 154
61 96 149
60 94 144
62 97 157
60 94 148
60 94 145
60 94 150
61 96 158
60 95 151
60 93 145
60 94 146
60 94 150
59 92 147
59 92 144
61 95 149
58 91 145
69 99 154
194 212 238
214 232 255
214 232 255
214 232 255
214 232 255
214 232 255
214 232 255
214 232 255
214 232 255
214 232 255
213 231 254
196 206 208
182 190 184
171 178 169
167 175 167
170 178 174
170 179 172
160 167 156
149 157 151
164 171 159
164 173 168
153 160 143
157 164 152
153 156 129
156 162 142
156 161 142
160 166 149
158 163 141
163 168 144
168 171 148
152 155 127
163 167 140
159 161 130
153 156 126
160 162 128
166 169 143
166 165 122
165 168 136
159 159 119
159 158 114
166 166 127
167 168 132
168 167 126
160 161 121
159 158 112
157 158 118
168 167 125
164 163 122
167 165 114
171 168 121
164 163 114
173 170 118
170 167 115
173 170 114
168 165 116
171 169 119
179 178 136
167 165 111
172 169 118
172 168 113
176 172 121
170 167 113
176 171 113
168 166 113
171 167 106
172 169 110
174 170 118
173 170 113
171 166 99
173 169 112
174 170 108
175 171 116
173 170 111
176 171 109
173 168 108
177 172 115
180 176 122
176 173 115
178 174 118
181 177 125
179 174 118
179 175 122
181 177 126
175 172 114
179 175 121
177 173 115
178 174 115
175 171 112
181 178 127
180 176 123
177 172 111
179 175 118
177 172 112
181 177 125
180 176 119
179 173 113
178 174 115
181 175 115
182 178 126
179 174 116
176 172 110
180 178 132
179 175 118
181 177 125
182 180 134
178 175 122
177 173 113
179 175 120
180 176 119
182 177 124
180 177 126
182 176 120
180 176 124
182 179 134
180 177 123
179 175 121
180 176 121
182 179 131
180 178 128
179 175 121
184 181 134
176 171 110
181 177 125
186 185 145
182 178 126
185 184 142
183 179 126
182 181 138
181 177 121
182 179 131
181 178 126
179 177 126
178 176 124
181 178 129
183 181 138
184 182 140
182 183 144
185 185 149
181 176 122
182 183 144
178 174 120
185 182 136
186 185 147
182 180 134
181 180 134
187 187 155
183 182 142
189 188 153
181 180 135
184 183 141
185 185 148
185 185 148
179 175 119
183 182 141
188 205 228
187 205 228
186 204 228
187 204 228
186 204 228
186 204 228
185 203 228
186 204 228
186 204 228
185 204 228
186 204 228
186 204 228
185 204 228
184 203 228
185 204 228
185 204 228
185 203 228
184 203 228
185 204 228
184 203 228
185 203 228
184 203 228
184 203 228
183 202 228
183 203 228
184 203 228
184 203 228
184 203 228
183 202 228
184 203 228
183 202 228
183 202 228
183 203 228
183 203 228
183 202 228
182 202 228
183 202 228
182 202 228
183 202 228
182 202 228
182 202 228
182 202 228
182 202 228
182 202 228
182 202 228
182 202 228
181 201 228
182 202 228
181 201 228
181 201 228
180 201 228
181 201 228
180 201 228
182 202 228
181 201 228
181 202 228
181 201 228
181 201 228
180 201 228
180 201 228
181 201 228
179 200 228
180 201 228
180 201 228
179 200 228
180 201 228
179 201 228
180 201 228
179 200 228
179 200 228
179 200 228
179 200 228
178 200 228
178 200 228
179 200 228
177 199 228
178 200 228
178 200 228
179 200 228
177 199 228
178 200 228
177 199 228
179 200 228
178 200 228
177 199 228
177 199 228
177 199 228
177 199 228
178 200 228
177 199 228
176 199 228
177 199 228
176 199 228
177 199 228
177 199 228
177 199 228
176 199 228
176 199 228
176 199 228
176 198 228
175 198 228
175 198 228
176 199 228
176 199 228
176 198 228
176 199 228
177 199 228
176 199 228
176 198 228
175 198 228
176 199 228
176 199 228
176 199 228
175 198 228
176 199 228
175 198 228
174 197 228
170 193 224
166 189 221
166 189 220
159 182 215
159 181 215
157 180 215
149 172 210
155 178 213
149 173 209
141 164 202
148 172 209
144 167 206
128 151 194
144 167 203
145 168 205
143 166 205
144 167 205
148 170 205
157 178 213
154 176 210
167 188 218
170 191 221
181 201 227
184 203 229
187 206 230
195 212 236
206 224 247
215 232 255
215 232 255
215 232 255
215 232 255
215 232 255
215 232 255
215 232 255
215 232 255
215 232 255
134 154 194
56 91 157
60 94 156
59 94 156
59 94 152
60 95 152
59 94 152
61 96 162
61 96 154
62 98 164
61 96 155
60 96 151
61 97 153
59 94 142
61 96 153
60 95 150
62 97 157
60 95 148
60 95 145
60 95 145
61 97 161
62 97 158
61 97 149
60 95 148
60 95 148
60 95 151
62 97 158
61 96 152
60 95 144
60 96 149
61 97 156
62 97 151
61 97 154
60 96 154
61 97 154
61 97 154
61 97 155
61 96 152
62 99 164
61 97 153
61 96 152
62 97 155
62 97 156
62 98 156
61 97 151
61 97 156
61 96 149
62 97 149
63 98 159
61 97 150
61 97 152
62 97 154
62 98 157
62 98 158
62 97 155
61 96 155
61 96 145
61 97 152
61 96 150
63 98 161
61 97 154
61 96 146
61 96 153
62 97 156
62 97 152
61 96 149
60 95 152
62 97 149
61 97 151
61 96 149
62 97 147
63 98 158
62 97 159
61 95 147
62 97 157
62 97 158
61 96 153
61 96 149
60 95 143
60 94 146
61 96 151
60 95 149
61 94 146
60 94 146
59 93 150
60 94 149
61 95 155
60 93 148
59 92 142
60 94 151
58 91 145
60 93 151
59 92 146
134 153 188
215 232 255
215 232 255
215 232 255
215 232 255
215 232 255
215 232 255
215 232 255
215 232 255
215 232 255
207 222 238
185 192 183
177 184 177
170 178 169
171 179 170
171 179 171
156 166 159
170 177 160
154 161 147
162 169 155
159 168 162
157 165 154
161 167 147
154 159 137
158 164 150
159 165 146
146 152 131
150 154 126
154 159 137
163 166 142
161 165 136
156 159 133
150 154 125
162 166 140
164 166 133
159 163 138
159 159 125
161 162 127
156 157 119
162 163 127
158 158 120
160 162 125
159 158 109
164 163 118
165 164 119
162 161 118
162 161 112
165 164 115
171 169 124
167 164 113
161 159 106
169 166 120
168 166 114
170 166 114
168 166 111
168 168 124
165 165 120
171 168 117
170 166 110
169 165 109
175 173 124
171 168 119
171 168 109
170 167 112
176 173 121
166 164 107
173 170 116
175 171 115
176 172 116
176 173 120
171 168 109
179 175 122
178 173 114
177 173 118
179 176 124
181 175 117
174 170 110
177 172 114
179 175 118
180 174 113
175 171 108
177 173 115
178 173 113
180 175 118
178 174 120
178 173 112
177 173 115
179 174 117
182 179 131
176 172 111
180 175 120
181 177 125
178 173 113
176 172 112
180 176 124
179 174 113
179 174 114
179 175 119
180 176 123
179 174 113
178 175 120
180 176 120
177 173 115
178 174 116
178 174 116
179 177 125
183 180 132
181 175 117
178 173 113
180 176 125
176 172 109
179 176 124
180 177 127
180 178 129
179 176 125
181 177 126
183 180 135
182 180 133
180 176 123
183 181 134
186 183 140
180 176 125
180 180 135
178 173 112
180 177 125
182 180 134
178 175 122
183 182 139
181 179 130
177 173 112
182 180 136
179 177 126
181 179 131
184 181 137
184 181 134
184 181 135
183 181 135
186 185 148
181 178 129
182 180 136
184 183 142
184 182 138
183 180 133
184 182 137
184 183 144
184 183 141
186 185 147
185 185 148
183 181 138
187 186 149
184 184 146
188 188 156
184 181 133
188 190 161
187 205 228
187 204 228
188 205 228
186 204 228
186 204 228
186 204 228
187 205 228
186 204 228
186 204 228
185 203 228
185 204 228
186 204 228
186 204 228
186 204 228
185 204 228
186 204 228
185 203 228
185 204 228
185 203 228
185 204 228
184 203 228
185 204 228
185 204 228
185 203 228
184 203 228
185 203 228
185 203 228
184 203 228
184 203 228
184 203 228
183 203 228
184 203 228
183 202 228
183 202 228
183 202 228
184 203 228
183 203 228
182 202 228
183 203 228
183 202 228
182 202 228
183 202 228
182 202 228
182 202 228
182 202 228
183 202 228
183 202 228
181 202 228
182 202 228
182 202 228
181 201 228
182 202 228
183 202 228
181 202 228
182 202 228
181 201 228
182 202 228
181 201 228
181 201 228
181 201 228
180 201 228
181 201 228
180 201 228
181 201 228
179 200 228
180 201 228
181 201 228
179 200 228
181 201 228
181 201 228
180 201 228
179 200 228
180 201 228
179 200 228
179 200 228
179 200 228
179 200 228
178 200 228
179 200 228
179 200 228
179 200 228
179 200 228
178 200 228
178 200 228
179 200 228
178 200 228
178 200 228
177 199 228
178 200 228
178 200 228
177 199 228
179 200 228
178 200 228
178 200 228
178 200 228
177 199 228
178 200 228
177 199 228
178 200 228
178 200 228
177 199 228
177 199 228
177 199 228
176 199 228
177 199 228
177 199 228
176 199 228
177 199 228
177 199 228
177 199 228
177 199 228
177 199 228
177 199 228
176 199 228
177 199 228
176 198 228
165 187 220
173 195 226
165 187 220
156 179 212
157 180 215
157 180 212
154 177 213
146 170 207
136 160 199
135 158 197
131 155 196
134 157 197
135 158 199
131 155 196
126 149 192
135 158 199
131 154 196
139 162 200
137 159 198
142 163 201
148 170 205
158 179 211
156 177 209
169 189 217
181 200 227
186 205 230
193 211 235
197 214 237
215 232 255
215 232 255
215 232 255
215 232 255
215 232 255
215 232 255
215 232 255
215 232 255
202 220 245
73 102 157
59 93 156
60 95 159
60 95 155
60 95 150
60 95 159
59 94 149
60 95 155
58 93 145
61 97 158
60 95 148
61 96 152
60 95 144
61 96 150
61 96 157
61 96 148
60 94 145
61 97 156
61 97 155
60 96 150
61 96 154
61 97 156
61 97 153
61 96 150
61 96 147
62 98 159
62 97 155
61 97 154
61 97 156
60 96 145
62 98 158
61 96 154
62 97 154
61 97 150
61 97 153
61 97 155
61 97 144
61 97 149
61 96 156
61 96 150
62 97 155
62 97 149
61 96 138
62 97 154
62 98 162
62 97 153
61 96 150
61 96 150
61 96 151
61 96 158
62 98 159
61 96 148
62 97 155
62 98 160
63 98 159
61 96 151
60 94 140
61 97 149
60 96 146
62 98 155
61 97 147
61 96 153
61 96 146
61 97 150
61 95 147
61 96 154
62 97 150
61 95 147
61 97 154
62 97 148
60 95 140
61 96 152
61 96 153
60 95 148
61 96 146
61 96 152
61 95 144
61 95 147
61 95 150
61 95 153
60 94 144
61 95 144
60 95 149
59 93 145
60 95 148
60 94 149
60 95 149
60 94 150
59 92 143
61 94 148
60 92 147
60 93 151
56 88 134
62 92 142
199 217 241
215 232 255
215 232 255
215 232 255
215 232 255
215 232 255
215 232 255
215 232 255
215 232 254
195 204 205
173 181 174
176 186 184
173 181 173
163 171 163
166 173 160
159 168 163
160 169 164
154 162 152
154 162 151
153 158 136
154 160 141
159 164 145
158 164 147
158 162 136
153 159 146
160 165 141
157 161 136
157 163 145
158 162 135
151 155 126
164 167 140
155 157 123
162 163 127
149 152 124
161 163 128
155 157 123
161 162 125
157 157 116
160 160 115
163 166 136
164 166 133
157 158 116
164 163 122
160 161 119
159 158 111
167 165 114
172 172 131
165 164 116
163 162 113
162 161 117
165 164 115
164 162 115
175 171 116
165 164 116
171 168 114
172 169 118
167 165 114
163 161 101
168 164 105
171 168 116
169 166 111
171 166 108
175 172 119
174 169 107
176 173 122
171 167 108
176 171 115
172 168 108
175 171 113
173 169 110
173 169 113
173 170 109
173 170 114
176 171 110
176 171 107
175 172 114
178 174 119
175 170 110
177 172 110
172 167 102
177 173 119
177 172 112
176 172 108
174 169 105
177 172 109
176 172 114
177 171 105
177 174 118
178 172 110
176 173 113
180 175 118
177 173 113
177 174 119
179 175 120
177 172 108
180 176 122
180 176 120
177 172 110
180 178 130
179 174 113
177 171 106
181 177 122
181 176 121
179 175 118
181 178 130
176 172 109
179 174 115
183 178 125
180 178 130
180 176 118
178 173 113
178 176 125
181 177 124
181 176 120
180 178 133
176 172 109
185 183 142
177 173 113
180 177 124
181 180 133
181 178 126
180 179 132
180 177 126
182 179 130
181 179 130
184 181 136
181 178 127
184 181 134
182 180 134
179 176 121
179 177 126
185 183 140
181 179 133
183 180 133
189 187 151
184 182 138
182 179 133
185 182 137
182 179 133
184 183 141
182 180 135
182 180 133
182 180 132
188 187 151
183 181 135
184 182 139
185 184 143
184 182 141
182 181 136
183 180 137
180 177 129
186 186 150
184 183 142
188 205 228
188 205 228
187 204 228
189 206 228
187 204 228
188 205 228
187 205 228
186 204 228
186 204 228
187 204 228
187 204 228
187 205 228
187 205 228
186 204 228
186 204 228
185 204 228
185 203 228
186 204 228
186 204 228
185 203 228
184 203 228
186 204 228
186 204 228
186 204 228
185 203 228
186 204 228
184 203 228
185 203 228
185 203 228
184 203 228
185 203 228
183 203 228
184 203 228
184 203 228
184 203 228
184 203 228
185 203 228
185 203 228
183 203 228
184 203 228
182 202 228
183 202 228
183 202 228
182 202 228
183 203 228
183 202 228
183 202 228
184 203 228
182 202 228
182 202 228
182 202 228
183 203 228
182 202 228
182 202 228
181 202 228
182 202 228
182 202 228
181 202 228
181 201 228
181 201 228
181 201 228
182 202 228
182 202 228
181 201 228
181 201 228
182 202 228
181 201 228
180 201 228
181 201 228
180 201 228
181 201 228
181 201 228
181 201 228
180 201 228
180 201 228
181 201 228
179 200 228
180 201 228
180 201 228
180 201 228
180 201 228
179 200 228
180 201 228
179 200 228
179 200 228
179 200 228
179 200 228
179 200 228
178 200 228
179 200 228
179 200 228
178 200 228
179 200 228
179 200 228
178 200 228
179 200 228
177 199 228
178 200 228
178 200 228
179 200 228
178 200 228
178 200 228
178 200 228
177 199 228
178 200 228
177 199 228
178 200 228
179 200 228
178 200 228
178 199 228
177 199 228
178 200 228
178 200 228
177 199 228
174 196 226
171 193 222
171 193 224
168 190 222
166 188 220
160 183 214
154 177 212
145 168 204
143 166 203
137 161 199
140 163 203
142 165 204
132 156 198
133 157 197
123 147 189
120 143 186
127 150 191
123 146 188
127 150 192
137 160 200
124 147 192
134 156 196
136 158 198
138 159 198
147 168 204
157 177 209
168 188 217
181 200 227
188 206 230
193 210 234
210 227 251
215 232 255
215 232 255
215 232 255
215 232 255
215 232 255
215 232 255
215 232 255
143 162 202
57 91 157
59 93 158
60 95 154
59 94 148
58 93 149
59 94 153
59 93 146
61 96 154
60 95 155
61 96 153
60 95 144
62 98 163
61 96 153
60 95 147
61 97 161
61 96 155
60 95 146
61 96 147
60 94 144
61 96 147
61 97 152
62 97 157
61 97 156
62 97 155
61 96 153
61 97 157
63 99 160
61 96 150
60 95 143
60 95 140
61 97 146
61 97 153
61 96 148
62 98 159
60 95 151
62 97 154
62 98 154
61 97 153
62 97 156
61 96 151
60 95 148
62 98 156
61 97 157
63 98 158
60 95 142
61 97 154
61 95 145
61 97 155
61 96 145
60 95 140
62 98 154
60 95 150
61 97 153
61 97 153
62 98 159
60 96 149
61 97 152
62 98 157
61 96 150
60 95 141
62 97 154
62 98 161
62 97 152
62 97 148
62 97 155
60 96 151
61 96 148
61 96 144
60 94 143
59 93 139
63 98 161
62 97 151
61 96 147
62 97 150
61 96 149
61 96 149
61 95 154
60 95 151
62 97 158
62 97 159
61 94 149
61 95 147
60 93 147
60 95 148
61 95 148
60 95 145
61 94 149
59 92 145
61 95 153
60 93 140
59 92 139
60 92 146
59 91 147
59 91 146
157 176 205
215 232 255
215 232 255
215 232 255
215 232 255
215 232 255
215 232 255
215 232 255
202 215 224
176 183 173
170 176 161
157 164 153
168 175 163
167 175 165
157 164 154
165 174 167
148 156 147
151 159 150
153 161 148
152 159 147
151 158 144
151 158 142
156 162 144
145 149 124
151 156 138
150 154 131
150 154 128
153 158 134
152 157 135
154 155 118
152 154 125
151 153 115
162 163 124
159 162 136
156 158 120
152 154 121
152 153 120
164 165 129
159 161 129
163 163 124
162 163 127
160 160 114
165 166 125
168 167 121
163 162 111
162 162 117
163 161 108
164 163 113
164 163 114
165 162 106
159 158 108
161 160 108
163 161 110
170 167 116
167 163 103
170 168 115
173 170 118
170 168 113
169 166 108
168 165 107
171 168 112
164 162 109
168 166 118
169 166 110
173 169 109
174 170 112
170 166 103
177 171 110
173 169 111
173 168 104
175 171 111
176 171 107
177 173 118
171 167 109
176 171 110
172 169 109
174 170 109
176 171 110
177 171 112
178 174 116
180 176 121
177 173 113
173 169 105
178 173 112
181 176 119
175 171 108
178 173 113
179 175 120
179 175 117
181 175 117
181 177 125
182 176 118
178 173 112
177 171 106
179 175 117
176 172 109
178 175 122
182 177 123
178 172 109
179 173 109
179 176 122
180 177 123
180 175 118
181 176 117
176 173 112
178 173 112
179 174 117
177 174 117
177 173 110
178 174 116
181 178 128
183 180 132
182 178 128
181 179 130
179 175 117
180 176 123
176 173 116
180 177 124
181 177 124
181 178 130
181 179 129
184 182 137
184 180 132
180 178 132
180 176 122
182 178 125
182 178 127
182 178 127
181 178 128
182 179 129
178 176 124
181 180 134
178 176 126
184 182 136
180 178 132
182 178 125
183 182 140
181 178 129
184 183 143
180 176 123
182 180 132
181 178 129
184 183 142
180 178 129
180 178 126
186 184 143
181 179 134
183 182 142
181 180 135
182 181 139
183 182 138
184 183 142
185 186 151
188 205 228
187 205 228
189 206 228
188 205 228
188 205 228
188 205 228
187 205 228
187 205 228
187 205 228
188 205 228
186 204 228
187 205 228
187 205 228
187 205 228
187 204 228
187 204 228
186 204 228
186 204 228
187 204 228
187 204 228
186 204 228
186 204 228
186 204 228
186 204 228
186 204 228
185 204 228
186 204 228
186 204 228
185 203 228
185 203 228
185 203 228
184 203 228
185 203 228
185 203 228
185 203 228
185 204 228
184 203 228
185 203 228
184 203 228
183 203 228
184 203 228
184 203 228
184 203 228
184 203 228
183 202 228
183 202 228
184 203 228
183 203 228
182 202 228
183 203 228
183 202 228
184 203 228
183 202 228
183 202 228
183 202 228
182 202 228
181 201 228
183 203 228
183 202 228
181 202 228
182 202 228
182 202 228
183 202 228
182 202 228
182 202 228
182 202 228
182 202 228
182 202 228
183 202 228
181 201 228
181 201 228
180 201 228
181 201 228
181 201 228
180 201 228
180 201 228
181 201 228
180 201 228
181 201 228
181 201 228
180 201 228
180 201 228
180 201 228
181 201 228
180 201 228
181 201 228
180 201 228
179 200 228
179 200 228
180 201 228
180 201 228
179 200 228
180 201 228
179 201 228
180 201 228
179 200 228
179 200 228
179 200 228
179 200 228
179 200 228
180 201 228
179 200 228
179 200 228
179 201 228
180 201 228
179 200 228
178 200 228
179 200 228
179 200 228
178 200 228
179 200 228
179 200 228
177 199 228
178 200 228
171 193 223
169 191 221
170 192 223
166 188 219
162 184 216
155 178 213
150 173 209
147 169 204
138 161 199
137 160 194
134 157 196
129 152 194
133 156 197
128 151 192
123 147 190
115 139 183
115 139 182
104 128 176
119 142 183
115 138 183
110 133 179
123 145 189
133 155 195
135 156 195
145 166 200
148 168 203
158 177 208
176 194 221
184 202 228
191 209 233
200 216 239
216 232 255
216 232 255
216 232 255
216 232 255
215 232 255
215 232 255
215 231 255
81 108 167
58 93 157
59 93 159
60 95 158
59 94 156
60 96 151
58 92 152
59 93 147
60 95 150
60 95 151
59 93 145
61 97 162
60 95 145
61 96 155
63 98 161
60 95 148
61 96 145
60 95 148
61 97 152
61 96 153
61 96 148
60 96 149
60 96 144
61 96 148
61 97 153
61 96 157
61 96 147
61 96 149
61 97 155
61 96 145
60 95 145
62 98 162
62 98 164
61 97 153
61 97 153
61 97 152
61 96 151
61 97 155
61 96 151
61 97 154
62 97 155
61 96 147
61 96 145
61 96 150
60 95 146
60 95 140
62 97 153
60 95 141
61 96 143
62 98 157
61 96 148
63 98 158
61 96 152
61 97 151
62 97 154
62 97 157
62 98 156
60 95 148
61 96 138
61 96 145
62 97 153
62 97 153
62 97 149
60 95 144
61 96 152
61 96 144
59 93 134
62 96 152
60 95 148
61 95 140
61 96 142
60 95 145
60 94 143
61 96 152
61 96 153
61 96 148
61 95 146
61 96 156
61 95 151
61 95 146
61 96 147
60 94 141
61 96 155
60 95 155
61 95 147
60 94 151
60 94 144
59 93 149
61 95 146
61 95 147
60 94 146
60 94 149
58 90 145
58 90 145
57 87 134
84 108 152
213 230 254
215 232 255
215 232 255
216 232 255
216 232 255
216 232 255
216 232 255
193 203 200
175 183 179
172 181 178
155 161 147
158 166 157
154 162 155
157 167 164
165 173 168
147 157 156
150 157 146
134 141 122
133 140 121
146 150 123
159 164 148
148 152 128
148 154 136
151 156 135
150 154 125
156 159 133
149 154 128
157 159 127
149 152 119
160 162 129
157 158 122
155 158 131
154 155 116
158 158 118
162 162 125
152 153 113
157 157 119
156 156 111
160 160 116
156 156 109
164 163 116
157 158 117
161 160 114
167 166 117
169 168 123
158 156 107
163 161 111
169 167 118
164 161 106
172 168 117
167 164 108
172 168 108
168 164 110
165 161 105
164 160 99
166 162 105
175 173 124
169 164 105
172 168 110
172 167 110
170 167 113
169 166 110
172 168 107
177 172 112
169 166 106
178 174 119
176 172 117
171 166 108
172 168 108
172 167 102
174 171 115
170 167 110
174 169 104
172 168 100
175 170 106
178 172 112
177 173 113
176 171 113
177 172 112
176 172 110
176 174 120
176 171 110
181 178 130
176 172 112
179 174 116
175 171 109
178 173 113
176 171 108
177 172 111
173 172 115
178 174 121
177 172 112
177 172 110
177 176 127
176 171 105
176 171 103
180 177 124
178 173 112
178 174 115
178 173 110
180 179 132
177 173 110
179 174 115
178 175 120
175 172 113
178 175 121
177 173 115
178 175 122
179 175 118
175 171 109
181 178 129
181 177 124
182 176 120
179 176 121
181 179 132
179 174 115
182 177 122
177 173 115
182 178 124
179 174 116
181 178 127
182 178 127
182 181 135
180 177 123
183 181 136
178 174 117
178 175 121
183 179 129
178 174 117
182 179 131
181 179 131
181 178 127
182 179 131
183 181 134
184 183 143
182 182 140
183 182 141
184 182 137
180 178 128
183 181 136
182 180 133
184 181 134
181 180 138
184 181 134
181 177 127
181 178 126
186 185 144
183 181 137
179 176 120
183 184 144
186 184 144
181 178 127
188 205 228
189 206 228
189 205 228
189 206 228
189 206 228
188 205 228
187 205 228
188 205 228
188 205 228
189 206 228
188 205 228
188 205 228
187 205 228
187 204 228
187 205 228
188 205 228
187 205 228
187 205 228
187 205 228
187 204 228
187 204 228
186 204 228
187 205 228
186 204 228
187 205 228
186 204 228
187 205 228
186 204 228
186 204 228
186 204 228
186 204 228
186 204 228
186 204 228
185 204 228
185 204 228
186 204 228
185 204 228
185 204 228
184 203 228
185 203 228
185 204 228
185 203 228
185 204 228
184 203 228
184 203 228
184 203 228
184 203 228
184 203 228
184 203 228
183 203 228
183 203 228
183 203 228
184 203 228
184 203 228
184 203 228
183 202 228
184 203 228
183 203 228
183 203 228
183 202 228
184 203 228
182 202 228
183 202 228
184 203 228
183 202 228
183 202 228
182 202 228
182 202 228
183 202 228
183 202 228
183 202 228
181 202 228
181 201 228
183 202 228
181 202 228
183 202 228
181 202 228
182 202 228
181 202 228
183 202 228
181 201 228
180 201 228
181 202 228
182 202 228
181 201 228
181 202 228
181 201 228
182 202 228
181 201 228
179 200 228
181 201 228
180 201 228
180 201 228
181 201 228
180 201 228
180 201 228
180 201 228
180 201 228
180 201 228
180 201 228
180 201 228
180 201 228
180 201 228
180 201 228
180 201 228
181 201 228
179 200 228
179 200 228
179 200 228
179 200 228
180 201 228
180 201 228
178 199 227
176 196 224
173 194 224
169 190 220
168 190 219
164 186 217
162 184 215
140 162 198
152 174 209
141 164 200
137 160 196
130 152 193
134 157 197
120 144 186
115 138 181
117 141 185
108 132 177
108 132 179
106 130 177
110 134 177
104 127 174
103 127 172
109 133 179
98 122 170
109 132 176
112 134 179
122 143 186
141 162 196
155 174 207
162 181 212
178 196 222
188 205 230
195 212 234
210 227 250
216 233 255
216 233 255
216 233 255
216 232 255
216 232 255
190 207 234
56 89 149
56 89 145
59 93 148
59 94 150
59 93 149
58 93 143
60 95 154
59 94 155
59 94 144
60 96 155
60 95 153
60 95 148
60 94 141
59 94 150
61 97 155
61 96 150
61 96 148
60 95 146
61 97 153
59 94 142
59 94 141
60 95 148
61 97 157
61 97 148
60 96 143
62 97 155
61 96 149
60 96 149
60 96 146
60 95 142
60 94 145
60 95 138
62 98 155
59 94 134
60 96 144
61 96 144
59 94 142
61 96 150
60 95 143
61 96 152
61 97 144
61 97 153
61 96 148
61 96 145
61 96 143
61 96 148
62 97 154
62 97 155
61 96 151
62 98 162
62 97 150
60 95 142
61 96 148
61 96 149
62 98 155
61 97 147
61 96 142
62 97 149
61 97 143
62 97 153
61 96 149
62 96 150
60 96 151
61 95 141
61 96 145
61 96 147
61 96 149
61 96 145
61 96 149
60 94 138
61 94 147
60 94 142
62 97 153
61 96 145
59 93 141
59 93 135
63 98 161
61 96 152
60 95 148
59 93 141
61 95 152
60 95 149
60 95 146
61 96 154
62 96 156
61 95 152
61 95 148
59 91 140
61 94 148
59 92 142
60 94 145
59 91 138
60 93 149
58 90 141
58 90 140
58 89 141
190 207 234
216 232 255
216 232 255
216 233 255
216 233 255
216 233 255
208 222 237
177 185 177
169 177 171
167 175 166
158 165 158
151 161 160
145 154 148
149 156 140
146 154 145
142 147 124
143 150 135
141 148 132
144 151 139
143 150 137
154 159 142
143 149 129
140 146 126
158 162 138
159 162 133
147 153 132
144 148 122
154 158 133
146 150 124
152 155 124
147 149 114
154 157 127
146 148 113
157 158 125
153 154 118
155 156 118
158 160 123
157 159 125
156 156 115
169 168 130
159 158 108
160 159 111
166 165 116
161 160 113
159 158 108
160 158 105
168 165 113
161 159 104
162 159 106
163 160 103
165 162 110
167 164 104
168 165 113
165 163 108
168 164 106
172 168 112
170 166 109
173 170 116
172 169 119
170 166 108
169 165 102
173 169 112
173 169 114
174 169 112
175 170 111
170 165 105
170 166 102
174 169 108
174 169 110
170 166 96
169 164 102
173 168 108
178 173 111
174 169 107
174 170 109
176 171 109
173 168 106
176 172 113
174 168 100
173 168 104
174 171 110
175 171 108
177 172 109
176 173 113
174 169 102
175 173 118
179 173 112
177 172 109
177 172 111
177 172 112
176 171 110
177 172 109
177 172 113
177 173 111
181 175 117
173 168 102
176 171 105
177 172 110
181 177 121
177 172 110
176 171 104
179 175 120
176 170 101
178 173 112
181 176 118
181 176 121
177 174 116
179 174 112
178 174 118
181 177 122
178 174 117
177 173 113
177 172 110
180 175 115
176 175 122
179 177 124
181 176 118
182 177 122
182 178 126
179 176 121
181 177 124
181 177 127
178 174 117
182 180 134
179 175 118
181 178 125
180 177 126
182 179 131
180 177 123
176 173 113
181 179 131
181 177 124
180 176 123
179 176 122
178 175 120
183 184 144
179 177 127
185 182 136
183 182 137
182 179 131
185 183 142
181 177 123
185 183 142
181 178 127
183 181 135
184 182 139
183 183 144
185 185 147
184 182 138
184 183 140
186 183 139
185 185 148
190 206 228
189 206 228
190 206 228
189 206 228
188 205 228
188 205 228
187 205 228
189 206 228
188 205 228
187 205 228
188 205 228
188 205 228
188 205 228
188 205 228
188 205 228
188 205 228
189 205 228
188 205 228
188 205 228
188 205 228
187 205 228
187 204 228
187 205 228
188 205 228
187 205 228
187 204 228
187 204 228
187 205 228
185 204 228
187 205 228
187 205 228
187 205 228
186 204 228
187 204 228
185 204 228
187 204 228
186 204 228
185 204 228
187 204 228
186 204 228
187 205 228
186 204 228
185 203 228
185 204 228
185 203 228
186 204 228
185 203 228
184 203 228
185 203 228
185 203 228
185 203 228
184 203 228
185 203 228
184 203 228
185 203 228
185 203 228
184 203 228
185 203 228
184 203 228
184 203 228
184 203 228
184 203 228
184 203 228
183 202 228
184 203 228
184 203 228
183 202 228
183 203 228
183 203 228
184 203 228
183 203 228
184 203 228
182 202 228
185 203 228
182 202 228
184 203 228
183 202 228
183 202 228
182 202 228
183 202 228
182 202 228
182 202 228
182 202 228
181 201 228
181 201 228
182 202 228
182 202 228
182 202 228
182 202 228
181 201 228
182 202 228
180 201 228
181 201 228
182 202 228
181 201 228
182 202 228
181 201 228
181 201 228
181 201 228
182 202 228
181 201 228
182 202 228
181 201 228
182 202 228
181 201 228
180 201 228
180 201 228
181 201 228
181 201 228
180 201 228
180 201 228
180 201 228
176 197 225
174 194 224
173 194 223
166 186 216
161 182 213
150 172 203
146 168 204
143 165 200
137 159 197
144 166 204
131 153 191
131 153 190
117 141 186
122 145 186
120 143 184
108 132 179
103 127 173
119 143 187
92 117 164
91 115 165
96 120 168
88 112 164
84 109 162
97 120 169
109 131 178
102 125 171
114 135 178
128 148 185
133 153 193
152 171 204
167 185 213
181 199 224
192 209 232
204 220 243
216 233 255
216 233 255
216 233 255
216 233 255
216 233 255
138 158 192
57 91 150
57 90 146
59 95 160
59 94 150
59 93 155
59 94 149
58 92 143
61 95 155
61 96 158
60 96 154
60 95 150
60 95 152
60 96 149
61 96 149
60 95 151
61 97 155
61 96 147
60 96 153
60 96 152
61 96 147
60 94 143
60 96 151
60 95 151
60 95 152
61 96 143
61 97 148
61 97 159
61 96 145
60 95 142
61 97 148
60 96 156
60 95 145
61 95 144
62 97 151
60 95 145
61 96 153
62 97 149
62 98 161
61 96 149
61 97 150
61 96 144
62 97 152
61 97 151
59 95 142
61 97 155
62 98 152
60 95 139
62 97 150
62 97 152
61 96 150
62 98 158
61 97 153
61 96 147
62 97 159
61 97 147
61 96 148
61 97 149
61 96 148
61 97 149
60 95 138
62 97 149
62 97 152
61 96 147
61 95 151
60 95 143
61 96 145
60 95 145
62 97 160
61 95 152
62 97 153
60 95 138
61 96 146
60 95 143
61 95 149
61 96 151
59 93 135
60 95 146
62 97 149
61 95 149
60 94 138
58 91 136
61 95 149
61 95 145
61 95 152
61 95 150
60 94 147
60 94 141
61 96 151
59 93 142
59 92 136
61 94 147
59 92 148
60 93 145
60 92 142
58 90 138
57 88 141
131 150 184
216 233 255
216 233 255
216 233 255
216 233 255
216 233 255
199 210 217
170 179 175
171 178 169
170 177 172
157 166 162
158 166 161
160 167 157
141 149 142
162 170 163
137 145 135
149 155 138
147 156 150
141 147 129
142 148 130
146 154 145
141 147 127
145 151 129
144 148 123
145 149 127
155 159 135
143 148 127
152 157 131
159 162 136
154 155 121
151 152 113
152 154 116
154 155 120
158 158 122
149 152 122
150 150 108
157 158 121
162 161 117
161 160 115
152 152 110
154 154 108
164 163 123
165 162 113
160 160 111
159 158 112
163 161 108
162 160 109
156 154 98
167 165 116
165 162 109
168 165 107
163 160 104
167 164 111
168 165 108
170 168 117
170 166 112
166 163 109
164 161 107
171 167 110
169 166 106
168 164 104
164 161 97
172 168 109
172 168 106
172 167 103
172 167 100
174 169 110
171 168 109
175 171 112
172 167 108
174 170 110
174 169 106
174 170 110
173 169 106
176 171 110
173 168 101
175 170 105
178 173 115
178 170 102
177 172 110
180 174 115
178 172 107
176 171 108
179 173 110
176 172 113
176 171 110
174 169 102
176 171 105
174 169 107
178 173 113
172 167 92
175 170 108
179 172 107
176 171 103
178 173 112
178 173 115
176 170 108
178 172 105
175 170 103
177 173 118
176 171 109
180 176 124
176 172 113
176 170 104
177 172 111
179 176 121
180 175 116
182 177 120
176 173 115
179 175 117
179 176 125
177 174 121
177 173 115
181 178 127
180 175 119
180 176 122
180 177 127
182 178 128
180 177 122
180 177 124
178 175 117
183 180 133
182 178 127
180 177 124
178 175 122
182 180 134
182 178 125
180 176 122
177 173 113
180 177 126
179 177 125
183 181 134
180 178 127
179 177 127
182 179 130
181 177 122
182 178 126
183 181 137
182 181 136
181 177 122
182 178 123
184 183 141
185 183 140
187 187 151
182 181 136
179 175 119
186 185 147
187 187 151
188 187 150
184 180 129
182 183 146
187 186 147
190 206 228
189 206 228
190 206 228
189 206 228
188 205 228
189 206 228
190 207 228
189 205 228
191 207 228
190 206 228
188 205 228
189 206 228
189 205 228
189 206 228
189 206 228
188 205 228
189 206 228
188 205 228
188 205 228
188 205 228
188 205 228
188 205 228
187 204 228
188 205 228
187 205 228
187 205 228
187 205 228
188 205 228
187 205 228
187 204 228
187 205 228
187 205 228
188 205 228
188 205 228
187 205 228
186 204 228
188 205 228
187 205 228
186 204 228
186 204 228
187 205 228
186 204 228
187 204 228
186 204 228
187 205 228
187 205 228
187 205 228
185 204 228
185 204 228
185 204 228
184 203 228
186 204 228
186 204 228
185 204 228
185 204 228
185 204 228
184 203 228
185 203 228
183 203 228
184 203 228
185 203 228
184 203 228
185 204 228
184 203 228
184 203 228
185 203 228
184 203 228
184 203 228
184 203 228
184 203 228
184 203 228
183 203 228
184 203 228
184 203 228
185 203 228
184 203 228
184 203 228
183 202 228
183 202 228
183 202 228
183 203 228
184 203 228
184 203 228
183 202 228
184 203 228
183 202 228
184 203 228
183 202 228
183 202 228
182 202 228
182 202 228
182 202 228
183 202 228
183 202 228
182 202 228
181 202 228
181 201 228
181 202 228
181 201 228
182 202 228
182 202 228
182 202 228
181 201 228
181 201 228
183 202 228
182 202 228
182 202 228
181 201 228
181 202 228
181 202 228
180 201 228
182 202 228
175 195 223
165 185 216
170 191 220
161 181 212
156 177 208
149 170 202
143 164 201
149 170 204
140 162 198
137 159 194
130 153 191
126 149 188
113 137 178
103 127 173
106 130 173
103 128 173
96 121 168
81 106 157
81 107 162
70 97 154
76 102 156
73 98 153
85 110 161
83 106 155
92 114 163
81 106 161
96 119 166
110 131 177
117 137 179
142 161 195
149 167 200
160 178 209
190 207 230
195 212 234
215 231 254
216 233 255
216 233 255
216 233 255
211 228 252
66 96 155
57 90 150
58 91 146
58 93 149
58 92 147
59 94 152
59 93 146
60 95 151
59 94 148
60 95 154
59 94 143
59 93 139
61 96 158
60 95 149
60 95 145
60 95 150
60 95 147
60 95 149
61 95 146
60 95 145
60 94 145
59 94 139
60 95 139
61 95 141
61 96 149
62 97 151
61 96 148
61 97 152
60 94 142
59 93 137
61 96 152
61 96 142
61 97 152
61 97 152
61 96 147
60 96 137
60 95 141
61 96 153
61 96 151
61 96 145
61 96 145
61 96 151
61 97 153
61 97 153
61 96 150
61 96 147
59 94 141
60 96 141
61 96 144
62 97 157
61 97 149
61 97 155
61 96 145
60 94 143
61 96 144
60 96 147
62 97 152
61 96 145
60 95 145
62 97 154
62 97 151
62 97 150
60 95 148
60 95 140
61 96 152
62 97 153
61 95 148
61 96 145
60 94 139
61 96 147
62 98 159
62 98 153
62 97 148
61 96 147
60 94 144
60 94 144
60 94 142
59 93 136
60 95 152
61 95 146
61 96 154
61 96 152
59 93 136
60 95 147
61 95 144
59 93 138
60 94 145
61 95 151
59 92 143
60 94 149
60 93 146
59 91 140
60 94 148
58 90 136
59 92 146
58 90 142
56 86 128
61 90 136
211 228 251
216 233 255
216 233 255
216 233 255
211 226 243
176 182 170
169 176 170
161 169 164
156 163 152
150 160 158
149 155 139
132 139 129
140 150 145
152 160 151
126 135 127
133 141 133
156 162 146
151 157 141
143 150 134
139 145 129
133 139 124
145 150 129
149 156 144
139 143 114
145 149 120
154 157 130
148 151 123
150 152 117
138 141 109
157 157 120
149 151 119
159 159 119
151 153 117
154 152 108
147 148 105
157 158 122
147 147 106
150 150 107
163 161 113
161 161 120
166 165 118
165 163 111
158 155 103
160 158 104
162 159 107
159 157 107
169 165 109
165 161 100
165 161 103
164 162 112
164 160 96
167 165 114
173 168 108
170 167 113
166 161 98
166 162 103
170 165 104
169 165 109
172 168 109
171 167 104
174 170 108
168 164 96
170 166 108
172 167 102
174 168 105
174 170 110
165 161 93
172 167 107
168 164 102
171 165 99
168 164 99
174 170 113
177 172 114
175 171 112
174 171 114
175 170 107
174 170 109
172 169 108
173 169 104
179 174 118
174 171 108
174 168 101
172 167 102
175 171 109
176 171 110
176 172 111
177 171 108
178 173 116
180 175 115
181 176 118
177 171 105
178 173 109
179 173 112
177 172 109
179 174 112
178 174 115
178 173 110
180 174 114
177 173 117
175 173 118
180 174 115
179 174 116
180 177 122
177 173 117
180 176 118
176 171 105
180 175 117
180 178 133
177 173 116
177 172 112
181 177 124
181 176 120
177 173 115
179 177 126
180 177 123
176 172 110
178 175 123
181 176 121
179 175 120
179 175 116
181 178 126
182 178 127
178 174 117
179 175 121
183 182 140
184 181 134
180 178 126
177 173 113
181 179 134
181 178 131
177 174 117
177 175 121
179 175 123
182 180 135
182 180 131
181 178 127
182 180 132
183 182 142
182 178 124
183 183 142
177 175 124
188 188 154
183 180 133
185 183 139
186 186 148
183 181 134
180 177 125
185 184 142
182 180 134
181 180 134
181 179 134
191 207 228
189 206 228
190 206 228
189 206 228
190 207 228
189 206 228
190 206 228
189 205 228
189 206 228
189 206 228
189 206 228
190 206 228
189 206 228
189 206 228
189 206 228
189 206 228
189 205 228
188 205 228
189 205 228
189 206 228
189 205 228
188 205 228
190 206 228
188 205 228
188 205 228
188 205 228
188 205 228
188 205 228
187 205 228
188 205 228
188 205 228
188 205 228
187 205 228
188 205 228
187 204 228
187 205 228
188 205 228
188 205 228
187 204 228
186 204 228
187 204 228
187 204 228
187 205 228
187 204 228
186 204 228
187 205 228
186 204 228
187 205 228
186 204 228
187 204 228
187 204 228
186 204 228
186 204 228
186 204 228
186 204 228
186 204 228
186 204 228
185 204 228
185 204 228
185 204 228
185 203 228
186 204 228
185 204 228
186 204 228
186 204 228
185 204 228
185 203 228
185 204 228
184 203 228
185 203 228
184 203 228
184 203 228
184 203 228
185 203 228
184 203 228
184 203 228
184 203 228
184 203 228
184 203 228
184 203 228
183 203 228
183 203 228
185 204 228
184 203 228
183 202 228
184 203 228
184 203 228
184 203 228
183 202 228
184 203 228
184 203 228
182 202 228
182 202 228
183 203 228
184 203 228
182 202 228
183 202 228
184 203 228
182 202 228
183 202 228
183 202 228
182 202 228
182 202 228
182 202 228
183 202 228
183 203 228
183 202 228
183 203 228
182 202 228
182 202 228
181 201 227
181 201 228
173 193 220
170 190 219
164 184 215
166 186 217
163 184 213
153 174 205
147 169 201
138 160 196
129 151 186
140 162 198
120 142 180
111 134 176
103 127 174
108 131 176
91 116 159
85 110 159
84 109 159
64 93 148
56 85 145
64 92 150
56 87 149
64 92 152
56 84 145
54 82 146
61 87 143
78 102 155
85 108 160
90 112 162
110 131 173
119 137 177
120 139 179
157 174 204
174 192 218
196 212 234
211 226 248
217 233 255
217 233 255
217 233 255
177 194 222
55 88 145
56 90 150
59 93 151
57 91 147
59 93 144
59 93 150
59 94 151
61 96 159
60 95 154
59 93 144
60 95 146
59 94 146
59 93 143
61 95 155
60 95 147
60 94 141
60 96 151
61 96 150
60 95 141
61 96 154
60 95 150
61 96 151
62 97 153
62 97 149
61 97 150
62 97 155
60 95 146
61 96 150
61 96 144
61 95 145
61 96 152
61 96 143
60 96 147
61 97 144
60 95 147
61 96 151
61 97 156
59 94 135
61 97 154
61 96 145
60 95 142
62 96 149
60 95 143
62 97 156
61 95 144
62 97 152
61 96 148
59 94 136
60 95 140
62 97 149
60 95 137
61 96 148
61 97 147
61 97 147
61 96 148
61 96 151
61 95 143
61 96 139
61 96 147
61 97 151
62 97 154
60 95 144
61 96 144
62 97 153
61 96 145
60 95 139
62 97 150
61 96 148
60 94 128
61 96 146
61 96 150
61 95 148
60 95 139
61 96 147
61 95 140
61 95 141
61 96 141
60 94 142
60 95 145
60 94 141
60 95 148
61 96 147
60 95 144
60 94 140
60 93 143
60 93 141
59 93 131
60 93 142
59 93 143
60 93 143
60 93 143
59 92 143
60 93 144
60 93 143
58 90 136
59 91 142
59 92 142
58 89 144
178 195 221
217 233 255
217 233 255
217 233 255
205 216 223
177 186 182
167 174 168
162 171 171
162 172 174
138 146 141
158 166 158
151 159 155
135 145 142
146 156 155
148 156 149
137 143 126
134 142 131
134 140 124
142 149 137
137 142 122
136 141 119
136 143 125
136 139 113
139 142 108
152 157 134
140 144 120
149 152 123
150 153 126
151 150 106
155 156 117
152 154 124
153 155 123
153 154 111
146 147 105
152 151 106
153 153 110
153 152 104
160 160 117
156 155 106
164 162 115
152 152 108
159 159 114
159 158 116
161 159 106
165 162 113
159 157 106
163 160 103
169 165 110
163 160 106
163 160 107
171 167 110
159 157 102
164 160 96
166 162 95
164 161 99
168 164 108
164 161 103
166 163 105
168 163 103
168 164 106
167 163 101
168 165 105
174 168 105
169 164 97
170 166 105
168 163 98
172 168 109
174 170 109
173 167 98
176 172 112
172 167 101
176 171 104
176 170 104
169 165 99
176 169 102
175 170 105
171 167 102
175 169 101
173 168 99
174 169 101
178 171 102
173 168 101
174 169 102
176 170 104
178 172 109
174 168 97
177 173 114
176 172 112
174 168 99
174 170 104
179 173 111
178 174 114
177 171 106
177 171 104
179 175 119
176 171 106
175 170 101
179 174 115
177 171 105
177 174 117
178 174 117
173 170 111
176 171 106
175 169 103
181 178 127
178 173 109
180 179 130
176 172 109
178 174 116
176 172 112
183 179 126
180 175 117
179 176 123
176 173 118
176 173 112
176 170 99
179 175 117
181 178 130
178 175 117
177 173 112
178 174 118
180 175 116
178 175 117
181 180 135
180 177 126
181 175 117
183 178 122
180 178 126
181 178 126
178 174 114
181 180 134
181 178 127
185 183 139
179 175 118
179 177 129
179 176 123
177 174 116
182 179 131
177 174 117
181 178 124
183 181 135
181 181 138
187 185 144
189 187 149
184 183 140
178 176 126
178 175 120
188 189 156
184 182 137
181 178 128
183 181 137
190 206 228
190 206 228
191 207 228
190 206 228
190 206 228
190 206 228
191 207 228
191 207 228
190 206 228
190 206 228
190 206 228
189 206 228
189 206 228
189 206 228
189 206 228
190 206 228
190 206 228
189 206 228
189 206 228
189 206 228
188 205 228
188 205 228
189 206 228
189 206 228
188 205 228
189 206 228
189 206 228
187 205 228
189 206 228
189 206 228
190 206 228
190 206 228
189 205 228
188 205 228
189 206 228
189 205 228
189 206 228
188 205 228
189 205 228
188 205 228
189 205 228
188 205 228
187 205 228
188 205 228
188 205 228
186 204 228
187 205 228
186 204 228
187 204 228
187 205 228
187 205 228
187 204 228
186 204 228
187 205 228
187 205 228
186 204 228
186 204 228
187 204 228
186 204 228
187 204 228
187 205 228
187 204 228
187 204 228
186 204 228
185 204 228
187 204 228
187 204 228
187 204 228
185 203 228
186 204 228
187 204 228
186 204 228
184 203 228
187 204 228
185 203 228
186 204 228
185 204 228
186 204 228
185 204 228
185 204 228
185 203 228
185 203 228
184 203 228
185 204 228
184 203 228
185 203 228
184 203 228
184 203 228
185 203 228
185 204 228
184 203 228
184 203 228
184 203 228
185 203 228
184 203 228
184 203 228
184 203 228
183 202 228
184 203 228
184 203 228
183 202 228
184 203 228
184 203 228
184 203 228
185 203 228
184 203 228
183 202 228
184 203 228
184 203 228
184 203 228
183 202 227
179 198 225
168 188 215
170 189 215
160 180 207
156 176 206
159 179 209
146 167 199
153 174 206
130 152 188
139 161 191
117 140 181
112 135 180
113 136 181
105 128 171
95 119 163
81 107 159
67 95 151
69 96 150
66 93 145
56 86 140
54 86 151
50 80 143
50 81 141
50 79 141
47 75 137
53 82 143
48 77 141
70 94 150
79 102 153
81 104 157
109 129 169
116 134 170
149 166 198
165 182 209
188 204 228
200 216 237
217 233 255
217 233 255
217 233 255
149 167 198
57 91 151
57 91 146
58 92 142
58 93 151
59 93 143
58 93 140
61 96 158
60 95 147
59 93 149
60 95 147
58 93 134
59 93 140
59 93 135
61 96 146
62 97 153
60 95 153
60 95 147
61 97 153
60 95 145
61 95 145
61 96 152
61 96 143
60 95 148
61 96 142
61 96 146
61 96 146
60 94 146
61 96 146
61 97 158
61 96 142
61 96 144
62 97 149
60 95 150
61 96 151
60 95 139
60 95 141
61 97 148
61 96 145
61 96 146
61 97 152
61 97 150
61 96 143
61 96 145
61 97 154
62 97 151
59 93 125
61 97 153
61 96 148
60 96 142
60 95 143
60 96 147
60 95 146
60 96 141
61 96 142
60 95 142
61 96 149
61 96 148
60 95 148
60 95 147
60 95 141
60 95 141
61 97 151
61 97 147
60 95 139
61 95 149
60 95 143
61 96 143
60 96 145
62 97 149
61 96 145
60 95 145
61 96 149
62 97 155
61 96 142
60 95 139
60 95 146
61 96 150
61 95 148
61 95 141
60 94 144
61 95 144
60 94 140
61 95 151
59 93 137
60 93 146
61 96 153
60 94 143
62 96 157
59 93 140
60 93 139
58 90 132
59 93 142
60 93 140
58 90 137
59 91 137
59 91 139
57 88 137
56 87 131
143 161 190
217 233 255
217 233 255
217 233 255
189 196 189
166 173 165
160 166 154
149 155 145
151 161 159
140 147 140
146 154 147
144 151 141
153 161 154
137 145 137
141 149 144
138 146 137
125 132 118
134 140 124
139 147 137
130 137 119
140 146 128
144 149 124
132 137 111
140 146 125
135 139 113
146 150 127
153 155 120
146 149 119
152 155 122
147 149 121
154 155 112
150 151 114
152 152 112
155 155 118
152 152 113
153 153 112
148 148 105
161 161 113
153 151 103
166 165 119
166 162 109
160 158 108
165 161 104
160 159 109
157 155 106
158 156 99
160 157 99
165 161 101
167 162 104
161 157 100
166 163 107
162 159 103
165 163 109
164 160 97
163 158 96
169 165 107
167 162 100
168 163 100
171 167 108
169 165 109
167 163 101
170 165 98
169 163 98
173 168 104
172 167 98
172 168 101
170 165 96
170 165 98
171 166 100
171 166 97
174 169 109
176 170 101
171 166 94
174 169 112
173 168 102
174 169 110
173 169 104
173 168 99
177 171 107
177 170 102
174 168 102
173 168 99
175 170 101
176 171 104
176 170 106
177 172 108
175 171 110
174 169 101
176 171 106
175 170 101
176 172 110
176 171 109
178 173 110
178 174 113
181 175 113
178 175 117
174 170 109
176 170 100
179 175 117
180 176 123
178 172 103
174 171 108
178 174 115
177 173 110
174 169 103
179 173 114
177 174 116
179 174 112
177 172 110
179 174 115
177 172 110
177 172 112
176 171 105
179 175 119
177 174 118
176 171 103
178 176 126
183 178 125
179 175 120
178 175 117
175 173 115
183 180 134
180 175 117
180 178 125
181 179 131
178 175 121
183 180 130
179 175 118
180 178 132
179 176 120
177 175 123
176 172 114
182 178 127
184 182 139
176 171 108
183 180 131
180 177 124
179 176 125
183 182 139
182 181 138
184 180 130
185 182 134
185 182 139
182 180 135
180 176 121
185 183 141
182 182 140
187 188 153
182 181 137
184 182 139
185 183 140
190 206 228
191 207 228
191 207 228
191 207 228
192 207 228
191 207 228
191 207 228
190 206 228
191 207 228
190 206 228
191 207 228
190 206 228
190 206 228
191 207 228
190 206 228
190 206 228
191 207 228
190 206 228
189 206 228
189 206 228
190 206 228
190 206 228
190 206 228
190 206 228
189 206 228
189 206 228
190 206 228
190 206 228
188 205 228
189 206 228
190 206 228
188 205 228
189 205 228
189 206 228
188 205 228
189 205 228
190 206 228
189 205 228
189 206 228
188 205 228
189 206 228
190 206 228
188 205 228
187 205 228
188 205 228
188 205 228
189 206 228
188 205 228
188 205 228
187 205 228
188 205 228
187 205 228
187 205 228
188 205 228
186 204 228
188 205 228
188 205 228
189 205 228
186 204 228
187 205 228
187 205 228
187 205 228
187 205 228
187 205 228
188 205 228
187 205 228
187 205 228
187 205 228
187 205 228
186 204 228
187 204 228
186 204 228
187 204 228
186 204 228
185 204 228
186 204 228
186 204 228
185 204 228
186 204 228
187 204 228
186 204 228
186 204 228
185 204 228
185 203 228
185 203 228
185 203 228
185 204 228
186 204 228
186 204 228
185 204 228
186 204 228
185 204 228
186 204 228
186 204 228
185 203 228
186 204 228
184 203 228
185 204 228
185 203 228
185 204 228
185 203 228
185 203 228
186 204 228
185 203 228
185 204 228
184 203 228
184 203 228
185 203 228
184 203 228
185 203 228
185 203 227
178 197 222
174 193 219
171 190 217
165 184 214
163 183 214
148 168 199
144 163 193
135 156 188
133 154 190
140 161 194
123 145 185
118 140 180
109 132 177
100 123 166
83 109 159
81 107 160
64 92 149
60 90 148
51 82 139
50 80 133
49 79 138
50 80 136
50 80 138
48 77 135
49 79 139
50 80 144
47 76 136
50 77 137
53 80 142
76 100 153
75 98 149
110 128 168
132 150 186
152 169 199
177 194 219
197 213 234
215 231 252
217 233 255
217 233 255
88 113 160
56 89 148
59 93 150
58 91 147
57 91 139
58 91 141
60 94 147
59 94 151
59 94 143
61 95 146
59 94 136
58 92 136
60 94 145
61 96 151
61 96 143
59 94 147
61 96 151
59 94 142
61 95 152
62 97 149
61 95 145
60 95 147
61 96 148
60 95 146
60 95 145
61 95 145
62 97 147
61 95 151
60 95 141
61 96 145
60 95 140
60 95 139
63 98 154
61 95 145
60 95 143
61 96 152
61 96 146
60 95 144
60 95 147
60 95 142
62 97 153
61 96 144
60 95 137
61 96 143
60 96 142
61 96 146
62 97 150
61 96 148
61 96 144
61 96 144
62 98 153
62 97 152
60 95 139
62 97 147
60 95 143
61 96 143
61 96 145
59 93 141
61 96 147
61 96 147
61 96 150
61 96 152
61 96 148
61 97 152
61 96 145
59 94 131
62 97 153
61 96 145
62 97 149
61 96 149
61 97 148
60 95 144
60 95 139
62 97 152
60 94 143
60 94 145
61 96 142
60 95 137
61 95 142
61 97 153
60 94 149
59 92 136
62 97 154
61 95 145
61 95 138
60 94 141
60 94 149
61 95 144
59 93 138
59 93 142
60 93 140
60 93 142
59 92 144
60 93 142
60 93 144
59 91 138
58 90 139
57 88 137
58 90 144
90 112 146
217 233 255
217 233 255
214 229 247
178 184 173
175 183 179
156 165 165
152 161 159
151 160 157
134 143 141
133 140 132
136 145 141
133 140 130
135 143 135
141 148 140
116 126 119
133 142 136
141 148 134
130 138 127
131 136 110
127 132 111
139 144 120
134 139 119
137 143 119
139 144 119
155 158 131
139 144 121
151 152 118
143 143 101
140 142 105
149 152 120
147 147 107
147 147 106
156 157 115
156 154 105
150 148 99
151 154 121
153 154 114
157 155 107
162 160 118
155 155 104
153 152 104
147 144 92
161 158 106
157 156 108
164 162 114
161 159 108
158 154 97
154 151 92
161 160 108
163 162 112
168 164 110
161 157 94
172 168 107
161 159 105
172 168 103
172 167 104
164 160 100
169 165 107
165 162 103
169 165 101
171 167 107
167 164 107
172 167 98
172 167 103
172 168 103
170 165 100
173 167 101
174 168 101
171 166 98
172 167 104
175 168 98
170 165 100
176 170 107
173 167 98
176 171 110
172 167 106
174 169 105
176 169 99
172 166 96
174 170 106
171 165 94
174 168 100
174 169 103
174 169 101
175 170 103
177 172 111
174 169 101
173 167 94
176 171 106
180 176 119
177 171 101
175 170 103
180 175 116
177 173 109
176 171 106
176 171 109
176 170 99
178 174 113
178 172 108
177 173 116
179 176 121
177 171 106
176 171 106
178 173 108
175 169 99
177 174 118
179 176 124
179 175 115
176 172 107
176 172 109
178 174 117
178 174 115
179 174 113
179 175 121
178 176 123
176 171 108
176 173 114
184 181 135
179 175 116
178 175 118
183 181 137
181 179 130
182 178 127
179 177 124
178 174 115
175 173 118
181 178 124
181 178 130
180 176 121
181 178 127
180 178 128
180 179 132
178 174 116
187 186 148
180 176 122
178 175 123
182 181 137
180 179 134
185 185 147
178 176 123
180 178 127
179 175 121
186 183 140
181 180 135
180 178 129
183 181 135
182 181 134
184 184 142
179 174 114
179 176 120
191 207 228
193 208 228
191 207 228
192 207 228
191 207 228
191 207 228
191 207 228
191 207 228
190 207 228
191 207 228
191 207 228
191 207 228
191 207 228
190 206 228
190 207 228
191 207 228
191 207 228
190 206 228
190 206 228
191 207 228
190 206 228
189 206 228
190 206 228
190 206 228
189 206 228
191 207 228
191 207 228
189 206 228
191 207 228
190 206 228
189 206 228
190 206 228
189 206 228
190 206 228
189 206 228
190 206 228
190 206 228
189 206 228
190 206 228
188 205 228
189 206 228
189 205 228
190 206 228
188 205 228
189 206 228
189 206 228
188 205 228
189 206 228
188 205 228
189 206 228
189 206 228
189 206 228
189 206 228
187 205 228
188 205 228
188 205 228
189 206 228
188 205 228
187 205 228
188 205 228
188 205 228
188 205 228
188 205 228
187 205 228
187 205 228
187 205 228
187 205 228
187 205 228
186 204 228
186 204 228
187 204 228
187 205 228
187 205 228
188 205 228
186 204 228
187 205 228
186 204 228
186 204 228
186 204 228
188 205 228
186 204 228
187 204 228
187 204 228
188 205 228
186 204 228
186 204 228
186 204 228
187 204 228
186 204 228
187 204 228
187 205 228
186 204 228
187 205 228
186 204 228
186 204 228
186 204 228
186 204 228
185 204 228
186 204 228
186 204 228
185 204 228
185 204 228
186 204 228
186 204 228
186 204 228
186 204 228
185 204 228
185 203 227
184 203 228
183 202 225
180 198 223
176 194 218
174 193 218
166 185 213
163 183 210
157 176 206
151 170 198
145 164 197
145 165 196
127 148 179
126 146 178
122 143 178
119 141 176
109 131 173
96 119 164
72 99 147
65 93 147
58 88 136
52 83 144
52 82 140
51 82 139
52 82 136
50 80 137
50 81 141
47 76 130
49 79 134
47 76 131
44 71 131
45 72 130
45 73 133
51 78 135
71 92 143
105 123 162
119 137 174
135 152 184
175 191 215
192 207 229
206 222 242
218 233 255
198 214 239
54 86 145
56 89 132
57 90 149
57 91 145
60 94 150
58 93 151
62 97 156
59 94 142
61 96 152
58 93 138
60 94 140
59 93 141
59 94 144
60 94 150
59 94 142
60 95 140
60 94 143
60 95 138
59 93 139
60 95 145
59 95 148
60 94 141
61 97 151
60 94 142
61 96 151
60 96 149
60 95 141
61 96 139
60 96 144
61 96 147
61 96 144
61 95 140
61 97 145
60 94 131
60 95 148
59 94 136
60 95 141
62 97 149
61 96 149
62 97 147
60 95 137
60 94 136
60 95 139
60 95 141
60 95 140
61 96 142
61 96 145
61 97 154
61 96 147
61 96 146
61 96 148
61 96 143
62 98 153
61 97 150
60 94 137
60 95 140
61 96 149
60 94 138
61 96 140
60 95 136
61 96 147
61 97 152
59 93 128
60 95 139
61 95 141
61 96 146
61 97 153
60 95 140
61 96 141
61 96 142
62 97 146
62 97 155
61 95 145
61 96 142
60 95 144
60 94 140
60 95 142
60 95 142
60 94 142
58 92 133
61 95 145
59 93 134
60 94 146
61 95 146
60 93 132
60 93 136
60 93 134
60 93 136
61 95 152
60 94 138
58 91 139
58 89 134
60 93 139
59 91 140
58 91 139
59 92 142
59 91 144
58 89 130
55 85 125
57 88 132
196 212 235
218 234 255
198 210 217
175 183 181
170 179 179
158 166 164
157 167 168
150 160 161
133 143 144
134 143 139
142 152 152
135 144 139
122 130 122
127 135 125
145 152 139
132 140 129
144 149 128
122 129 115
130 136 118
137 144 132
131 138 121
147 150 124
137 141 115
136 142 121
140 144 121
143 145 111
144 146 109
148 150 118
151 151 113
153 154 123
153 154 122
149 152 121
158 156 106
155 155 113
159 158 112
151 149 93
158 157 108
159 159 117
157 156 105
153 150 97
157 157 110
155 153 105
156 154 100
159 156 101
158 154 94
161 159 101
155 154 103
158 155 98
160 157 100
161 157 96
165 161 98
168 163 101
167 163 103
160 156 95
166 162 105
163 159 96
170 166 104
165 161 97
168 164 103
174 170 110
171 165 97
168 163 100
172 166 100
169 163 95
170 166 98
176 171 107
170 164 94
174 168 96
168 162 94
167 163 93
174 169 102
169 163 95
175 170 103
170 165 99
173 167 99
173 168 103
171 166 101
178 171 103
176 171 106
174 168 99
173 167 96
173 168 100
174 167 98
173 166 94
174 168 98
176 171 109
172 167 102
177 171 109
175 169 99
174 169 108
174 170 104
177 170 102
173 168 96
176 170 99
179 174 115
176 170 104
174 169 103
173 167 94
177 174 119
178 174 115
179 174 115
178 173 110
178 176 124
177 172 108
179 173 108
175 170 103
180 175 115
175 172 112
180 175 117
181 177 123
174 169 102
175 172 110
176 171 105
182 178 127
175 170 102
179 176 121
180 176 121
174 170 102
179 177 124
179 175 120
180 176 120
178 174 116
178 173 109
181 179 134
181 179 127
178 172 103
183 178 125
187 185 142
177 174 121
183 180 132
183 180 132
179 175 121
181 178 129
180 176 120
179 174 112
180 176 124
180 178 129
181 179 130
180 178 129
183 181 134
181 179 133
182 181 136
182 180 134
186 184 142
187 185 144
184 183 143
184 181 136
181 180 132
181 180 136
186 185 147
190 206 225
191 207 228
192 207 227
191 207 227
192 208 228
191 207 227
191 207 227
191 207 227
192 207 227
191 207 227
193 208 228
192 207 228
192 208 228
192 207 228
191 207 228
191 207 228
191 207 228
191 207 228
191 207 228
191 207 228
190 206 228
191 207 228
190 207 228
192 207 228
192 207 228
191 207 228
190 207 228
191 207 228
191 207 228
191 207 228
190 206 228
190 207 228
190 206 228
190 206 228
190 206 228
189 206 228
190 206 228
190 206 228
191 207 228
191 207 228
190 206 228
190 206 228
189 206 228
190 206 228
189 206 228
189 206 228
189 206 228
190 206 228
190 206 228
190 206 228
190 206 228
189 206 228
190 206 228
188 205 228
188 205 228
189 205 228
189 205 228
189 206 228
189 206 228
189 206 228
189 206 228
188 205 228
189 206 228
188 205 228
189 206 228
190 206 228
189 205 228
189 205 228
189 206 228
187 205 228
189 206 228
187 205 228
189 205 228
189 206 228
187 205 228
188 205 228
188 205 228
188 205 228
188 205 228
189 206 228
187 205 228
187 205 228
188 205 228
188 205 228
187 205 228
188 205 228
187 205 228
187 205 228
187 204 228
187 204 228
187 205 228
187 205 228
188 205 228
187 205 228
187 205 228
187 205 228
187 204 228
187 205 228
188 205 228
187 205 228
188 205 228
187 204 228
187 204 228
186 204 228
186 204 228
186 204 228
186 204 228
187 204 228
186 204 227
183 200 223
182 199 221
176 193 216
175 193 219
170 189 216
159 177 203
163 182 210
147 166 194
150 169 199
146 165 195
118 139 173
126 147 180
112 134 172
97 120 162
85 109 151
83 107 150
60 90 144
52 82 135
50 80 130
51 81 140
52 83 139
52 83 139
50 80 139
51 82 140
49 78 131
47 76 132
46 74 128
46 75 131
47 75 135
44 71 125
46 74 131
43 69 128
51 76 132
74 95 143
105 123 162
133 149 181
157 173 201
185 202 222
202 218 235
218 234 255
174 190 218
53 86 142
55 88 140
58 92 142
56 89 132
57 90 141
58 92 143
58 92 144
59 94 150
58 92 139
58 92 140
59 94 150
60 95 139
59 94 142
60 94 143
59 94 143
60 95 142
60 96 146
60 95 143
59 94 140
61 96 152
59 93 134
60 95 142
60 95 148
60 95 140
61 95 141
61 96 150
60 95 143
61 96 148
60 94 137
60 95 140
62 97 152
59 94 130
59 94 139
61 97 148
60 95 144
61 96 150
61 96 145
62 97 153
61 96 141
60 95 142
60 94 138
61 96 148
61 96 144
60 96 139
61 97 152
60 95 141
60 95 147
60 94 140
61 96 148
61 96 150
62 98 152
60 94 139
60 96 151
60 95 137
60 95 148
59 94 137
61 96 142
61 95 137
62 97 152
60 94 142
60 94 139
61 96 151
61 96 144
61 95 138
61 95 135
61 97 151
63 98 151
61 96 142
61 96 144
61 96 142
59 93 144
61 96 150
62 96 145
62 97 155
59 92 129
59 93 135
62 97 158
60 94 136
61 96 142
60 94 136
60 94 141
58 92 133
60 94 141
59 93 139
60 94 134
61 94 141
60 94 136
60 94 142
60 94 136
61 96 153
58 92 137
59 91 141
59 92 136
58 90 134
59 91 138
58 90 136
57 90 136
59 91 138
53 82 117
56 87 130
181 198 222
218 234 255
186 195 189
165 175 178
148 158 159
167 177 182
149 157 154
140 148 145
140 148 144
134 144 141
146 154 148
128 136 128
119 127 118
134 143 134
122 130 122
124 132 124
127 134 121
132 137 113
142 148 131
133 138 119
130 137 121
146 150 130
135 141 127
141 145 117
131 136 112
151 154 127
131 134 101
137 140 111
143 145 110
153 153 109
142 142 99
151 152 114
143 143 106
156 155 107
147 149 113
151 150 103
154 152 93
156 156 108
155 153 102
159 158 112
150 148 92
158 156 101
156 154 104
152 150 98
161 159 104
159 156 107
166 162 105
168 163 106
159 156 99
162 158 98
158 155 96
164 160 100
168 163 95
166 161 92
165 160 95
165 161 94
164 160 92
167 162 98
163 160 101
165 160 90
167 162 97
168 164 100
169 164 96
166 162 98
172 165 92
171 166 100
173 166 99
167 163 94
172 166 101
169 164 93
172 167 103
174 168 101
169 165 94
172 167 102
172 167 98
172 167 97
173 169 105
174 168 99
175 169 105
176 169 99
177 171 104
174 167 99
172 166 98
173 167 95
178 173 112
174 169 108
177 170 102
175 169 102
174 170 109
177 172 111
177 171 106
175 171 109
176 170 104
175 170 105
177 172 108
176 170 103
178 174 114
180 174 109
177 171 103
178 173 110
176 171 104
174 169 102
174 169 98
176 173 112
178 174 116
179 176 125
178 173 113
179 174 115
176 171 108
180 174 113
182 179 130
180 176 121
179 174 112
179 174 116
180 177 126
178 172 108
176 171 106
178 173 109
183 178 125
177 175 119
176 170 103
179 174 115
177 173 116
181 176 117
177 172 104
182 179 129
180 177 125
182 178 127
179 176 122
181 179 130
184 179 126
184 184 142
179 178 133
181 177 120
182 179 129
179 176 124
178 175 118
173 172 110
185 183 142
184 182 135
178 175 116
184 182 139
183 183 142
181 179 132
180 177 124
186 186 150
188 187 150
180 178 127
186 186 149
181 177 125
190 206 221
191 206 225
192 207 226
191 206 223
191 207 224
191 206 225
192 207 227
191 206 223
191 207 227
191 207 227
191 207 227
192 207 227
192 207 227
192 207 227
191 207 227
190 206 228
191 206 224
192 207 228
191 207 227
192 208 228
192 207 228
191 206 226
191 207 228
192 207 228
192 207 228
191 207 228
191 207 228
191 207 228
191 207 228
190 207 228
191 207 228
191 207 228
192 207 228
191 207 228
191 207 228
192 208 228
192 207 228
191 207 228
192 207 228
190 206 228
190 206 228
190 206 228
190 206 228
191 207 228
190 206 228
190 206 228
190 206 228
190 206 228
189 206 228
190 206 228
190 206 228
189 206 228
190 206 228
190 206 228
189 206 228
190 206 228
189 206 228
191 207 228
190 206 228
190 206 228
190 206 228
190 206 228
190 206 228
189 206 228
190 206 228
190 206 228
189 206 228
190 206 228
189 206 228
190 206 228
188 205 228
188 205 228
188 205 228
189 205 228
189 206 228
189 205 228
188 205 228
189 206 228
187 205 228
189 206 228
188 205 228
189 206 228
188 205 228
189 206 228
188 205 228
188 205 228
188 205 228
189 206 228
188 205 228
188 205 228
188 205 228
188 205 228
188 205 228
189 206 228
188 205 228
188 205 228
188 205 228
188 205 228
188 205 228
188 205 228
188 205 228
187 204 228
189 205 228
188 205 228
188 205 228
187 205 228
187 205 228
187 204 227
187 205 228
184 201 224
181 198 220
170 188 212
170 187 214
163 181 206
163 181 206
154 172 202
146 165 194
138 158 188
131 151 183
134 154 189
113 135 170
109 131 165
90 113 153
84 109 157
75 101 147
55 85 135
52 83 141
53 84 140
50 80 131
52 83 142
49 79 135
51 81 137
49 78 129
48 78 132
48 78 134
45 73 125
47 76 129
44 71 128
43 71 127
44 71 130
41 68 125
42 68 127
55 75 126
83 99 141
105 121 158
143 159 187
175 191 212
197 213 228
217 233 253
147 165 199
54 87 142
56 90 142
56 89 141
60 94 156
57 90 145
58 92 140
58 91 138
58 93 140
59 93 144
60 95 143
59 94 140
60 94 148
59 93 136
60 94 140
60 94 140
60 95 151
60 94 141
59 93 139
60 95 145
60 95 143
61 96 149
59 94 139
60 95 150
60 95 141
60 95 145
60 95 140
60 95 136
61 96 148
60 95 141
61 96 144
60 95 138
59 94 143
61 96 147
62 97 153
60 94 141
60 94 138
60 94 145
60 95 142
60 95 142
60 94 134
60 95 144
61 97 150
60 95 135
61 97 151
61 96 147
60 94 132
59 94 131
60 96 145
61 97 147
61 96 142
61 95 138
61 96 148
61 96 146
61 96 148
60 95 136
62 96 144
61 96 140
59 94 137
60 95 143
60 94 142
61 96 141
60 95 136
61 96 149
62 97 151
61 96 154
60 95 140
61 97 151
61 96 142
60 94 141
61 96 151
59 94 136
62 97 149
60 94 142
60 94 131
60 95 136
60 94 136
62 97 151
61 96 145
61 96 146
60 94 138
61 95 143
60 94 141
60 95 142
61 95 143
61 95 141
61 94 142
60 95 140
60 94 145
60 93 141
59 93 139
61 95 148
60 94 145
59 92 145
60 92 135
59 90 133
59 91 138
60 92 137
57 88 135
59 91 141
54 82 120
149 165 194
217 233 253
180 187 178
157 167 167
161 169 171
145 154 154
139 149 150
121 130 128
139 149 152
148 159 160
125 133 125
124 131 124
123 133 128
139 148 141
137 143 129
140 148 140
133 142 133
126 131 105
133 139 126
141 147 134
134 140 122
134 137 105
137 141 116
128 133 114
152 158 142
142 147 124
139 141 105
139 142 114
144 145 110
146 146 104
139 140 101
134 137 100
151 149 100
141 141 93
147 147 106
143 143 99
147 148 101
160 158 107
151 149 94
153 151 100
154 152 98
150 149 99
156 154 100
155 152 90
156 155 101
154 151 96
164 159 103
163 159 99
168 164 104
162 157 98
160 157 101
168 163 96
166 161 95
164 160 96
168 163 102
165 161 95
164 160 90
171 166 104
165 160 95
165 160 91
169 164 96
167 162 97
166 161 93
163 160 96
175 169 106
168 162 98
165 161 96
174 167 99
172 166 96
173 167 101
173 167 104
170 163 93
170 165 99
174 169 100
175 169 97
171 166 90
174 167 97
175 169 97
171 166 95
176 169 101
176 171 106
176 170 101
177 173 114
173 169 104
175 169 99
174 168 102
176 170 105
171 166 97
178 173 110
174 169 106
174 168 98
172 166 94
175 170 100
175 169 99
175 170 101
180 175 115
177 173 113
176 171 104
180 174 114
180 176 120
179 176 121
177 173 116
177 172 109
181 177 125
179 174 116
177 172 108
179 175 118
178 172 109
177 171 103
177 174 114
176 171 109
177 172 107
176 172 109
183 179 125
176 172 112
177 174 115
180 178 131
182 177 121
180 175 117
183 180 129
179 177 129
177 173 117
180 176 118
179 175 120
181 178 124
181 177 124
181 179 130
179 174 115
181 177 124
182 180 134
176 171 105
178 173 112
178 175 117
180 176 120
182 179 130
176 172 109
179 177 125
179 176 124
181 178 130
184 182 135
189 188 154
183 180 133
183 180 134
185 183 139
180 176 122
179 176 122
182 179 127
189 188 152
185 183 138
183 182 139
189 205 220
191 206 223
190 205 218
190 206 220
191 206 220
191 206 223
190 206 224
189 205 218
188 204 217
190 206 223
191 206 223
189 205 219
191 207 225
192 207 224
192 207 226
193 208 227
191 207 227
191 207 225
191 207 225
191 207 225
189 205 221
190 206 225
191 207 226
191 207 226
192 207 226
191 207 226
191 206 225
192 207 228
191 206 226
191 207 227
192 207 228
191 207 227
190 206 227
191 207 227
190 206 226
192 207 228
192 207 228
191 207 227
191 207 228
191 207 228
191 207 228
192 207 228
191 207 228
191 207 228
192 207 228
191 207 228
192 207 228
192 207 228
191 207 228
192 207 228
191 207 228
191 207 228
190 206 228
191 207 228
190 206 228
192 207 228
191 207 228
190 207 228
189 206 228
190 206 228
190 206 228
189 206 228
191 207 228
190 206 228
191 207 228
191 207 228
191 207 228
190 206 228
190 206 228
191 207 228
189 206 228
190 206 228
189 206 228
189 206 228
189 206 228
189 206 228
190 206 228
189 206 228
189 206 228
189 206 228
189 206 228
189 205 228
188 205 228
190 206 228
188 205 228
189 206 228
189 206 228
189 206 228
189 205 228
189 206 228
190 206 228
189 205 228
190 206 228
189 206 228
189 206 228
189 206 228
189 206 228
189 206 228
189 205 228
188 205 228
188 205 228
188 205 228
190 206 228
188 205 228
190 206 228
188 205 228
186 203 225
187 204 226
185 201 221
181 198 222
174 190 213
172 188 210
168 185 206
163 181 206
164 181 207
150 168 195
148 166 194
143 161 193
130 149 177
123 143 178
110 131 163
108 129 169
91 115 156
74 100 147
63 91 145
51 81 127
51 81 130
51 81 127
49 79 125
50 80 128
50 79 134
48 77 126
49 78 127
50 79 132
45 73 126
45 72 121
46 74 129
43 69 121
47 75 128
39 64 115
40 66 124
38 62 119
37 61 114
73 92 137
101 118 156
117 133 166
160 176 192
189 205 216
215 230 250
105 124 162
56 89 146
55 87 134
53 85 129
58 91 143
57 91 133
59 93 141
57 91 147
58 92 135
58 93 144
59 93 138
60 95 149
59 93 141
60 95 150
58 92 136
60 94 141
60 95 142
60 95 146
59 94 141
60 94 139
59 93 134
61 96 151
60 95 142
59 94 142
60 95 148
61 96 143
61 96 148
59 94 136
62 97 148
61 97 150
60 94 138
60 95 142
59 93 140
60 95 141
61 96 145
59 94 132
60 94 135
60 94 134
61 95 140
60 94 143
59 94 129
60 95 140
61 95 134
60 95 135
61 96 153
60 95 139
61 96 144
61 97 149
61 95 143
60 95 143
58 93 130
60 94 136
59 94 136
60 95 141
60 94 137
60 94 131
62 97 157
60 95 140
61 96 143
61 96 149
61 96 148
62 96 147
61 96 144
60 95 140
60 95 139
60 94 143
60 95 143
61 96 144
59 93 138
60 94 130
60 95 142
62 96 148
61 96 145
61 95 135
60 94 141
61 96 145
61 96 151
60 94 134
60 93 139
61 96 145
60 94 135
60 94 146
60 94 131
61 95 147
61 96 149
60 94 144
60 94 139
59 92 142
60 94 142
59 92 140
58 90 137
59 92 135
59 92 135
59 93 140
58 90 137
56 88 137
57 88 123
59 91 130
58 89 126
56 86 129
56 84 126
134 152 182
211 225 242
167 175 172
159 168 168
146 155 157
154 164 168
155 165 169
141 150 148
127 137 136
137 147 148
132 140 137
131 139 135
123 132 125
124 132 129
116 124 116
129 137 127
123 131 114
131 138 123
129 135 121
128 134 114
141 148 133
131 137 120
134 135 98
127 131 105
132 134 103
138 139 98
151 155 126
151 153 122
152 152 112
139 140 103
150 150 110
151 150 108
143 143 95
149 148 105
143 143 99
146 145 95
148 148 105
152 150 102
153 150 92
149 147 89
157 154 94
156 153 100
162 159 108
161 158 102
158 155 102
152 150 95
160 156 96
164 160 95
153 150 92
164 160 98
156 153 97
165 160 89
166 162 95
166 161 101
158 155 88
166 162 99
166 162 101
164 159 87
163 159 89
163 158 89
168 164 97
163 159 90
164 159 91
169 163 94
166 162 92
166 160 85
166 161 91
174 168 101
170 165 100
168 164 91
167 163 95
172 166 94
169 164 94
171 165 92
173 167 94
175 169 102
175 168 102
170 163 86
175 169 99
171 167 102
175 169 99
173 167 94
176 171 107
172 166 100
175 170 101
175 169 98
174 168 96
169 164 94
178 172 105
170 166 97
176 171 104
177 173 114
171 166 95
175 169 99
172 166 94
175 169 97
175 168 100
176 172 113
173 168 101
176 171 106
181 175 114
175 169 97
175 171 110
180 176 120
176 171 106
176 172 110
178 173 112
178 172 106
175 173 116
175 171 109
177 174 113
176 172 112
175 170 99
178 173 115
181 178 124
174 169 99
177 172 112
181 177 123
175 171 107
173 168 103
180 178 128
177 174 120
179 175 117
182 179 129
177 174 116
180 175 117
178 175 118
183 180 133
182 179 133
181 179 130
180 176 122
180 176 125
182 180 133
177 172 109
178 175 120
175 170 104
183 181 134
186 184 143
181 180 134
179 177 133
180 178 128
179 176 121
183 181 138
183 181 135
182 180 133
182 180 135
181 177 131
182 180 132
178 176 120
185 184 144
190 206 223
189 204 214
189 204 214
189 205 219
191 206 220
189 205 218
191 206 223
192 207 227
189 205 217
190 205 219
191 206 223
189 205 218
191 206 223
190 205 219
189 205 219
189 205 219
191 206 225
188 203 209
190 205 220
190 205 220
189 205 218
191 206 221
189 205 218
189 205 217
189 205 219
190 206 223
188 204 216
191 206 225
192 207 225
192 207 227
192 207 225
190 205 220
191 207 225
189 205 223
190 206 226
190 206 225
192 207 226
193 207 226
190 205 221
190 206 227
191 207 227
191 207 226
190 206 225
191 207 226
192 208 228
191 207 228
190 206 227
190 206 223
191 207 227
191 206 226
192 207 226
191 206 225
191 207 228
192 207 227
190 206 227
192 207 228
192 207 228
191 207 228
191 207 228
192 207 228
191 207 228
193 208 228
190 206 228
191 207 228
190 207 228
190 206 228
190 206 228
192 207 228
190 206 228
191 207 228
192 207 228
191 207 228
190 206 228
189 206 228
191 207 228
191 207 228
190 206 228
190 206 228
190 206 228
190 206 228
190 206 228
191 207 228
191 207 228
190 206 228
190 206 228
190 206 228
190 206 228
190 206 228
191 207 228
189 206 228
190 206 228
190 206 228
189 206 228
189 206 228
189 206 228
191 207 228
190 206 228
190 206 228
190 206 228
190 206 228
188 205 228
189 206 228
191 207 228
190 206 228
190 206 228
189 205 227
190 206 228
187 203 223
186 201 220
183 199 220
179 194 216
168 185 210
176 192 213
159 175 199
157 175 200
154 171 196
155 173 198
138 155 182
133 152 183
122 141 174
97 118 156
97 120 160
85 109 152
80 104 144
52 83 130
51 81 132
50 81 126
51 81 134
50 80 126
49 78 127
48 78 132
50 79 128
48 77 126
47 75 126
45 72 123
47 75 124
44 71 121
41 66 109
44 70 119
41 67 120
39 64 116
37 61 110
37 60 111
42 65 118
87 102 138
113 128 161
141 157 179
189 204 219
209 224 242
79 103 152
54 86 139
55 88 138
56 88 137
56 90 139
58 91 145
59 93 144
57 91 143
59 92 134
59 94 145
58 91 134
59 93 139
60 94 146
58 92 132
59 93 137
60 94 139
61 96 144
58 92 133
60 94 136
60 94 138
60 95 140
59 94 138
59 94 134
59 94 134
60 95 139
60 95 147
60 95 142
58 92 131
59 93 137
61 96 143
60 95 146
62 97 148
60 94 126
59 93 134
60 95 143
62 97 141
60 95 141
61 96 147
61 96 137
62 97 152
61 96 148
61 96 151
61 95 142
61 95 141
60 95 139
61 96 145
61 97 148
60 95 137
60 94 131
60 95 137
60 94 134
61 96 147
60 95 137
61 96 146
60 95 140
60 94 131
60 94 135
61 97 149
58 92 130
59 94 133
60 95 136
61 96 147
61 96 142
61 95 145
61 96 142
61 96 148
60 94 136
60 95 143
60 94 137
60 95 147
60 95 140
61 95 138
62 96 147
59 92 129
61 96 147
60 94 141
60 95 139
60 94 139
61 96 146
59 93 142
60 95 143
61 95 140
60 94 139
59 93 138
60 94 141
61 95 145
59 92 133
61 94 137
59 91 131
59 92 130
59 92 137
58 91 138
60 93 139
60 93 142
59 91 129
59 91 131
60 92 132
58 90 124
56 86 118
55 85 121
56 85 125
81 104 140
202 214 225
164 171 166
157 165 166
143 152 149
143 152 151
137 146 147
132 141 140
131 141 144
146 156 160
119 128 126
128 138 138
113 123 115
126 134 125
124 132 120
129 135 119
125 134 125
139 146 132
138 144 125
130 136 112
131 137 117
138 142 118
135 139 112
133 138 115
142 145 120
137 141 111
147 148 113
138 141 111
139 141 103
148 149 112
144 144 102
147 148 108
150 147 95
144 143 94
152 151 100
137 136 88
152 150 89
155 153 99
140 140 92
142 142 97
152 149 94
153 151 97
149 146 89
152 152 101
156 153 102
162 158 93
164 160 95
159 155 95
165 160 95
163 159 96
165 160 97
161 156 93
159 155 88
154 151 86
156 154 93
169 164 98
163 158 94
168 163 92
170 165 102
164 161 95
163 159 95
168 163 95
162 158 98
168 162 95
163 158 91
168 162 90
176 169 98
167 162 92
170 163 93
166 160 89
170 165 88
173 167 98
173 167 90
171 165 96
173 168 99
169 164 90
173 168 99
173 167 97
171 166 96
173 167 95
172 167 101
172 167 94
174 168 95
171 165 87
175 169 103
178 171 103
172 168 102
175 170 101
178 172 109
175 170 105
180 174 113
172 167 97
176 170 101
175 171 109
177 172 107
179 173 109
173 168 103
173 168 100
173 169 100
176 171 108
173 168 99
175 171 106
173 168 103
179 175 116
175 169 103
179 174 112
173 167 97
177 171 104
172 167 96
175 170 101
176 171 106
181 177 123
177 173 116
173 169 105
174 169 103
180 176 118
178 174 115
182 178 122
176 171 106
178 172 110
181 177 120
179 176 123
176 173 114
178 174 117
181 177 128
180 178 129
177 173 115
184 179 127
182 179 129
180 176 120
181 177 127
181 178 130
181 178 124
178 174 120
177 176 127
184 182 137
180 178 131
179 175 116
181 180 135
186 185 147
183 182 140
182 180 133
176 172 110
187 182 132
186 185 144
180 178 130
181 180 137
180 179 130
182 180 130
182 181 135
190 206 218
188 204 214
189 205 214
187 203 208
189 205 217
188 204 212
190 205 216
189 205 216
189 205 218
188 204 212
189 205 218
190 205 216
190 206 218
190 205 217
187 203 209
189 205 214
188 203 209
190 206 219
190 205 219
189 205 217
190 205 220
191 206 223
188 204 217
190 205 218
190 205 219
189 205 216
189 204 216
190 205 219
190 206 221
190 205 218
190 206 221
190 205 219
191 206 221
191 206 224
188 204 217
189 205 218
190 205 220
191 206 224
191 207 226
190 206 223
190 206 221
191 207 224
190 206 220
190 206 224
192 207 226
188 204 216
191 206 225
190 206 221
192 207 225
190 205 219
189 205 218
192 207 225
189 205 223
191 207 226
191 206 221
189 205 220
190 206 225
190 206 224
191 207 227
190 206 225
190 206 224
192 207 227
190 206 226
192 207 225
191 207 226
191 206 225
191 207 227
192 207 227
192 207 228
190 206 226
191 207 225
192 207 228
190 206 226
191 207 228
192 207 227
191 206 223
191 207 227
192 207 228
191 207 226
191 207 227
191 207 225
192 207 228
191 207 226
191 207 227
192 207 228
192 208 228
191 207 228
191 207 227
191 207 228
192 207 228
191 207 228
191 207 228
191 207 227
191 207 227
191 207 228
191 207 228
190 206 228
191 207 228
190 206 228
191 207 228
190 206 228
190 206 228
191 207 228
191 207 228
190 206 227
191 206 227
190 205 225
187 202 220
189 204 222
179 195 216
178 194 216
167 182 204
166 182 204
167 184 206
159 176 201
150 167 193
147 165 193
130 148 176
130 148 178
118 137 168
113 133 169
97 119 156
86 110 153
58 87 136
53 83 128
52 83 134
50 80 122
50 80 126
50 79 131
51 81 131
48 76 126
48 77 122
48 76 125
46 75 119
48 76 127
46 74 130
44 70 117
45 72 124
42 68 120
40 65 114
40 65 117
36 59 106
38 63 119
38 62 110
51 70 114
104 119 149
134 148 171
171 187 203
192 207 223
52 83 129
57 89 138
55 88 141
54 86 127
56 90 128
58 91 141
57 91 140
59 92 135
59 94 143
59 93 138
60 94 138
58 93 138
61 95 153
60 94 146
60 95 138
59 93 137
61 96 145
59 94 138
60 94 135
59 94 137
60 94 130
60 94 143
60 95 140
60 95 136
60 95 142
61 96 138
61 95 140
60 95 139
59 94 137
61 96 149
60 95 139
61 97 147
61 96 145
61 96 145
60 95 144
60 94 139
60 95 141
59 93 132
61 96 142
61 96 147
58 92 128
61 96 152
60 95 136
62 97 151
61 96 142
60 94 134
61 96 147
59 94 135
61 95 140
60 94 135
62 97 152
60 95 134
61 96 145
60 94 136
61 96 141
62 98 153
61 96 145
61 96 145
60 95 133
61 95 142
59 93 133
59 93 129
60 94 134
60 95 142
61 95 145
60 94 139
61 96 147
60 94 140
60 94 136
60 95 133
60 94 137
59 93 138
61 95 139
62 96 150
60 95 136
61 96 143
60 94 142
61 95 146
60 94 132
60 95 139
61 95 142
60 95 145
60 93 130
59 93 134
59 93 143
60 95 143
60 94 138
58 91 133
60 94 139
59 92 142
59 93 136
60 94 143
59 92 133
60 93 136
61 94 144
59 92 140
58 89 133
58 90 133
57 88 133
57 87 128
56 86 121
54 82 120
188 198 203
173 181 177
155 163 161
138 147 146
128 137 138
138 146 142
131 142 148
131 141 144
136 147 150
116 125 123
115 123 118
121 129 119
137 144 133
125 132 124
138 145 134
121 128 111
125 130 113
126 131 109
133 138 117
129 134 108
137 143 125
126 131 107
133 135 102
124 127 88
146 147 110
133 135 102
137 139 104
143 144 98
139 141 105
138 138 101
146 146 102
137 136 86
142 142 93
151 149 101
144 144 89
151 150 100
150 148 94
149 148 93
152 148 88
142 140 82
156 153 97
164 161 105
154 153 103
158 155 90
159 154 90
151 148 92
161 156 92
157 152 85
156 152 85
160 155 86
161 156 86
158 154 91
162 158 92
163 158 91
162 158 97
166 161 94
162 158 93
165 161 93
166 160 93
169 163 96
168 162 93
166 160 88
165 161 88
172 166 94
170 165 93
166 161 92
168 163 90
168 161 93
168 162 86
170 165 97
170 163 90
169 163 91
169 163 89
172 166 97
170 165 92
173 168 97
169 163 91
172 165 90
176 170 100
176 169 96
167 161 84
174 169 101
172 166 93
179 173 111
176 170 103
174 167 93
173 168 98
176 170 100
173 168 95
174 170 105
176 170 106
174 168 100
176 171 104
175 169 97
174 168 94
175 169 103
180 173 109
175 170 103
175 170 104
174 170 103
174 169 99
173 167 97
176 170 101
175 169 97
177 171 104
178 173 110
174 167 90
176 170 103
178 172 106
175 170 102
174 170 101
175 171 108
179 173 110
179 176 121
182 178 125
179 173 112
178 174 116
180 176 120
171 167 98
179 176 125
178 174 116
176 172 107
176 173 117
178 175 117
181 177 123
180 174 113
173 169 103
181 178 124
180 176 118
175 172 116
178 175 117
183 180 130
179 176 122
181 179 127
184 180 129
178 174 117
178 173 113
177 175 119
185 181 133
184 183 141
181 179 134
179 175 119
179 175 118
178 175 120
182 181 137
181 178 126
180 178 130
183 182 138
178 175 116
188 204 211
190 206 218
186 202 204
190 206 220
189 204 212
187 203 211
188 204 213
189 205 214
189 204 212
188 204 213
187 203 206
189 204 213
191 206 219
190 205 216
188 204 212
190 205 216
189 204 212
189 205 218
189 205 216
188 204 214
187 203 211
188 204 214
191 206 221
188 204 213
190 206 218
187 203 209
188 204 212
192 207 224
191 206 220
188 204 216
190 205 217
190 205 217
189 205 216
190 205 218
189 204 213
186 203 209
190 206 219
189 205 216
189 205 217
189 204 213
190 205 219
189 205 220
191 206 223
188 204 216
190 206 221
189 205 217
190 205 218
191 206 224
190 206 223
188 204 214
191 206 223
189 205 218
189 205 218
191 206 224
188 204 217
188 204 218
189 205 219
190 206 221
191 206 220
190 205 219
189 205 219
190 206 221
188 204 218
190 206 224
191 206 224
190 206 224
190 206 221
190 206 223
191 206 223
189 205 219
190 205 220
191 206 223
189 205 220
189 205 220
188 204 216
190 206 225
191 206 223
190 206 223
191 206 225
190 206 225
189 205 219
190 205 221
190 206 220
191 206 223
191 206 225
189 206 224
191 206 224
190 206 224
189 205 220
191 206 223
190 206 223
189 205 224
191 206 225
193 208 228
190 206 225
190 205 221
190 206 226
191 207 228
191 206 223
190 206 224
189 205 223
191 206 226
191 207 228
190 206 225
190 206 224
188 203 218
188 203 218
188 201 214
187 201 218
181 197 215
175 191 210
170 186 199
167 182 203
160 176 194
159 175 192
158 175 200
140 158 187
137 155 186
112 132 167
123 142 173
114 134 164
88 110 147
71 97 144
65 92 137
52 82 124
53 84 132
50 80 123
51 81 129
50 79 120
51 80 136
50 79 128
47 76 121
49 78 126
47 75 123
46 73 120
46 74 128
47 75 129
41 67 112
42 68 116
40 65 108
40 65 118
38 61 110
35 58 104
34 57 105
44 64 116
87 100 128
133 147 169
167 184 190
176 192 203
50 80 135
56 88 144
55 87 131
56 88 135
58 91 141
60 94 145
59 93 150
56 90 133
59 93 135
58 92 134
59 93 138
58 93 133
59 94 135
60 94 145
60 94 129
59 94 143
59 94 137
59 93 137
59 94 136
59 93 140
59 94 140
60 95 133
59 94 134
60 94 139
60 95 140
60 95 139
61 96 144
60 94 142
60 95 136
60 95 134
60 94 142
61 96 147
61 96 145
59 94 132
61 96 147
59 93 131
59 92 137
62 97 151
60 95 141
60 94 142
60 95 139
60 95 136
60 95 145
60 95 138
62 97 152
63 98 153
61 96 144
60 95 140
61 96 141
59 94 139
61 96 142
61 96 142
60 95 139
60 95 141
60 94 138
60 95 134
59 94 142
60 94 133
61 96 147
60 95 135
60 95 138
60 95 142
59 94 132
60 95 130
61 95 138
60 95 138
61 95 143
59 94 134
60 95 135
61 96 142
60 95 135
61 95 139
60 94 136
60 95 140
61 96 146
61 96 141
60 93 134
60 94 134
61 96 142
60 94 136
59 93 139
60 94 140
59 93 138
61 95 143
61 95 151
58 92 129
60 93 132
60 93 136
59 91 121
60 93 144
59 92 133
58 91 126
59 92 131
58 91 123
59 91 141
59 91 132
58 91 134
58 89 132
56 86 116
57 89 131
58 87 130
51 77 105
152 161 163
166 173 171
162 171 175
135 144 144
140 149 149
122 131 133
111 121 123
115 123 118
119 128 121
131 141 141
121 130 128
132 141 138
117 126 122
118 126 117
134 142 130
140 147 135
123 130 116
131 134 101
127 134 120
131 135 111
130 135 116
128 130 95
129 133 111
139 142 111
138 140 107
136 138 106
133 134 90
143 144 110
131 133 90
131 132 88
145 144 96
138 138 89
148 148 102
139 139 94
144 143 89
151 149 97
147 145 94
149 146 84
155 152 92
151 149 92
146 144 90
152 150 92
158 154 89
157 154 96
150 148 86
155 151 91
156 152 90
147 144 85
163 159 99
158 154 89
161 158 94
168 161 95
165 160 92
162 157 87
161 157 90
168 163 94
166 161 90
167 161 89
166 161 86
166 162 95
167 161 86
164 159 89
163 158 88
168 162 88
168 162 91
167 162 91
170 164 90
166 161 89
169 163 90
167 161 88
167 162 93
168 163 89
172 166 93
170 165 93
169 163 89
168 163 85
169 163 92
170 165 90
169 163 87
173 168 100
172 166 90
167 162 86
176 169 103
181 175 114
172 167 97
174 168 98
174 168 95
170 164 88
177 172 115
175 168 99
175 170 103
177 172 109
177 171 101
173 167 92
172 167 92
174 170 102
176 170 100
177 171 103
173 169 103
171 167 99
171 164 91
174 169 104
176 171 108
175 170 101
178 172 109
180 174 113
176 173 110
178 172 107
178 174 115
171 167 98
179 176 121
175 170 106
178 173 112
182 177 119
177 173 112
180 177 122
179 175 115
177 173 113
181 178 125
178 174 117
178 175 117
183 180 132
178 173 113
179 176 126
179 175 123
182 180 131
183 181 134
175 169 99
183 181 133
181 178 126
181 177 120
181 181 137
179 176 123
181 178 127
180 176 121
184 181 135
181 179 127
182 180 133
180 178 127
183 180 132
178 175 119
182 180 132
187 185 147
182 179 128
180 178 129
182 179 130
182 180 133
176 174 120
184 181 135
188 204 209
183 200 195
190 205 216
186 202 202
188 204 216
188 204 211
186 202 199
189 205 214
187 203 206
187 202 206
188 204 211
187 203 207
188 204 213
187 202 204
188 204 216
189 204 212
189 204 212
189 205 214
188 204 212
189 204 212
187 203 207
187 203 212
187 203 209
186 202 206
189 204 213
189 205 214
189 205 216
188 204 209
187 203 207
190 205 216
188 204 211
190 205 219
190 206 219
187 203 209
186 203 208
188 204 212
186 202 207
189 205 217
187 203 209
189 205 217
188 204 209
191 206 218
190 205 216
188 204 212
188 204 213
187 203 208
189 205 218
189 204 216
187 203 209
191 206 223
188 204 211
190 206 221
189 205 218
191 206 220
190 205 216
189 205 218
191 207 224
188 204 214
189 204 214
187 203 212
190 205 216
187 203 212
190 205 217
189 204 214
189 204 214
190 205 220
190 205 220
189 205 217
190 205 218
187 203 213
191 206 223
189 205 217
191 206 220
189 205 218
188 203 209
189 204 216
188 204 216
189 205 218
190 205 216
189 205 216
188 204 216
189 205 219
189 205 220
189 205 221
189 205 216
189 205 217
191 207 224
189 205 217
187 203 211
191 206 221
188 204 214
189 205 219
190 205 218
190 206 221
190 205 220
190 205 220
191 206 224
191 206 226
190 206 224
190 206 221
190 206 220
191 207 225
189 204 217
188 204 216
188 204 213
189 205 221
187 203 215
186 201 211
185 199 210
175 191 202
176 191 207
167 184 199
166 182 189
170 186 202
158 174 193
148 164 191
150 166 191
130 148 177
115 133 156
110 130 161
95 118 150
92 114 152
81 105 134
52 82 126
52 82 132
51 81 127
49 79 117
49 78 121
50 79 125
51 81 126
48 77 121
49 79 123
45 72 106
46 74 124
45 72 121
44 71 121
43 69 113
41 67 107
44 70 114
37 61 107
40 65 112
37 60 108
35 57 98
31 51 99
37 57 98
65 79 116
120 133 159
154 169 185
152 169 182
53 84 127
53 84 122
55 88 134
57 90 145
57 91 133
59 92 135
58 92 140
59 93 138
60 94 144
59 93 139
59 94 145
58 92 134
58 93 138
58 93 139
60 94 145
59 93 136
60 95 143
60 94 142
59 94 140
60 94 136
60 95 134
61 95 137
59 93 129
60 95 137
61 96 146
60 94 139
59 94 138
60 95 142
61 96 143
60 95 139
59 93 124
60 95 140
60 95 141
61 96 145
60 95 140
60 94 139
62 97 151
61 96 145
60 94 137
59 95 141
60 95 142
59 93 133
60 94 133
58 92 126
61 95 140
60 94 135
58 93 135
60 95 145
60 95 145
60 96 141
59 92 128
60 94 136
60 95 140
61 95 143
61 96 141
61 96 150
60 94 139
60 95 137
61 95 144
60 95 139
60 95 140
60 94 137
62 97 147
59 93 136
60 95 139
60 95 143
59 93 144
61 95 141
61 95 144
61 96 145
60 94 132
60 95 142
60 95 138
60 95 138
60 94 132
61 95 145
60 95 134
59 93 131
62 96 148
58 92 133
59 94 134
61 95 141
59 92 130
59 93 130
60 94 140
60 94 138
59 92 133
61 95 146
58 91 127
60 95 141
59 92 135
59 92 139
58 91 129
59 93 135
58 90 130
59 92 134
59 91 131
57 87 130
58 89 133
57 88 124
55 83 119
54 83 119
144 155 165
165 176 182
151 160 166
135 145 151
137 145 143
134 144 149
133 143 146
129 138 139
126 135 136
124 134 133
109 118 115
124 133 126
128 137 136
115 122 110
121 128 114
121 130 124
116 124 108
126 132 115
110 118 102
123 129 110
134 139 117
135 138 110
136 139 114
136 138 104
139 144 121
125 127 96
141 143 105
147 148 110
138 140 102
142 143 101
135 136 91
140 139 90
138 138 94
148 148 106
151 149 98
145 144 92
147 146 94
146 145 92
155 152 103
150 148 91
157 155 104
162 157 90
146 144 87
148 144 84
156 152 95
165 160 98
156 152 89
158 153 88
155 151 86
163 158 90
166 160 95
163 158 89
162 157 89
159 155 90
166 160 92
169 164 96
162 156 85
167 162 93
164 159 80
163 158 92
163 158 93
167 161 88
166 161 87
170 165 94
167 162 91
166 162 88
170 164 89
173 166 91
174 167 93
176 168 92
169 163 87
169 163 88
168 162 90
171 165 95
172 167 96
170 164 90
174 167 95
170 166 97
173 167 98
165 160 87
171 165 88
172 166 87
174 167 93
171 165 91
168 163 84
172 166 90
175 168 100
172 166 90
175 169 103
175 169 97
175 169 96
174 170 107
172 166 89
173 167 91
176 169 97
175 169 101
175 169 98
170 165 96
178 174 115
178 174 116
171 165 95
171 168 108
174 170 102
173 168 96
176 171 109
179 172 102
175 169 100
171 168 99
177 173 112
176 169 104
180 176 121
178 173 112
171 166 95
180 176 121
176 171 105
171 167 104
177 172 110
178 174 116
176 172 112
172 169 106
177 172 106
179 177 124
182 178 126
183 181 134
181 178 127
178 176 119
179 176 121
180 176 121
179 175 118
179 175 119
181 178 126
178 175 121
180 178 129
180 177 126
179 177 130
180 177 124
181 178 126
176 173 113
180 178 126
179 177 127
179 176 120
182 179 129
179 176 121
176 172 108
179 176 126
184 183 141
178 176 123
183 182 141
184 181 135
188 204 209
187 203 203
186 202 202
188 203 209
184 200 198
186 202 204
187 202 204
187 202 203
189 204 211
185 201 198
188 203 207
186 201 199
186 202 203
187 203 207
187 202 204
189 204 213
185 201 196
186 202 204
188 203 208
189 204 211
189 204 211
184 200 194
185 201 199
187 202 204
188 204 207
186 202 204
189 204 212
188 203 207
189 204 211
189 204 209
188 203 207
189 204 211
187 203 208
186 202 204
188 203 211
188 203 208
189 204 213
189 204 209
187 203 208
188 203 208
184 201 198
187 203 206
188 203 212
188 203 209
187 203 207
186 202 204
189 204 212
186 202 204
186 202 203
187 203 207
187 202 206
190 205 219
187 202 206
186 202 203
188 204 211
187 202 207
189 204 213
187 203 208
188 204 209
189 204 213
189 205 217
186 202 208
188 203 208
188 203 211
187 203 204
188 203 211
188 203 208
187 203 206
189 205 214
188 203 208
189 205 213
191 206 218
187 203 209
187 203 209
188 204 213
186 202 202
187 203 211
188 203 209
187 203 207
189 204 213
187 203 204
188 204 212
188 204 212
187 203 209
187 203 209
187 203 208
189 204 216
188 204 212
189 204 213
188 204 212
189 205 217
188 204 216
189 204 216
186 202 207
188 204 213
187 203 211
189 205 217
186 202 207
187 203 208
188 204 212
190 205 217
187 203 212
189 205 217
187 203 212
188 204 214
187 202 210
187 202 210
186 200 205
185 199 208
173 188 191
175 191 197
175 190 201
158 174 186
165 181 193
158 175 192
150 167 187
144 160 181
129 146 166
126 144 168
111 131 160
107 127 161
84 107 146
72 96 133
51 81 125
50 81 128
53 83 137
51 80 125
50 79 121
50 80 125
48 77 119
48 76 111
48 77 124
46 74 124
47 76 121
43 69 111
43 70 109
43 70 114
42 68 112
44 69 118
37 61 103
40 64 110
36 60 106
35 58 103
32 53 95
31 51 92
68 81 113
97 111 137
131 145 156
144 160 179
52 83 131
57 90 143
56 89 140
56 88 135
55 88 136
56 89 139
58 91 139
57 90 130
56 89 126
57 92 131
59 93 132
58 93 136
58 92 133
59 94 140
59 93 138
59 93 137
59 94 146
60 95 145
59 93 138
59 93 137
60 95 132
59 94 138
59 94 134
60 94 134
59 93 131
60 94 135
59 93 132
60 95 139
60 94 137
60 95 147
60 95 144
59 93 124
59 93 137
60 95 142
61 97 149
61 96 140
60 95 146
59 93 133
60 95 135
61 95 139
61 96 143
59 93 125
59 94 130
60 94 140
60 94 134
59 94 134
60 95 137
59 94 131
61 96 140
59 93 122
60 96 143
60 94 140
60 95 144
61 95 142
60 95 140
60 94 140
61 96 151
60 94 137
60 94 139
60 95 136
60 95 141
60 94 137
61 95 137
60 94 128
59 93 133
60 94 136
60 94 132
61 96 141
60 94 133
59 92 131
59 92 127
61 96 143
59 92 128
61 95 144
60 94 137
60 94 128
60 95 140
61 95 146
59 92 127
60 95 137
58 91 127
59 93 136
58 91 133
60 94 138
61 95 144
60 94 141
60 93 134
61 94 143
60 93 135
60 94 138
59 92 140
59 92 135
58 91 127
57 89 119
58 90 123
58 88 119
58 90 134
55 84 121
58 89 127
56 86 123
57 87 134
55 84 122
133 144 154
161 169 169
136 144 146
138 147 154
126 134 132
121 131 132
137 148 155
120 131 135
125 135 136
129 139 139
127 136 134
119 128 123
125 133 127
106 112 99
134 142 138
106 115 105
124 130 113
132 137 117
126 130 106
123 129 108
126 129 99
139 142 117
137 139 104
128 134 116
142 145 116
129 131 88
144 144 104
144 146 112
135 136 91
146 148 112
141 142 98
139 139 98
137 137 91
149 147 91
146 146 95
148 145 93
146 145 90
150 147 92
150 148 99
158 154 93
159 155 99
156 153 94
155 152 92
154 150 84
155 153 95
161 157 90
158 154 93
157 152 83
159 154 86
159 155 82
161 156 85
167 161 92
157 153 85
160 155 90
157 153 86
162 157 86
164 159 89
163 158 87
160 155 85
167 162 91
160 155 88
165 160 83
167 162 84
168 162 88
169 163 88
167 162 85
169 163 90
167 162 85
170 164 89
171 166 92
169 164 95
173 166 96
174 167 91
174 167 92
174 167 100
167 162 83
172 166 92
175 168 92
172 165 96
169 164 88
177 171 103
170 164 86
171 165 92
174 168 97
172 167 94
169 164 94
172 166 90
172 166 88
169 164 93
170 164 96
174 168 100
175 170 106
172 167 101
169 164 93
172 167 97
176 169 99
173 167 96
175 169 98
175 169 101
171 166 91
175 170 104
174 168 95
172 166 94
177 173 109
175 171 109
172 168 109
177 172 109
177 172 104
177 171 104
177 173 113
176 173 115
174 167 95
175 169 97
176 169 96
175 170 106
176 172 110
175 169 97
177 172 109
180 176 121
176 172 110
175 172 113
178 175 119
177 171 107
177 172 113
177 171 108
178 175 121
174 169 103
177 174 116
182 179 131
181 179 130
178 173 116
180 178 125
179 173 108
180 176 121
179 176 120
178 176 122
180 178 127
183 180 132
174 171 108
183 181 136
182 180 133
179 176 125
182 180 134
182 179 131
181 179 129
183 181 133
179 175 123
182 180 132
185 185 149
185 201 198
184 200 192
189 205 214
187 203 203
185 200 194
187 203 209
185 201 195
186 202 203
187 202 203
187 202 203
183 200 194
184 200 194
185 202 203
183 199 191
184 200 192
181 198 183
186 202 203
185 201 203
187 203 206
184 201 198
185 201 199
187 203 204
187 203 207
181 198 184
187 202 203
186 202 202
184 200 190
185 201 202
185 201 199
188 204 209
187 203 204
185 201 196
188 203 209
184 200 196
186 202 203
186 202 203
189 204 211
185 201 199
185 201 198
187 202 204
187 203 207
183 199 191
187 202 204
188 204 211
187 202 203
185 201 198
186 202 204
188 204 209
187 202 204
183 199 192
188 203 209
182 199 191
187 203 206
188 203 207
187 203 206
187 202 203
185 201 202
186 202 206
187 202 203
185 201 200
186 202 204
186 202 202
186 202 204
184 200 198
186 202 204
186 202 204
188 204 211
187 203 206
187 203 207
186 202 204
189 204 212
188 204 211
186 202 204
187 203 204
185 201 199
184 200 198
183 199 195
188 204 212
186 202 203
183 199 192
186 202 203
186 202 203
187 202 204
187 203 208
184 201 200
189 205 212
186 202 202
188 204 212
185 201 198
187 203 208
189 204 214
187 203 212
186 202 206
187 203 206
188 204 214
188 203 208
188 203 209
188 204 211
186 202 204
184 200 199
186 201 203
187 203 209
186 202 203
189 205 217
187 202 206
183 199 195
187 202 211
184 199 205
177 192 192
178 194 199
173 188 191
170 186 191
165 181 193
157 174 182
163 178 177
136 155 173
132 148 165
130 148 167
126 144 168
113 132 154
105 125 159
100 119 151
57 85 121
51 81 116
50 80 116
49 78 123
50 80 116
50 79 118
49 78 118
48 76 115
48 77 123
47 76 118
48 77 122
47 75 116
47 75 116
47 75 124
42 67 108
42 68 112
42 68 105
42 67 104
35 58 98
32 53 89
36 58 98
32 53 93
27 46 84
53 69 106
92 105 127
150 165 165
134 151 164
52 83 127
55 88 136
55 87 129
55 88 128
57 90 132
57 90 131
59 93 142
59 92 140
58 92 140
57 91 128
58 92 133
58 93 136
57 90 132
58 92 126
59 93 139
60 95 147
60 95 145
59 93 141
59 94 140
61 95 140
59 94 136
59 94 138
59 92 128
60 95 136
59 94 132
59 94 132
59 94 138
62 97 157
60 96 143
60 95 145
57 91 113
60 95 141
60 94 133
60 94 136
59 94 135
61 96 141
61 96 145
60 95 137
60 95 132
60 95 136
58 92 135
59 94 139
60 94 128
62 97 145
60 94 136
60 95 144
62 97 152
60 95 143
60 95 140
59 93 125
58 93 129
60 95 146
61 96 142
59 94 135
59 94 143
60 95 135
61 96 150
61 96 139
60 94 134
61 95 144
59 94 135
61 95 139
59 94 139
59 93 125
60 95 136
61 96 136
59 92 130
59 93 140
60 95 141
60 95 137
59 94 129
60 94 137
59 94 137
59 93 125
61 95 138
60 94 132
58 92 129
59 93 128
61 95 142
61 96 145
59 92 131
59 93 131
59 93 136
61 95 141
60 94 139
57 90 116
60 94 141
58 91 128
59 92 132
58 91 127
58 92 136
56 87 119
59 91 143
58 89 122
58 91 130
58 89 128
58 90 132
56 86 124
59 91 130
57 87 125
57 86 123
52 80 105
122 134 149
144 152 152
154 163 167
152 163 173
138 148 154
123 133 137
130 140 145
134 143 144
121 131 131
121 130 128
123 133 134
115 124 118
124 134 132
113 121 117
115 122 109
131 136 117
118 124 107
120 126 108
129 133 105
123 129 109
127 130 99
123 126 98
140 143 119
131 133 100
135 137 98
139 141 106
127 130 92
133 135 100
142 142 97
132 132 84
137 138 96
137 138 101
144 142 93
146 143 87
144 141 86
146 143 90
148 146 77
147 146 90
155 154 98
152 150 95
149 147 85
150 147 89
147 145 88
161 156 93
156 151 79
153 150 88
154 152 94
158 155 95
159 155 87
158 155 93
163 158 86
160 156 81
160 155 88
164 160 96
164 159 87
167 161 93
165 161 88
170 164 91
167 162 92
164 159 87
164 159 86
168 162 88
163 158 90
162 157 86
163 159 85
167 161 89
167 161 87
165 159 86
162 157 82
170 164 88
171 165 90
168 163 87
169 164 91
168 162 84
172 166 92
170 165 88
170 163 86
170 164 87
172 166 93
171 166 93
172 167 96
172 166 92
169 163 87
175 169 97
174 167 93
173 167 91
166 161 80
172 166 90
171 165 90
177 172 111
174 168 96
174 169 99
172 167 93
175 169 104
177 172 109
175 170 108
176 170 100
176 170 100
173 166 93
178 174 115
174 169 99
172 167 92
178 173 116
175 172 112
174 170 103
179 174 113
174 170 101
176 170 102
177 172 109
177 172 113
174 169 99
179 175 117
179 176 123
179 176 122
177 172 109
180 174 112
181 178 128
178 174 114
178 175 118
178 172 107
175 170 103
180 176 118
178 173 112
179 175 118
179 176 122
177 173 111
176 172 107
175 170 108
184 181 134
181 178 128
179 176 123
176 171 112
178 173 110
171 168 109
179 176 119
182 179 129
178 174 117
182 180 131
180 175 114
176 170 104
182 181 135
185 182 134
183 182 137
179 175 118
184 183 140
177 175 121
183 181 136
186 183 139
185 185 149
185 201 199
184 200 194
184 200 194
185 201 194
185 201 200
186 202 202
186 202 199
184 200 191
187 202 200
184 200 194
186 202 200
184 200 191
185 201 198
185 201 199
188 203 206
183 199 190
187 202 202
186 202 202
186 202 200
184 200 196
186 202 199
186 202 200
186 202 202
189 204 212
187 203 204
183 199 188
183 200 195
182 199 187
182 199 187
186 201 198
184 200 195
184 200 194
188 204 208
185 201 195
187 202 203
184 200 195
185 201 196
185 201 195
185 201 196
184 200 194
188 204 209
185 201 196
183 200 194
185 201 200
182 198 188
187 203 206
188 203 208
184 200 192
187 203 204
187 203 206
184 200 195
188 203 208
184 200 195
186 202 200
184 200 195
186 202 204
184 200 196
189 204 209
187 202 204
183 199 196
186 202 203
185 201 195
182 198 188
184 200 198
186 201 198
187 203 204
186 202 203
183 199 188
185 201 199
186 202 202
182 199 190
189 204 211
187 202 204
186 202 200
184 200 195
189 204 212
186 202 200
184 200 198
185 201 199
184 200 196
186 202 202
186 201 202
185 200 196
184 200 196
187 202 206
185 201 196
188 204 209
184 200 195
187 203 208
185 201 199
184 201 198
185 200 195
185 201 199
186 202 200
187 203 206
183 199 191
186 202 204
185 201 200
186 202 203
187 202 204
184 200 195
187 202 203
183 200 194
184 200 195
181 198 192
184 200 197
183 198 192
180 194 186
179 194 200
176 192 189
169 184 174
168 184 182
156 171 170
146 164 172
146 163 174
133 152 168
136 153 166
131 148 163
115 134 155
102 121 151
98 118 144
80 103 141
60 87 124
51 81 120
50 79 113
50 80 109
50 79 115
48 77 113
49 78 117
47 75 118
46 73 104
47 75 114
47 74 110
46 73 116
42 67 106
38 63 99
41 67 107
40 65 104
38 63 102
40 64 93
38 61 103
36 59 95
31 51 87
31 51 94
31 51 90
37 52 85
97 109 124
140 154 163
121 138 157
55 88 140
54 86 129
56 89 139
54 86 129
56 88 133
58 91 131
56 89 131
58 92 134
57 90 133
59 93 141
56 89 121
59 93 138
59 93 136
60 94 144
59 93 133
60 95 147
59 93 136
57 90 115
58 92 132
59 93 132
59 93 133
60 94 137
59 93 135
59 94 132
61 96 148
59 94 132
60 95 140
60 95 144
61 96 142
61 95 144
61 96 145
60 94 130
58 92 122
61 96 145
59 93 138
61 95 136
60 95 144
57 91 125
60 94 133
60 94 142
60 95 135
59 93 135
60 95 142
60 95 141
60 94 136
60 95 131
60 95 142
61 95 134
59 93 131
60 95 131
61 96 142
60 94 135
60 94 134
59 94 137
61 96 142
60 95 143
60 95 140
61 96 145
61 96 139
59 94 134
60 95 133
59 93 124
61 96 145
61 95 139
61 96 142
60 95 140
59 94 132
61 95 140
59 93 129
57 91 129
60 95 139
60 95 135
60 94 138
59 93 130
59 93 125
59 93 138
60 95 137
60 95 148
59 92 131
59 93 137
59 93 126
58 90 127
59 93 133
59 93 140
61 96 144
60 94 144
58 91 126
60 94 140
59 92 138
59 92 132
59 92 132
58 90 126
60 94 138
59 92 133
58 90 123
58 90 129
58 91 134
58 89 127
58 89 124
56 86 116
57 86 126
56 84 122
107 120 134
153 161 160
162 172 180
138 147 151
127 137 141
111 120 122
126 136 141
122 132 133
123 133 135
102 113 111
118 128 129
120 130 128
114 124 122
123 131 125
117 124 111
124 131 120
125 132 121
112 118 103
127 133 116
118 125 106
119 122 88
137 140 113
129 132 101
143 145 111
126 129 97
144 146 117
136 138 102
135 137 99
146 146 103
143 144 109
139 139 99
142 142 94
150 148 98
142 141 90
137 136 88
151 148 92
149 147 94
147 145 91
142 140 86
147 147 97
144 143 91
158 153 87
151 148 79
154 150 80
149 147 85
154 150 89
149 146 82
157 152 87
156 151 81
155 152 91
159 154 89
161 156 83
160 155 86
156 152 88
167 160 93
166 160 86
161 156 86
166 160 88
161 157 83
162 157 82
164 159 85
170 164 89
169 163 89
163 159 86
161 155 83
163 156 78
167 161 88
166 160 83
166 160 86
167 161 86
169 163 89
169 164 93
170 164 89
173 168 96
176 169 98
167 162 84
178 170 99
169 163 88
169 164 92
170 165 99
177 170 99
169 163 85
175 168 97
172 164 87
172 167 92
168 163 89
173 168 101
172 166 91
170 164 87
174 169 101
177 172 109
176 170 105
175 169 101
173 169 101
170 165 88
170 165 90
172 167 97
173 169 101
173 166 88
177 171 107
178 172 110
173 169 103
176 171 107
176 170 98
175 169 101
175 170 106
172 168 101
175 170 109
176 171 103
176 171 108
173 169 103
177 172 108
176 170 101
174 167 93
175 171 106
175 170 107
179 176 123
173 168 101
171 166 99
177 172 108
178 174 115
180 175 117
177 173 113
179 175 117
178 174 113
178 174 112
180 177 122
181 177 127
178 175 117
178 176 121
183 179 127
181 178 127
179 175 120
180 176 119
186 183 140
181 179 131
184 181 135
179 175 122
179 176 122
175 169 104
185 183 141
181 177 123
184 179 129
180 177 124
181 179 131
179 176 120
181 177 121
182 180 132
182 183 141
183 199 187
187 202 200
183 199 188
185 201 199
187 202 202
181 198 186
185 201 196
184 200 192
183 199 184
184 200 192
184 200 194
187 202 202
183 200 192
185 201 195
183 199 188
183 199 190
183 199 191
184 200 191
183 199 191
181 197 181
186 202 200
179 196 177
183 199 188
185 201 196
184 200 191
184 200 191
184 200 192
183 199 184
185 201 194
185 201 198
183 199 187
185 201 198
180 197 183
185 201 192
187 203 203
185 200 192
180 197 180
185 201 196
185 201 195
188 203 204
183 199 188
183 199 188
187 202 202
184 200 196
186 202 204
184 200 194
184 200 192
186 201 196
183 199 190
184 200 195
185 201 195
182 199 188
184 199 191
183 199 187
183 199 192
181 197 180
181 197 181
182 198 187
181 197 180
185 201 198
184 200 192
185 200 194
184 200 195
183 199 191
187 202 203
184 200 192
181 198 183
181 198 188
184 199 192
181 198 184
187 203 206
186 201 198
187 202 203
182 198 187
180 197 181
186 202 202
185 201 199
181 198 183
187 202 204
184 201 196
181 197 184
182 198 187
179 196 174
187 203 206
184 200 194
184 200 191
185 201 196
186 201 196
186 201 199
182 199 191
182 199 188
185 201 199
183 200 192
185 200 195
184 200 192
185 201 195
182 198 187
184 200 192
182 198 187
183 199 188
184 200 195
186 202 200
184 200 194
184 200 195
184 200 193
183 197 191
182 197 189
179 193 187
177 190 180
175 189 181
166 182 173
159 175 158
165 181 186
152 169 173
155 172 176
151 167 166
135 153 160
129 148 159
112 131 145
97 118 141
93 112 133
80 101 129
62 88 119
51 80 119
51 80 117
49 78 114
49 78 113
50 79 122
49 77 113
47 75 109
48 76 109
49 77 111
46 74 111
46 73 114
48 76 112
42 67 105
41 66 99
41 65 100
39 62 93
38 62 99
37 59 94
38 61 91
32 51 92
30 50 75
28 47 78
51 64 92
70 83 104
131 145 145
110 128 141
52 83 117
52 84 120
54 85 127
56 89 137
58 91 131
53 85 121
58 91 135
58 91 141
56 88 124
60 95 143
58 92 144
58 92 136
59 93 132
59 93 139
59 93 141
58 92 133
58 93 132
59 93 132
59 93 136
60 95 142
60 94 133
59 93 132
59 93 132
60 95 137
58 92 123
59 94 138
58 92 127
59 93 132
61 96 150
59 93 135
60 94 136
61 96 147
59 94 131
59 94 130
60 95 146
59 93 135
61 96 149
58 92 118
59 93 129
60 95 135
62 97 147
60 95 136
60 94 135
60 95 142
59 94 131
59 94 132
59 93 134
58 92 121
60 94 137
59 93 127
60 95 136
59 93 130
60 94 130
61 96 138
59 94 132
59 93 136
60 95 135
60 94 135
59 94 139
59 93 125
60 94 131
58 92 130
60 94 134
59 94 128
61 96 143
59 94 133
59 93 128
59 92 135
57 91 114
59 93 131
59 94 136
60 95 138
60 95 142
60 94 134
60 93 129
60 94 134
60 94 142
57 91 116
60 93 136
59 92 133
60 94 138
58 91 125
58 92 128
60 93 132
59 93 132
59 92 128
59 92 130
60 94 138
59 91 125
60 93 134
59 91 132
60 92 128
60 93 138
57 89 127
57 89 133
57 89 128
59 92 134
57 87 122
58 90 127
55 86 124
55 85 120
52 79 105
119 130 140
138 146 149
135 144 145
127 136 141
135 145 153
129 139 145
118 128 133
116 126 129
102 111 111
116 126 129
109 119 117
107 117 113
110 117 107
119 127 121
108 116 102
94 101 79
119 127 114
110 116 94
115 121 103
131 136 119
126 129 97
119 123 94
121 125 94
128 131 100
131 134 98
129 132 99
141 142 94
124 126 90
128 129 80
133 135 98
138 138 93
135 135 88
134 132 81
147 148 105
145 145 100
138 139 87
149 148 96
147 146 86
148 145 82
133 133 78
153 150 92
158 155 98
149 146 86
157 153 88
152 149 84
152 149 84
157 155 98
160 156 89
151 148 84
154 149 77
151 148 87
161 156 82
157 153 87
159 155 86
160 155 84
156 152 80
165 159 89
160 155 86
163 157 91
162 157 83
167 161 88
162 156 82
163 157 83
169 163 89
162 157 78
168 161 87
171 163 91
167 161 86
166 160 88
170 164 85
172 166 92
168 162 85
167 161 87
165 160 87
168 162 83
172 166 95
173 165 90
166 161 84
165 160 86
165 161 84
171 164 87
174 168 97
171 165 90
172 166 93
168 163 87
171 166 92
174 168 98
171 165 91
171 166 95
173 167 98
174 169 103
173 167 92
173 167 92
172 167 96
174 168 96
176 168 93
172 166 90
172 167 95
173 169 103
174 169 104
174 168 96
172 167 98
173 169 103
172 167 95
178 172 106
175 169 99
174 170 107
176 170 106
173 167 95
177 174 116
177 171 106
177 172 113
176 171 109
176 170 101
179 175 116
177 172 107
175 171 107
177 172 110
174 168 95
177 171 104
182 178 124
179 176 123
176 172 109
172 167 95
176 172 109
173 170 106
175 171 108
175 171 110
184 181 132
181 178 127
181 179 132
182 179 125
178 174 116
179 175 124
180 175 115
181 178 129
180 178 129
180 176 120
182 180 133
173 170 108
183 180 131
180 176 123
175 172 116
179 176 124
179 178 130
181 180 135
181 178 126
183 183 141
181 179 127
179 196 174
183 199 187
183 199 191
183 199 187
183 199 192
185 201 194
181 197 178
183 199 187
181 197 178
186 201 198
181 198 183
182 198 187
181 197 181
182 198 186
186 201 198
182 198 183
182 198 184
182 198 183
181 198 186
184 199 188
183 199 191
181 198 181
185 200 194
181 197 180
183 199 184
184 200 191
185 201 196
185 200 192
179 196 172
185 201 198
181 198 186
186 201 198
180 197 180
184 199 188
183 199 188
181 197 177
183 199 188
180 197 180
180 197 175
185 200 194
185 201 198
183 199 188
182 199 188
181 197 180
182 199 188
184 200 191
183 199 188
184 200 191
182 198 187
181 197 181
187 202 202
185 201 195
186 201 199
182 198 183
182 198 180
186 201 196
179 196 177
181 197 178
183 200 192
182 198 187
181 197 180
183 199 188
183 199 188
181 198 184
182 198 187
183 199 186
179 195 174
184 200 195
182 197 186
182 198 183
184 200 188
186 201 198
181 197 186
183 199 187
184 200 192
183 199 190
183 200 191
181 197 183
183 199 187
178 195 172
184 200 191
187 202 203
185 201 196
182 199 187
183 199 188
184 200 191
186 202 200
184 199 190
181 197 177
184 200 191
181 198 183
184 200 192
181 198 183
184 200 196
183 199 192
181 197 186
181 198 183
180 197 178
183 198 191
182 198 186
179 196 178
180 196 175
180 196 181
185 200 197
183 198 190
183 198 189
176 191 167
174 189 166
175 188 173
169 183 161
165 180 173
159 174 154
160 175 181
151 166 162
138 154 149
136 153 153
137 153 149
118 135 149
118 137 136
105 124 139
102 121 137
86 107 131
53 82 120
51 80 118
50 80 121
50 79 119
49 79 111
48 77 108
50 78 115
48 76 117
48 77 119
47 75 108
47 74 108
44 70 100
44 70 110
42 68 102
41 66 99
41 65 98
38 61 95
37 60 90
35 58 95
32 52 86
36 58 91
28 46 76
23 39 64
42 55 87
94 106 119
141 155 148
110 128 137
52 83 133
54 85 129
58 91 139
56 89 120
55 87 116
56 88 127
56 89 128
57 91 136
56 89 127
59 93 134
60 95 147
58 92 122
59 93 136
59 93 139
59 94 136
57 91 127
59 93 132
58 92 128
59 94 137
60 95 141
59 92 137
60 94 131
60 94 143
61 96 143
60 95 138
59 93 138
59 93 131
60 95 141
59 94 134
59 94 135
59 93 135
58 92 128
59 94 132
60 94 136
61 95 136
60 95 135
60 94 133
60 95 134
59 94 128
60 95 137
61 95 146
59 93 134
60 94 145
59 94 139
60 94 139
59 93 133
60 94 137
60 95 138
59 93 128
60 94 133
60 94 135
58 92 131
61 95 141
60 95 142
60 94 125
60 95 142
60 95 134
60 95 136
60 94 126
60 95 141
61 95 147
59 94 130
60 94 137
59 94 133
60 95 141
59 93 120
60 95 143
60 94 138
59 93 129
61 95 139
59 93 137
60 93 131
59 92 131
59 93 134
61 95 143
60 94 142
61 95 147
60 95 144
59 92 132
59 93 132
60 93 134
58 91 130
59 92 128
58 92 126
60 95 144
59 92 131
59 91 127
60 93 129
59 92 136
57 89 127
59 91 131
58 90 117
59 92 134
57 89 127
58 89 121
58 90 132
57 88 122
57 87 123
55 85 115
55 83 106
55 84 112
53 81 112
116 127 134
152 160 160
147 156 160
124 133 138
135 145 148
147 157 166
114 124 124
110 119 121
108 117 113
119 129 134
114 122 120
118 128 127
126 135 126
108 116 110
118 127 122
125 131 112
122 129 116
103 110 86
121 127 107
122 126 96
129 133 108
125 129 101
134 136 104
126 130 104
122 125 90
131 134 100
141 143 105
134 136 98
132 133 88
133 134 85
138 136 86
147 147 102
147 143 78
140 138 83
145 143 91
144 142 90
152 151 99
146 145 92
147 144 80
146 144 88
150 148 92
146 144 83
151 148 88
159 156 91
150 147 87
143 140 71
155 151 84
155 151 82
154 150 80
166 161 94
158 153 84
163 158 94
160 155 91
158 153 81
161 157 88
167 161 86
163 158 87
166 161 84
166 160 85
163 158 87
159 155 83
156 153 77
163 158 86
167 161 86
165 159 87
166 161 87
162 156 77
167 162 91
167 161 85
167 161 86
168 162 91
173 166 93
166 161 81
165 160 93
168 162 82
168 162 87
169 163 93
170 163 89
169 163 85
168 162 81
174 166 91
171 166 90
170 164 87
175 168 99
173 167 92
175 169 99
173 167 91
172 166 93
170 165 93
173 168 98
174 168 97
173 166 92
171 166 94
175 168 96
171 166 90
176 171 108
171 164 84
173 167 99
173 167 95
177 172 110
176 171 104
173 167 94
176 171 104
175 169 96
173 168 103
175 170 99
174 170 104
175 173 113
174 169 103
175 170 100
180 174 110
173 168 95
178 174 118
175 170 108
177 172 106
176 170 103
175 172 113
176 173 116
177 174 116
180 176 118
181 179 128
177 173 107
174 171 113
180 177 125
178 174 114
177 173 119
179 177 125
178 176 127
175 170 106
178 173 113
180 177 128
178 174 116
179 176 121
176 172 111
180 177 126
181 179 132
179 177 124
181 178 127
178 176 124
177 174 115
178 174 113
179 175 116
176 173 115
178 173 113
181 179 126
179 175 121
181 177 122
180 178 127
183 180 131
179 195 174
182 198 184
182 198 184
182 198 184
185 200 192
184 200 191
182 199 190
184 200 190
182 198 184
183 199 187
180 197 180
182 197 181
183 199 186
184 200 192
180 197 177
179 196 178
181 197 181
180 197 181
182 198 186
181 198 180
184 200 195
185 201 196
183 199 187
183 199 191
185 201 196
181 198 180
180 197 178
181 197 180
182 198 187
181 197 180
180 196 172
179 195 171
180 197 180
179 196 171
185 200 191
183 199 184
182 199 186
179 196 171
182 198 183
184 200 191
184 200 187
183 199 191
183 199 186
182 198 186
182 198 180
179 195 172
179 196 175
181 197 178
181 198 180
181 197 181
183 199 188
183 199 186
182 198 184
181 198 181
183 199 188
184 199 187
185 201 196
177 194 166
182 198 186
181 197 178
180 196 183
181 197 180
182 198 181
181 197 180
179 196 174
185 200 194
182 198 187
183 199 190
183 199 187
185 201 196
180 196 178
183 199 190
184 199 192
183 199 188
182 199 186
182 198 186
182 199 187
183 199 187
182 198 180
179 196 178
183 199 186
178 195 177
179 196 169
181 198 181
180 197 177
179 196 174
179 195 172
181 198 181
176 193 163
183 199 188
179 196 178
178 195 169
182 198 184
180 196 180
182 198 187
182 198 184
182 198 186
180 197 178
178 195 169
177 194 166
178 194 168
178 194 169
178 195 174
177 193 169
183 199 189
182 197 194
180 194 185
179 193 180
171 185 165
174 189 172
163 179 164
163 179 170
158 175 160
152 168 157
152 167 163
133 150 156
135 152 148
117 135 144
110 129 148
93 113 120
75 98 118
78 101 123
53 81 105
50 79 115
48 77 116
49 78 121
49 78 110
48 77 105
46 74 106
48 76 109
46 73 110
45 72 103
47 74 113
43 70 103
44 69 103
44 70 102
40 65 94
39 62 89
40 64 92
35 56 87
39 63 98
34 55 85
32 53 82
25 42 67
27 44 73
37 52 78
83 94 103
131 145 136
124 141 156
53 84 132
52 83 117
53 85 124
57 91 135
56 88 126
57 90 131
54 86 116
59 93 143
58 92 137
58 92 135
59 93 138
57 90 126
60 94 143
60 94 139
59 93 136
60 94 135
59 93 131
60 95 140
59 93 127
60 95 140
60 94 138
59 93 132
59 93 132
60 95 137
58 92 133
57 91 129
58 92 127
57 91 118
60 94 135
59 93 126
61 96 141
59 93 137
60 95 143
60 94 133
59 93 133
59 93 117
59 93 130
60 95 143
59 93 128
59 93 134
59 93 134
61 95 139
60 94 134
61 96 143
60 94 135
60 95 142
60 95 141
59 93 129
61 95 141
59 94 133
60 95 142
59 93 134
61 96 143
59 93 135
59 94 136
59 94 125
60 94 129
60 95 137
61 96 141
61 96 141
61 96 142
60 94 139
59 93 130
62 97 144
60 94 136
60 94 133
58 92 125
59 93 129
61 95 135
60 95 139
60 93 131
60 94 135
60 95 139
60 94 136
58 92 128
60 94 136
60 95 138
59 93 136
60 94 135
59 93 128
59 93 136
60 93 131
60 94 129
58 91 121
59 92 132
59 92 132
59 92 128
58 91 116
62 96 149
60 93 133
60 93 138
56 87 111
57 90 123
56 88 125
58 90 122
59 91 136
60 92 136
56 87 122
56 87 118
55 84 122
55 86 115
52 78 95
97 110 125
146 153 151
148 157 164
134 144 149
127 136 144
113 123 128
115 124 125
121 131 137
115 125 131
119 128 129
122 132 132
106 114 105
113 122 120
108 117 112
116 124 112
111 118 106
117 124 114
110 117 102
115 121 101
118 122 90
129 135 113
127 131 106
125 129 99
134 136 100
133 135 102
129 130 84
132 134 90
135 136 95
120 122 77
128 129 87
134 133 71
140 140 90
136 136 83
154 153 104
139 139 95
140 137 79
147 146 96
153 149 95
141 139 78
147 144 79
153 149 86
150 149 97
144 142 80
149 147 82
157 152 85
153 150 83
155 151 80
165 160 96
156 151 83
147 145 76
155 152 81
160 156 91
157 153 77
160 154 87
161 155 84
163 156 81
163 157 81
163 158 79
167 161 84
165 159 82
165 160 86
172 165 91
164 159 81
167 161 87
164 158 85
168 162 87
162 157 83
169 162 91
161 156 76
173 166 91
163 157 84
173 166 95
170 164 88
167 161 87
169 162 90
169 163 81
167 160 80
168 163 86
173 166 90
169 163 82
172 166 94
172 167 97
167 162 86
170 163 85
168 163 85
172 166 93
172 166 92
170 164 87
174 168 99
174 169 99
172 166 87
174 168 101
174 168 94
172 166 92
171 164 83
175 170 97
170 165 93
176 170 97
175 168 99
172 165 85
173 168 94
174 170 104
173 168 96
173 168 105
175 170 105
173 167 97
180 175 117
173 167 95
175 170 101
174 167 97
177 173 113
174 168 101
174 167 95
175 170 109
172 168 102
179 174 115
173 168 94
176 173 112
179 175 121
177 172 109
179 176 121
177 173 112
177 172 105
180 176 124
180 176 122
174 171 112
179 175 122
179 173 108
174 174 124
181 177 122
177 173 117
175 172 111
181 179 131
175 170 105
181 176 117
178 175 118
176 173 112
185 183 139
183 181 132
175 173 117
179 176 125
185 184 147
184 180 133
180 178 124
182 180 135
181 179 130
182 178 127
184 182 139
181 180 134
178 195 171
182 198 181
182 198 180
180 196 177
187 202 200
180 196 175
180 196 177
182 199 186
184 200 191
187 202 198
182 198 181
187 203 203
181 197 180
181 197 175
182 198 184
180 196 174
182 198 181
186 202 198
181 198 186
179 196 171
180 197 177
181 197 178
181 198 183
180 197 178
178 195 169
178 195 168
182 198 181
180 197 177
182 198 184
182 198 184
182 198 180
179 196 171
182 198 181
179 195 174
180 196 175
177 194 166
179 196 171
177 194 163
180 197 180
180 197 177
181 197 178
186 201 192
178 195 168
183 199 187
179 195 168
179 195 171
181 197 174
178 195 168
179 195 177
182 198 183
179 196 171
182 198 186
180 197 181
179 196 169
179 196 172
181 198 181
181 197 181
185 200 190
179 196 172
178 195 169
179 196 169
179 195 171
181 197 177
180 196 175
180 196 175
180 196 174
177 194 171
177 194 165
183 199 183
179 195 172
181 197 178
178 195 168
182 198 184
177 194 166
180 197 177
182 198 183
184 199 191
179 196 174
180 196 174
177 194 165
180 196 172
180 196 175
180 196 175
180 197 178
180 196 175
182 198 180
175 193 158
181 197 180
182 198 178
176 193 163
179 195 172
179 195 166
177 194 163
181 197 180
178 195 169
179 195 168
178 194 172
179 195 171
180 196 180
180 196 175
180 196 175
179 195 172
180 196 181
177 194 169
178 195 171
174 189 154
175 189 165
179 193 180
168 184 145
173 188 171
161 175 158
157 173 159
158 172 158
149 165 158
144 160 142
130 147 152
129 145 132
126 143 139
108 125 131
109 128 130
96 116 119
80 102 115
60 87 110
47 75 97
50 80 113
49 78 111
48 77 108
47 75 102
48 76 100
47 75 110
43 70 100
47 75 107
44 71 100
44 70 99
43 69 98
42 68 102
38 62 91
38 62 88
40 65 88
39 62 93
36 58 88
34 55 78
33 54 84
30 49 80
27 44 73
34 48 67
94 105 113
136 150 151
109 128 146
49 79 107
52 83 116
56 88 127
55 87 125
55 87 130
56 88 123
57 90 123
58 91 134
57 90 131
58 91 127
58 92 128
59 93 133
59 92 134
59 92 132
59 94 130
59 93 136
59 93 139
59 93 126
60 95 140
59 93 138
59 93 133
57 90 119
60 94 136
58 93 124
59 94 136
59 93 131
58 92 126
60 94 139
60 95 138
59 93 124
60 94 134
59 93 124
58 91 117
60 95 136
61 96 142
58 92 126
60 95 140
59 93 134
57 91 125
58 92 121
59 93 137
59 93 134
60 94 138
59 92 129
61 96 144
59 93 131
62 96 145
60 95 141
60 94 132
59 93 126
59 94 133
59 94 130
60 95 139
59 92 126
60 94 130
60 94 137
60 95 134
60 94 131
60 95 141
59 94 134
60 94 136
60 94 139
59 93 130
58 93 122
59 93 134
60 94 137
58 91 120
59 93 128
59 93 124
60 95 137
59 93 136
60 95 129
60 94 131
60 94 128
59 92 128
61 95 145
61 95 140
61 95 145
60 94 139
59 92 125
58 92 128
59 93 134
60 94 138
58 90 124
60 93 128
59 91 126
58 91 121
59 92 128
59 92 124
58 90 118
58 91 126
57 90 119
60 93 138
58 90 131
57 88 118
58 89 127
56 87 115
59 90 128
55 86 125
55 83 116
55 84 120
51 79 101
106 116 122
148 156 154
143 151 149
117 125 127
139 149 156
130 140 144
108 118 116
119 129 131
114 124 123
101 111 107
93 103 101
109 119 117
111 118 108
117 124 116
107 116 111
115 123 111
104 111 93
120 125 105
114 120 102
128 134 119
124 127 97
126 130 98
115 118 88
138 140 101
127 130 90
134 136 104
133 134 94
130 132 90
131 131 79
130 130 82
146 146 102
135 137 87
145 143 89
139 139 83
144 142 94
145 144 93
130 130 72
146 144 89
131 131 77
139 138 81
148 147 89
150 148 89
148 144 78
157 153 77
146 143 81
148 146 79
155 149 76
160 156 91
154 150 82
152 149 81
157 152 83
160 155 83
151 148 70
160 156 89
155 150 79
154 149 70
158 152 83
164 159 86
165 158 83
154 150 80
161 156 73
155 150 76
166 160 80
163 158 80
166 161 84
166 160 87
164 158 80
165 159 80
161 156 81
163 157 76
171 164 82
163 158 76
166 161 88
171 165 91
165 159 83
168 161 84
164 158 79
166 161 79
168 161 80
165 160 83
168 162 83
172 166 94
170 165 93
167 161 84
173 165 87
171 164 83
175 168 97
173 167 95
168 164 88
169 163 79
171 166 94
169 164 93
172 168 103
173 168 93
170 165 90
176 169 98
170 164 89
172 167 90
170 164 86
170 164 93
179 173 110
174 169 100
172 167 91
176 170 103
171 166 95
178 172 104
176 174 115
172 166 97
174 168 95
180 175 120
171 166 92
176 172 110
172 166 95
181 178 124
179 174 114
174 169 103
179 175 118
174 170 104
177 174 118
174 169 99
177 174 120
180 178 125
171 167 99
174 170 104
177 172 106
174 171 113
178 174 111
181 177 122
180 178 128
177 174 116
181 176 120
178 177 128
181 179 133
177 174 120
181 178 124
178 174 118
183 181 137
180 178 125
184 180 130
177 175 123
181 178 132
174 170 104
178 175 120
181 180 134
176 175 121
179 177 129
181 180 136
183 181 134
177 175 117
179 195 168
182 198 181
177 194 161
182 198 180
178 195 166
177 194 161
179 195 169
182 198 181
179 196 171
180 196 175
180 197 175
181 197 177
181 197 175
181 197 177
180 196 174
180 196 174
178 195 168
180 196 175
182 198 183
180 197 178
183 198 180
182 198 181
181 197 175
176 193 163
179 196 171
178 195 169
180 196 178
175 192 153
180 196 174
180 196 171
179 195 169
179 196 171
177 194 166
178 195 168
181 198 180
182 198 181
178 195 166
178 195 174
179 196 174
179 195 171
178 195 169
181 197 177
180 196 172
178 195 169
182 198 178
182 198 183
178 194 168
182 198 183
176 193 163
180 196 172
179 195 166
179 195 169
179 196 171
184 200 190
179 196 174
176 193 161
178 195 166
177 194 163
179 196 174
180 196 171
179 195 169
177 194 161
178 195 169
174 191 155
179 195 168
181 197 177
178 195 168
178 195 169
179 195 168
177 194 161
182 198 184
179 195 169
175 192 156
179 195 165
176 193 156
177 193 163
177 193 168
179 195 168
178 195 174
180 196 175
177 193 156
179 195 177
179 195 169
178 195 172
180 196 174
172 189 141
175 192 155
178 195 171
175 193 155
177 194 165
176 193 161
179 195 174
181 196 174
176 193 165
174 191 151
177 193 165
175 191 158
177 194 163
174 191 153
175 191 163
175 192 163
177 194 161
172 188 148
177 193 165
175 192 160
172 187 149
175 191 160
174 188 153
176 190 169
162 178 143
154 169 140
152 168 139
145 162 156
136 153 133
138 154 135
118 136 123
123 141 141
111 130 128
91 111 116
96 116 118
90 111 112
75 99 113
58 85 114
51 80 116
50 79 108
47 75 100
48 76 109
46 74 94
47 75 107
46 73 109
44 70 103
46 73 104
42 68 85
43 69 105
43 69 98
42 67 96
41 65 95
38 62 91
38 62 88
37 60 83
36 58 84
32 52 74
31 51 74
26 43 55
30 49 68
33 46 62
82 94 91
133 146 147
136 151 154
47 76 111
52 83 122
54 86 121
54 87 125
56 89 125
56 89 129
56 89 126
57 89 130
58 92 128
57 91 129
60 94 141
58 91 129
58 92 132
58 91 123
58 92 133
59 93 142
59 93 130
59 94 135
58 92 125
58 92 131
61 96 137
58 93 135
58 92 125
57 91 125
60 95 142
58 91 126
60 94 140
59 94 136
60 94 139
58 92 121
60 94 139
59 94 126
60 95 134
57 91 123
60 94 133
58 92 125
60 94 129
60 95 130
59 93 136
60 94 131
60 95 139
59 93 132
58 91 119
59 93 125
60 94 133
61 95 140
60 95 136
59 92 120
60 94 134
58 93 134
60 95 135
60 95 131
59 93 132
61 96 140
60 95 141
59 93 133
59 93 133
58 91 125
59 94 134
59 93 129
60 95 139
60 95 141
59 93 128
61 96 139
58 91 134
59 93 118
60 94 121
59 94 134
60 94 130
60 94 131
58 92 125
60 94 135
59 92 129
58 91 121
60 94 134
58 91 126
61 95 141
60 94 132
58 91 119
59 92 127
59 93 123
60 94 137
60 95 140
60 94 140
60 94 137
60 93 134
59 91 114
60 94 136
58 91 130
58 91 123
58 90 130
59 92 128
57 90 119
59 91 127
58 90 126
57 88 116
58 89 124
55 85 112
55 84 119
56 85 114
54 82 103
51 78 112
113 125 127
146 153 150
135 142 138
124 132 134
123 131 133
143 153 162
104 112 110
114 123 124
125 135 140
112 120 115
126 136 134
108 115 107
116 126 125
113 118 93
113 121 112
125 131 116
107 113 98
129 135 116
123 130 115
126 132 116
113 117 86
121 125 93
127 130 97
130 132 98
124 127 89
124 125 82
143 143 110
140 142 104
135 137 106
134 134 80
133 134 90
144 143 90
142 141 88
143 142 85
137 135 82
137 137 85
145 144 87
146 144 87
145 142 76
149 146 87
145 143 90
152 149 86
144 139 75
151 148 76
155 153 99
151 149 77
150 147 77
153 150 81
154 150 84
150 146 76
147 144 68
154 148 75
153 148 77
159 154 83
154 149 75
155 150 79
157 152 74
160 155 75
164 158 87
163 157 79
165 159 82
169 163 86
167 161 79
152 148 68
159 153 74
165 159 79
168 162 88
161 154 77
172 166 94
165 158 84
163 159 72
165 159 82
168 162 85
169 162 82
165 159 82
170 164 93
159 155 74
166 161 85
166 162 86
170 163 89
169 162 84
166 161 81
169 162 82
169 162 81
173 168 94
175 167 91
168 163 84
168 163 80
175 169 100
170 164 92
169 163 86
175 168 95
170 164 82
175 169 103
170 165 95
173 168 98
171 165 94
169 164 83
177 171 108
173 166 88
168 162 80
170 164 91
178 173 113
173 169 103
178 173 112
173 167 92
174 168 99
175 170 105
176 172 108
172 168 99
175 171 107
170 167 99
179 174 113
176 172 108
174 169 97
174 170 104
179 175 115
170 165 90
177 172 112
176 173 115
173 169 101
176 171 106
177 171 110
174 172 113
181 177 121
174 169 99
175 170 106
178 175 117
175 172 108
171 166 96
177 177 129
180 177 121
180 177 124
182 180 136
178 175 120
180 175 117
179 176 122
182 180 136
183 182 140
177 172 108
176 174 122
178 175 117
178 176 120
182 179 129
182 179 129
181 179 129
182 180 136
186 185 146
179 176 123
178 195 166
179 195 168
181 197 178
177 194 165
183 199 184
181 197 178
180 196 171
178 195 169
181 197 177
184 199 186
182 198 180
177 194 161
180 196 177
178 195 169
177 193 161
179 196 171
179 196 174
180 196 172
176 193 160
181 197 178
176 193 161
180 196 174
180 196 172
177 194 163
179 195 171
177 194 166
180 196 174
177 194 161
179 196 174
179 196 171
175 192 158
179 196 169
181 197 177
178 195 168
182 198 180
176 193 156
173 190 146
179 196 171
179 196 171
178 195 168
179 195 168
173 191 153
179 196 174
179 195 169
180 196 172
178 195 169
177 193 161
177 194 160
178 195 169
177 194 165
177 194 165
179 195 169
178 195 168
177 193 163
177 194 160
176 193 163
180 197 174
179 195 169
179 195 168
176 193 156
172 190 142
177 194 165
182 198 181
175 192 151
176 193 156
179 195 169
177 194 165
175 192 156
174 191 156
178 195 166
174 191 151
178 195 165
175 192 155
174 191 153
177 194 165
176 193 158
177 193 168
178 195 168
178 195 168
178 194 163
175 192 156
175 192 158
177 193 161
174 191 151
170 188 146
179 195 169
172 189 150
176 194 163
173 191 142
176 193 160
173 189 155
177 194 161
172 188 150
175 192 160
170 188 142
174 191 151
177 193 158
174 191 158
174 190 158
173 190 148
172 189 150
174 190 156
171 187 141
169 187 133
173 189 153
172 188 157
171 185 138
170 185 147
164 178 138
157 173 131
156 170 122
154 169 123
147 164 136
140 157 130
137 152 130
128 146 123
135 151 133
117 134 126
110 128 115
109 127 111
83 105 107
63 89 102
67 92 104
49 78 107
47 75 105
47 75 101
48 77 106
47 74 108
49 77 109
48 76 96
43 70 85
44 71 95
45 72 106
45 72 100
42 67 99
42 67 95
43 68 89
37 60 83
37 60 83
34 55 76
37 60 85
31 49 66
31 51 73
27 44 64
26 42 56
56 70 72
94 106 98
135 150 134
138 153 155
52 83 110
50 80 115
54 86 126
57 89 133
56 89 120
55 87 121
57 89 123
58 91 134
58 91 134
56 88 126
57 91 128
57 90 120
59 93 132
55 88 125
59 93 131
59 93 135
58 92 131
58 91 129
58 91 124
60 94 131
59 94 132
58 92 122
58 92 128
60 95 133
59 93 131
59 93 133
59 93 129
58 91 123
60 94 134
59 93 128
60 95 136
58 92 130
58 92 129
58 92 126
58 91 129
60 94 137
59 92 120
60 96 141
59 93 136
59 93 125
60 95 143
57 91 124
58 93 128
59 94 132
61 95 134
59 93 129
60 94 135
60 94 130
60 94 131
61 96 143
60 95 139
59 93 134
61 95 139
57 91 113
59 93 131
59 94 129
59 94 121
60 94 130
60 95 134
60 94 133
60 94 136
60 94 134
60 94 136
59 93 125
60 94 134
60 95 136
61 95 137
60 95 135
58 92 121
60 93 129
59 93 133
59 92 128
58 93 123
59 93 127
59 93 131
58 92 125
58 92 119
60 94 134
59 92 125
58 91 118
59 93 132
58 91 121
60 93 130
60 93 131
58 92 132
59 93 124
59 92 125
60 93 129
58 90 119
57 90 122
59 92 130
58 89 120
56 88 115
56 87 108
58 91 116
57 89 117
57 89 119
56 86 113
54 83 119
56 86 122
54 83 114
53 80 104
119 129 123
156 165 167
154 163 166
135 143 148
142 152 157
118 127 129
119 128 131
126 135 135
127 136 135
119 129 131
125 135 139
94 103 99
135 141 129
114 121 107
121 127 113
106 114 100
121 127 110
107 114 97
107 113 91
122 126 101
133 135 105
126 129 102
120 122 82
125 130 107
131 133 99
120 122 80
139 141 110
135 139 111
129 130 96
133 135 90
140 141 96
145 145 102
150 149 102
141 139 82
137 136 79
144 144 101
142 141 93
151 150 93
143 142 86
151 149 90
145 143 81
152 149 87
152 148 83
148 144 81
151 148 84
160 156 87
157 154 91
152 148 74
157 153 86
151 147 74
156 153 75
159 154 82
161 156 81
152 149 78
159 154 83
155 151 69
158 154 77
161 156 85
160 155 84
158 154 80
161 156 77
165 159 79
164 158 80
163 157 82
162 156 81
162 157 74
168 161 86
163 157 81
162 158 80
159 155 75
166 161 81
163 157 77
164 159 74
166 161 83
173 166 90
167 161 82
167 162 83
165 160 83
170 164 88
166 159 74
169 164 92
170 163 87
172 166 92
168 163 88
167 162 85
170 164 89
171 163 81
172 166 89
168 162 81
167 162 84
173 167 94
170 165 95
172 166 96
174 167 94
170 164 84
175 170 100
169 165 94
168 164 93
173 167 97
173 168 101
171 165 90
174 168 95
173 168 97
169 164 90
171 165 90
173 169 103
175 171 108
175 171 107
172 167 95
175 171 104
176 171 108
171 166 91
174 169 103
178 173 113
172 167 100
175 170 108
177 174 115
179 173 112
174 169 103
174 172 110
175 170 106
176 171 103
171 166 92
175 170 106
180 176 120
175 170 99
176 172 113
178 173 114
177 175 123
175 172 116
177 172 111
174 169 106
170 166 94
177 174 115
177 173 112
177 174 118
178 176 119
177 175 124
179 178 130
178 177 129
183 181 138
180 177 125
184 182 135
177 173 110
182 181 136
178 177 124
181 179 131
179 176 121
176 171 107
177 194 163
177 194 165
177 194 165
180 197 177
181 197 178
176 193 158
181 197 178
180 196 171
175 192 156
179 195 171
173 190 141
181 197 174
177 194 161
175 192 156
179 195 168
181 197 174
178 195 165
179 195 168
177 193 163
180 197 174
177 194 166
177 194 161
177 194 160
178 195 166
181 197 175
179 195 166
180 196 174
173 190 148
178 195 165
176 193 158
178 195 168
175 192 156
179 195 168
177 194 163
174 192 151
179 195 171
179 195 168
176 192 158
181 197 178
177 194 160
177 194 163
176 193 160
174 191 146
176 193 158
179 195 168
173 191 148
177 194 165
179 196 171
179 196 169
179 195 168
179 195 166
174 191 150
177 194 160
177 194 161
175 192 156
175 192 160
174 191 151
175 192 156
174 191 150
177 193 158
173 191 150
175 192 155
175 192 155
175 192 155
178 194 161
171 189 142
174 191 151
169 187 125
179 195 163
171 189 144
175 192 153
172 189 142
174 192 150
175 192 158
171 188 137
173 190 150
179 195 165
176 192 156
176 193 160
176 193 156
171 188 139
170 187 141
173 190 148
171 189 142
174 192 150
173 190 148
176 193 155
172 189 141
172 189 146
170 188 139
173 190 148
174 191 156
174 192 150
170 187 141
170 187 142
171 189 141
172 189 151
172 189 144
170 187 142
171 189 146
173 189 146
170 187 148
165 182 123
168 184 133
172 186 153
170 186 143
169 183 141
168 182 138
163 178 135
165 180 148
159 173 141
151 165 121
154 169 153
137 154 126
131 148 129
132 148 112
123 140 116
114 131 99
106 125 121
90 111 95
83 103 97
76 100 110
62 88 99
52 81 106
49 78 118
46 73 97
49 79 117
49 78 101
48 76 103
47 76 100
46 73 103
45 71 102
44 70 98
43 68 89
42 67 79
39 62 79
42 66 90
38 61 87
37 60 81
37 60 84
33 53 73
31 52 67
31 51 66
23 39 58
27 44 55
56 70 60
98 111 102
148 163 149
145 161 155
48 77 103
53 84 121
52 84 114
55 87 118
55 87 130
56 89 125
57 90 127
56 89 122
57 91 133
58 92 123
59 93 134
57 91 128
57 91 120
58 91 120
59 93 126
57 90 127
59 93 131
57 90 125
58 92 132
59 93 128
60 94 140
58 92 123
58 92 126
58 92 125
58 92 119
59 94 135
58 92 126
59 93 133
59 93 127
59 93 136
58 92 115
60 95 138
59 93 127
60 95 137
60 94 134
59 93 126
59 93 126
58 93 126
59 94 133
59 93 134
59 93 134
59 93 130
59 93 125
59 93 135
59 94 136
58 92 117
60 95 134
59 93 134
59 94 131
60 95 134
61 96 139
61 95 138
60 94 129
61 95 138
59 93 133
59 94 130
60 94 139
59 93 130
60 94 130
59 93 129
59 93 128
59 93 126
59 93 122
58 92 131
59 93 130
60 94 138
61 95 145
61 96 142
60 94 140
59 93 131
59 93 132
58 92 125
60 94 136
57 91 118
59 93 126
60 93 126
57 90 117
59 92 123
59 92 131
59 93 123
58 91 123
60 95 140
58 91 123
58 90 119
58 92 124
59 92 128
59 91 129
59 92 133
58 91 123
57 89 117
59 92 129
57 89 120
59 91 126
59 91 121
56 88 125
57 88 124
56 87 116
55 83 104
56 87 113
53 83 114
53 80 101
52 80 111
136 144 138
155 163 162
148 156 159
117 124 122
135 144 150
129 137 139
126 135 139
111 119 118
110 118 119
103 111 107
97 106 102
110 118 114
120 128 121
127 134 126
120 127 108
119 127 120
123 129 112
111 118 96
137 143 128
120 124 98
110 116 94
119 125 108
122 126 99
136 139 107
128 132 102
109 113 84
122 125 89
127 127 75
137 137 88
137 138 98
139 139 91
134 134 88
133 133 75
135 135 85
146 145 92
136 134 67
137 136 85
148 146 85
143 141 79
144 142 86
146 143 77
146 143 86
148 146 85
156 152 79
141 138 67
142 139 76
159 154 86
157 152 81
150 146 75
157 153 84
154 149 66
158 153 77
155 151 71
153 149 73
154 149 76
155 151 79
159 154 79
160 154 72
154 149 72
161 154 78
156 151 74
166 160 80
163 158 80
161 156 79
164 158 78
153 149 68
164 158 85
161 155 80
162 157 77
164 159 80
165 159 74
172 166 91
169 163 84
168 161 80
169 162 84
161 155 72
165 159 70
167 161 81
167 162 78
167 161 85
168 161 78
168 163 90
168 162 85
173 166 89
169 162 79
168 163 89
168 162 82
166 161 81
166 162 80
175 168 92
176 169 104
174 168 97
173 168 101
172 166 93
167 162 90
171 165 87
174 168 98
174 169 99
176 170 101
176 171 105
171 165 88
172 167 93
172 166 96
174 168 98
172 166 93
173 166 89
173 169 103
176 170 98
175 169 99
173 168 101
178 172 105
175 171 112
176 170 99
173 169 101
176 171 108
176 172 110
177 173 115
178 176 126
170 167 101
176 172 109
177 173 115
178 173 112
173 169 105
178 173 114
177 173 112
177 173 118
180 177 125
177 174 123
172 167 97
178 173 109
176 172 107
177 175 118
176 172 111
176 171 108
181 178 125
179 176 121
178 175 120
173 170 107
177 174 117
180 177 126
178 173 111
177 175 126
184 184 142
181 179 131
176 174 118
181 178 128
181 180 133
178 175 124
182 180 134
178 194 163
178 194 165
177 194 163
173 191 150
178 195 165
176 193 160
177 194 161
178 194 163
178 195 165
179 195 169
178 195 165
178 194 163
174 191 155
180 196 171
175 192 155
177 194 166
177 193 161
181 197 174
181 196 174
180 197 174
179 195 166
177 194 160
172 190 141
173 191 148
174 191 150
174 191 151
177 193 163
174 191 150
173 190 139
177 194 166
173 190 144
177 194 163
177 194 161
176 193 155
173 190 144
175 192 156
173 190 146
178 194 165
177 194 160
175 192 153
174 191 148
175 192 155
175 193 155
178 195 165
172 189 135
173 190 146
178 194 163
175 192 151
172 190 146
177 193 158
175 192 158
171 188 135
176 193 160
175 191 148
173 190 148
173 190 142
174 191 146
173 191 148
172 189 146
172 190 142
174 192 151
172 189 139
176 192 155
173 191 146
175 191 148
171 189 137
173 191 150
168 186 125
172 189 137
170 187 133
172 189 141
173 191 142
171 188 148
173 190 148
172 189 139
173 190 144
172 189 153
172 189 141
170 187 137
170 188 133
175 192 155
173 190 146
172 190 146
170 187 137
169 186 129
168 185 129
168 186 125
173 190 148
172 189 148
171 188 144
169 186 131
175 191 151
168 185 139
170 186 139
167 185 121
172 189 137
164 183 114
169 186 135
172 188 146
174 191 146
168 185 131
171 187 148
168 186 135
175 192 156
170 187 143
164 179 122
167 183 133
165 181 127
166 180 134
156 172 114
155 171 132
145 161 123
150 166 128
133 149 109
132 148 98
112 131 101
124 140 97
116 135 102
101 121 101
98 118 89
103 122 99
73 96 100
61 86 101
50 79 101
49 77 98
47 75 98
48 77 105
47 75 103
49 77 97
48 76 101
45 71 98
45 72 95
42 68 88
46 73 107
41 66 80
41 66 91
41 65 94
42 68 84
39 62 79
35 56 81
35 57 69
34 55 68
31 50 69
25 43 47
41 57 58
71 86 71
115 127 114
157 174 153
168 183 176
50 79 115
51 81 110
54 85 117
55 87 126
53 85 113
56 88 113
57 89 124
54 86 111
56 88 118
58 91 135
58 92 129
56 89 120
57 90 128
57 90 122
60 94 137
60 94 136
57 91 124
57 90 121
57 91 121
60 94 138
58 92 130
58 92 129
59 94 129
60 94 136
59 93 131
59 93 132
59 93 124
59 92 123
58 92 127
58 91 128
60 95 133
60 94 135
59 94 127
60 94 139
60 94 131
60 94 139
59 93 122
59 92 127
60 94 134
59 93 126
59 94 131
59 93 127
61 95 134
60 94 133
58 92 115
58 91 126
59 94 132
59 93 125
60 94 134
60 95 132
59 93 120
60 94 129
60 95 131
60 94 130
59 94 126
58 92 128
59 92 121
59 93 130
60 94 130
58 92 120
58 91 124
60 94 134
58 93 131
58 92 124
58 92 125
61 96 139
58 91 129
58 92 121
59 92 124
59 93 126
61 96 142
59 93 131
59 93 125
59 92 128
60 94 136
58 91 118
59 93 127
58 91 124
59 93 129
59 91 126
58 92 129
59 94 130
58 92 128
59 93 135
59 92 128
59 93 138
58 91 125
57 90 122
57 89 119
57 89 120
58 90 121
57 89 116
58 90 131
57 89 120
58 90 127
56 86 116
57 89 121
55 84 116
55 84 112
54 84 116
52 79 95
47 71 86
162 172 181
166 175 176
154 162 162
144 153 158
135 143 146
127 136 134
129 137 136
125 134 138
121 130 127
108 116 110
115 124 121
116 125 120
110 118 111
122 130 123
116 123 110
115 123 110
114 119 99
124 130 116
122 128 113
118 123 101
125 127 99
117 123 104
122 127 100
125 127 86
125 127 82
126 129 91
125 125 75
129 129 85
125 127 85
124 125 78
138 136 82
136 136 91
142 141 94
137 137 89
134 134 80
148 146 96
147 144 85
148 145 79
140 139 80
135 133 69
153 150 96
156 153 88
145 142 82
152 148 86
155 151 79
142 139 73
146 142 72
155 150 80
151 147 71
153 151 89
154 149 79
154 149 72
161 156 84
153 148 70
155 150 77
153 148 74
159 154 82
161 155 80
164 159 81
160 154 72
165 158 76
155 151 69
164 159 85
158 154 79
159 154 76
163 156 79
160 155 72
166 159 80
165 159 82
163 158 77
169 162 85
162 158 78
165 159 81
168 163 85
165 159 80
163 159 79
170 163 83
169 163 83
172 165 92
171 165 85
168 163 85
168 163 98
167 162 88
168 162 79
169 162 80
168 162 82
170 164 89
166 161 84
171 165 87
169 164 93
170 164 86
172 165 85
171 166 90
170 164 85
170 165 89
170 164 82
168 162 87
168 163 85
169 165 85
169 165 90
173 168 101
171 166 93
173 169 100
168 162 81
173 167 91
171 165 84
169 163 90
172 167 96
174 168 98
175 172 106
175 169 97
172 168 98
175 169 97
175 170 103
173 166 92
176 171 109
180 177 125
175 172 110
173 170 108
177 173 112
181 179 126
177 173 113
176 173 115
176 172 111
174 170 107
177 174 113
178 175 123
177 174 116
176 172 111
179 174 115
176 172 108
175 171 110
178 175 120
177 173 115
178 173 113
179 175 117
177 173 115
174 171 105
179 177 124
180 180 132
180 176 125
181 178 125
183 182 135
181 179 126
181 181 136
185 184 142
184 183 140
185 184 144
182 181 138
175 192 156
175 192 153
177 194 165
175 192 153
176 193 158
176 192 160
173 191 144
175 192 156
177 194 163
179 195 168
178 194 165
172 189 142
177 194 163
174 191 150
176 192 153
174 191 146
172 190 141
171 189 139
169 188 133
172 190 141
175 192 150
174 192 150
173 190 148
174 191 150
176 193 155
174 192 148
176 192 151
178 194 166
177 193 163
177 193 158
172 190 141
174 191 146
173 191 146
175 192 148
173 190 142
171 188 144
174 192 150
172 190 144
172 190 139
175 191 150
173 191 148
173 190 144
174 191 155
170 188 135
176 193 155
174 191 148
172 190 142
174 191 150
172 189 139
171 189 133
171 189 135
173 190 148
169 187 133
174 191 148
171 189 141
174 191 144
171 189 133
172 190 146
174 191 146
170 188 129
173 190 144
172 189 142
170 187 135
167 185 121
172 190 139
175 192 150
175 192 153
165 184 104
171 189 133
169 187 137
168 186 125
170 188 129
170 188 129
165 184 114
166 185 118
167 186 125
165 184 109
170 188 137
171 188 141
171 189 137
163 182 109
164 183 121
168 185 133
169 187 131
167 185 127
171 188 135
168 186 125
166 184 127
171 188 141
167 185 121
166 184 116
166 184 121
166 184 116
166 183 133
170 187 131
171 188 135
167 184 127
168 185 129
165 182 127
157 176 99
162 179 114
163 180 112
168 184 129
166 183 121
167 184 133
166 182 125
164 179 131
165 180 119
160 175 116
150 167 105
158 174 131
151 165 118
139 153 111
140 156 111
138 153 113
114 131 97
112 130 94
114 132 116
107 125 85
95 115 90
87 107 89
83 104 99
62 87 94
63 89 106
49 78 108
48 76 102
47 74 100
46 74 93
47 74 101
46 73 90
45 72 87
45 71 99
45 72 94
40 65 78
43 68 89
40 65 77
37 61 82
39 63 86
38 60 83
38 62 70
35 57 78
33 54 73
35 56 74
30 49 57
43 59 48
87 100 91
123 138 110
173 189 170
190 205 204
49 79 107
53 84 121
52 84 120
55 87 116
57 90 129
56 89 125
57 90 127
55 86 110
56 89 113
56 89 123
56 89 115
58 92 130
57 91 125
57 91 125
57 90 120
59 92 132
58 91 130
57 91 125
58 92 123
58 91 119
59 92 139
57 91 124
60 94 133
59 93 133
58 92 119
58 92 121
59 93 134
58 92 125
58 92 119
60 95 135
59 93 123
59 93 127
58 92 119
60 94 132
58 92 130
59 93 127
59 93 123
60 95 133
59 93 122
59 93 133
59 92 119
58 92 130
59 93 130
60 94 128
58 92 120
60 94 135
59 93 130
60 94 130
59 93 131
59 93 134
59 93 128
59 94 131
59 93 130
58 91 131
59 93 134
60 95 140
58 92 121
58 92 126
59 93 132
58 91 120
59 93 129
59 92 125
59 93 130
59 93 121
58 91 121
59 94 131
59 93 124
59 93 131
58 92 120
60 94 133
58 92 124
59 92 125
58 92 124
58 92 126
60 93 130
58 92 131
59 92 123
58 92 124
59 92 124
57 89 111
61 95 142
57 90 111
57 89 113
59 91 132
58 91 124
58 91 115
58 91 127
58 91 128
56 87 113
58 89 124
59 91 125
57 88 125
57 88 114
57 88 120
57 88 124
56 86 116
58 89 125
57 88 111
54 83 101
56 85 113
53 81 104
51 77 100
179 188 193
151 158 152
152 159 156
134 142 147
145 153 156
127 135 132
125 134 134
129 138 139
116 125 128
115 124 123
118 126 121
100 108 99
107 115 107
110 118 111
130 138 127
118 124 107
109 115 94
111 117 97
113 118 96
118 120 90
116 122 93
128 133 104
123 127 96
124 128 98
129 130 86
132 138 110
132 134 102
129 129 80
124 126 89
140 139 85
135 137 95
136 136 90
129 129 81
133 132 81
139 139 86
130 129 78
147 144 88
146 143 86
142 140 75
146 144 85
148 145 90
149 145 84
149 147 88
152 148 75
153 150 91
157 153 88
155 150 85
141 139 80
154 149 81
155 151 76
154 149 71
147 144 64
156 151 73
159 153 77
156 152 79
152 148 71
156 152 76
156 151 74
159 153 72
154 149 71
149 146 66
159 154 81
160 154 80
161 156 70
167 161 85
163 156 75
164 158 76
168 163 90
164 158 80
164 157 77
159 154 69
160 155 72
164 158 81
167 162 75
166 159 79
167 161 81
160 154 69
169 162 80
166 162 83
168 162 79
169 163 85
164 158 73
172 166 97
168 161 78
168 163 90
169 163 87
167 161 81
170 166 96
171 164 90
171 165 92
170 164 91
171 166 99
175 169 97
169 164 92
168 162 82
173 169 103
169 164 87
172 166 90
177 172 113
171 165 94
168 163 92
173 168 98
173 169 103
176 169 100
172 167 98
175 168 96
171 165 86
170 165 89
167 162 85
174 168 97
171 166 92
175 171 111
178 173 113
172 168 101
172 168 98
170 166 93
178 173 114
175 169 101
175 170 105
177 175 121
172 168 103
178 175 120
176 175 122
179 176 118
180 176 117
179 176 122
176 172 111
179 175 116
173 169 105
180 176 121
175 172 115
176 173 118
173 168 105
186 183 137
175 172 115
182 180 130
178 175 120
177 174 120
173 169 104
177 174 117
177 174 113
177 174 121
179 177 126
180 179 133
175 171 113
181 179 132
180 179 134
177 176 126
182 179 127
173 191 150
174 191 151
175 192 151
178 195 165
177 193 160
174 191 155
175 193 155
174 192 150
174 191 148
176 193 156
176 192 151
175 192 158
174 191 150
173 190 148
174 191 144
178 194 161
175 192 153
177 193 160
177 194 155
174 191 150
175 192 151
173 190 148
173 190 142
168 187 127
175 192 151
175 192 151
170 188 133
173 191 142
172 189 144
175 192 151
172 190 144
168 187 125
171 189 139
169 187 129
171 189 141
175 192 153
170 188 139
172 190 144
172 189 139
174 191 146
170 188 129
172 189 141
174 191 142
171 189 135
171 189 137
169 187 127
170 188 137
173 190 137
174 191 148
167 185 121
167 185 112
173 191 141
172 189 135
172 190 137
172 189 139
170 187 127
173 190 142
167 185 121
173 190 146
166 184 118
168 186 127
171 189 141
166 184 116
168 187 121
171 188 135
171 189 135
168 186 121
167 185 121
172 189 135
165 183 109
166 184 114
167 185 123
170 188 127
166 184 125
168 186 129
166 185 109
165 184 109
168 186 125
171 189 135
165 184 107
165 183 121
171 189 133
168 186 123
167 185 123
168 186 131
167 185 125
169 187 125
163 181 107
165 183 116
167 185 123
167 184 129
173 189 141
164 182 114
167 184 121
163 181 107
162 181 104
165 183 112
166 184 114
163 180 118
163 180 104
164 180 125
161 178 112
159 179 94
158 177 102
160 178 107
163 181 116
157 174 99
167 183 123
158 172 112
151 167 100
140 157 96
142 158 109
141 158 111
137 152 83
117 134 86
116 134 105
126 142 96
110 127 80
91 111 66
95 116 84
90 109 88
65 89 84
71 93 93
62 84 84
48 76 94
48 76 98
44 70 92
46 73 85
45 71 92
45 72 96
47 75 103
43 69 79
45 71 92
40 64 81
42 67 86
39 63 74
41 66 72
39 62 84
37 60 76
34 55 67
35 57 67
32 51 57
33 53 56
46 64 63
79 93 64
86 100 84
148 164 134
177 193 171
208 222 225
71 93 111
48 76 110
53 85 120
55 88 116
53 84 111
57 90 125
55 88 113
56 89 119
54 86 122
56 89 123
57 90 132
59 94 135
57 90 127
58 91 125
57 91 124
59 93 133
57 90 120
59 93 126
59 92 125
58 91 130
59 92 125
58 92 124
59 93 134
58 92 128
56 89 110
59 93 124
60 95 132
60 94 130
58 92 126
59 93 130
56 89 118
58 92 123
58 92 119
60 95 133
60 94 134
60 94 133
60 95 136
58 93 136
60 94 134
59 94 139
59 93 129
60 95 139
59 93 131
58 91 118
60 95 132
61 95 136
60 94 134
61 95 141
59 93 130
60 94 135
59 93 128
59 94 130
58 92 122
58 92 126
58 91 122
60 94 138
59 93 125
59 93 126
60 94 133
58 91 118
58 92 122
59 93 136
59 93 136
60 94 134
58 92 122
57 90 117
60 93 129
58 92 117
60 94 133
59 93 131
58 91 123
59 93 129
60 93 131
59 93 135
59 93 132
60 93 135
59 92 125
59 93 125
59 92 127
58 91 124
58 92 124
59 92 132
59 91 122
59 92 134
59 92 131
58 91 117
59 92 127
59 92 131
58 90 120
56 88 117
56 87 112
59 92 123
55 86 111
56 88 121
54 84 105
58 90 125
57 89 122
56 86 108
55 83 101
53 82 104
54 81 106
67 88 111
205 216 226
163 170 166
157 165 165
143 150 151
136 143 144
131 140 144
125 133 131
136 145 149
128 137 139
103 111 104
118 126 122
120 128 122
115 122 117
119 128 123
120 128 119
112 119 100
123 132 125
113 118 94
120 125 105
122 126 101
112 116 92
120 126 109
123 127 93
125 131 105
115 120 89
121 125 95
131 131 83
125 125 75
128 131 93
134 134 91
131 131 90
137 136 89
139 139 91
135 135 80
131 131 76
141 139 83
141 139 80
133 132 71
138 136 69
142 140 75
139 136 76
146 144 77
149 147 85
148 145 85
146 143 64
145 142 75
148 144 73
152 148 76
153 149 83
155 150 77
154 151 79
154 150 76
146 142 59
145 141 71
157 152 74
152 147 66
158 154 77
156 150 76
155 151 68
157 153 76
164 158 81
163 157 79
163 157 80
158 152 73
164 159 81
163 157 80
164 157 70
160 156 70
164 158 76
161 156 82
166 159 79
163 157 74
161 156 76
165 159 78
167 161 82
171 164 90
162 157 78
168 161 84
166 159 78
165 160 80
169 162 81
167 162 84
164 159 81
165 161 90
173 166 89
170 164 92
168 161 83
172 166 93
170 164 94
166 160 78
166 159 76
174 169 103
170 164 87
168 164 87
169 164 95
165 160 82
174 169 103
172 167 99
170 164 87
173 168 96
170 165 92
169 164 89
173 168 101
168 163 87
172 166 88
175 169 100
174 169 106
173 170 106
169 166 97
169 163 80
172 166 92
179 175 120
173 168 101
172 167 103
174 171 112
177 173 114
178 173 113
172 168 104
174 170 109
172 166 92
175 172 112
173 169 98
177 172 109
180 175 115
178 174 116
171 167 98
175 172 117
176 173 115
172 168 101
185 183 139
175 171 108
178 173 112
179 178 131
179 176 122
173 170 106
177 174 114
180 176 123
180 178 125
181 178 130
181 178 125
177 173 113
179 179 134
183 181 136
180 179 129
179 176 125
182 181 133
182 179 132
178 175 116
184 182 140
175 192 150
178 194 161
176 193 158
173 190 142
176 192 156
176 193 153
175 192 153
176 193 155
174 191 148
173 190 144
171 189 139
176 192 151
172 189 141
173 190 142
175 192 150
172 189 141
170 188 133
169 187 125
173 190 144
174 191 148
172 190 141
173 190 139
174 191 146
169 187 127
176 192 150
169 187 123
167 186 121
173 191 144
172 189 139
171 189 137
173 190 148
174 191 146
172 190 139
173 191 142
172 189 137
171 189 131
170 188 131
170 187 129
170 188 127
172 189 137
172 189 137
168 186 123
175 191 146
172 190 139
167 186 114
171 189 133
169 187 125
166 185 112
168 186 125
168 186 123
174 190 146
172 190 137
169 187 129
169 187 129
170 188 129
167 186 118
168 186 121
170 187 131
169 187 123
169 186 129
165 184 118
165 184 104
165 184 109
167 185 114
166 184 112
167 186 114
165 183 116
162 181 104
166 184 112
166 185 112
166 185 116
163 181 102
165 184 107
167 185 118
168 186 123
165 183 112
168 186 127
165 184 109
166 185 118
169 187 131
160 179 102
163 181 109
165 183 107
166 184 112
167 185 118
160 179 91
161 179 102
161 179 102
162 180 99
167 184 127
162 180 107
163 182 99
163 181 112
162 180 97
160 179 109
157 175 91
160 179 88
165 182 112
162 180 97
166 183 127
162 180 104
162 180 107
162 179 114
154 172 82
157 176 91
155 172 88
156 173 97
157 173 94
153 169 99
154 170 95
145 161 103
133 149 83
138 156 64
125 141 78
117 136 87
119 137 93
116 134 80
105 123 86
103 120 89
98 117 80
85 106 80
77 98 82
69 91 84
58 82 80
52 76 88
48 76 98
46 73 85
44 71 83
44 71 84
44 70 87
42 67 78
43 69 83
43 68 79
44 70 90
38 62 77
41 65 81
37 60 70
37 60 70
39 63 72
35 56 65
33 53 55
32 52 67
32 52 60
62 76 38
85 102 63
112 127 90
138 154 126
181 198 173
217 231 243
123 139 154
51 82 110
52 82 109
53 84 101
54 86 110
56 89 116
55 88 120
57 90 123
55 88 114
57 90 121
55 87 113
57 90 128
57 90 111
57 90 123
58 91 124
58 91 129
58 91 125
58 92 127
58 91 124
59 93 132
56 89 122
58 91 126
59 94 132
59 92 133
58 92 121
59 94 135
59 92 130
59 93 125
56 89 118
61 95 134
59 93 132
60 94 134
58 92 120
59 93 127
57 90 124
58 92 124
58 92 130
60 94 130
59 92 126
59 93 125
59 93 135
59 92 126
60 95 141
60 95 133
58 92 126
60 94 132
59 93 129
58 92 125
60 94 134
59 93 126
60 95 136
57 91 118
59 93 136
60 94 136
59 93 134
58 92 122
59 93 130
60 94 131
59 92 117
59 93 134
61 95 136
60 94 137
58 92 125
59 92 130
59 94 125
59 93 128
60 94 134
59 93 130
58 92 121
60 94 131
59 93 132
58 92 129
59 91 122
57 90 123
59 93 132
59 93 126
59 92 125
58 90 129
59 93 126
58 91 122
58 91 123
58 91 124
57 89 122
58 92 130
58 92 118
57 89 123
60 93 130
57 89 120
58 91 121
58 90 122
58 90 110
57 88 114
55 86 111
54 84 104
57 88 117
54 83 112
55 85 108
58 89 122
55 85 115
53 80 102
53 81 109
117 133 148
218 230 245
165 173 171
157 165 163
131 137 127
137 144 142
139 145 141
138 147 151
135 144 145
116 124 118
114 123 120
110 117 109
122 130 126
118 125 116
107 115 108
118 123 109
118 125 109
117 125 114
99 105 86
119 124 100
123 127 102
124 129 103
124 127 94
118 121 96
115 120 84
111 116 86
126 130 104
121 124 87
127 130 94
132 132 83
130 131 87
136 137 96
137 137 92
138 137 87
146 146 96
138 138 76
135 135 76
138 136 80
132 132 86
138 135 74
141 138 70
140 138 67
143 141 78
143 140 75
145 142 73
149 146 80
148 144 73
153 148 72
152 149 80
155 150 80
154 148 71
156 151 75
147 145 71
154 149 76
163 157 85
162 156 84
158 153 72
161 156 82
153 149 68
158 153 75
157 151 72
155 150 76
157 152 74
156 150 67
153 149 64
164 157 78
157 153 66
163 158 84
157 152 73
158 153 75
158 153 68
164 159 82
160 155 76
166 160 84
165 159 84
169 163 85
163 158 78
163 158 77
165 159 76
169 163 91
170 164 87
168 163 83
170 163 80
171 163 85
170 164 85
163 158 84
165 161 84
169 163 86
168 162 85
167 163 87
168 162 87
168 163 90
173 166 94
174 169 101
168 164 89
170 166 95
174 169 100
170 166 97
170 165 97
174 167 92
176 170 104
170 163 85
167 162 86
172 167 101
175 172 114
172 168 98
171 166 88
174 169 107
173 168 97
175 171 112
171 164 87
172 167 90
174 170 103
171 166 87
174 168 95
173 169 111
178 172 110
172 167 93
173 169 104
169 165 92
176 171 113
176 172 109
174 169 103
174 169 109
179 177 124
175 171 104
178 175 117
177 173 113
177 172 110
177 175 125
178 174 114
173 169 104
181 178 125
179 177 123
177 172 110
172 169 103
184 183 138
179 176 118
175 171 109
180 175 118
175 173 113
179 176 124
181 178 128
175 171 108
178 176 124
184 185 145
180 177 124
182 179 130
183 180 128
180 178 126
176 193 153
172 190 137
170 188 129
175 192 153
173 190 137
176 193 156
169 187 123
170 188 129
172 189 141
174 191 150
172 190 139
174 191 153
170 188 131
170 187 131
174 192 150
176 193 153
172 190 142
175 192 151
170 188 127
172 189 133
171 189 137
169 187 125
171 188 139
174 191 146
172 189 137
174 191 144
166 184 112
174 190 148
171 188 133
174 190 139
170 187 133
169 187 125
172 189 131
165 184 104
174 191 146
170 188 131
173 190 141
169 187 121
164 183 112
168 186 129
168 186 121
170 187 123
165 184 107
167 185 104
163 182 97
167 185 118
167 186 121
169 187 123
166 185 112
170 188 131
170 187 131
166 184 118
165 184 109
164 183 99
172 189 139
169 186 131
165 183 107
168 186 114
165 183 107
167 185 112
165 184 99
162 181 102
167 185 114
163 182 97
169 187 118
168 186 125
165 183 102
158 178 85
164 182 104
162 181 99
166 185 112
163 181 104
164 183 104
164 182 114
161 180 97
160 180 88
157 176 82
163 181 104
162 181 102
163 182 104
163 182 102
160 179 91
164 182 94
164 182 88
161 180 104
162 181 107
163 181 97
156 175 85
157 175 75
167 185 116
161 180 99
159 177 91
158 177 88
158 177 72
159 177 97
155 174 79
156 174 88
158 177 82
155 174 79
159 178 102
155 174 79
153 172 79
161 178 99
148 167 75
156 173 99
155 174 68
158 176 85
151 167 82
151 168 83
144 158 68
143 159 72
149 165 82
134 151 86
137 155 58
129 144 60
113 130 63
111 129 80
112 129 74
106 125 81
95 114 70
86 106 76
80 100 92
71 93 81
68 90 87
52 78 87
49 74 79
46 73 85
45 72 79
45 71 95
44 69 87
43 69 94
40 64 65
42 67 77
43 68 77
42 67 84
42 67 78
39 62 73
40 64 71
37 60 63
36 58 62
38 60 78
32 52 57
37 58 57
64 80 56
105 121 83
124 140 93
164 181 153
194 209 197
223 236 252
149 164 182
52 83 111
51 81 112
53 84 111
55 86 114
54 86 117
56 89 121
57 90 124
57 90 127
55 88 128
57 91 128
56 89 116
57 90 132
57 90 115
57 90 122
58 92 121
59 93 132
59 92 123
58 92 133
58 92 134
56 90 119
58 92 131
59 93 135
57 90 115
58 91 120
59 93 127
59 93 135
59 93 121
59 93 133
58 92 117
59 92 132
60 94 131
60 94 134
57 91 122
58 93 125
59 93 124
59 93 125
59 94 129
59 93 134
60 94 126
59 93 135
59 93 127
57 90 120
61 95 137
58 92 126
58 91 134
57 91 120
58 91 117
58 91 125
59 93 122
59 93 128
59 93 125
59 94 129
58 92 114
59 93 135
58 91 122
60 93 133
60 94 133
59 92 134
57 91 121
58 92 121
57 91 121
62 96 149
59 93 132
58 92 120
59 92 120
60 93 130
60 94 131
59 93 124
60 93 130
59 93 125
58 92 124
59 92 121
60 94 133
59 93 131
58 92 123
59 93 137
57 90 120
57 90 116
58 92 124
59 93 128
60 94 129
57 90 120
58 91 125
60 92 125
59 91 119
58 91 129
57 90 118
59 92 124
57 88 115
60 93 136
58 90 131
57 87 111
57 89 122
56 88 117
57 88 121
53 81 96
57 87 114
55 85 119
52 78 100
50 76 80
148 161 175
224 236 254
175 182 177
161 168 167
155 163 165
129 136 135
126 134 134
118 125 122
118 127 123
133 141 140
129 137 138
113 120 109
111 119 114
120 129 122
118 124 113
110 117 105
124 130 117
116 123 111
123 128 103
117 123 104
122 126 101
122 128 105
122 127 96
125 128 97
121 125 89
126 129 94
139 141 111
131 133 96
140 141 101
122 127 98
138 139 98
130 129 75
132 132 84
130 131 90
126 128 85
137 138 93
147 146 81
138 136 80
136 136 84
135 132 62
143 141 79
145 142 81
140 138 78
142 141 77
144 142 81
147 145 81
148 147 91
148 144 83
145 143 80
145 141 72
139 137 63
154 151 74
152 148 78
149 145 75
155 152 80
162 156 75
153 150 76
156 153 89
156 151 78
155 151 70
156 151 70
156 152 78
152 148 75
163 157 83
157 153 79
156 152 63
164 158 77
162 156 75
164 157 82
157 151 70
157 153 72
157 153 69
158 152 73
158 153 74
160 155 77
163 157 77
163 158 75
169 163 87
163 157 75
168 163 87
168 164 90
167 161 83
163 157 72
169 162 85
165 160 79
173 169 99
170 163 89
171 165 94
168 162 87
165 159 77
171 166 93
168 162 78
165 159 75
169 163 83
168 162 78
166 161 81
173 166 86
173 168 96
170 163 93
167 163 98
172 168 102
169 165 89
171 164 87
174 168 97
168 163 91
169 165 97
171 166 87
174 169 101
176 172 108
173 167 97
170 165 89
172 167 99
168 163 90
174 171 110
168 163 90
175 171 105
175 172 112
170 167 93
176 171 106
174 170 103
178 174 117
176 170 97
176 172 109
179 173 113
176 173 112
175 171 110
177 174 114
177 175 120
174 170 106
174 170 108
173 169 105
179 176 123
180 178 125
179 178 129
181 177 125
183 179 126
180 177 126
179 176 121
176 172 109
178 174 115
177 174 121
180 177 121
177 175 124
177 174 120
177 174 116
181 180 134
182 181 135
179 176 122
180 179 130
185 184 144
169 186 125
171 189 137
173 190 142
170 188 131
170 187 129
168 186 129
173 191 144
171 189 137
170 187 133
171 189 139
172 189 135
172 189 137
170 188 133
171 188 131
167 186 121
173 190 142
172 190 142
173 190 141
171 188 131
170 188 131
168 186 116
170 188 129
171 188 131
170 187 123
168 186 118
167 185 121
171 189 133
169 187 129
169 187 125
173 190 141
169 187 125
164 182 107
166 185 116
168 186 123
167 186 123
167 185 125
166 185 114
167 185 116
163 183 99
166 184 116
165 184 112
165 184 107
166 185 107
167 186 123
166 184 109
167 185 121
165 182 118
162 181 97
163 182 102
165 184 107
166 184 114
168 186 121
166 184 118
164 183 107
164 183 97
167 186 116
163 181 104
163 182 97
165 183 102
166 184 112
167 185 121
164 182 102
163 181 88
160 180 79
161 180 82
165 184 107
165 183 102
159 179 88
161 180 97
162 181 94
159 178 79
158 179 79
161 180 85
162 182 91
158 177 85
158 177 85
157 177 75
161 181 85
160 179 97
158 178 72
162 180 107
160 179 94
160 180 91
155 175 72
161 180 88
158 178 72
160 180 75
159 178 91
159 178 88
154 174 60
155 175 68
151 171 56
155 174 79
156 175 68
156 175 82
161 178 97
152 171 51
155 173 75
155 174 82
153 171 64
157 176 85
150 169 56
150 169 56
147 167 39
153 172 56
147 164 45
147 166 64
148 167 64
149 166 51
147 164 75
144 161 57
139 155 82
124 141 72
126 144 66
113 131 63
120 137 60
111 128 59
109 127 62
92 113 73
89 108 67
90 110 77
80 100 67
79 99 82
62 85 82
51 78 83
52 78 91
46 73 77
46 73 86
44 70 76
45 71 86
45 71 81
41 66 82
41 65 76
40 64 75
40 63 75
39 63 77
40 63 74
38 62 68
37 59 58
34 56 56
35 57 53
40 59 51
59 78 59
82 99 43
100 115 62
128 145 91
162 179 134
195 210 198
218 232 237
176 191 194
48 77 89
50 80 99
53 84 119
53 85 115
53 84 104
54 86 111
56 89 118
56 89 114
55 87 119
56 89 121
55 88 112
58 92 128
58 92 123
58 91 124
57 90 127
59 93 133
59 92 124
56 89 123
56 89 117
58 91 124
60 95 133
58 91 121
57 91 113
58 92 125
59 92 129
59 93 125
58 92 127
58 92 118
58 91 127
59 92 120
57 90 117
58 92 121
59 92 126
59 93 128
60 94 130
60 94 135
58 92 120
58 92 118
58 91 124
59 93 129
58 92 117
58 92 127
59 93 130
59 93 118
60 94 129
59 94 128
59 93 120
58 92 124
58 92 122
60 94 133
58 92 123
57 91 126
59 93 129
60 95 135
58 91 118
57 91 124
60 95 131
59 93 122
59 93 128
59 93 128
60 95 137
59 93 133
59 92 114
57 90 113
58 92 123
60 94 132
59 93 128
57 90 126
59 93 124
59 92 132
58 91 126
58 91 123
59 92 128
59 93 125
59 93 132
58 91 120
58 92 121
58 91 117
58 91 121
57 89 120
55 88 110
58 91 124
59 93 137
57 90 122
57 90 119
59 92 124
57 88 111
54 84 115
57 89 115
58 91 119
58 90 126
57 88 108
54 84 113
57 87 116
57 88 111
55 86 110
56 87 112
54 83 98
54 83 111
53 81 103
171 186 184
216 231 230
185 194 190
161 169 168
151 159 158
143 150 144
136 144 143
138 146 144
131 138 130
125 133 128
117 125 122
129 136 128
103 112 104
111 119 113
125 133 122
121 127 110
118 125 114
115 122 110
141 148 138
104 107 75
133 137 117
124 129 100
123 127 103
131 134 94
123 125 91
133 137 101
128 129 94
121 124 78
126 127 76
137 139 99
138 136 74
136 138 95
130 131 81
135 133 75
139 139 88
140 138 79
144 143 85
142 142 91
148 147 96
142 140 79
144 143 88
143 141 79
133 131 63
152 146 77
146 143 73
144 140 60
143 141 72
150 147 82
147 142 70
153 149 77
149 145 78
149 145 75
153 149 70
152 148 76
151 147 69
156 151 74
154 150 70
152 148 75
154 148 68
154 151 69
161 157 88
157 152 75
168 161 82
159 154 76
160 155 73
158 152 70
158 154 79
162 157 75
165 159 88
157 152 65
167 161 86
163 158 74
165 159 78
165 159 74
164 157 73
166 160 82
166 160 76
163 157 77
161 155 64
169 162 84
165 157 74
168 163 84
166 160 76
164 156 71
167 160 83
168 162 86
163 158 78
161 156 85
170 164 89
169 164 95
166 161 82
168 163 84
168 164 99
169 161 80
171 166 90
169 163 86
171 166 93
170 166 97
169 166 99
171 167 93
168 161 82
170 164 78
172 168 95
172 169 105
169 163 90
173 169 100
174 170 109
169 165 93
169 164 89
170 164 90
169 165 93
175 170 103
175 172 116
172 166 99
174 170 110
174 169 103
173 168 102
176 171 108
173 169 103
169 163 86
176 170 106
166 162 91
173 171 108
173 169 104
171 167 99
173 169 104
173 168 103
174 169 102
175 169 106
171 169 106
175 170 104
172 168 97
180 178 130
174 171 113
174 170 106
177 175 121
178 176 125
178 174 120
176 172 111
185 185 144
177 171 107
173 170 104
181 177 124
179 176 123
174 172 118
181 179 132
183 180 135
182 178 129
184 182 139
178 175 119
171 189 137
171 189 135
165 184 118
171 188 129
171 189 133
171 189 137
173 190 139
169 187 129
171 188 133
169 186 127
170 188 127
168 186 114
169 187 131
168 186 116
173 190 141
168 187 123
171 188 133
169 187 125
175 191 148
172 189 133
168 186 116
167 185 112
166 185 112
168 186 118
168 186 121
167 186 118
167 185 114
167 186 112
168 186 116
167 185 121
169 187 125
169 187 133
164 183 104
167 185 116
170 188 129
165 183 107
163 182 104
169 187 125
168 186 116
162 182 94
162 181 97
162 181 94
163 182 99
163 183 104
160 179 88
165 183 99
163 182 97
165 183 109
162 181 85
162 181 104
164 183 104
163 182 94
162 181 97
163 182 91
163 182 88
159 178 79
164 183 94
163 183 94
161 181 85
162 181 88
161 180 88
163 181 102
163 181 94
161 180 97
161 180 82
161 180 79
161 181 79
165 182 107
159 178 91
158 178 85
159 178 79
161 180 85
158 177 72
160 179 91
158 178 82
159 179 72
155 174 51
154 175 56
160 179 79
157 176 72
157 177 51
154 174 60
158 177 72
158 178 79
158 178 75
154 174 56
155 174 75
151 171 32
152 172 56
156 176 64
153 173 51
152 172 68
156 175 68
156 177 51
151 170 22
153 172 51
156 176 45
147 164 45
148 167 32
150 170 32
153 173 60
146 166 32
148 168 22
143 163 32
147 166 32
141 159 51
142 160 45
149 166 45
142 160 32
141 159 48
136 153 45
138 154 62
134 151 56
135 153 48
118 137 46
112 130 53
107 125 74
104 122 57
100 119 57
91 111 57
85 105 67
89 107 87
83 103 81
63 85 80
64 86 73
50 75 81
49 75 86
45 72 82
45 71 80
46 73 98
41 66 69
44 69 79
41 65 68
39 64 54
40 64 77
40 64 70
39 62 76
39 63 61
38 61 62
37 59 50
45 63 56
43 61 45
68 84 43
88 105 59
122 137 89
148 165 116
179 195 161
185 203 151
173 197 0
158 181 43
47 75 85
50 80 97
51 81 107
52 82 111
56 88 113
53 85 107
58 91 131
55 87 118
56 89 111
56 89 120
55 87 114
56 88 124
58 92 123
58 91 130
56 89 120
58 92 124
60 94 135
60 94 127
57 89 115
58 91 120
57 90 109
58 91 121
58 91 112
58 91 122
60 94 134
59 92 126
58 92 129
58 92 126
60 95 138
58 91 115
57 89 114
59 93 139
58 91 130
58 91 125
56 89 121
58 92 122
58 92 121
60 94 129
60 94 126
58 92 120
59 93 130
60 94 135
59 93 129
58 92 125
60 95 133
59 92 124
58 91 112
59 93 127
58 91 129
57 89 119
57 90 120
60 94 131
59 93 126
59 93 121
57 90 107
58 91 111
60 94 128
58 92 129
58 92 125
58 91 108
59 93 131
60 94 128
59 92 115
58 91 122
59 93 131
57 91 124
58 92 128
59 93 124
58 91 120
58 92 124
58 92 116
57 90 118
59 92 130
59 93 127
59 93 125
58 92 121
58 91 118
58 91 116
56 89 113
58 90 120
59 93 126
58 92 123
58 91 121
57 88 117
56 88 120
57 89 121
59 92 132
58 90 111
57 89 113
56 86 108
58 89 127
57 88 119
55 85 104
54 85 111
54 85 109
54 83 104
56 86 118
55 85 109
54 83 107
50 76 97
169 193 18
176 199 0
177 191 124
173 180 177
137 143 130
143 150 143
140 146 140
147 155 154
140 148 149
138 146 148
128 136 131
113 120 110
136 144 142
106 113 100
119 127 118
103 109 92
121 127 109
101 106 85
116 123 111
121 125 100
125 129 103
116 121 94
126 131 104
120 125 92
131 136 106
118 121 89
144 146 119
121 123 86
127 129 80
124 124 77
130 132 84
132 132 81
142 144 106
135 136 88
133 132 78
139 139 90
142 142 85
136 136 84
129 128 74
138 137 73
146 145 83
139 137 70
136 134 73
145 141 72
144 142 76
146 142 74
143 139 67
147 144 75
148 144 70
152 148 61
141 138 61
155 151 82
153 149 81
156 151 69
146 143 63
151 146 69
158 154 81
158 153 77
151 146 68
159 154 80
153 147 72
162 157 74
161 155 79
165 159 86
160 154 76
161 155 76
160 155 76
155 151 65
165 158 83
151 146 61
159 154 69
163 158 83
163 157 70
160 155 67
158 153 68
161 155 70
163 158 80
167 161 83
169 164 84
162 156 70
165 160 85
162 155 78
167 162 86
165 160 73
167 161 84
161 154 70
163 158 87
165 159 76
168 162 85
167 162 78
167 161 81
170 166 90
172 166 93
166 160 87
169 163 93
167 164 92
168 163 90
169 164 95
176 171 106
168 162 84
171 165 95
169 163 86
172 168 99
175 171 108
167 162 80
169 164 85
174 170 107
172 167 95
168 163 91
170 165 95
169 164 89
171 167 97
172 166 96
174 169 106
176 172 112
173 169 104
177 172 109
174 170 101
178 175 117
170 166 89
173 169 101
177 172 110
175 172 116
171 166 102
173 168 103
176 172 110
177 174 120
179 176 125
174 170 108
175 170 104
176 172 112
180 176 124
174 172 117
181 178 127
178 173 106
176 173 115
179 177 127
180 176 122
179 176 123
176 172 116
171 166 97
182 180 132
178 174 117
183 183 143
180 178 126
180 175 116
178 176 124
182 180 134
182 180 133
180 176 120
169 187 127
169 187 125
168 186 116
167 186 118
168 185 125
170 188 125
168 186 127
173 190 139
169 186 123
169 187 123
170 187 125
171 188 131
170 188 131
166 185 116
172 190 135
167 185 112
169 187 121
163 182 94
164 182 104
166 184 112
169 186 125
166 185 109
169 187 121
165 184 107
167 185 109
167 186 118
166 185 114
167 185 109
166 185 112
162 181 97
166 184 114
164 183 109
166 185 109
166 184 107
167 185 109
165 183 104
165 184 116
162 181 91
165 184 107
162 181 97
163 183 97
162 180 88
166 185 107
162 181 99
161 181 91
162 181 91
163 182 102
161 181 79
163 181 97
160 180 85
162 181 85
164 183 94
161 181 82
156 176 72
155 176 60
162 182 91
157 177 64
160 179 75
162 181 91
160 179 82
163 182 94
158 178 79
156 176 75
155 175 56
157 177 64
155 176 51
157 177 79
159 179 79
156 176 75
154 175 51
156 177 56
155 176 72
158 179 45
155 175 75
155 175 56
158 178 45
155 175 56
154 174 51
152 173 45
156 176 45
154 174 39
155 175 39
150 171 22
154 174 22
153 172 39
155 176 32
151 171 32
153 173 0
149 168 0
148 167 32
149 169 32
148 168 0
152 172 0
148 168 0
150 170 22
145 166 0
148 168 22
144 164 22
145 165 0
149 168 0
145 165 0
144 164 0
145 166 0
146 166 0
142 160 0
141 160 0
141 161 0
147 164 0
141 159 0
140 159 0
135 152 46
134 151 28
128 146 56
129 146 36
117 134 48
117 134 45
106 122 53
105 124 66
100 119 63
93 113 62
80 97 68
88 107 67
66 88 62
71 91 70
67 89 67
51 74 75
56 79 77
50 74 85
45 71 83
44 70 84
43 68 75
42 67 78
42 67 77
40 63 61
38 62 53
39 62 68
38 61 69
38 60 59
35 57 53
39 60 48
54 71 46
62 78 40
85 103 29
109 127 61
129 146 96
160 177 130
176 193 155
179 200 89
175 198 0
173 197 0
75 99 78
49 79 99
53 84 106
53 84 107
55 87 123
55 86 114
53 85 103
54 85 116
55 88 109
56 89 112
56 88 113
57 90 127
56 89 111
55 88 110
57 90 123
58 91 128
57 90 123
57 90 108
58 91 127
57 91 116
59 92 125
58 92 124
59 93 124
58 92 133
57 90 119
58 92 133
60 94 127
58 91 120
57 91 112
57 90 118
58 92 112
59 93 131
57 90 114
57 90 123
58 91 120
58 92 126
59 92 130
59 93 126
61 96 137
59 93 126
59 92 122
58 91 122
59 93 128
58 92 120
59 92 124
57 91 114
60 94 141
57 90 120
58 92 130
58 92 122
58 91 121
59 93 129
57 90 108
60 93 137
58 91 121
57 91 122
58 92 126
59 92 128
58 92 135
60 94 131
58 92 126
57 89 117
60 94 136
58 92 120
58 91 111
58 91 119
59 93 128
58 91 115
59 94 125
59 92 126
59 92 121
60 93 115
59 93 132
59 93 124
58 92 123
59 93 124
57 90 122
57 90 115
57 90 123
58 91 123
56 89 112
59 92 127
58 89 121
58 90 126
59 92 119
56 88 115
58 90 117
58 90 121
56 88 111
56 87 111
57 89 114
55 85 105
52 81 95
56 87 116
53 82 104
54 84 100
53 81 105
53 81 98
53 81 107
78 100 81
172 196 0
177 198 0
180 200 86
161 167 158
153 159 151
143 150 142
159 166 160
149 157 156
136 143 139
117 125 119
118 125 115
125 132 125
133 141 138
115 122 111
120 126 114
124 131 117
103 108 82
125 132 120
126 132 119
124 128 95
117 123 102
119 125 104
125 129 100
123 127 100
113 116 80
128 132 102
128 130 85
139 141 108
132 133 91
128 128 79
138 138 89
122 123 75
125 124 80
140 140 92
135 136 86
138 137 79
143 142 81
133 132 75
139 136 64
145 142 86
137 135 77
148 146 90
152 148 87
138 135 65
143 140 65
155 150 75
149 145 77
143 139 74
148 146 81
146 144 71
144 140 68
155 150 83
154 150 73
153 148 71
156 152 73
157 153 76
158 152 79
149 146 77
157 152 78
153 147 62
156 152 76
147 143 58
163 158 73
161 156 65
154 149 57
156 151 64
158 154 76
154 150 58
158 154 75
156 151 68
162 156 68
156 151 66
167 160 78
159 153 68
164 158 78
164 159 83
166 159 78
168 162 78
167 160 87
165 161 88
168 162 83
164 158 78
169 163 86
167 161 82
166 159 75
163 157 68
168 161 75
168 161 81
167 162 86
165 161 77
170 164 88
169 164 92
177 173 113
171 165 88
163 158 77
170 164 87
171 164 84
168 163 83
167 161 77
172 166 89
166 160 69
170 165 90
166 161 84
172 166 89
167 162 79
169 164 90
164 160 89
172 167 100
172 168 105
176 171 109
170 164 90
169 164 88
171 166 101
172 166 93
172 167 100
174 169 101
173 170 107
173 171 109
177 173 115
172 171 114
173 170 109
175 173 118
177 173 114
174 170 109
174 170 110
171 168 105
179 174 116
174 170 110
178 175 118
170 165 99
175 171 106
174 169 112
178 174 119
178 176 126
175 170 105
179 176 124
175 172 109
180 176 120
176 173 115
181 180 134
176 173 112
182 180 133
182 181 139
181 177 124
176 175 122
182 180 134
181 179 130
185 184 143
179 175 120
178 175 118
168 186 118
172 189 131
168 186 121
167 185 116
166 185 112
168 186 118
170 188 129
168 186 121
166 184 123
169 187 121
168 186 118
166 184 114
165 184 109
167 185 109
167 185 112
171 188 127
168 186 116
166 184 118
172 189 133
168 186 125
166 185 116
168 186 118
166 184 112
164 182 97
165 184 104
169 186 121
164 183 99
163 181 97
166 185 114
168 186 116
166 184 109
164 182 99
161 180 91
165 183 116
164 183 94
164 182 104
162 181 88
162 181 99
161 180 82
166 184 107
163 182 94
161 179 94
166 185 114
161 180 85
158 177 72
158 177 68
162 181 91
163 182 104
161 181 85
159 180 72
160 180 85
159 179 68
155 176 60
161 180 75
157 177 56
160 180 75
157 177 72
157 177 72
157 177 60
159 178 64
157 176 60
158 178 56
156 176 75
155 175 51
152 173 32
156 176 51
158 178 64
155 176 32
154 175 45
149 169 45
154 175 45
154 174 39
155 175 45
153 174 32
152 173 0
150 169 0
152 174 22
154 174 32
149 169 22
151 171 0
153 174 0
152 172 0
149 170 22
150 171 0
148 169 0
151 172 0
149 170 0
148 169 0
149 170 0
149 170 0
149 168 0
146 167 0
148 168 0
149 170 0
149 171 0
146 167 0
146 166 0
147 168 0
148 167 0
143 163 0
141 162 0
145 164 0
145 165 0
144 163 0
145 163 0
142 162 0
137 155 0
141 158 0
140 160 0
133 151 0
141 159 0
123 141 27
127 144 32
115 133 32
123 139 42
109 126 42
112 129 42
100 118 48
97 114 33
97 115 57
84 102 57
86 104 57
92 112 67
67 87 58
65 87 79
68 89 70
60 83 67
46 71 68
47 69 55
42 67 72
41 67 67
41 65 67
41 66 72
38 60 52
40 63 68
36 58 55
39 62 56
36 58 49
52 74 67
50 68 34
72 89 32
75 93 43
105 123 46
118 135 50
142 158 93
167 185 132
187 203 177
176 199 0
174 197 0
176 198 0
115 136 68
49 78 93
52 83 106
52 83 111
53 85 106
53 84 99
56 89 124
54 86 113
55 87 114
55 87 111
55 88 118
55 88 113
56 89 110
54 86 105
56 89 119
56 89 116
59 93 130
57 90 123
60 94 130
59 93 131
56 89 113
59 93 133
57 90 117
58 92 127
57 90 123
58 91 118
60 94 131
59 93 129
58 91 119
57 91 118
59 93 124
58 91 121
59 92 128
58 91 119
58 92 120
59 93 127
58 93 128
58 92 118
56 89 112
57 89 115
59 93 125
58 92 128
58 92 118
58 91 117
58 91 126
60 94 141
59 93 134
59 93 133
58 92 122
59 93 128
59 93 130
59 93 124
58 92 122
60 94 136
58 91 121
58 91 121
60 93 136
59 93 133
59 93 126
58 91 128
58 91 118
59 94 130
57 90 111
58 91 120
59 94 132
57 91 111
58 91 116
58 90 118
57 91 123
58 91 125
59 93 129
58 91 127
58 91 121
58 91 120
57 90 121
58 91 108
58 91 125
58 90 118
58 91 117
56 88 111
59 92 123
58 91 126
56 89 116
59 92 120
59 92 131
58 90 120
58 92 123
57 89 111
57 89 111
56 86 108
57 88 111
55 85 97
55 85 104
55 87 111
56 86 113
53 82 109
52 80 92
54 82 104
46 69 78
114 135 67
174 198 0
173 197 0
175 198 0
183 190 169
162 167 155
154 159 145
152 160 158
144 152 154
144 151 145
134 141 134
128 134 124
126 134 125
117 126 122
114 120 107
118 125 114
126 131 114
128 134 117
129 137 127
116 120 92
128 134 115
119 125 106
120 125 102
119 125 106
125 130 108
126 130 96
130 134 105
126 130 105
129 131 96
126 130 103
128 130 89
135 135 82
134 135 84
118 120 68
137 137 87
131 131 76
134 133 85
135 135 78
129 129 75
136 134 69
148 145 78
140 137 72
140 138 72
136 134 62
141 139 69
150 148 91
143 141 77
138 135 56
148 144 77
148 145 79
149 145 78
149 147 78
149 143 59
153 148 76
151 146 73
154 151 75
149 145 58
157 153 81
155 150 68
151 147 61
156 152 77
149 145 58
154 149 73
157 152 72
158 153 74
156 150 64
158 155 74
162 157 77
154 149 63
162 157 68
154 149 62
162 157 71
154 151 73
163 156 74
163 158 71
159 153 67
164 157 71
162 156 74
160 155 74
162 157 76
167 160 81
167 162 97
166 160 78
166 161 85
166 161 71
170 165 88
164 158 73
164 158 70
167 162 92
165 161 76
165 159 75
165 161 87
170 165 97
170 164 87
168 162 89
172 168 109
169 165 89
172 167 103
172 166 97
168 162 82
167 161 74
166 160 73
169 162 87
167 161 78
173 168 98
174 170 105
167 163 96
170 166 95
171 167 97
170 166 100
175 170 103
179 174 116
172 169 106
170 165 89
174 170 108
174 169 104
174 168 99
173 169 103
172 169 108
177 174 122
172 168 95
173 170 114
172 169 101
171 166 93
169 165 101
172 169 105
174 167 92
176 172 112
178 176 126
179 174 115
175 172 108
177 173 111
177 171 108
172 170 112
176 172 111
176 173 112
176 171 110
178 176 131
177 174 115
177 174 120
177 175 122
181 179 133
181 178 130
178 175 118
177 175 120
176 170 104
182 181 135
178 176 125
183 182 138
186 186 151
184 183 142
167 185 112
163 182 99
165 184 112
167 185 107
166 185 116
167 185 114
164 183 102
169 187 127
169 187 125
166 185 116
168 186 121
164 183 102
164 183 99
170 188 127
165 183 104
164 183 99
164 183 99
166 185 114
162 182 94
165 184 107
166 184 97
165 184 112
165 184 107
165 184 107
168 186 107
163 182 99
165 184 107
166 184 107
167 185 114
165 183 107
163 182 102
164 183 97
161 181 82
159 179 75
158 178 68
164 183 91
161 180 82
160 179 79
159 179 68
160 180 72
161 180 79
156 177 68
155 175 56
155 175 22
160 179 75
159 179 60
156 177 60
158 178 68
158 178 51
158 178 56
156 176 51
155 176 51
158 178 64
156 176 51
158 178 56
156 177 51
156 176 56
154 174 60
151 172 39
156 176 45
154 175 45
153 174 32
153 174 32
155 176 51
154 175 39
153 174 0
153 174 22
154 174 0
153 173 32
152 172 0
152 173 0
151 171 0
150 172 0
153 174 0
153 175 0
153 174 0
151 172 0
150 170 0
150 171 0
151 172 0
149 169 0
152 172 0
150 172 0
150 171 0
152 174 0
153 173 0
147 168 0
149 169 0
148 169 0
146 167 0
148 168 0
146 166 0
149 169 0
146 167 0
149 169 0
139 160 0
145 165 0
147 167 0
145 166 0
143 163 0
141 161 0
144 164 0
145 165 0
143 161 0
134 152 0
137 157 0
138 157 0
135 153 0
136 155 0
132 150 0
130 147 0
125 141 16
132 149 28
128 146 28
118 136 45
112 129 36
114 130 42
99 115 40
96 114 50
98 116 42
84 103 60
68 88 68
81 101 62
72 92 67
65 84 56
62 82 63
51 73 62
57 79 70
47 70 74
48 71 69
46 69 68
42 66 78
46 68 63
42 65 61
41 62 50
47 70 61
47 69 57
49 68 50
63 80 28
76 94 42
74 92 49
88 106 33
110 127 57
119 136 56
154 171 119
176 193 156
182 201 130
174 197 0
174 197 0
174 197 0
138 160 60
49 77 97
53 84 106
53 84 108
54 86 104
53 85 109
53 84 109
55 87 105
56 89 119
54 85 116
56 88 120
59 92 133
55 88 112
57 90 117
55 88 118
55 88 116
57 91 111
56 89 108
58 91 125
57 90 115
57 90 120
56 89 117
58 91 116
60 94 130
59 92 131
58 92 120
58 92 127
57 90 120
58 92 110
58 92 123
59 92 124
56 89 109
58 91 116
59 92 124
58 91 125
59 93 125
59 93 119
59 93 123
59 93 121
58 92 124
58 92 128
59 93 122
59 93 128
58 91 113
59 93 126
58 91 117
59 93 133
59 94 124
58 92 117
58 93 117
60 93 128
59 93 120
59 93 125
58 91 118
58 91 121
58 91 122
58 92 120
59 93 120
57 90 111
59 93 122
58 91 120
59 93 125
57 90 114
60 94 132
57 91 122
59 92 123
57 89 117
58 90 123
56 88 103
59 93 127
58 92 125
60 93 130
57 91 116
59 92 133
57 90 122
59 92 126
58 91 122
57 90 123
56 89 104
59 92 128
59 93 124
58 90 122
55 87 106
56 88 113
59 93 122
58 90 130
58 90 115
56 87 104
57 89 123
56 87 112
55 86 107
56 87 115
57 87 111
56 86 109
55 84 100
56 86 107
53 81 102
51 79 105
51 76 85
145 166 48
174 197 0
173 196 0
173 197 0
176 191 123
161 165 153
155 161 152
152 157 147
152 158 150
143 150 151
131 137 129
130 137 127
117 123 111
130 137 128
122 129 120
128 136 128
117 125 116
131 137 122
115 120 100
134 138 114
121 125 102
111 114 77
119 123 92
135 139 112
134 136 106
122 124 93
116 118 72
125 127 92
148 151 126
127 128 85
136 138 103
137 141 115
132 133 89
142 141 95
128 130 82
135 136 89
137 136 82
128 128 76
136 135 74
138 137 86
133 131 75
137 133 64
138 138 85
150 147 83
142 138 63
139 137 80
146 145 83
137 135 64
138 136 75
148 145 80
147 144 66
151 147 80
152 148 74
140 137 71
148 146 62
157 152 84
155 151 84
148 142 65
157 152 86
154 149 71
153 148 66
155 151 72
159 154 78
153 150 74
159 154 77
163 156 80
160 154 87
163 158 83
166 161 92
152 148 68
156 150 73
163 158 80
159 155 70
154 149 61
160 154 72
162 157 76
158 152 72
159 153 63
160 155 81
166 160 76
157 153 64
163 158 73
162 156 79
166 162 83
164 157 71
163 157 73
172 169 102
168 164 90
174 168 98
163 158 75
168 163 83
167 162 85
168 163 85
172 167 93
162 157 67
165 159 87
170 165 96
167 161 76
167 160 88
173 167 101
176 171 110
163 159 80
169 164 93
171 165 93
173 168 100
170 164 88
172 168 102
167 161 84
174 168 99
174 170 108
171 165 101
172 168 103
169 165 99
170 166 101
173 170 108
174 169 109
169 165 98
176 172 109
174 169 103
175 171 112
172 169 107
177 172 108
176 173 114
174 170 109
174 169 105
176 171 109
175 172 115
177 173 112
170 167 99
174 170 106
180 177 121
176 174 120
173 170 109
180 179 131
174 171 110
180 177 122
179 177 129
177 173 113
178 176 124
182 180 132
176 174 116
177 175 120
177 175 125
178 176 125
179 176 125
181 177 126
182 181 135
181 179 130
180 178 129
178 174 118
181 180 138
164 182 104
167 185 109
170 187 123
165 184 104
167 186 118
165 183 102
167 185 112
164 183 97
168 186 116
162 182 91
166 185 114
163 182 94
162 181 91
164 182 102
163 183 104
164 183 102
165 184 104
162 181 85
162 181 85
160 180 75
161 180 75
162 181 91
162 181 91
160 181 79
162 182 82
161 180 85
162 181 94
158 178 72
162 181 82
162 181 85
158 178 60
157 178 72
156 176 64
159 179 75
156 177 45
159 178 75
159 179 72
155 176 51
157 177 56
156 177 39
156 176 39
156 176 64
158 178 68
158 179 68
156 176 51
157 178 56
158 178 64
159 179 68
153 174 32
153 174 32
157 177 45
157 177 51
154 174 39
154 175 32
154 174 22
155 175 22
152 173 32
155 176 22
154 175 32
152 173 0
153 175 0
153 174 0
151 172 0
152 173 0
151 172 0
153 173 0
153 174 0
153 174 0
150 171 0
154 174 0
149 169 0
154 175 0
150 171 0
154 175 0
149 170 0
151 171 0
151 171 0
149 170 0
151 171 0
147 168 0
149 170 0
147 168 0
148 169 0
148 168 0
151 172 0
147 167 0
149 171 0
147 168 0
144 164 0
149 168 0
147 168 0
146 166 0
146 166 0
145 165 0
146 166 0
147 166 0
143 163 0
142 162 0
141 160 0
141 161 0
139 158 0
137 155 0
144 163 0
134 155 0
141 160 0
138 155 0
139 158 0
137 155 0
142 161 0
134 153 0
138 156 0
134 150 16
116 132 0
119 137 35
116 134 42
107 124 28
104 122 42
102 119 50
101 119 51
91 107 52
95 111 48
85 104 56
72 92 60
70 88 50
59 81 73
66 85 66
51 73 63
42 65 62
47 68 58
45 69 67
46 69 62
47 69 62
45 66 51
46 67 56
51 70 49
49 68 56
52 71 40
57 77 51
55 73 43
80 98 39
85 102 34
97 116 40
119 137 55
134 152 79
163 180 130
177 194 154
177 199 86
173 197 0
172 196 0
175 198 0
165 189 35
56 83 87
53 84 112
52 83 109
52 83 104
52 83 110
54 85 109
56 88 117
56 89 118
56 88 114
58 91 124
56 88 114
58 91 126
56 89 117
57 91 118
58 91 122
57 89 121
56 88 106
58 91 115
57 91 120
55 88 113
57 90 113
57 90 107
59 92 130
57 91 117
56 89 111
59 93 127
56 89 108
56 89 108
58 91 120
57 90 102
59 92 126
58 92 114
59 93 129
58 92 131
59 93 126
60 94 130
58 92 114
58 92 127
59 93 126
59 92 121
59 93 128
59 93 121
59 92 129
58 90 118
59 92 125
59 93 128
58 91 113
59 93 124
58 91 114
57 90 105
57 89 117
58 92 121
59 93 124
60 94 133
58 91 128
58 91 118
59 93 126
59 92 128
59 94 129
58 92 118
58 92 120
60 94 133
58 91 120
58 92 125
59 93 126
59 93 136
55 87 104
59 93 121
59 92 125
57 91 113
58 92 122
57 90 125
58 91 121
57 89 114
58 91 118
58 91 116
57 90 108
58 90 117
58 90 124
57 89 123
58 91 125
58 90 119
58 90 118
59 92 128
56 88 114
56 87 109
55 87 109
55 84 106
57 89 110
55 86 101
56 86 105
54 83 97
55 84 113
55 84 106
54 83 96
52 80 102
53 81 103
54 78 86
169 193 8
174 198 0
174 197 0
174 197 0
177 197 71
164 170 156
155 161 155
166 173 168
159 166 161
147 155 153
143 150 146
141 146 133
132 137 127
134 141 135
117 124 114
120 126 114
111 117 97
112 118 98
112 117 89
131 136 118
123 129 110
120 123 91
122 126 99
125 128 99
128 132 110
133 136 105
128 131 104
132 133 89
123 125 91
131 132 96
136 136 86
137 137 86
134 135 87
127 128 77
135 134 84
136 134 80
127 127 73
144 142 80
147 145 94
141 140 84
138 138 85
138 136 72
145 144 88
142 139 70
133 132 70
150 147 86
143 140 71
146 144 84
145 142 73
137 135 65
145 143 78
148 143 72
154 150 76
148 144 70
148 144 64
151 146 74
155 151 79
151 146 67
152 147 65
158 154 86
158 153 74
162 157 72
162 156 81
151 148 77
153 150 72
151 146 70
161 156 74
156 151 62
158 152 68
158 153 81
163 157 80
161 156 71
162 156 68
155 151 66
162 156 66
161 155 71
168 161 75
160 155 72
163 157 73
170 164 92
156 152 77
162 155 75
163 159 82
162 156 66
163 159 74
166 162 89
169 165 94
162 157 73
165 160 83
170 164 90
159 153 71
174 169 100
167 162 81
170 165 93
168 163 87
165 160 87
167 163 84
169 163 86
169 163 84
171 166 97
170 165 86
168 164 101
171 166 94
172 166 91
166 163 92
174 168 99
169 166 99
170 165 99
174 169 106
172 168 100
169 163 90
177 172 112
172 169 108
168 166 97
172 167 100
169 162 84
171 166 95
174 170 107
172 167 95
174 171 108
176 173 115
177 173 117
173 169 104
176 172 114
177 173 115
172 168 102
174 169 100
172 166 88
174 170 105
175 172 115
178 173 113
181 178 128
175 171 103
180 177 121
174 169 101
179 177 125
183 180 131
181 179 127
172 169 106
176 173 115
172 168 104
178 177 126
175 170 109
175 172 110
182 179 128
182 180 134
178 174 122
181 180 131
178 175 126
179 178 126
180 178 132
166 184 112
167 185 114
163 183 99
164 183 107
164 183 102
165 184 102
166 184 102
163 182 94
167 185 114
165 184 107
165 183 102
163 182 97
164 182 88
162 181 94
165 184 99
164 183 94
160 180 79
163 182 91
162 181 97
163 182 82
160 179 88
157 177 60
162 181 91
161 181 79
159 178 72
160 179 72
159 179 75
159 179 79
156 177 51
158 178 68
160 180 79
153 174 22
158 178 72
157 177 56
159 178 75
159 179 75
153 173 51
156 176 56
157 177 45
152 174 32
156 176 45
156 176 56
155 175 32
153 174 0
154 175 22
154 175 22
153 174 22
153 174 0
153 173 0
153 174 22
155 175 0
153 174 0
153 174 0
153 173 0
154 174 0
153 174 0
152 172 0
153 175 0
153 174 0
153 174 0
150 172 0
153 174 0
151 173 0
149 170 0
155 176 0
152 173 0
151 172 0
149 169 0
152 173 0
152 172 0
149 170 0
152 173 0
148 169 0
151 172 0
149 170 0
151 172 0
149 170 0
146 168 0
149 169 0
147 167 0
151 172 0
150 171 0
149 169 0
140 160 0
149 168 0
148 168 0
146 166 0
151 171 0
143 164 0
147 168 0
145 166 0
138 159 0
143 162 0
144 164 0
145 166 0
147 166 0
141 161 0
148 168 0
144 164 0
143 162 0
147 166 0
142 162 0
144 163 0
136 155 0
131 149 0
134 153 0
137 155 0
128 146 0
134 153 0
127 145 0
126 145 0
125 143 0
121 140 28
120 138 22
115 133 36
112 131 38
105 121 48
94 112 45
103 118 32
98 114 42
87 105 57
78 97 62
85 103 65
71 89 57
68 88 60
76 95 53
73 93 56
53 72 53
52 72 48
53 72 54
56 75 66
58 76 58
57 77 52
48 68 45
48 68 54
59 77 51
72 90 51
66 83 36
80 98 31
91 108 22
95 113 46
112 131 17
137 156 41
152 170 84
171 188 142
182 199 148
173 197 0
176 199 0
174 198 0
174 197 0
172 196 0
103 125 63
50 79 94
51 81 99
51 82 103
54 85 99
54 85 107
53 84 95
57 90 124
56 89 114
56 89 117
57 90 124
55 87 109
56 89 117
55 88 109
57 89 117
56 88 110
58 91 121
56 89 112
59 93 122
58 91 118
57 90 115
56 89 106
57 90 112
58 92 127
57 90 117
56 90 117
57 90 122
56 89 117
58 91 128
58 92 131
57 90 119
59 93 128
57 90 115
57 91 113
57 89 118
58 92 120
59 93 127
56 89 112
58 91 125
60 94 131
59 93 127
60 95 130
59 92 126
58 92 125
58 92 123
59 93 128
59 94 129
59 92 124
60 94 136
59 93 121
58 91 117
57 91 121
57 89 118
59 93 128
58 92 110
58 91 114
58 91 118
58 92 115
59 93 124
58 92 122
58 92 126
58 92 117
58 91 111
59 93 129
59 92 125
57 90 113
59 92 120
58 91 116
58 90 122
57 90 107
57 90 117
58 91 124
58 90 120
59 92 124
58 91 123
57 89 104
57 89 116
57 90 119
57 89 113
58 90 111
58 91 114
56 88 108
57 88 115
58 90 115
57 89 121
55 87 105
54 85 105
57 88 114
57 88 121
54 84 98
56 86 116
52 81 98
54 84 93
52 80 103
52 81 97
53 81 98
54 82 103
108 129 60
175 197 0
172 195 0
174 197 0
175 198 0
173 197 0
173 182 139
170 174 154
155 160 155
142 148 140
127 134 122
135 141 132
148 155 155
143 149 146
141 148 141
124 130 121
125 131 117
142 149 142
128 131 110
109 114 92
133 135 108
126 132 115
127 130 100
119 122 87
129 133 115
128 131 106
137 140 114
132 133 95
125 126 84
133 136 103
120 122 81
135 135 98
135 136 98
133 131 75
129 128 74
143 143 97
141 141 92
133 133 83
147 146 100
134 134 78
137 136 82
137 136 75
150 148 93
145 142 79
146 144 84
141 140 82
129 128 75
147 144 81
149 147 83
146 143 67
140 136 64
147 145 78
149 145 77
154 150 64
148 146 81
153 150 87
156 153 82
144 140 59
156 151 76
156 150 77
156 153 93
147 144 53
153 148 59
157 152 63
157 152 65
158 153 71
155 150 70
155 151 73
161 156 81
157 151 67
163 158 78
160 154 68
164 159 74
159 153 66
166 162 95
163 158 79
158 152 59
159 155 78
166 160 85
162 157 83
161 156 67
163 156 78
166 160 78
161 156 81
163 157 69
169 162 87
168 162 78
165 160 85
167 163 92
165 159 84
163 157 68
170 164 84
165 160 81
172 165 90
168 164 101
168 164 95
165 159 73
169 163 93
167 162 84
164 161 90
169 165 99
168 162 88
168 163 91
168 163 80
173 167 100
173 166 97
173 170 110
165 161 81
170 166 99
168 163 92
173 167 99
168 164 97
166 160 75
170 165 95
171 168 101
173 167 93
169 165 103
174 169 107
174 169 99
168 164 99
175 171 110
174 169 106
174 171 110
172 169 104
178 175 122
173 169 105
176 174 120
173 168 106
180 178 134
183 181 132
178 176 126
169 165 97
176 173 117
177 175 125
181 179 127
176 174 118
170 166 92
174 170 109
178 176 127
175 173 117
182 180 134
180 177 124
176 173 112
178 176 123
177 173 116
183 181 139
180 180 133
185 184 143
177 175 123
176 173 118
179 177 133
180 179 131
163 182 97
165 184 102
165 184 99
165 184 99
162 181 94
165 184 102
165 184 94
163 182 85
162 181 88
165 184 107
165 184 102
160 180 72
162 182 94
162 181 85
163 182 99
159 179 64
160 179 68
160 180 82
160 179 82
158 178 82
158 179 60
158 177 72
157 176 60
161 180 82
158 178 60
156 177 51
157 177 45
156 178 56
155 175 45
155 175 56
155 176 39
155 176 39
156 177 39
154 175 22
155 175 39
158 178 60
153 173 0
154 174 0
154 174 32
154 175 22
154 175 22
154 175 0
155 176 0
153 174 0
153 174 0
153 174 0
156 176 0
151 172 0
154 174 0
151 172 0
152 173 0
152 173 0
152 173 0
152 173 0
151 171 0
153 173 0
153 173 0
152 172 0
155 176 0
149 170 0
152 173 0
151 173 0
152 173 0
149 169 0
151 171 0
152 172 0
154 174 0
153 173 0
149 170 0
151 171 0
151 171 0
151 172 0
148 169 0
149 170 0
151 171 0
149 169 0
149 170 0
152 172 0
150 171 0
145 166 0
149 170 0
149 169 0
150 170 0
148 168 0
148 168 0
148 169 0
145 166 0
148 169 0
141 161 0
149 171 0
143 163 0
141 161 0
146 166 0
143 162 0
144 165 0
147 168 0
143 163 0
140 160 0
142 162 0
142 163 0
140 160 0
137 156 0
136 156 0
132 152 0
140 159 0
128 146 0
129 147 0
126 145 0
130 148 0
131 149 0
133 151 0
129 147 0
134 151 0
115 132 28
123 140 22
119 137 0
106 123 28
99 116 42
104 121 36
88 106 42
87 103 44
83 101 48
81 99 46
69 87 38
77 95 53
67 85 42
67 87 58
54 73 52
66 86 52
62 82 54
56 74 34
56 73 51
49 69 54
50 69 49
61 78 45
67 85 37
64 82 46
85 104 44
70 89 46
101 119 27
113 130 25
121 139 31
139 158 64
163 180 112
175 191 150
178 199 97
174 197 0
174 197 0
175 198 0
172 196 0
172 196 0
141 163 65
45 73 79
52 83 100
50 80 85
54 85 108
53 84 110
53 85 100
56 87 110
55 87 106
54 86 99
55 87 112
53 85 101
56 89 116
58 90 121
56 89 115
56 89 117
55 87 112
57 91 117
55 87 112
56 89 123
56 89 114
55 88 115
56 89 115
58 92 125
58 91 117
58 92 126
57 90 117
57 90 115
58 91 127
58 91 123
58 91 118
58 91 115
59 93 125
58 91 112
59 93 120
59 92 126
58 91 122
58 92 125
58 91 118
59 92 128
56 89 108
59 93 126
58 92 122
58 92 118
58 92 124
59 93 128
58 91 118
58 91 120
57 91 114
59 92 124
59 93 124
57 90 114
59 92 122
59 93 125
56 89 117
58 92 125
58 92 120
57 90 113
58 90 115
58 91 118
57 90 108
58 91 116
58 92 118
57 90 115
58 92 124
57 91 107
58 91 123
60 93 131
57 90 121
58 91 126
56 89 117
57 90 117
57 89 117
57 89 107
57 90 117
57 90 110
55 85 104
58 90 121
58 91 116
56 88 110
56 88 107
56 88 110
57 88 110
56 88 96
55 87 106
57 89 126
57 89 112
55 86 103
54 84 99
55 86 106
56 87 104
54 84 98
55 85 106
56 87 113
53 82 107
51 77 92
51 77 93
143 166 44
175 198 0
172 196 0
171 195 0
173 196 0
172 195 0
175 193 90
171 176 162
166 171 158
140 146 140
147 153 144
158 164 158
139 146 142
155 163 157
133 141 137
127 135 129
142 148 141
135 141 128
118 124 105
120 125 107
125 131 114
125 130 108
128 132 107
131 134 109
128 132 105
122 125 92
123 126 91
137 140 109
135 137 106
122 124 88
127 130 97
129 131 91
129 129 85
137 136 90
129 128 82
140 140 90
135 136 92
134 133 75
145 145 93
143 142 93
139 139 94
143 141 86
147 147 96
144 142 76
146 145 94
140 137 71
133 132 72
148 145 77
149 146 74
144 140 66
140 138 73
154 150 75
148 144 71
152 148 75
154 152 87
149 145 73
149 147 69
154 150 72
143 141 61
157 153 74
143 139 62
159 155 89
155 150 67
149 146 68
151 147 69
161 154 71
152 150 88
153 148 62
159 153 71
150 147 67
164 161 90
161 157 77
162 158 83
160 155 76
158 153 66
157 152 73
161 155 70
156 151 70
162 158 76
161 153 68
161 155 73
160 155 75
167 162 88
165 160 87
164 159 79
160 154 75
167 162 81
160 156 80
163 157 71
162 158 80
168 163 90
161 155 71
169 163 90
164 158 70
164 159 80
166 162 84
171 167 99
166 163 89
172 166 104
163 156 71
171 167 104
168 162 88
173 168 98
171 164 87
165 159 77
174 169 103
173 169 108
171 165 93
169 163 87
174 168 101
169 164 92
171 168 104
169 164 99
170 166 89
173 168 100
171 168 106
176 172 111
171 166 89
172 169 108
171 168 106
175 170 106
179 176 124
169 165 93
173 168 99
172 167 96
173 169 102
172 169 111
174 171 110
177 173 113
175 170 108
174 170 103
183 182 141
176 173 114
176 174 119
175 171 112
179 175 117
176 174 123
175 172 113
176 174 114
179 177 126
175 170 109
180 178 130
174 170 112
177 175 123
182 180 133
175 170 112
182 181 135
185 185 147
181 178 125
182 180 131
181 180 134
177 176 127
159 179 82
163 182 91
160 180 85
165 184 102
160 180 85
162 182 88
160 179 85
162 181 85
161 180 82
159 179 60
159 179 68
162 181 82
159 179 68
160 180 75
159 178 64
157 177 64
161 180 75
159 180 68
158 178 64
159 178 72
157 177 32
158 178 64
157 177 51
156 176 39
157 176 56
157 177 60
156 176 39
158 177 51
155 176 22
154 175 39
156 176 39
151 171 0
155 175 22
154 175 22
153 175 0
155 176 0
153 173 0
154 175 0
152 173 0
153 173 0
151 172 0
152 173 0
152 173 0
152 173 0
153 174 0
154 174 0
150 172 0
152 174 0
153 174 0
152 174 0
152 173 0
150 171 0
151 172 0
153 174 0
148 169 0
154 175 0
153 173 0
149 170 0
148 168 0
153 174 0
149 170 0
152 172 0
154 174 0
152 173 0
152 172 0
151 171 0
148 169 0
150 171 0
150 172 0
150 171 0
148 169 0
153 173 0
151 172 0
148 169 0
146 167 0
149 170 0
144 165 0
146 166 0
145 166 0
150 172 0
145 166 0
149 169 0
149 169 0
147 167 0
146 167 0
143 164 0
149 169 0
144 165 0
145 165 0
142 162 0
144 164 0
147 168 0
145 166 0
138 158 0
144 164 0
144 164 0
140 159 0
138 158 0
138 157 0
139 159 0
137 157 0
136 156 0
137 157 0
134 152 0
127 147 0
132 152 0
133 152 0
134 152 0
130 147 0
134 153 0
121 139 0
130 149 0
122 139 0
123 141 0
120 137 22
113 129 16
106 123 28
106 123 28
97 115 28
88 105 35
92 110 48
88 104 38
80 99 48
73 90 42
80 97 51
82 99 38
75 93 57
63 80 48
63 81 49
61 80 54
60 78 39
59 77 50
65 85 62
56 75 49
65 81 46
68 84 31
78 96 38
85 102 28
94 112 21
92 111 33
120 138 26
122 142 27
144 164 57
170 187 133
183 200 166
174 198 36
173 197 0
172 196 0
174 197 0
174 197 0
172 195 0
169 193 0
57 83 91
51 81 95
52 83 98
51 81 93
56 89 102
55 87 105
53 84 94
55 87 111
55 87 94
55 87 106
57 90 113
57 90 121
55 87 111
56 88 113
56 89 110
57 90 125
57 89 112
57 89 124
55 87 110
57 90 112
56 88 113
57 90 115
56 89 112
57 90 113
58 92 125
59 93 126
57 90 118
57 90 117
56 89 108
58 92 124
56 88 110
58 92 121
56 88 116
59 93 127
57 90 127
57 90 117
57 91 122
59 93 122
58 92 124
58 92 122
60 94 131
57 90 114
59 93 124
56 89 113
58 92 114
59 93 126
58 92 117
57 90 114
56 89 117
58 91 108
58 92 115
58 91 107
58 91 121
57 90 114
58 91 123
59 93 129
59 92 131
57 90 125
56 90 113
55 87 102
56 88 107
56 89 113
60 93 129
58 91 120
59 92 124
58 91 124
58 91 113
58 91 120
56 89 115
58 91 124
58 90 118
59 92 128
57 90 118
56 89 107
55 86 103
57 90 118
56 89 108
55 86 103
58 91 117
57 88 116
57 89 115
56 88 117
57 88 122
57 89 113
57 88 120
55 87 109
57 88 108
54 84 102
53 84 96
56 87 108
54 84 105
56 86 109
54 83 100
51 77 86
53 80 98
74 96 84
172 194 0
172 196 0
174 197 0
174 197 0
173 196 0
172 196 0
172 196 0
183 192 165
175 180 169
161 168 165
147 152 140
143 149 143
143 149 138
132 136 126
138 146 142
133 138 124
131 136 120
136 141 126
128 133 113
127 133 117
105 110 93
136 139 120
104 108 72
118 122 91
117 121 90
135 139 115
134 136 98
127 131 105
113 116 79
130 133 94
139 140 102
133 136 112
132 133 84
140 139 91
132 131 78
141 139 88
134 133 76
130 129 74
137 136 86
130 128 53
132 132 87
138 138 89
134 133 66
140 139 80
157 154 99
136 134 78
136 134 63
158 156 104
151 147 82
149 145 79
154 151 90
146 143 76
147 144 72
150 146 76
149 146 92
143 139 70
156 152 86
154 150 84
147 143 62
155 152 85
154 149 72
145 141 64
159 154 82
151 147 66
155 152 83
160 155 72
159 154 81
158 154 80
163 157 85
154 149 69
163 157 74
163 157 71
162 158 94
158 153 72
164 160 88
157 152 76
158 153 74
163 157 75
159 153 68
159 155 80
160 155 73
163 159 81
166 160 80
165 159 75
167 162 78
169 164 95
165 160 80
163 157 67
163 158 83
166 162 90
167 161 77
166 161 89
166 160 80
164 158 80
168 163 93
167 162 81
163 159 80
170 164 87
168 164 95
164 159 77
165 163 91
164 158 81
172 167 97
170 164 90
169 165 93
169 165 95
167 161 84
168 163 96
170 166 97
172 169 105
168 165 93
172 167 99
162 156 72
171 166 94
170 165 95
174 171 106
170 164 96
171 167 106
169 166 96
170 166 102
172 166 90
174 170 109
172 168 103
174 171 113
171 170 110
169 166 97
172 169 109
175 171 107
173 168 104
173 171 115
171 167 106
173 167 96
171 167 100
176 172 112
182 181 134
178 174 117
179 178 126
175 171 108
179 176 127
176 172 113
176 172 115
183 182 142
182 180 134
176 174 127
173 169 113
176 174 120
180 178 132
184 182 139
179 179 132
176 176 129
179 178 131
176 175 128
160 180 75
164 182 94
163 182 88
164 183 104
160 180 79
157 178 60
157 177 68
161 181 82
160 180 72
158 178 60
155 176 45
157 177 51
157 177 56
158 178 64
158 178 51
160 180 72
158 178 56
155 176 56
158 178 56
158 178 51
155 175 39
156 176 22
155 176 22
155 176 0
153 173 0
155 176 0
156 176 0
154 174 22
154 174 0
153 174 0
154 175 0
153 174 0
153 173 0
153 174 0
153 174 0
153 174 0
150 171 0
152 173 0
152 173 0
154 175 0
152 173 0
153 174 0
152 173 0
153 174 0
153 174 0
154 175 0
153 174 0
153 174 0
152 173 0
152 174 0
153 174 0
153 175 0
152 173 0
152 173 0
152 173 0
151 172 0
154 174 0
152 173 0
149 169 0
152 174 0
151 172 0
151 172 0
151 171 0
152 172 0
152 172 0
150 171 0
150 172 0
152 172 0
151 172 0
148 169 0
146 168 0
149 169 0
149 171 0
146 167 0
146 167 0
151 172 0
150 171 0
145 165 0
150 170 0
146 166 0
148 168 0
148 169 0
142 162 0
149 169 0
138 159 0
146 166 0
144 165 0
146 166 0
144 164 0
151 171 0
145 165 0
141 160 0
139 160 0
146 166 0
144 163 0
141 161 0
139 158 0
139 159 0
140 160 0
140 159 0
135 154 0
139 158 0
132 151 0
135 153 0
131 150 0
134 153 0
136 155 0
129 146 0
129 148 0
130 148 0
125 143 0
128 145 0
117 133 0
125 143 0
117 134 0
120 137 28
100 115 16
93 111 28
94 112 39
101 119 35
91 109 32
96 115 32
74 91 42
74 92 38
80 96 43
76 94 36
71 89 51
70 87 41
64 82 50
64 82 36
63 81 51
56 72 34
60 78 46
61 78 24
75 92 52
90 106 40
79 96 27
101 118 0
95 112 28
102 120 30
115 133 0
138 157 0
153 171 87
174 191 144
174 195 101
172 195 0
173 197 0
173 197 0
175 198 0
173 196 0
175 198 0
171 195 0
120 143 69
48 76 88
50 79 98
52 83 100
53 84 103
54 86 99
52 84 96
52 82 93
56 88 112
55 87 111
55 88 108
55 87 98
57 90 109
57 90 113
54 86 108
55 88 113
58 91 113
56 89 119
56 90 115
57 90 114
58 91 117
57 91 121
57 89 111
56 88 103
57 91 120
57 90 118
56 89 112
58 91 119
58 92 121
57 91 115
57 90 110
58 92 121
58 91 118
57 91 110
58 92 118
57 89 105
56 89 118
57 90 119
58 92 114
57 91 114
57 89 112
56 87 111
58 92 118
58 91 124
59 93 126
58 91 124
57 91 114
57 90 103
58 92 111
56 89 110
58 91 120
59 93 120
58 92 125
55 87 108
59 93 123
56 88 117
57 91 110
58 91 116
58 91 123
58 92 120
58 91 122
55 88 97
58 91 126
57 90 117
58 91 118
58 91 121
57 89 115
56 88 117
57 89 111
57 88 113
58 91 123
57 90 123
58 91 123
58 90 114
56 89 113
56 88 106
56 89 109
58 90 123
58 91 118
56 87 109
57 88 124
56 89 113
55 86 108
56 87 105
57 88 105
56 86 109
56 87 105
54 85 95
57 88 110
55 86 104
56 86 110
55 85 108
53 82 107
53 81 93
53 80 95
125 147 60
173 196 0
173 196 0
174 197 0
171 194 0
173 196 0
171 195 0
173 195 0
178 196 103
171 177 166
166 172 164
148 151 134
146 152 141
146 152 142
143 147 134
138 144 131
125 130 114
144 151 144
121 126 106
120 123 97
132 138 131
130 137 124
132 137 115
133 139 119
127 131 104
122 127 102
130 134 108
135 137 100
131 135 104
130 130 81
139 141 110
122 123 73
134 137 103
138 139 97
128 129 75
129 128 75
134 135 87
134 135 88
129 129 76
132 131 68
150 149 97
129 129 69
152 150 84
144 142 81
140 138 74
139 136 71
136 134 74
141 139 71
142 143 81
140 136 72
145 141 70
150 148 81
151 148 83
156 153 88
145 142 72
148 146 70
150 146 73
149 146 70
152 148 78
156 151 83
144 141 63
155 151 73
158 154 70
164 158 72
157 151 69
155 151 79
162 157 80
152 147 72
157 153 86
160 155 80
155 151 65
160 155 74
162 155 65
156 152 77
160 156 80
164 161 89
157 152 73
168 163 88
158 153 66
163 159 81
162 157 81
163 158 75
167 161 78
161 155 75
166 159 77
161 157 75
166 160 92
163 157 74
166 161 88
161 158 75
161 156 67
166 161 84
167 162 94
169 162 84
163 158 73
164 158 82
166 161 84
165 162 92
170 165 93
168 164 94
162 156 76
169 165 98
164 158 71
169 165 99
167 162 89
169 165 96
168 164 97
170 164 88
172 166 93
166 162 87
169 166 99
172 166 97
173 168 97
167 163 89
172 168 103
175 172 110
171 167 103
168 163 87
167 164 97
172 169 110
168 165 104
175 170 101
180 178 127
172 168 107
176 172 114
173 169 109
166 162 91
181 180 130
176 173 116
176 172 112
174 172 112
174 170 112
171 168 108
177 174 115
184 183 143
178 176 125
173 171 109
179 177 127
176 172 113
174 171 114
171 168 102
179 176 123
175 173 118
174 170 113
188 188 150
176 173 113
181 178 130
173 171 114
183 181 136
183 181 136
170 168 103
179 179 133
180 177 127
163 181 97
159 179 68
158 178 68
158 178 72
159 178 68
160 180 72
159 179 64
159 178 68
158 177 60
156 177 60
158 177 60
157 177 51
156 177 39
157 177 39
156 177 39
154 175 39
156 176 32
154 174 32
156 177 22
153 174 22
152 173 0
152 173 0
153 174 0
152 173 0
153 173 0
153 174 0
153 175 0
152 173 0
154 175 0
152 172 0
154 175 0
154 174 0
153 174 0
152 174 0
152 172 0
151 172 0
152 174 0
152 173 0
155 176 0
155 175 0
152 173 0
151 172 0
154 174 0
154 174 0
155 176 0
152 173 0
149 169 0
152 172 0
148 169 0
153 173 0
154 175 0
151 172 0
154 175 0
150 171 0
151 171 0
153 173 0
151 172 0
151 172 0
151 171 0
149 169 0
149 170 0
149 171 0
149 170 0
148 169 0
154 174 0
147 167 0
150 170 0
146 167 0
152 173 0
147 167 0
148 168 0
148 168 0
148 168 0
147 167 0
147 169 0
148 169 0
150 171 0
147 166 0
146 166 0
149 168 0
145 165 0
149 169 0
147 167 0
145 165 0
141 162 0
148 168 0
145 165 0
147 167 0
145 165 0
142 162 0
144 164 0
145 166 0
146 166 0
136 156 0
143 163 0
137 157 0
141 162 0
140 160 0
141 162 0
141 160 0
131 151 0
135 154 0
133 151 0
131 151 0
132 150 0
127 146 0
131 150 0
125 144 0
133 152 0
127 144 0
129 148 0
126 145 0
119 137 0
113 131 0
126 143 0
106 125 0
117 134 16
98 114 38
104 121 36
97 116 42
95 112 39
81 98 36
79 95 16
82 99 28
86 103 50
76 93 32
77 93 38
75 92 53
72 88 50
76 92 32
82 98 41
68 83 28
71 87 28
75 91 45
86 103 38
92 108 21
86 103 40
105 122 14
112 129 21
127 146 27
127 147 14
136 156 25
157 175 102
184 200 157
171 194 36
174 197 0
173 196 0
171 195 0
173 196 0
173 196 0
174 197 0
172 196 0
161 185 29
53 80 85
49 79 80
51 80 100
53 84 100
54 85 108
54 85 99
55 88 103
54 85 104
55 86 110
56 88 108
55 88 111
57 89 120
56 89 109
55 87 103
55 87 113
53 85 95
57 90 120
55 87 110
56 89 108
56 88 113
58 92 123
58 90 120
57 91 112
58 92 113
57 90 116
56 88 111
57 90 106
56 88 107
57 90 120
58 92 123
58 91 117
57 89 111
56 89 114
58 91 122
56 89 114
57 91 108
57 90 114
57 91 111
58 92 113
58 91 114
57 91 113
57 89 121
58 91 121
59 93 126
57 91 121
59 92 125
56 89 113
58 91 111
59 93 117
57 90 108
58 92 117
57 90 114
57 90 117
60 94 129
57 91 120
58 91 117
58 91 114
57 90 110
57 90 116
59 93 124
59 92 125
57 90 120
56 87 111
59 92 122
56 87 108
56 89 113
57 90 111
55 87 103
55 88 117
55 87 106
58 90 123
56 88 117
56 88 101
57 89 116
56 87 99
55 86 101
58 90 115
57 88 118
58 91 118
58 91 115
56 88 121
55 86 103
55 86 116
54 85 90
56 88 114
54 84 100
57 88 122
57 87 112
52 81 83
55 86 112
53 82 90
53 81 100
52 80 91
61 86 82
167 190 18
172 195 0
172 195 0
173 197 0
173 197 0
171 195 0
173 196 0
171 194 0
173 196 25
191 200 180
172 177 167
150 153 138
146 151 145
146 150 134
154 158 143
140 147 136
129 134 111
138 145 134
146 152 139
136 141 124
119 124 104
136 140 123
126 130 105
136 140 117
132 136 115
135 138 113
116 120 88
124 126 97
127 129 93
134 137 109
121 123 89
118 119 73
132 137 106
136 137 89
127 127 74
139 140 93
130 130 77
142 142 94
137 137 92
140 139 89
131 131 84
136 133 74
133 133 79
131 130 75
140 139 80
137 135 75
151 150 97
136 136 72
141 141 76
148 147 83
135 133 60
136 135 69
143 139 64
134 133 65
151 147 77
144 141 75
144 140 54
142 139 69
150 146 74
152 150 84
148 144 65
154 150 77
154 150 79
156 152 82
153 149 71
149 146 73
150 143 63
159 156 90
155 150 75
158 154 80
158 154 71
162 157 78
157 152 69
159 156 82
155 149 67
163 158 76
165 160 91
158 154 73
160 157 87
159 153 67
159 155 80
168 163 86
166 162 98
160 154 73
164 159 81
162 156 75
164 159 80
159 154 67
164 158 84
169 163 88
161 157 75
165 160 87
168 163 92
166 160 81
170 165 91
164 159 83
163 157 67
167 163 89
167 162 85
167 163 88
169 164 92
170 166 99
174 170 109
170 167 104
169 165 99
166 163 90
175 171 111
169 165 91
171 167 99
167 162 90
171 168 102
170 168 104
169 163 87
167 163 94
169 163 87
172 167 101
172 171 113
167 163 88
167 164 98
176 172 117
170 165 94
172 169 104
174 169 100
167 165 103
176 173 111
165 160 82
173 171 112
174 172 117
174 171 111
176 173 118
171 167 103
182 181 135
172 171 117
176 174 117
178 174 115
176 174 118
177 175 124
173 169 107
175 173 123
176 173 115
177 174 114
176 174 119
172 169 108
178 175 118
173 171 115
181 179 131
176 173 116
179 175 116
178 176 126
185 184 140
184 183 143
178 176 125
180 179 131
157 177 39
161 180 82
159 179 68
158 178 68
161 180 75
159 179 60
156 177 45
155 176 39
158 177 60
156 177 39
156 176 45
157 177 39
155 176 39
152 173 32
155 175 22
155 175 0
153 175 0
154 174 0
155 176 0
152 173 0
155 176 0
155 175 0
153 174 0
153 173 0
154 175 0
152 172 0
154 175 0
154 175 0
152 173 0
154 174 0
149 170 0
152 172 0
154 175 0
153 174 0
155 176 0
152 172 0
153 174 0
152 173 0
152 173 0
151 172 0
153 173 0
153 174 0
148 169 0
152 172 0
150 171 0
149 170 0
150 171 0
153 173 0
147 167 0
151 172 0
152 172 0
150 171 0
152 173 0
154 174 0
149 171 0
152 173 0
150 171 0
149 169 0
153 173 0
149 169 0
151 171 0
150 171 0
146 167 0
148 169 0
149 170 0
148 168 0
148 168 0
149 170 0
147 167 0
152 173 0
147 168 0
150 171 0
147 168 0
147 168 0
151 172 0
147 168 0
149 170 0
147 167 0
146 166 0
142 162 0
149 170 0
141 161 0
148 169 0
149 170 0
145 166 0
146 166 0
140 161 0
149 170 0
141 161 0
141 160 0
143 164 0
140 159 0
148 168 0
139 159 0
137 157 0
140 160 0
135 155 0
138 158 0
138 157 0
144 163 0
136 156 0
142 162 0
140 159 0
134 154 0
137 157 0
124 143 0
135 154 0
125 142 0
125 143 0
124 143 0
129 148 0
124 142 0
116 135 0
112 129 0
124 141 0
104 122 0
114 131 0
104 121 32
95 111 32
102 118 22
103 120 28
88 104 35
78 95 32
98 113 16
77 92 36
80 95 22
83 97 33
67 84 48
71 87 14
76 92 38
80 93 28
63 80 32
73 90 44
83 99 0
76 92 26
97 113 4
98 115 0
113 130 32
112 130 19
130 149 0
141 161 36
148 167 67
168 185 133
178 198 103
171 195 0
170 194 0
172 196 0
172 195 0
172 196 0
172 197 0
172 195 0
168 192 0
174 197 0
124 145 35
49 78 94
51 81 106
52 82 98
52 82 93
53 84 92
55 86 108
53 85 107
55 87 113
55 87 105
56 89 111
57 89 116
56 88 111
58 91 118
54 86 105
54 86 98
57 90 110
55 88 105
57 90 108
57 90 111
54 87 106
56 89 117
54 86 106
56 89 109
58 91 120
56 88 111
56 89 110
58 91 125
59 92 117
56 88 118
59 93 127
57 90 112
56 89 114
56 89 99
57 91 108
58 90 125
59 93 124
56 88 112
56 89 105
57 90 119
57 91 121
57 90 125
57 90 112
59 92 122
59 92 115
59 93 117
56 89 111
59 93 132
58 91 107
57 90 125
57 90 110
56 89 110
56 88 107
58 91 113
58 91 124
58 91 124
55 88 95
57 91 110
59 93 125
56 89 113
54 86 101
57 89 111
57 90 113
56 88 110
55 88 96
56 88 110
56 88 101
58 90 114
56 88 107
57 90 122
56 88 104
58 91 121
54 86 99
55 86 103
56 87 113
57 89 111
56 89 108
57 89 123
56 88 109
56 87 109
56 87 110
57 89 105
57 90 117
56 87 103
57 89 113
55 86 106
54 84 101
55 85 103
53 83 91
54 84 98
52 80 93
52 81 87
52 81 102
101 123 81
173 197 0
173 195 0
173 197 0
172 195 0
171 194 0
172 195 0
173 195 0
170 194 0
173 196 0
177 193 108
176 181 171
168 174 168
165 170 163
142 146 134
149 155 147
141 145 130
146 152 138
141 146 132
127 132 113
122 128 109
133 138 121
127 132 111
115 122 102
127 132 111
137 140 111
129 135 112
108 110 62
119 121 80
125 127 96
136 139 112
120 123 92
127 128 94
122 124 82
135 137 106
133 134 96
126 127 80
127 127 66
128 128 81
139 138 88
136 134 73
135 133 61
135 135 83
155 154 105
140 141 91
139 136 72
136 134 70
145 144 85
152 152 105
144 141 70
152 150 90
150 147 71
146 146 89
153 151 95
147 145 85
150 148 88
157 154 81
153 148 85
149 146 65
145 142 73
151 148 82
159 155 75
149 144 69
152 149 79
153 150 72
151 147 76
157 154 78
148 143 56
156 152 80
158 153 68
150 146 61
153 147 64
156 150 67
163 158 87
160 153 63
161 155 80
161 156 70
161 156 77
161 157 77
155 150 63
163 157 74
165 160 85
161 156 80
157 152 60
163 158 84
161 157 79
170 166 99
163 159 87
162 158 86
164 157 67
171 165 87
154 150 70
158 153 65
164 160 73
168 164 94
166 163 93
158 153 63
163 157 74
159 153 70
167 163 93
167 164 95
172 169 109
165 160 79
169 164 89
166 161 82
170 163 93
165 161 91
165 162 91
170 166 104
174 168 103
172 166 95
170 166 104
168 164 99
167 164 95
164 162 93
170 165 87
168 165 99
172 169 107
172 168 99
176 174 122
172 170 110
168 164 102
175 169 108
166 163 95
173 172 118
172 171 116
177 174 120
172 169 101
175 173 118
175 173 109
178 176 127
176 173 117
175 171 110
174 170 105
174 170 109
180 177 121
173 172 120
182 180 133
173 170 109
170 167 104
179 178 133
180 177 130
178 176 120
173 172 120
183 181 138
176 174 121
177 172 111
177 175 123
171 170 110
179 178 126
178 177 129
173 170 112
180 178 131
183 182 138
157 177 64
160 180 72
159 179 68
155 177 39
157 177 39
158 179 60
154 175 22
154 176 22
156 176 39
154 174 32
155 175 32
155 175 22
152 173 0
155 175 0
154 174 0
155 176 0
154 174 0
151 172 0
150 171 0
155 176 0
153 173 0
153 174 0
152 173 0
154 175 0
155 175 0
152 174 0
154 175 0
153 174 0
152 173 0
155 175 0
153 174 0
153 174 0
153 174 0
154 174 0
150 171 0
155 175 0
153 174 0
154 175 0
152 174 0
154 175 0
152 172 0
152 173 0
151 173 0
151 171 0
152 173 0
153 173 0
151 173 0
150 171 0
148 169 0
151 172 0
154 174 0
151 173 0
152 173 0
150 170 0
151 171 0
154 175 0
152 173 0
151 172 0
152 173 0
149 170 0
151 171 0
151 172 0
146 168 0
147 168 0
147 168 0
149 169 0
152 172 0
152 172 0
149 169 0
149 169 0
147 168 0
147 168 0
150 171 0
149 169 0
150 170 0
145 165 0
148 169 0
149 169 0
146 166 0
141 162 0
143 163 0
146 166 0
142 162 0
147 168 0
143 164 0
142 162 0
143 163 0
137 158 0
148 168 0
146 167 0
141 160 0
139 159 0
141 161 0
140 159 0
142 161 0
142 162 0
139 158 0
138 158 0
140 160 0
134 154 0
136 156 0
133 152 0
132 151 0
133 152 0
126 145 0
132 151 0
128 146 0
133 151 0
120 139 0
133 151 0
115 133 0
122 141 0
124 141 0
124 142 0
111 128 0
113 129 0
116 134 0
113 130 22
112 130 28
96 112 28
100 117 16
96 114 35
98 115 16
82 98 22
77 93 31
88 104 16
79 93 22
76 91 30
78 93 22
83 98 0
81 98 31
80 95 32
80 97 25
84 101 22
94 110 16
104 122 21
106 123 27
118 136 16
126 143 0
133 154 0
145 163 62
160 178 102
178 195 144
170 194 0
175 198 0
173 196 0
173 196 0
172 195 0
170 194 0
172 194 0
171 194 0
171 195 0
172 195 0
160 183 18
53 81 70
48 78 87
53 84 112
52 82 99
53 84 101
53 84 99
52 83 102
55 86 107
53 85 100
56 88 113
54 86 108
55 86 113
57 90 118
55 87 91
56 88 115
55 87 113
57 90 112
55 87 114
55 88 103
58 92 123
57 90 114
56 89 106
57 90 113
57 90 110
57 90 114
54 85 105
54 87 92
57 90 119
55 88 93
57 90 114
56 89 102
57 90 120
57 90 119
56 89 105
54 86 107
59 92 131
56 88 103
58 91 122
57 91 118
57 90 118
55 88 108
57 90 112
57 90 121
58 91 126
56 89 111
59 93 129
58 92 124
58 91 120
56 88 99
55 87 107
58 91 116
58 91 125
58 92 120
55 87 99
59 92 129
59 92 124
57 90 113
56 88 120
57 89 118
57 89 113
58 91 118
56 89 118
58 92 117
57 89 111
58 91 116
58 91 116
57 90 117
58 91 121
56 88 110
56 87 114
57 90 114
57 90 110
54 85 103
58 90 113
56 88 117
58 91 114
56 88 115
56 87 106
55 86 112
55 86 105
54 84 105
55 86 108
56 86 106
53 83 91
56 86 107
55 86 107
57 89 110
54 83 91
53 82 102
52 81 90
50 78 93
57 81 87
158 181 33
169 191 0
171 195 0
172 195 0
172 194 0
174 197 0
173 196 0
173 195 0
172 196 0
175 197 0
172 195 0
172 181 143
170 176 165
166 173 167
147 151 134
150 154 141
142 147 131
149 155 151
132 137 118
135 139 119
147 150 132
136 140 118
127 133 119
136 142 125
118 123 103
130 134 113
134 136 110
128 130 104
118 121 86
137 141 118
130 133 92
128 129 94
137 139 105
132 134 82
131 133 91
135 136 93
144 146 111
131 131 85
124 125 72
143 144 111
134 135 89
146 146 103
145 143 83
137 135 67
136 134 78
140 141 99
140 139 71
139 137 69
137 136 66
141 139 69
142 140 79
140 139 80
148 146 88
144 142 84
152 148 80
144 141 63
152 148 82
148 145 81
143 139 61
157 152 85
152 149 76
160 154 78
153 148 67
156 151 71
151 147 75
149 145 49
148 144 68
153 148 65
156 152 66
149 144 60
163 158 91
156 152 73
158 154 75
162 157 82
159 154 77
168 166 110
160 156 89
162 157 80
157 152 64
153 148 57
159 154 70
163 158 82
165 160 84
164 160 91
164 159 84
166 161 88
161 158 87
157 152 78
169 164 90
166 161 80
160 157 75
168 164 90
165 161 90
161 157 77
168 162 84
167 163 93
162 159 89
165 160 87
168 163 87
168 164 93
170 166 96
166 161 83
161 157 80
169 166 97
171 166 106
161 157 87
167 163 87
169 165 100
174 170 107
175 173 120
171 169 114
164 161 85
171 165 94
170 166 96
168 164 98
166 163 87
172 169 101
169 167 103
168 165 98
170 166 97
175 172 114
175 172 113
173 169 108
176 172 115
171 165 93
171 169 109
177 175 120
173 168 99
172 169 110
173 168 103
180 179 131
178 177 130
175 172 113
179 176 123
177 175 118
176 171 110
177 176 125
180 178 124
172 171 117
176 173 121
172 170 119
181 181 140
179 178 132
179 177 126
172 168 103
179 176 124
172 171 116
175 171 116
178 176 123
180 177 126
180 177 127
180 178 129
180 178 129
181 180 131
157 177 51
155 175 51
157 177 39
154 174 39
157 177 45
157 177 39
155 176 0
155 176 22
153 174 0
154 175 0
153 174 0
152 173 0
154 175 0
153 173 0
154 175 0
154 174 0
154 175 0
152 174 0
151 171 0
154 175 0
152 173 0
154 174 0
155 175 0
152 174 0
153 174 0
153 174 0
153 173 0
153 174 0
152 173 0
153 174 0
152 173 0
152 173 0
153 173 0
154 175 0
152 174 0
151 172 0
150 170 0
151 172 0
153 173 0
152 173 0
150 171 0
152 173 0
153 173 0
152 172 0
148 168 0
150 170 0
153 174 0
150 172 0
152 172 0
149 170 0
153 174 0
151 171 0
148 168 0
150 171 0
153 173 0
149 169 0
153 173 0
145 166 0
146 166 0
150 170 0
150 170 0
149 169 0
148 169 0
149 169 0
147 169 0
150 171 0
149 169 0
148 168 0
148 169 0
148 169 0
149 170 0
144 165 0
148 168 0
146 167 0
144 165 0
147 168 0
150 170 0
142 162 0
145 165 0
142 162 0
143 164 0
146 166 0
147 168 0
148 169 0
145 165 0
144 165 0
142 163 0
141 161 0
147 168 0
144 164 0
141 161 0
146 166 0
139 160 0
139 160 0
133 153 0
139 159 0
138 157 0
137 156 0
137 157 0
143 163 0
140 158 0
136 155 0
128 146 0
131 150 0
134 153 0
131 149 0
128 147 0
124 143 0
120 138 0
128 147 0
125 143 0
121 140 0
122 138 0
120 137 0
115 133 0
116 133 0
109 126 0
109 126 0
99 115 0
101 117 16
99 114 16
100 116 28
97 114 22
89 103 0
103 117 21
87 101 21
82 97 28
84 98 0
85 100 29
82 98 34
80 96 36
88 104 28
94 111 0
101 116 0
111 128 22
106 122 9
113 130 14
118 136 0
123 142 0
135 154 51
151 169 84
177 192 151
172 196 51
172 195 0
171 195 0
168 192 0
169 192 0
170 194 0
171 194 0
172 196 0
172 196 0
168 192 0
169 192 0
169 193 0
113 135 57
46 73 78
47 75 82
51 81 84
54 86 110
52 83 100
52 82 102
54 85 101
53 84 113
55 87 108
55 87 108
55 87 105
55 87 103
56 89 107
56 89 115
55 87 108
55 87 106
54 86 90
56 88 107
56 89 102
55 88 103
56 89 112
55 87 110
56 90 115
56 88 105
57 89 113
57 90 115
57 90 118
57 90 118
55 88 100
56 89 115
57 90 120
57 90 115
58 90 115
58 91 118
58 92 133
58 91 126
57 90 112
57 91 111
57 90 117
58 92 115
56 89 117
58 92 115
57 90 113
59 93 128
55 88 100
57 90 108
57 90 108
58 91 118
56 89 107
57 90 115
58 91 118
59 93 121
59 92 121
57 90 118
57 90 111
55 87 111
56 89 109
55 87 100
58 91 117
57 90 107
58 90 121
56 88 107
57 90 105
56 88 113
54 85 97
56 89 104
55 88 100
57 89 111
57 89 115
56 89 114
54 85 98
57 89 107
56 88 116
56 88 100
56 88 108
55 87 108
55 86 104
56 87 107
54 84 97
55 86 106
56 88 110
55 87 106
53 83 94
54 84 106
52 80 94
53 82 90
52 80 102
53 83 96
53 82 90
51 78 77
109 132 69
170 193 0
170 193 0
168 191 0
171 194 0
169 191 0
173 196 0
172 196 0
173 195 0
172 195 0
173 196 0
169 193 0
177 197 86
180 185 170
175 181 176
174 179 167
142 147 138
148 153 141
135 138 116
142 147 129
135 140 126
134 139 121
129 135 124
141 146 129
141 145 118
116 119 90
132 136 118
130 134 106
128 130 99
134 137 109
138 140 111
140 144 113
142 146 119
140 142 107
126 126 83
127 129 102
125 123 67
128 130 89
132 133 87
132 131 79
129 131 86
134 133 76
133 134 88
148 146 98
129 131 83
144 141 88
141 140 86
146 143 76
146 144 75
144 143 93
143 140 76
146 143 80
152 150 96
138 135 68
147 145 85
150 148 90
152 149 84
148 144 81
141 135 54
153 149 63
146 143 61
157 155 85
150 148 82
147 145 71
161 157 87
158 153 80
154 150 78
151 145 58
155 150 72
161 157 86
162 155 72
154 151 79
156 151 61
157 153 74
150 146 51
163 160 94
159 155 80
156 151 75
157 152 75
165 162 90
156 151 75
158 152 69
165 159 82
159 154 68
164 160 80
165 162 95
168 164 99
158 153 72
161 158 84
168 164 91
166 161 82
169 164 93
161 156 80
165 161 90
165 162 87
163 158 80
167 163 90
165 160 86
163 158 80
169 165 102
165 160 86
162 158 75
172 166 95
168 164 95
162 157 80
170 167 108
166 162 87
170 165 93
168 163 87
170 166 97
173 171 113
168 164 99
176 172 114
166 162 87
172 168 99
173 169 105
173 169 106
170 166 99
168 164 90
172 169 101
172 167 99
173 169 107
172 167 103
173 171 115
171 169 104
170 167 99
170 168 105
177 174 120
174 171 111
173 169 107
170 169 114
171 167 95
175 173 118
174 171 117
177 174 124
177 174 117
172 169 110
170 166 95
170 167 103
180 174 113
176 172 113
173 171 115
178 176 126
178 176 123
181 181 134
175 173 116
174 173 121
176 174 121
176 174 118
177 176 123
178 175 124
176 173 119
180 179 134
179 178 135
180 178 132
153 174 22
157 177 32
153 174 32
152 173 22
156 177 32
153 174 0
153 174 0
152 173 0
153 174 0
152 173 0
155 176 0
155 176 0
154 175 0
153 174 0
152 173 0
155 176 0
155 175 0
151 172 0
154 175 0
154 174 0
154 175 0
153 175 0
150 171 0
153 173 0
152 172 0
153 174 0
150 171 0
153 173 0
151 171 0
151 173 0
151 172 0
150 170 0
151 172 0
152 173 0
152 173 0
151 172 0
150 170 0
153 173 0
152 173 0
152 172 0
152 173 0
152 173 0
153 173 0
152 173 0
148 169 0
151 172 0
153 173 0
151 171 0
150 170 0
150 171 0
152 173 0
148 169 0
148 168 0
149 170 0
150 171 0
146 167 0
148 168 0
149 170 0
148 168 0
145 166 0
145 166 0
148 169 0
150 171 0
148 169 0
147 167 0
144 164 0
147 168 0
151 171 0
152 172 0
146 168 0
147 167 0
149 169 0
146 167 0
148 169 0
145 165 0
145 165 0
142 162 0
143 163 0
145 164 0
145 165 0
141 162 0
141 162 0
143 164 0
143 164 0
144 164 0
141 162 0
141 161 0
145 165 0
143 163 0
134 154 0
143 163 0
145 164 0
139 159 0
141 160 0
138 157 0
132 151 0
138 158 0
137 156 0
136 156 0
135 154 0
133 152 0
139 158 0
133 152 0
121 140 0
132 150 0
134 152 0
124 143 0
122 139 0
122 141 0
131 149 0
124 143 0
121 140 0
116 134 0
113 131 0
111 128 0
112 129 0
111 128 0
108 124 0
98 114 0
102 119 0
99 115 0
96 111 0
93 109 0
74 88 22
98 113 0
93 108 16
95 110 0
75 91 16
81 96 0
81 95 28
91 107 0
85 102 22
108 124 22
110 125 0
104 121 0
106 122 0
116 134 0
128 147 0
134 153 0
144 162 67
164 180 119
184 202 138
172 196 0
170 194 0
165 189 0
171 195 0
172 195 0
171 194 0
166 190 0
170 194 0
170 194 0
167 191 0
168 192 0
167 191 0
160 183 17
68 93 80
47 75 72
49 79 91
52 82 85
53 84 86
52 82 91
54 85 98
54 86 103
55 87 95
55 86 110
55 87 95
55 87 116
54 86 103
55 87 99
56 88 110
57 90 117
56 89 115
54 86 108
55 87 111
56 89 110
56 88 115
54 86 98
58 91 126
56 89 110
56 88 103
57 90 123
56 88 114
56 89 114
55 87 98
53 85 94
56 89 105
58 91 113
56 89 107
57 91 116
57 90 111
56 88 115
56 89 121
57 90 110
57 90 115
56 88 105
58 91 122
57 91 118
58 91 111
56 88 103
56 88 111
57 89 117
55 87 103
58 91 117
58 91 118
56 89 115
58 91 118
57 89 115
55 87 105
58 91 114
55 87 102
58 91 124
58 90 115
58 91 114
57 91 111
58 91 121
58 91 118
55 88 107
57 90 103
58 91 129
56 89 108
55 88 95
56 89 102
56 89 110
55 87 109
57 89 113
56 89 104
57 89 117
55 86 113
57 89 102
57 89 114
56 88 110
54 84 97
57 89 106
55 86 98
54 84 91
56 87 107
53 84 86
55 85 103
54 84 100
55 85 106
56 85 105
52 80 97
54 83 105
51 78 80
51 77 73
157 178 26
171 193 0
168 191 0
170 193 0
170 192 0
166 189 0
172 195 0
170 192 0
168 189 0
170 193 0
173 195 0
169 191 0
171 194 0
177 191 131
178 183 171
160 163 143
157 161 149
159 163 155
141 146 131
150 153 141
152 157 146
124 127 104
126 130 108
149 155 138
149 153 136
148 152 136
136 141 124
143 148 130
136 141 119
125 128 97
130 132 101
132 134 93
136 139 108
138 143 119
127 130 91
131 134 96
134 134 88
132 134 98
140 140 97
152 153 118
145 144 89
134 132 75
144 145 105
144 146 105
142 142 93
142 141 81
141 140 88
141 143 96
141 141 88
146 143 80
146 144 79
140 137 74
151 149 95
147 146 95
145 142 69
139 137 64
147 144 81
148 144 72
151 147 74
152 149 69
150 146 77
145 143 77
148 146 83
153 150 82
149 146 64
143 139 56
152 149 68
152 147 51
159 155 76
150 145 49
145 141 63
159 154 75
155 151 87
157 151 76
157 153 77
150 145 54
158 153 63
158 152 67
165 162 97
161 156 82
159 155 66
163 158 83
154 150 68
164 161 92
163 158 78
159 153 75
161 156 80
165 160 94
162 156 77
161 157 82
165 162 95
166 160 85
161 155 75
163 159 79
167 162 89
160 155 83
168 162 95
156 151 60
167 163 93
171 166 100
165 161 84
164 159 73
162 158 86
166 161 97
172 167 94
167 163 95
166 163 102
161 156 75
166 160 80
172 168 102
172 167 91
174 171 109
176 175 122
171 168 110
167 163 87
171 167 104
170 165 93
165 161 93
176 173 113
170 168 109
172 168 106
174 169 106
172 168 105
174 172 118
177 173 113
173 169 99
175 173 118
176 173 117
176 175 125
173 170 105
175 173 116
170 167 104
174 169 109
173 169 103
176 174 119
172 170 108
171 169 108
170 168 103
179 177 131
175 173 117
182 180 135
172 168 106
179 176 124
175 171 118
176 172 117
176 175 124
174 171 118
180 178 126
182 181 139
180 178 128
175 173 122
180 177 125
178 177 131
181 180 131
179 177 130
154 175 0
153 175 0
155 175 0
154 174 0
155 175 0
155 176 0
155 175 0
154 175 0
154 175 0
153 174 0
154 175 0
153 174 0
156 176 0
153 173 0
154 175 0
152 173 0
154 175 0
155 175 0
156 176 0
153 174 0
149 169 0
152 173 0
154 176 0
152 173 0
148 169 0
155 175 0
153 174 0
151 172 0
152 173 0
152 172 0
151 171 0
151 172 0
152 174 0
153 173 0
154 175 0
148 168 0
149 171 0
152 173 0
151 172 0
152 172 0
153 173 0
152 173 0
150 171 0
149 170 0
150 172 0
150 171 0
151 171 0
148 168 0
152 173 0
153 174 0
148 169 0
153 174 0
150 170 0
151 172 0
151 172 0
149 170 0
152 173 0
151 171 0
149 170 0
147 168 0
151 171 0
148 170 0
152 173 0
145 165 0
148 170 0
150 170 0
150 170 0
144 164 0
146 166 0
147 167 0
148 169 0
148 169 0
147 167 0
144 164 0
145 166 0
147 167 0
143 163 0
142 162 0
146 166 0
141 162 0
147 166 0
145 165 0
145 165 0
142 161 0
142 162 0
145 164 0
142 161 0
141 161 0
139 160 0
135 156 0
134 154 0
143 163 0
137 157 0
136 156 0
138 157 0
139 159 0
137 155 0
134 153 0
133 152 0
130 148 0
129 149 0
142 161 0
131 150 0
128 147 0
131 151 0
131 149 0
131 150 0
127 146 0
124 142 0
123 141 0
116 134 0
116 134 0
117 135 0
111 128 0
116 135 0
113 131 0
116 133 0
109 126 0
112 129 0
109 126 0
98 114 0
105 121 16
111 127 16
95 111 0
96 112 0
93 107 0
96 112 28
80 94 0
75 91 0
80 94 22
95 111 22
98 114 0
102 118 16
106 123 0
110 126 0
118 135 0
124 142 0
135 154 0
134 151 57
157 175 88
173 188 146
168 191 0
172 195 0
166 189 0
172 195 0
168 192 0
169 193 0
168 192 0
169 192 0
166 189 0
169 193 0
166 189 0
169 192 0
171 194 0
165 189 0
129 151 60
48 76 85
49 79 85
50 80 84
53 84 89
53 84 98
51 81 86
53 84 101
53 84 99
53 85 100
54 85 101
53 85 87
56 88 105
56 89 121
53 85 101
55 88 96
54 85 100
55 87 106
53 84 101
57 90 115
56 89 112
56 88 115
57 90 109
55 86 105
56 88 115
55 88 109
55 87 111
58 92 118
56 89 105
58 91 118
56 89 111
56 90 100
55 86 100
58 92 121
54 87 95
57 90 118
57 90 122
58 91 103
56 90 100
57 91 111
60 93 129
57 89 119
55 88 109
55 88 102
60 93 131
56 89 108
55 89 102
57 90 105
56 88 105
58 91 116
57 90 113
56 89 105
56 88 111
55 88 107
57 90 120
55 87 114
56 88 102
56 87 109
55 87 101
58 91 117
57 90 114
57 89 110
54 85 97
56 88 99
56 88 112
56 88 102
56 88 110
57 89 107
57 89 98
58 91 116
55 86 99
58 91 113
54 86 102
54 84 104
56 88 109
56 87 105
55 86 104
54 84 98
56 87 106
56 86 99
53 83 83
54 84 92
55 85 114
54 85 85
55 85 101
51 79 93
51 79 80
51 80 84
49 76 83
131 153 59
169 191 0
174 197 0
168 190 0
171 194 0
168 191 0
168 192 0
169 191 0
168 191 0
171 193 0
170 191 0
169 192 0
170 193 0
172 195 0
172 193 45
187 194 178
175 180 167
166 172 164
157 160 146
163 167 155
160 166 156
157 162 151
144 148 133
142 146 123
130 134 115
149 153 137
133 135 111
137 141 120
133 135 105
119 122 90
133 136 100
132 134 98
141 142 107
137 138 102
133 136 108
124 125 85
134 136 95
141 141 101
131 133 92
144 144 91
129 129 79
134 133 82
141 140 83
147 147 105
131 131 79
135 137 92
143 143 97
141 141 93
151 151 106
139 139 87
135 135 81
145 141 71
152 152 105
145 143 83
152 148 88
142 138 64
149 145 68
144 142 73
145 143 58
152 148 74
150 148 80
153 151 89
155 151 78
151 146 65
150 146 73
145 142 60
154 151 73
145 142 54
153 150 79
153 149 70
149 144 58
151 146 65
155 151 67
160 156 79
155 151 75
150 145 53
163 158 85
150 145 63
158 153 75
161 156 74
156 153 84
159 154 80
155 148 65
166 162 91
164 160 97
155 151 71
164 161 93
163 159 87
158 154 80
165 160 80
166 162 90
165 161 82
167 163 93
162 157 90
160 156 80
163 160 88
163 157 80
166 159 73
170 165 99
164 159 79
163 157 71
161 157 82
171 166 101
163 159 81
164 160 87
166 161 80
172 168 106
168 163 94
168 163 95
168 165 98
166 162 97
166 162 92
168 164 92
167 163 94
171 166 101
168 165 101
175 172 118
178 174 121
177 175 125
171 167 96
171 168 101
167 162 87
173 170 111
170 167 104
170 166 99
171 167 99
174 171 117
170 167 102
172 170 109
169 167 108
178 176 121
176 172 120
171 166 102
175 173 115
177 173 119
178 176 125
176 173 120
182 179 134
176 173 120
175 172 110
173 168 109
174 172 116
177 175 121
177 176 133
179 174 117
177 175 122
174 171 113
179 176 124
180 177 126
183 182 139
186 185 143
178 175 119
181 179 137
170 168 108
177 175 127
177 176 127
153 174 0
153 174 0
155 176 0
155 176 0
153 174 0
153 174 0
153 174 0
154 174 0
155 176 0
154 175 0
154 175 0
152 173 0
155 176 0
155 176 0
153 174 0
154 174 0
154 175 0
153 174 0
153 174 0
151 172 0
154 175 0
154 174 0
151 172 0
151 172 0
152 173 0
152 172 0
152 173 0
153 174 0
149 170 0
151 173 0
151 172 0
151 172 0
150 171 0
151 172 0
151 172 0
151 171 0
154 174 0
152 172 0
151 171 0
151 171 0
149 170 0
151 172 0
151 172 0
148 168 0
149 169 0
151 172 0
148 169 0
149 170 0
152 172 0
147 167 0
149 169 0
149 170 0
146 167 0
149 169 0
149 171 0
149 169 0
152 171 0
151 171 0
149 170 0
146 167 0
144 165 0
151 171 0
146 167 0
144 165 0
147 167 0
152 172 0
146 167 0
147 167 0
148 168 0
144 164 0
151 171 0
142 162 0
144 165 0
149 169 0
147 167 0
145 165 0
146 166 0
141 162 0
147 168 0
145 165 0
148 168 0
144 165 0
142 162 0
140 160 0
145 165 0
145 164 0
142 161 0
142 162 0
142 162 0
143 163 0
132 152 0
140 159 0
138 158 0
141 160 0
138 157 0
135 155 0
136 155 0
132 152 0
135 154 0
130 150 0
135 156 0
123 142 0
136 155 0
129 149 0
129 149 0
125 144 0
134 153 0
123 141 0
117 135 0
118 136 0
122 139 0
120 138 0
115 133 0
119 137 0
119 135 0
113 129 0
112 129 0
113 128 0
101 117 0
112 129 0
103 118 0
110 126 0
92 108 0
101 115 0
101 117 0
103 118 0
88 102 0
90 105 0
92 106 0
108 123 0
101 116 0
98 115 0
104 120 0
96 112 0
125 142 0
119 136 0
121 138 0
135 153 25
141 159 67
173 189 134
173 194 84
169 192 0
167 190 0
170 193 0
168 192 0
169 193 0
168 192 0
167 190 0
169 191 0
170 193 0
172 196 0
167 191 0
166 190 0
167 190 0
170 193 0
164 188 0
78 102 80
50 79 79
49 77 86
52 82 94
51 81 88
51 82 91
52 83 98
50 80 96
53 84 101
52 83 96
53 85 104
56 89 112
56 88 104
55 86 110
53 85 89
55 88 107
54 85 98
57 91 106
57 89 115
55 87 106
57 90 111
54 85 102
57 90 110
56 88 108
55 87 103
57 90 113
55 88 100
57 89 111
57 90 117
56 89 105
56 88 103
59 92 123
54 86 100
56 89 108
58 91 124
58 91 125
56 88 100
57 90 105
55 88 101
58 91 125
56 88 103
56 88 108
58 91 118
57 90 110
57 89 110
57 90 108
56 89 108
59 92 118
55 86 106
58 90 118
57 90 118
53 85 90
55 87 105
55 88 105
56 88 108
56 89 99
56 88 113
56 89 113
57 90 110
55 86 103
57 89 115
58 91 117
57 89 110
58 91 123
55 86 113
55 88 110
57 90 113
57 89 114
55 87 103
56 87 113
56 88 109
54 86 97
53 83 101
55 86 98
55 85 101
54 85 99
56 88 97
53 83 95
54 84 106
54 85 102
53 83 95
51 79 92
56 86 110
53 81 94
54 83 98
53 81 97
51 79 87
82 103 69
159 181 31
168 190 0
168 191 0
169 190 0
169 191 0
166 189 0
171 193 0
168 191 0
171 194 0
166 189 0
172 193 0
171 192 0
171 193 0
173 196 0
171 194 0
172 190 84
179 182 161
187 192 185
157 160 142
161 164 144
155 160 150
144 147 127
159 164 155
148 151 136
149 153 137
135 137 110
136 139 112
126 130 103
131 135 115
135 137 107
126 127 92
144 147 119
140 142 107
134 135 104
136 138 102
123 124 90
132 134 100
142 143 109
146 147 110
130 131 87
138 139 101
133 131 71
135 134 81
150 150 109
143 140 80
130 129 83
150 151 117
139 137 82
149 149 101
141 141 95
140 139 90
149 146 98
136 133 63
143 141 66
155 151 92
147 146 92
149 147 80
143 141 74
144 144 75
148 144 71
153 147 65
149 147 80
146 143 70
141 137 61
147 144 82
152 148 75
144 141 61
154 149 69
154 150 82
154 150 76
154 152 93
151 148 75
154 150 75
157 155 80
152 147 70
150 148 75
157 152 71
156 151 77
157 153 78
159 155 82
162 156 73
155 149 48
157 154 80
164 159 83
165 161 94
160 153 63
165 161 84
159 152 68
160 156 80
169 163 89
166 161 87
165 162 95
162 157 72
159 154 81
159 155 74
167 161 79
169 166 109
168 162 86
157 153 68
160 156 78
160 157 79
160 156 84
167 161 84
163 161 91
163 158 77
163 159 80
165 161 87
171 167 109
173 168 101
160 155 75
168 165 94
167 163 97
162 158 80
165 160 89
164 159 78
171 166 103
168 164 101
172 169 111
164 160 94
172 168 107
172 169 110
172 167 96
177 174 121
169 166 109
173 167 97
172 169 108
177 173 116
178 176 123
174 171 114
172 169 109
175 174 118
177 175 121
174 170 110
172 168 104
169 165 101
171 168 108
172 168 104
175 170 107
174 171 117
176 173 113
178 176 121
171 168 104
179 176 125
173 170 110
170 166 106
175 170 103
175 173 118
178 176 123
178 177 126
176 175 122
179 178 134
178 176 130
177 174 123
177 175 122
182 182 140
179 177 125
156 176 0
155 175 0
155 175 0
154 174 0
154 175 0
154 175 0
153 174 0
154 174 0
153 173 0
152 173 0
153 173 0
153 174 0
153 174 0
153 174 0
152 172 0
157 177 0
153 174 0
154 175 0
153 174 0
155 176 0
149 170 0
152 173 0
149 170 0
153 174 0
150 172 0
153 174 0
153 174 0
153 173 0
152 172 0
151 173 0
151 172 0
151 172 0
152 172 0
150 171 0
150 171 0
152 173 0
152 173 0
153 174 0
149 169 0
151 172 0
148 169 0
152 173 0
148 168 0
149 170 0
152 172 0
151 171 0
149 170 0
150 170 0
149 169 0
153 174 0
151 171 0
150 170 0
153 173 0
147 167 0
150 170 0
150 171 0
145 164 0
146 167 0
146 166 0
147 167 0
149 169 0
148 168 0
146 166 0
144 164 0
148 169 0
146 167 0
147 167 0
145 166 0
148 168 0
145 165 0
145 166 0
142 162 0
148 168 0
147 167 0
149 169 0
139 159 0
142 162 0
145 164 0
140 160 0
141 162 0
145 164 0
138 158 0
142 163 0
146 167 0
145 165 0
141 160 0
139 159 0
136 155 0
142 161 0
139 157 0
140 159 0
136 155 0
135 155 0
140 159 0
135 154 0
138 157 0
129 148 0
136 156 0
135 155 0
134 152 0
122 140 0
136 156 0
126 145 0
126 143 0
127 147 0
128 147 0
126 144 0
126 145 0
124 142 0
113 131 0
114 132 0
115 133 0
121 139 0
114 131 0
117 135 0
119 138 0
111 128 0
109 124 0
114 130 0
107 124 0
102 117 0
101 117 0
98 114 0
95 111 0
100 115 0
111 126 0
101 117 0
100 114 0
106 121 0
94 109 0
98 113 0
101 116 0
106 122 0
117 136 0
115 132 0
110 126 0
129 147 36
134 152 67
167 183 133
170 190 95
169 191 0
169 192 0
172 195 0
168 191 0
168 191 0
170 192 0
167 190 0
168 193 0
166 190 0
167 191 0
166 189 0
169 192 0
172 195 0
165 188 0
169 193 0
163 187 0
144 167 40
50 80 80
50 79 80
53 84 99
51 82 92
54 85 97
54 85 99
53 84 110
55 86 103
53 85 95
54 85 93
55 86 104
57 89 116
55 88 105
55 86 110
53 85 89
54 87 100
56 88 109
55 87 91
56 88 98
53 85 100
56 89 108
54 86 103
53 85 97
55 88 97
55 87 100
55 88 102
56 88 107
57 90 100
55 88 97
53 85 107
55 86 101
54 86 106
56 88 102
59 92 117
56 89 105
58 92 119
54 86 108
56 88 105
57 90 114
56 88 110
57 90 114
57 89 108
57 90 117
55 88 105
55 87 105
58 91 124
56 88 95
56 88 105
56 88 102
54 85 92
57 90 118
54 85 92
57 90 110
55 87 105
56 89 103
58 90 113
57 90 107
54 85 100
56 88 108
57 89 117
56 88 104
54 86 102
57 89 102
57 89 107
56 88 111
55 87 107
54 85 105
56 88 106
56 88 107
55 86 91
56 87 97
54 86 99
54 84 98
58 89 119
56 87 108
55 86 101
52 80 89
53 82 93
55 85 103
52 81 96
54 84 104
54 84 104
53 82 97
51 80 76
51 78 71
47 72 78
145 165 37
164 186 0
167 189 0
169 191 0
164 186 0
168 191 0
169 192 0
167 190 0
165 189 0
165 187 0
165 187 0
167 189 0
167 191 0
169 192 0
172 194 0
170 192 0
170 191 0
175 187 131
176 181 168
159 162 146
154 158 143
147 151 135
148 152 134
156 161 143
151 155 139
132 134 113
147 151 126
140 144 120
138 142 120
130 132 109
138 143 122
142 145 118
135 137 108
122 123 86
138 141 110
132 132 93
140 142 112
131 132 86
139 141 110
130 133 99
146 149 119
130 132 91
136 136 97
133 134 87
140 139 91
145 147 110
131 130 65
139 140 99
141 141 95
134 134 79
138 136 76
136 134 75
147 143 63
150 147 90
152 150 93
143 139 71
152 150 100
142 139 71
144 143 86
146 143 60
145 140 60
151 148 82
152 149 93
152 149 76
155 150 68
154 150 77
152 147 65
158 155 89
152 147 62
153 149 77
158 154 97
160 156 91
160 157 90
150 147 69
153 149 63
153 149 72
158 153 74
159 156 82
156 152 78
156 153 64
152 148 60
154 150 64
163 159 79
155 149 65
159 155 87
159 155 86
160 154 71
157 152 69
157 151 66
163 159 93
157 153 68
164 160 80
164 160 88
162 158 93
158 154 69
167 162 97
167 162 87
165 160 90
169 165 91
165 161 93
167 164 103
167 163 94
166 162 88
163 158 75
163 159 84
167 162 87
172 169 110
167 164 97
171 167 105
171 167 101
166 161 86
171 167 109
166 162 97
167 164 104
169 166 101
165 161 84
167 164 97
167 161 80
162 158 91
168 166 98
170 168 113
173 171 113
166 162 98
174 170 108
172 169 109
174 171 115
174 170 111
174 171 113
171 167 103
172 170 109
171 169 111
173 169 103
174 170 112
171 169 105
179 176 122
172 169 106
175 173 115
171 170 106
178 178 134
175 173 120
177 174 123
177 175 119
174 171 116
180 179 136
181 180 136
182 181 136
182 179 134
172 170 110
181 180 134
181 180 133
173 171 117
180 177 126
174 172 122
182 183 144
182 180 134
177 176 126
184 183 142
154 175 0
152 174 0
154 175 0
153 173 0
153 174 0
153 174 0
153 175 0
153 174 0
152 173 0
153 173 0
154 175 0
155 175 0
154 175 0
154 174 0
153 173 0
154 175 0
152 173 0
150 171 0
153 174 0
150 171 0
150 171 0
154 175 0
152 173 0
153 174 0
152 173 0
151 173 0
153 173 0
152 172 0
150 171 0
153 174 0
152 173 0
153 174 0
152 173 0
153 173 0
152 172 0
154 175 0
150 172 0
149 170 0
151 172 0
152 172 0
152 172 0
153 173 0
149 169 0
150 170 0
149 169 0
147 167 0
148 168 0
148 169 0
146 167 0
146 167 0
150 170 0
151 172 0
149 170 0
149 169 0
148 169 0
147 168 0
150 169 0
144 164 0
148 169 0
149 169 0
147 167 0
148 168 0
149 169 0
144 165 0
147 167 0
145 165 0
147 167 0
147 168 0
147 167 0
144 165 0
142 162 0
145 165 0
142 163 0
148 168 0
140 160 0
144 164 0
139 159 0
142 163 0
141 160 0
138 157 0
146 166 0
136 155 0
141 161 0
141 161 0
139 159 0
140 160 0
141 162 0
135 155 0
139 159 0
146 165 0
140 159 0
142 161 0
137 156 0
134 153 0
139 159 0
131 150 0
134 153 0
125 143 0
132 150 0
136 154 0
126 145 0
124 143 0
130 148 0
123 142 0
120 139 0
130 149 0
124 142 0
123 141 0
120 138 0
124 142 0
123 141 0
120 138 0
127 145 0
115 133 0
117 133 0
121 138 0
112 130 0
112 130 0
105 122 0
106 122 0
103 119 0
107 122 0
108 123 0
105 120 0
96 111 0
97 112 0
98 114 0
105 120 0
101 116 0
99 116 0
106 121 0
99 116 0
99 114 0
120 137 0
121 139 0
124 141 0
136 153 67
154 170 111
176 191 139
169 192 36
164 188 0
168 191 0
169 193 0
170 193 0
166 189 0
164 188 0
163 186 0
167 189 0
165 189 0
168 191 0
168 191 0
169 191 0
167 191 0
160 184 0
166 189 0
166 189 0
166 189 0
115 138 65
51 81 74
50 79 81
53 84 85
52 82 84
53 84 96
53 83 96
54 86 96
52 83 93
55 87 105
52 83 91
53 84 94
53 85 95
55 86 105
56 88 110
53 85 96
57 90 116
54 86 99
52 84 91
58 91 121
54 85 103
53 84 95
54 86 99
58 91 121
56 88 102
56 88 103
56 89 102
53 84 95
55 88 108
56 89 111
57 89 103
55 86 100
55 87 107
56 89 108
58 91 113
57 89 103
56 89 102
56 88 105
57 90 113
58 91 121
57 90 100
56 88 105
55 87 94
55 87 99
57 91 113
55 88 86
57 89 120
54 86 99
56 88 105
58 91 118
57 89 105
55 87 108
55 87 108
54 85 95
57 89 107
56 89 116
55 88 102
56 87 113
57 90 114
54 86 105
56 88 107
55 86 97
54 85 94
54 86 99
54 86 110
57 89 110
55 87 101
55 85 100
57 89 105
55 86 101
53 83 99
57 89 108
54 84 94
54 85 101
56 87 108
54 84 87
55 86 98
53 83 101
55 86 109
52 81 97
54 83 84
51 79 87
50 78 75
51 78 84
49 75 85
111 131 60
165 185 0
166 188 0
169 192 0
167 189 0
165 187 0
165 186 0
167 190 0
167 189 0
166 187 0
170 192 0
169 191 0
164 185 0
167 189 0
172 194 0
172 195 0
166 189 0
168 191 0
167 188 25
177 187 154
169 175 166
155 158 141
162 167 161
153 155 137
142 145 120
154 156 140
146 148 124
137 141 127
149 153 135
137 141 127
153 157 137
134 136 108
132 134 109
125 127 97
138 142 116
141 141 101
137 140 105
145 147 122
138 141 116
135 137 103
139 141 101
133 134 92
137 135 84
134 134 79
140 140 97
130 129 80
131 130 80
144 141 82
139 138 81
139 139 78
141 141 88
145 144 86
143 141 72
150 148 83
151 150 95
149 149 97
150 148 100
153 151 91
143 140 61
143 139 61
141 139 71
149 146 86
157 154 92
157 153 89
154 151 75
158 155 87
145 143 63
157 154 90
147 143 70
153 149 78
152 148 72
154 150 78
161 158 91
159 154 82
157 154 66
160 154 76
159 157 94
153 149 57
156 153 89
156 152 69
154 149 66
159 156 87
164 161 93
159 155 90
160 156 83
153 147 54
165 160 94
164 160 94
157 153 75
159 154 79
157 152 64
161 159 93
163 158 81
162 158 71
159 157 92
167 164 93
159 155 80
158 155 78
164 160 96
159 156 83
162 158 87
164 160 87
163 158 80
168 166 101
162 159 84
164 161 93
168 164 95
166 163 103
166 162 96
167 163 91
170 166 101
171 167 103
162 158 80
168 161 86
171 168 107
166 163 91
166 162 91
170 169 115
171 167 103
171 170 115
171 169 106
169 166 95
175 172 115
170 167 109
164 159 80
169 168 108
174 172 115
171 167 105
165 161 93
176 172 114
172 170 115
171 167 109
178 177 125
174 170 112
178 175 124
175 172 118
166 163 93
174 171 109
177 174 122
172 170 112
173 170 115
170 167 102
180 179 130
173 170 108
175 173 116
175 174 120
181 181 139
181 179 129
179 177 134
177 174 117
176 175 123
180 179 132
176 174 125
178 177 130
183 182 138
183 182 143
181 178 132
176 173 119
154 175 0
155 175 0
152 173 0
155 175 0
152 172 0
153 174 0
154 175 0
153 173 0
153 174 0
154 174 0
152 174 0
152 173 0
153 174 0
152 173 0
153 173 0
153 174 0
153 174 0
152 173 0
152 172 0
151 172 0
153 173 0
153 173 0
151 172 0
154 174 0
152 174 0
149 169 0
152 173 0
154 176 0
154 174 0
152 172 0
151 171 0
151 171 0
151 172 0
153 174 0
151 172 0
153 173 0
150 170 0
150 170 0
147 169 0
151 171 0
148 168 0
148 168 0
151 171 0
149 169 0
148 169 0
150 170 0
151 171 0
145 166 0
153 174 0
148 169 0
147 167 0
146 166 0
148 168 0
148 168 0
148 169 0
150 170 0
150 170 0
149 170 0
148 169 0
149 168 0
148 169 0
143 163 0
142 162 0
146 166 0
147 167 0
148 168 0
148 168 0
147 167 0
146 166 0
143 163 0
147 167 0
144 163 0
143 163 0
149 168 0
143 164 0
137 157 0
144 163 0
144 164 0
136 156 0
142 162 0
142 163 0
141 161 0
143 162 0
149 168 0
144 164 0
144 163 0
136 156 0
136 156 0
139 158 0
142 160 0
132 150 0
145 165 0
133 153 0
133 151 0
137 157 0
121 140 0
136 154 0
137 155 0
137 155 0
126 145 0
134 153 0
136 154 0
127 145 0
125 145 0
134 154 0
124 142 0
120 138 0
116 135 0
125 143 0
127 145 0
121 139 0
123 142 0
119 137 0
111 126 0
117 135 0
119 137 0
116 133 0
123 140 0
110 126 0
109 126 0
101 117 0
109 125 0
117 134 0
99 114 0
108 123 0
102 118 0
89 106 0
98 113 0
102 117 0
107 122 0
103 118 0
114 129 0
113 129 0
116 133 0
122 139 25
127 144 67
150 167 92
166 182 135
169 191 49
167 190 0
164 188 0
167 190 0
167 190 0
170 193 0
160 182 0
167 189 0
168 191 0
163 185 0
164 187 0
159 182 0
163 186 0
163 187 0
159 181 0
158 181 0
163 186 0
165 188 0
161 184 0
158 181 18
73 97 73
49 78 85
49 78 70
55 86 93
48 77 92
50 80 87
51 82 90
53 84 91
55 88 115
53 85 100
52 83 91
54 85 103
54 86 104
53 85 95
57 89 107
55 87 97
54 85 100
54 86 105
54 85 103
55 87 108
54 85 103
54 86 95
53 84 91
54 87 92
53 85 88
57 90 118
55 87 100
53 84 100
55 87 102
56 89 113
57 90 117
55 88 103
57 90 114
56 89 111
57 90 107
55 88 99
57 90 97
58 92 114
56 89 105
56 89 114
56 89 103
54 86 103
59 92 121
56 89 108
53 84 97
57 90 120
57 90 110
57 89 115
57 90 111
58 91 117
56 89 108
55 87 110
54 85 105
55 87 107
52 82 95
56 89 97
55 87 104
54 86 107
56 87 107
56 87 111
53 83 107
55 87 102
57 89 103
53 83 100
55 87 105
55 87 99
56 88 108
55 86 109
55 87 99
53 85 87
53 83 104
55 87 105
55 87 110
53 83 96
54 85 105
54 85 103
54 85 97
52 80 95
52 80 86
51 80 86
53 82 94
53 82 96
48 75 79
73 96 66
156 179 31
160 180 0
166 187 0
163 184 0
163 184 0
166 188 0
167 189 0
167 188 0
167 189 0
161 182 0
167 189 0
169 191 0
164 184 0
167 190 0
169 189 0
167 188 0
169 192 0
167 189 0
167 189 0
169 189 36
188 194 180
170 174 157
173 177 165
170 175 166
156 160 146
151 154 126
156 160 145
144 146 121
138 140 116
143 147 126
144 146 126
145 148 127
142 144 118
133 137 115
146 148 124
139 141 108
142 145 115
149 152 123
140 142 118
133 133 89
132 134 100
133 135 98
144 142 100
135 134 74
143 143 101
138 138 95
142 144 110
140 140 97
138 137 93
142 142 88
140 139 92
141 139 84
144 144 91
135 134 78
150 149 94
147 145 88
146 143 86
148 147 100
147 143 81
153 151 96
146 143 79
151 148 79
150 148 87
152 149 86
150 148 87
151 146 78
145 142 68
154 150 80
154 148 70
161 157 87
151 147 78
152 148 70
151 147 72
157 155 96
149 144 68
157 152 72
149 146 72
154 151 72
156 153 84
152 148 74
155 152 74
159 156 84
153 149 64
155 153 93
161 159 94
159 157 85
152 149 66
162 158 93
156 153 65
162 158 70
162 157 70
161 155 80
164 160 93
164 160 95
161 158 90
167 164 103
167 164 103
164 161 88
165 162 92
164 161 91
161 159 87
165 163 99
160 156 81
164 160 95
160 157 75
167 163 99
166 162 92
168 164 103
162 158 84
166 162 96
166 163 97
174 171 115
168 166 105
171 167 99
169 166 101
163 161 91
173 169 112
170 168 105
167 162 93
171 168 106
166 164 99
169 167 106
168 165 106
170 166 101
168 165 107
170 168 109
176 174 118
173 168 100
173 171 118
169 166 104
172 169 109
171 168 100
170 167 106
167 162 92
176 174 121
177 175 124
174 171 110
176 175 125
178 177 124
176 172 115
175 173 119
174 172 118
177 174 120
181 180 140
172 168 106
186 185 147
176 174 120
183 183 144
178 178 130
178 177 129
177 176 126
177 175 126
173 171 113
180 179 134
176 174 117
186 185 147
178 178 131
174 171 115
154 175 0
153 173 0
154 175 0
152 172 0
155 176 0
153 173 0
154 174 0
154 174 0
154 175 0
153 174 0
153 174 0
152 173 0
153 174 0
152 172 0
154 174 0
152 173 0
151 172 0
151 171 0
150 171 0
152 172 0
154 174 0
148 169 0
154 174 0
152 173 0
151 171 0
152 172 0
151 172 0
151 172 0
150 170 0
151 172 0
154 174 0
153 174 0
148 169 0
151 171 0
153 174 0
147 167 0
150 171 0
151 172 0
151 171 0
150 170 0
153 173 0
151 172 0
147 167 0
148 168 0
150 170 0
150 170 0
149 169 0
150 170 0
144 165 0
153 173 0
149 169 0
147 167 0
146 166 0
148 169 0
143 164 0
143 163 0
147 168 0
148 167 0
144 164 0
148 168 0
148 168 0
145 165 0
144 164 0
144 164 0
149 169 0
144 163 0
147 167 0
141 161 0
142 162 0
145 165 0
148 168 0
143 163 0
141 162 0
140 160 0
143 161 0
147 166 0
141 162 0
146 167 0
146 164 0
145 164 0
144 164 0
141 160 0
142 163 0
137 157 0
139 159 0
139 158 0
141 160 0
137 157 0
138 158 0
136 156 0
134 154 0
137 156 0
137 157 0
138 156 0
134 153 0
135 154 0
122 140 0
135 153 0
125 143 0
133 152 0
138 157 0
126 144 0
127 146 0
126 144 0
128 147 0
123 140 0
128 146 0
122 140 0
114 131 0
130 147 0
118 135 0
120 137 0
110 127 0
115 133 0
121 138 0
120 137 0
109 126 0
119 136 0
109 127 0
111 128 0
105 121 0
108 124 0
106 123 0
100 116 0
111 127 0
97 112 0
102 117 0
105 121 0
110 126 0
97 113 0
109 125 0
116 132 0
120 137 0
121 137 0
132 148 51
146 161 92
161 177 120
170 191 80
163 186 0
165 188 0
161 183 0
159 182 0
164 186 0
163 186 0
162 186 0
164 188 0
156 178 0
165 187 0
161 184 0
162 186 0
161 184 0
164 186 0
161 184 0
159 182 0
161 184 0
165 188 0
163 186 0
165 188 0
137 159 31
52 78 60
47 75 54
53 84 86
54 85 97
51 81 85
53 83 96
50 80 74
49 78 87
52 82 98
53 83 97
53 85 89
54 86 101
55 88 99
55 87 100
53 85 97
54 85 101
52 83 88
56 88 115
53 85 94
55 86 98
55 88 102
54 86 100
56 88 106
56 88 110
54 86 102
55 87 113
55 87 102
56 88 101
55 87 95
56 89 102
55 87 103
54 86 86
58 91 120
56 89 103
55 87 97
55 87 105
57 90 114
55 86 95
52 84 97
56 89 110
57 90 108
55 87 100
55 88 100
57 91 110
54 85 99
56 88 102
56 88 113
56 89 103
54 86 95
56 88 103
55 86 99
55 87 107
57 90 111
57 90 105
55 86 107
53 84 84
54 85 94
54 87 87
54 85 100
56 88 107
56 89 97
53 83 95
53 83 103
52 83 89
53 84 92
55 86 102
56 88 102
56 88 108
56 88 114
55 87 101
53 83 96
54 84 95
53 84 92
54 85 94
54 84 101
53 83 95
52 81 92
51 80 94
49 77 74
49 76 79
50 77 82
54 80 74
141 162 41
160 179 0
160 181 0
161 182 0
159 180 0
160 181 0
159 181 0
155 176 0
163 183 0
162 185 0
164 183 0
165 187 0
166 187 0
166 187 0
165 185 0
171 193 0
162 182 0
168 188 0
172 193 0
167 188 0
169 188 0
170 189 71
178 183 168
174 178 163
162 165 151
149 153 137
152 154 136
153 157 145
156 161 151
148 151 125
140 142 117
149 151 126
141 143 117
144 146 117
133 133 106
151 154 128
156 158 129
140 141 108
141 143 114
148 148 107
138 139 101
133 134 94
140 142 102
147 147 103
144 146 110
143 142 94
157 157 109
132 134 90
146 147 107
135 136 87
142 141 84
145 145 101
142 141 83
140 138 78
136 134 62
132 130 78
148 148 98
142 139 82
146 145 82
145 143 77
157 156 109
153 151 94
146 144 81
148 146 77
148 145 79
153 150 85
148 144 60
152 150 86
144 140 60
155 151 82
149 146 76
148 144 72
155 152 87
161 159 97
154 151 84
158 155 94
155 153 86
158 153 69
156 151 81
160 158 99
157 155 86
160 157 82
158 154 84
151 147 65
155 150 65
153 150 84
160 156 78
158 155 86
155 150 63
167 163 93
168 166 109
154 152 87
160 154 82
163 159 95
156 153 83
163 159 89
161 157 87
161 156 76
164 162 99
164 161 96
165 159 80
166 162 90
168 165 99
163 160 84
157 152 72
167 162 96
167 163 89
166 163 95
161 157 90
162 159 94
164 160 86
171 167 95
166 162 90
178 173 120
163 160 94
167 164 96
169 164 88
168 166 110
172 169 105
172 170 115
168 164 108
167 163 94
168 167 104
177 174 119
170 167 105
168 164 91
183 181 138
176 172 112
171 170 115
169 165 101
173 169 104
174 171 118
174 171 113
178 176 124
172 169 109
172 168 108
178 175 118
174 171 113
170 166 104
176 174 127
173 170 114
175 173 118
177 174 118
180 179 133
177 176 126
179 177 129
175 173 124
169 166 110
179 178 135
174 172 118
175 172 116
185 185 143
175 173 123
184 183 142
180 179 137
182 181 140
179 178 131
182 181 141
179 176 127
152 173 0
153 174 0
152 173 0
154 175 0
153 173 0
155 175 0
154 174 0
153 173 0
153 173 0
150 171 0
153 173 0
152 173 0
155 175 0
154 174 0
153 173 0
153 173 0
153 174 0
150 170 0
154 175 0
154 174 0
151 171 0
151 171 0
151 171 0
151 172 0
151 172 0
152 173 0
150 171 0
153 173 0
152 172 0
150 171 0
151 172 0
151 172 0
149 169 0
151 171 0
151 171 0
151 171 0
151 171 0
147 168 0
149 169 0
151 171 0
150 170 0
151 172 0
151 171 0
151 171 0
150 171 0
149 169 0
147 167 0
145 166 0
148 169 0
145 164 0
149 169 0
149 170 0
149 170 0
149 168 0
150 170 0
144 164 0
149 169 0
147 167 0
150 170 0
146 166 0
148 169 0
147 166 0
146 167 0
146 166 0
143 164 0
144 163 0
149 170 0
147 166 0
137 157 0
147 167 0
143 162 0
144 164 0
143 163 0
142 163 0
143 163 0
144 164 0
143 162 0
144 163 0
139 158 0
139 160 0
143 163 0
140 160 0
142 162 0
138 157 0
142 160 0
138 157 0
136 155 0
134 153 0
129 148 0
143 162 0
135 155 0
136 156 0
133 151 0
132 151 0
136 154 0
136 155 0
132 151 0
129 147 0
131 150 0
136 155 0
133 150 0
126 145 0
122 141 0
130 147 0
125 143 0
130 148 0
125 143 0
130 149 0
119 138 0
129 147 0
126 143 0
117 134 0
115 132 0
118 135 0
118 134 0
126 143 0
112 128 0
108 125 0
108 124 0
114 133 0
118 133 0
110 125 0
107 124 0
113 129 0
101 116 0
110 127 0
116 132 0
99 115 0
115 130 0
106 121 0
115 131 0
108 125 0
124 141 0
125 141 25
144 159 95
170 184 140
162 181 80
162 185 0
161 185 0
166 189 0
158 181 0
160 183 0
167 191 0
163 187 0
160 182 0
166 189 0
168 191 0
163 185 0
161 184 0
164 186 0
161 183 0
162 184 0
163 186 0
162 185 0
156 178 0
160 183 0
156 179 0
161 184 0
152 175 0
119 140 56
51 80 86
51 80 87
49 78 76
52 82 96
52 83 97
52 82 88
51 81 94
53 84 90
53 84 91
54 86 98
54 86 99
50 80 71
50 80 86
55 87 101
53 85 87
56 88 113
52 82 93
54 85 99
56 88 109
55 87 97
55 87 106
54 86 98
56 89 109
55 88 103
52 83 86
54 86 103
54 85 94
56 89 113
54 87 97
55 88 95
55 87 94
56 89 110
58 90 120
56 88 105
54 86 95
53 85 99
57 91 120
55 87 97
57 90 117
55 87 108
56 88 108
55 87 100
56 88 108
54 86 94
52 83 88
57 90 107
54 86 90
56 88 97
55 86 110
54 85 99
55 87 102
56 89 102
56 89 113
55 87 104
53 84 97
56 88 101
54 86 102
55 87 105
53 83 99
53 84 84
54 85 96
54 85 99
54 85 105
55 86 105
54 85 94
54 86 94
52 82 99
55 86 105
52 83 90
55 86 94
52 82 88
50 79 97
52 81 86
53 82 85
54 84 94
49 76 72
53 82 95
50 78 83
49 76 79
48 75 71
134 154 60
161 181 0
161 182 0
161 182 0
161 182 0
159 180 0
164 186 0
160 181 0
163 184 0
164 184 0
163 185 0
161 182 0
164 185 0
166 187 0
161 182 0
163 183 0
164 184 0
162 181 0
165 185 0
163 184 0
165 185 0
168 188 0
164 183 0
168 184 93
178 182 169
171 175 163
162 166 153
165 169 159
159 164 151
165 170 156
145 149 135
150 152 131
146 147 120
147 149 120
131 134 103
147 149 126
138 140 112
140 142 117
146 146 115
137 138 107
139 139 107
133 134 96
143 143 106
140 141 105
131 131 83
141 142 100
142 142 101
137 136 91
146 145 90
148 147 100
140 141 97
142 142 99
138 139 97
148 147 88
134 134 83
138 137 77
143 142 85
150 149 92
145 144 90
145 142 85
144 141 70
149 146 83
143 139 71
156 153 93
149 146 86
151 149 89
149 146 84
156 154 95
143 140 68
154 151 89
147 144 72
160 157 97
154 151 92
152 150 88
156 152 87
162 160 103
155 153 90
155 152 82
151 146 65
152 149 86
156 151 64
156 154 84
152 149 80
165 163 104
160 155 66
160 158 93
162 160 95
160 156 85
162 160 95
167 163 101
161 157 79
165 160 84
162 157 83
167 162 87
161 155 68
161 157 81
161 157 85
163 161 95
162 160 96
169 164 85
160 157 84
160 156 88
166 161 88
158 155 84
166 161 98
169 166 110
167 163 93
165 162 95
168 164 97
171 167 109
160 157 93
174 171 116
167 164 98
170 166 99
161 158 87
165 163 104
166 163 97
165 162 92
162 158 83
169 165 96
175 173 116
166 163 103
171 167 106
165 161 93
168 165 109
170 167 107
174 172 116
175 173 122
174 171 118
177 173 116
175 173 120
173 169 102
169 168 109
171 169 113
171 168 106
173 171 111
173 170 108
178 177 125
171 169 108
174 171 116
175 173 117
172 171 115
174 174 123
178 175 121
178 176 123
176 173 116
174 172 118
175 174 126
183 181 141
175 173 118
176 176 128
175 173 123
180 179 139
179 177 131
178 177 131
177 175 127
182 182 140
180 179 135
177 174 117
178 179 133
152 174 0
153 173 0
152 173 0
149 171 0
153 173 0
152 173 0
155 176 0
152 174 0
153 174 0
153 173 0
154 176 0
151 172 0
152 172 0
153 174 0
151 173 0
154 175 0
153 173 0
151 171 0
152 172 0
154 174 0
150 171 0
152 172 0
153 173 0
151 172 0
151 171 0
154 174 0
153 173 0
150 170 0
151 172 0
150 169 0
149 169 0
149 170 0
147 167 0
149 170 0
147 168 0
150 170 0
150 170 0
148 168 0
152 172 0
151 171 0
147 167 0
150 170 0
148 168 0
152 172 0
151 172 0
147 167 0
146 166 0
149 169 0
147 166 0
145 165 0
147 167 0
148 168 0
146 166 0
146 166 0
145 166 0
147 166 0
148 167 0
147 167 0
148 167 0
146 166 0
142 162 0
141 161 0
147 168 0
141 160 0
140 160 0
141 160 0
143 162 0
148 168 0
148 168 0
149 169 0
140 159 0
143 162 0
142 161 0
146 165 0
142 161 0
141 160 0
138 157 0
139 158 0
138 157 0
139 158 0
141 160 0
142 161 0
136 155 0
142 162 0
139 159 0
137 156 0
136 155 0
134 153 0
130 148 0
139 158 0
140 158 0
132 152 0
138 158 0
134 153 0
131 149 0
130 149 0
136 154 0
126 145 0
134 152 0
126 145 0
134 152 0
136 155 0
129 149 0
131 149 0
125 143 0
126 145 0
116 133 0
124 142 0
124 142 0
123 141 0
112 130 0
128 145 0
116 133 0
117 134 0
117 134 0
119 135 0
117 134 0
115 131 0
119 136 0
109 125 0
111 126 0
108 124 0
108 124 0
111 127 0
106 122 0
110 126 0
99 114 0
107 122 0
119 134 0
105 119 0
109 125 0
121 138 25
125 141 44
143 159 92
159 173 120
169 188 92
162 184 0
167 188 0
162 185 0
163 185 0
161 183 0
154 177 0
165 188 0
161 184 0
162 185 0
164 186 0
163 186 0
158 180 0
159 182 0
160 182 0
161 184 0
156 178 0
158 181 0
152 175 0
159 182 0
161 184 0
161 184 0
151 173 0
154 176 0
157 180 0
100 122 58
49 78 72
51 81 88
48 76 64
50 80 83
52 83 86
54 85 101
52 82 82
52 83 99
54 85 109
53 84 100
52 82 87
53 85 104
56 89 108
54 85 95
55 87 102
52 83 78
53 84 91
54 86 89
54 85 88
57 89 111
52 82 92
53 85 92
57 90 118
52 83 96
57 89 121
53 85 95
55 87 95
55 87 102
57 89 110
53 84 92
57 89 109
54 87 94
55 87 94
53 84 84
56 88 105
57 89 102
54 85 103
54 85 98
55 88 103
53 85 90
56 88 105
54 86 100
55 88 107
56 89 105
55 86 107
55 87 103
54 85 88
55 87 102
54 85 94
53 85 96
54 85 104
56 88 92
54 86 99
54 86 99
53 84 97
55 86 101
54 85 103
52 83 93
53 84 92
55 87 102
54 85 105
54 84 96
55 87 105
54 85 90
54 84 90
51 81 87
52 81 90
54 84 102
53 83 101
55 86 103
53 82 81
53 83 77
51 80 84
52 81 91
52 81 93
49 75 78
51 79 91
51 78 79
84 106 62
155 175 0
161 181 0
160 182 0
159 179 0
155 174 0
155 175 0
157 177 0
161 181 0
156 176 0
164 186 0
157 178 0
152 170 0
164 185 0
160 181 0
161 181 0
161 181 0
160 179 0
163 183 0
164 184 0
163 182 0
166 186 0
163 183 0
163 184 0
165 185 0
170 182 127
175 176 156
172 175 159
165 169 154
160 163 145
167 170 155
154 157 134
149 153 135
151 151 121
134 136 112
142 144 119
145 147 120
145 147 123
148 148 115
145 147 120
137 137 93
136 138 100
146 147 121
142 145 111
146 146 113
138 138 101
141 142 110
135 138 112
138 138 98
145 146 107
147 147 111
142 142 97
148 147 100
142 143 98
146 146 93
153 153 112
140 140 94
141 140 76
143 141 84
145 145 89
151 149 101
145 143 83
141 141 79
151 149 92
143 142 87
151 148 80
156 155 111
156 155 99
153 149 86
159 156 102
146 144 83
150 146 68
152 147 56
153 151 92
155 152 90
150 149 90
157 154 92
158 153 78
152 147 69
160 157 87
152 149 66
153 148 66
164 160 88
150 146 65
162 160 104
146 145 61
159 155 87
153 149 64
153 149 69
161 158 83
163 159 87
161 159 94
158 154 79
166 162 93
163 159 93
166 162 96
166 161 85
164 160 88
161 157 88
160 156 84
167 161 94
166 164 102
169 165 103
164 159 85
158 156 98
162 159 80
169 166 109
162 157 79
170 165 104
164 160 95
170 167 104
171 167 101
169 167 104
164 160 89
172 169 113
166 163 93
172 167 108
166 162 90
172 170 117
170 166 108
162 158 80
173 172 122
170 169 115
167 164 95
175 173 119
164 160 90
166 162 90
165 162 95
169 165 105
173 170 110
172 171 118
171 167 107
171 169 110
174 173 119
174 171 117
170 166 102
172 169 99
173 171 115
178 176 130
172 170 112
175 172 123
172 170 113
173 171 117
176 174 123
174 171 112
174 171 120
177 175 125
179 178 130
178 174 122
184 185 152
183 183 147
174 171 110
183 182 142
180 181 140
184 182 135
186 187 150
182 181 143
184 185 146
180 180 134
182 181 138
186 186 147
153 173 0
154 174 0
152 172 0
155 176 0
151 172 0
154 175 0
151 171 0
153 174 0
152 173 0
153 174 0
152 173 0
151 172 0
151 172 0
153 174 0
153 174 0
153 173 0
153 173 0
154 174 0
150 170 0
151 170 0
152 172 0
151 171 0
151 171 0
151 171 0
150 169 0
153 173 0
151 172 0
153 173 0
151 171 0
148 169 0
151 172 0
147 167 0
150 171 0
149 170 0
147 168 0
150 171 0
150 170 0
151 172 0
147 168 0
145 164 0
149 169 0
149 170 0
151 172 0
151 171 0
150 170 0
150 170 0
147 167 0
151 170 0
148 168 0
149 169 0
148 169 0
146 166 0
144 164 0
147 167 0
147 167 0
145 165 0
148 167 0
149 170 0
148 168 0
144 164 0
145 164 0
147 166 0
142 162 0
140 160 0
144 164 0
145 165 0
145 164 0
141 161 0
146 166 0
144 163 0
142 161 0
143 162 0
145 165 0
144 164 0
141 162 0
140 158 0
139 159 0
141 160 0
139 159 0
142 161 0
135 154 0
137 156 0
143 162 0
143 163 0
138 157 0
137 156 0
141 160 0
139 158 0
137 156 0
134 151 0
136 155 0
131 150 0
141 159 0
129 147 0
137 156 0
130 149 0
131 150 0
133 152 0
124 142 0
125 143 0
138 156 0
130 148 0
128 146 0
126 144 0
129 147 0
124 142 0
117 135 0
117 134 0
124 142 0
123 140 0
116 133 0
109 126 0
119 135 0
118 135 0
116 133 0
115 131 0
113 130 0
121 138 0
112 127 0
109 125 0
103 120 0
108 123 0
112 128 0
112 129 0
102 116 0
102 118 0
103 119 0
111 126 0
114 130 0
115 130 0
114 131 0
126 143 57
135 149 88
157 171 128
172 189 120
161 184 0
158 180 0
159 181 0
162 185 0
160 183 0
162 183 0
156 178 0
158 180 0
154 177 0
153 176 0
162 184 0
161 183 0
161 183 0
152 174 0
155 177 0
157 179 0
157 179 0
154 177 0
160 182 0
152 174 0
155 177 0
149 172 0
155 178 0
154 176 0
160 182 0
153 176 0
92 114 62
50 79 78
48 76 75
49 78 76
46 74 74
50 79 82
47 76 75
53 83 101
51 81 93
55 87 88
53 84 92
53 84 91
56 88 104
53 85 102
52 83 96
53 84 89
53 85 86
51 81 84
53 84 92
55 88 100
55 87 95
53 85 95
54 86 93
56 88 108
53 85 98
54 86 107
54 85 95
54 86 102
53 85 86
54 86 92
54 86 92
54 85 107
54 86 102
54 86 97
55 88 99
55 87 94
53 84 95
55 87 107
53 84 97
55 87 102
54 86 92
52 83 88
53 84 97
54 86 99
55 87 105
57 90 114
55 87 100
55 87 101
54 85 90
53 84 95
55 87 105
54 86 100
54 85 104
53 84 99
53 84 96
53 84 94
54 86 97
56 89 108
56 87 96
55 86 91
57 89 104
53 83 97
54 84 89
55 87 107
54 84 101
55 86 102
53 83 98
51 80 75
55 86 107
50 77 82
53 83 89
49 76 75
52 81 81
49 76 87
49 77 87
52 81 81
51 79 77
92 113 65
159 179 0
157 178 0
155 175 0
155 176 0
153 172 0
146 166 0
152 172 0
161 183 0
163 183 0
159 179 0
155 175 0
154 173 0
157 177 0
162 182 0
159 179 0
159 177 0
157 177 0
161 182 0
159 180 0
156 175 0
160 180 0
163 181 0
164 182 0
161 180 0
157 178 0
159 178 0
172 185 129
175 178 164
182 186 177
166 169 154
164 167 147
158 161 140
164 168 154
153 157 142
158 161 143
156 159 140
150 153 133
148 151 129
153 156 138
138 141 112
148 151 129
145 148 118
146 147 118
143 143 112
139 142 112
135 136 99
150 153 130
147 146 104
141 142 110
137 135 74
143 143 99
138 138 89
143 140 78
137 136 86
139 138 86
151 151 102
148 146 86
141 139 86
153 153 105
138 137 88
149 148 90
145 143 94
145 142 72
138 137 85
151 148 84
147 145 82
153 151 98
154 152 92
148 145 64
153 151 95
144 141 65
153 151 84
149 145 84
150 147 79
156 154 93
157 155 89
156 152 90
155 152 84
153 149 75
158 157 104
152 150 82
149 147 82
159 155 87
160 158 100
159 155 95
158 153 78
154 152 86
160 157 97
160 157 80
161 157 92
158 154 94
159 157 88
159 156 95
158 153 76
164 160 92
168 165 105
167 164 108
167 165 101
162 159 93
166 162 96
164 159 84
159 153 77
159 156 80
163 159 87
163 159 82
156 152 73
164 159 90
167 163 107
171 168 113
168 167 108
163 159 91
171 167 101
167 163 92
164 159 80
166 164 99
165 161 86
171 169 108
164 160 94
163 161 93
163 159 82
166 163 104
168 164 105
173 170 119
173 173 125
168 163 101
170 168 110
166 164 99
178 177 128
174 173 118
174 171 118
171 169 110
177 176 127
176 173 122
167 166 111
167 164 92
173 171 115
172 170 110
175 171 115
170 168 118
173 171 114
172 170 117
168 165 103
175 174 125
176 175 123
174 171 115
182 181 138
175 171 112
174 171 115
180 179 134
172 170 114
170 167 108
175 173 122
175 175 124
177 175 124
179 177 129
179 178 134
183 182 142
182 183 143
178 177 133
180 180 137
178 178 136
152 174 0
154 174 0
152 173 0
150 170 0
150 171 0
152 173 0
151 172 0
153 173 0
152 173 0
152 173 0
154 174 0
152 173 0
153 173 0
151 171 0
152 173 0
150 170 0
151 171 0
150 171 0
151 172 0
151 173 0
149 169 0
152 173 0
150 170 0
150 171 0
150 170 0
153 173 0
153 173 0
147 167 0
151 171 0
150 169 0
152 173 0
151 172 0
150 169 0
149 169 0
150 171 0
149 170 0
148 168 0
149 169 0
150 169 0
149 169 0
148 169 0
146 167 0
149 170 0
147 168 0
151 170 0
150 170 0
148 168 0
148 168 0
149 170 0
140 160 0
148 168 0
146 166 0
142 162 0
147 168 0
143 163 0
147 169 0
149 169 0
145 165 0
145 165 0
141 161 0
146 166 0
140 160 0
147 167 0
146 166 0
146 166 0
146 166 0
144 164 0
148 167 0
144 164 0
143 164 0
142 161 0
141 161 0
145 166 0
142 162 0
143 162 0
141 161 0
140 160 0
139 158 0
135 154 0
142 162 0
136 155 0
137 155 0
138 157 0
140 160 0
137 156 0
135 155 0
134 154 0
140 159 0
137 156 0
135 154 0
136 156 0
128 147 0
142 160 0
133 152 0
133 152 0
135 154 0
132 151 0
137 155 0
127 144 0
124 142 0
127 145 0
131 149 0
131 149 0
130 149 0
129 146 0
121 140 0
128 146 0
127 145 0
113 129 0
120 137 0
117 133 0
116 133 0
120 137 0
111 126 0
115 131 0
118 135 0
121 137 0
123 140 0
103 118 0
110 125 0
102 117 0
114 129 0
112 127 0
114 130 0
104 119 0
105 122 0
117 133 0
118 135 0
110 126 0
113 128 0
120 134 51
139 154 80
165 179 140
160 178 102
163 186 0
160 182 0
160 182 0
162 185 0
156 178 0
154 176 0
154 176 0
160 182 0
156 177 0
160 182 0
157 178 0
158 178 0
158 180 0
157 180 0
158 180 0
154 175 0
156 178 0
151 173 0
155 177 0
152 175 0
149 170 0
150 173 0
154 176 0
154 176 0
146 168 0
156 179 0
146 168 0
143 164 0
81 103 58
47 75 78
49 78 86
47 76 87
49 78 80
50 80 75
52 82 86
51 81 92
51 81 82
51 82 88
52 83 91
51 81 101
52 82 100
53 84 88
56 88 111
53 83 95
50 81 69
53 85 89
53 85 94
53 84 95
54 85 97
51 82 76
53 84 93
56 88 108
54 85 92
55 87 97
52 83 84
55 86 95
55 88 104
55 86 107
54 86 103
53 84 99
55 87 101
54 86 97
56 88 102
55 87 105
53 84 90
55 86 110
55 88 100
57 90 103
54 85 95
55 87 97
56 88 102
54 86 99
55 87 95
53 84 92
55 88 101
54 86 92
55 87 103
55 87 103
54 85 88
53 84 95
53 85 90
54 85 87
54 86 89
55 87 103
54 85 99
53 84 89
54 85 102
53 84 92
56 88 112
54 84 101
52 82 90
52 81 89
52 83 77
53 83 96
52 82 92
55 86 107
51 80 96
53 83 92
49 78 76
52 81 87
49 77 86
51 80 87
50 77 87
81 105 75
148 165 18
146 165 0
153 172 0
151 170 0
160 181 0
158 177 0
158 177 0
158 178 0
148 165 0
157 176 0
152 168 0
157 177 0
159 179 0
160 180 0
161 180 0
152 170 0
155 171 0
159 178 0
159 179 0
159 177 0
157 176 0
158 178 0
158 176 0
159 178 0
160 177 0
153 173 0
160 178 0
167 184 25
168 178 123
172 176 164
163 166 148
168 172 156
159 162 144
159 163 149
158 159 134
155 158 140
151 150 122
160 165 156
144 146 123
143 144 119
142 145 117
145 146 120
136 137 99
135 137 103
139 140 105
143 144 115
145 145 118
142 144 118
148 149 114
133 134 96
153 153 118
147 146 97
141 142 112
151 151 106
143 143 90
154 154 111
146 145 92
142 142 100
149 149 101
136 134 64
153 151 104
148 147 97
148 148 89
150 147 94
156 155 113
143 142 80
151 150 93
152 151 97
155 152 94
153 151 96
155 152 89
152 149 86
156 153 88
143 138 59
150 148 90
160 157 103
161 160 104
159 156 90
159 158 97
148 145 75
160 158 103
150 145 77
159 155 95
157 152 77
161 157 86
160 157 95
157 152 88
159 155 89
158 154 84
155 151 85
161 158 91
157 155 93
165 164 111
160 155 79
162 160 84
159 155 80
161 158 90
165 163 97
163 160 101
157 152 76
156 153 75
169 166 101
170 167 106
162 158 80
167 164 106
161 159 93
160 156 90
164 159 87
168 165 113
161 157 87
171 168 112
167 164 103
169 165 103
167 165 112
167 164 100
166 163 98
163 159 94
165 161 97
170 166 100
171 165 95
164 160 99
169 166 113
172 170 109
171 169 106
172 169 108
175 172 121
173 170 112
177 177 132
176 173 120
176 173 116
164 161 95
175 171 112
172 169 110
171 168 109
171 168 110
167 164 100
173 169 109
173 172 125
174 174 124
175 173 123
170 167 108
178 176 126
175 172 112
174 173 120
178 177 130
178 175 123
173 171 117
176 174 125
176 174 124
180 178 132
175 172 117
182 183 145
183 182 143
171 170 117
176 174 125
170 169 113
180 179 138
179 179 134
178 177 124
185 187 154
182 182 141
182 181 142
152 173 0
153 174 0
151 171 0
151 172 0
151 172 0
153 173 0
155 175 0
153 174 0
148 168 0
154 174 0
150 171 0
154 175 0
154 174 0
153 174 0
153 173 0
149 170 0
153 173 0
150 171 0
151 171 0
149 170 0
151 171 0
151 172 0
150 171 0
148 168 0
153 173 0
149 170 0
151 172 0
150 170 0
151 171 0
149 169 0
151 171 0
150 171 0
151 172 0
149 170 0
151 171 0
153 172 0
148 169 0
148 169 0
150 169 0
149 170 0
145 166 0
144 164 0
151 172 0
146 166 0
144 163 0
148 168 0
151 170 0
147 167 0
148 168 0
146 166 0
148 167 0
148 168 0
145 166 0
148 168 0
146 166 0
146 166 0
141 161 0
144 163 0
145 164 0
149 168 0
145 165 0
146 165 0
145 165 0
143 161 0
147 167 0
145 164 0
144 164 0
143 163 0
144 163 0
140 159 0
147 165 0
140 160 0
143 163 0
137 156 0
142 162 0
141 160 0
137 157 0
139 157 0
142 162 0
141 161 0
137 156 0
138 157 0
139 157 0
136 155 0
139 157 0
135 154 0
133 151 0
132 150 0
135 154 0
132 151 0
135 154 0
130 147 0
133 152 0
132 151 0
136 154 0
132 151 0
130 148 0
132 151 0
133 152 0
133 151 0
123 141 0
130 148 0
128 146 0
130 148 0
123 141 0
123 141 0
114 131 0
121 138 0
119 136 0
120 137 0
120 137 0
119 135 0
123 141 0
110 127 0
112 128 0
118 134 0
111 127 0
103 118 0
117 134 0
115 131 0
111 127 0
113 128 0
102 117 0
112 128 0
111 127 0
117 133 0
101 116 0
119 134 0
114 130 0
130 144 62
141 156 92
160 173 135
171 187 125
158 180 0
153 175 0
154 175 0
154 174 0
152 173 0
154 175 0
155 177 0
158 181 0
158 180 0
151 171 0
157 180 0
161 183 0
160 182 0
151 172 0
158 179 0
151 173 0
144 165 0
158 179 0
151 171 0
150 171 0
155 177 0
160 182 0
144 165 0
150 171 0
153 175 0
148 171 0
142 163 0
146 167 0
153 174 0
144 165 0
62 84 44
48 77 73
47 74 82
49 79 79
50 80 82
52 82 76
50 79 87
51 81 83
54 85 101
53 84 102
52 83 89
50 80 84
52 83 96
55 87 100
54 85 95
52 83 90
54 86 86
53 83 92
53 84 95
54 86 93
52 82 99
53 85 82
53 85 95
55 87 98
56 89 105
55 87 91
53 83 82
53 85 108
54 85 102
53 84 95
52 83 88
53 84 82
54 85 97
52 82 94
55 87 100
54 85 84
56 89 114
53 85 86
52 83 88
54 86 94
53 84 84
55 87 99
53 83 101
55 87 101
53 83 86
53 83 100
51 82 86
54 86 103
53 84 86
53 84 95
54 85 82
56 88 114
54 84 92
56 88 105
55 87 96
51 82 82
56 88 108
54 86 94
52 83 90
53 83 87
52 82 88
52 82 93
53 83 101
53 83 91
54 84 90
54 85 98
53 82 94
51 79 74
54 84 85
53 82 86
50 79 77
51 80 85
49 77 81
66 90 76
140 161 31
146 164 0
153 173 0
152 172 0
154 173 0
147 166 0
155 173 0
144 164 0
153 171 0
145 163 0
150 167 0
159 178 0
156 176 0
152 170 0
157 175 0
159 179 0
154 173 0
148 169 0
153 170 0
157 175 0
158 176 0
161 180 0
162 179 0
161 179 0
159 179 0
160 178 0
160 179 0
150 166 0
157 174 0
163 180 0
170 179 125
183 188 182
166 169 154
163 167 149
170 175 168
165 170 158
155 158 140
156 157 135
148 149 123
158 162 145
152 155 133
135 136 102
149 150 123
152 154 123
154 156 138
142 145 117
145 147 120
157 158 125
150 150 115
148 147 109
138 139 107
139 140 92
154 155 126
140 141 94
150 150 103
139 137 89
150 149 101
151 152 112
150 152 121
138 136 90
153 153 105
145 143 82
144 143 92
141 139 68
145 143 88
149 146 84
159 159 111
149 149 103
158 159 108
153 152 97
153 152 99
151 149 88
150 150 91
146 142 76
143 142 81
156 155 88
156 155 100
151 148 75
161 158 99
154 153 99
160 157 88
154 150 77
159 156 90
151 148 79
159 157 103
159 158 106
164 161 95
159 156 90
153 150 69
161 157 77
154 150 77
157 153 87
162 161 107
156 151 74
164 163 103
168 165 105
157 154 85
161 157 88
165 160 88
156 153 85
157 151 79
163 158 86
167 164 101
169 165 110
155 151 68
164 160 91
163 161 101
172 170 116
164 161 91
171 168 108
167 164 93
161 156 75
171 168 112
168 165 96
167 163 103
164 162 103
166 163 98
164 161 99
171 167 102
170 166 101
171 167 103
162 158 98
172 169 110
173 172 124
164 161 98
163 159 97
170 168 110
172 170 113
170 167 109
168 166 112
175 174 119
171 169 115
175 173 122
174 172 123
175 172 119
174 173 123
170 166 110
176 175 129
174 169 111
178 177 127
173 171 119
174 171 121
176 175 125
181 181 138
177 176 129
165 162 97
183 182 142
180 179 134
173 170 110
176 174 124
173 170 116
178 176 133
175 174 126
180 178 138
177 175 122
177 176 136
173 171 117
180 178 131
178 177 135
184 181 136
180 179 133
178 178 136
178 176 128
150 171 0
154 175 0
151 172 0
151 171 0
151 171 0
152 172 0
149 169 0
154 174 0
153 173 0
152 172 0
150 170 0
148 169 0
151 172 0
153 173 0
150 171 0
151 171 0
152 172 0
151 172 0
151 171 0
146 165 0
152 172 0
154 175 0
152 173 0
149 170 0
150 171 0
146 166 0
150 171 0
148 168 0
152 172 0
148 169 0
150 170 0
150 170 0
149 169 0
146 165 0
150 170 0
150 170 0
149 168 0
146 165 0
149 169 0
152 172 0
147 167 0
143 164 0
149 169 0
147 167 0
144 163 0
150 171 0
147 168 0
145 164 0
147 167 0
144 164 0
142 162 0
144 163 0
146 166 0
145 166 0
146 166 0
146 165 0
149 167 0
142 162 0
144 162 0
142 162 0
142 162 0
145 164 0
149 168 0
140 161 0
139 158 0
143 163 0
144 162 0
140 159 0
144 164 0
144 163 0
140 159 0
145 164 0
142 162 0
138 157 0
137 156 0
145 165 0
140 159 0
144 164 0
140 159 0
143 163 0
136 156 0
138 157 0
134 152 0
133 151 0
136 156 0
139 158 0
132 150 0
138 157 0
134 152 0
132 150 0
135 153 0
129 148 0
140 159 0
137 156 0
126 144 0
135 154 0
137 155 0
134 154 0
123 141 0
129 147 0
129 147 0
117 134 0
130 148 0
113 130 0
122 140 0
130 147 0
117 135 0
120 137 0
122 139 0
115 129 0
118 135 0
121 138 0
101 116 0
107 124 0
125 142 0
115 131 0
119 135 0
115 131 0
114 130 0
109 125 0
111 126 0
107 121 0
115 130 0
106 122 0
118 133 0
116 131 0
103 118 0
109 125 25
115 130 44
127 142 72
155 169 122
166 182 111
157 178 0
154 175 0
150 171 0
156 178 0
157 180 0
156 176 0
151 172 0
150 171 0
151 172 0
152 172 0
156 177 0
154 175 0
155 177 0
154 175 0
158 179 0
157 179 0
145 166 0
147 169 0
150 172 0
151 172 0
146 167 0
151 174 0
143 164 0
146 168 0
149 171 0
145 166 0
143 164 0
142 164 0
144 166 0
142 165 0
140 161 0
139 160 18
82 105 70
46 74 77
48 77 80
46 74 66
52 82 86
51 81 78
52 82 93
51 81 84
52 83 88
49 78 91
51 81 84
49 79 84
54 85 94
51 81 93
52 82 80
53 84 90
53 84 88
54 85 108
54 85 82
53 84 94
54 86 91
55 86 106
53 84 90
53 85 88
54 86 102
53 85 88
54 85 92
54 85 102
52 84 76
54 85 92
54 86 100
54 86 102
53 83 97
54 85 88
54 85 108
53 84 88
52 83 86
51 81 86
54 86 99
54 85 95
56 88 105
56 88 110
54 85 99
52 83 99
53 83 88
53 84 97
53 85 94
55 87 108
52 82 92
55 87 96
54 85 97
53 83 94
53 83 80
53 84 95
51 81 86
52 81 84
53 83 84
52 82 97
52 82 94
53 84 99
53 85 87
53 83 98
52 81 80
52 82 92
51 80 83
51 80 74
51 79 79
51 78 90
49 76 69
50 78 94
46 73 60
82 102 65
144 164 25
146 165 0
137 156 0
147 166 0
136 152 0
145 161 0
148 168 0
148 166 0
146 164 0
154 173 0
142 159 0
145 163 0
146 163 0
150 167 0
161 179 0
151 169 0
152 169 0
156 174 0
158 176 0
153 170 0
151 170 0
148 166 0
154 172 0
150 167 0
159 175 0
154 172 0
162 179 0
150 165 0
160 178 0
157 174 0
157 174 0
153 168 0
178 187 131
175 178 167
179 182 168
171 173 157
166 169 158
162 165 152
158 161 140
162 165 150
142 145 120
164 168 151
153 155 135
136 137 111
144 145 114
157 158 131
155 156 125
142 141 112
143 145 108
147 149 120
128 128 89
144 144 99
140 138 90
145 145 104
148 147 109
151 152 112
142 142 89
156 156 118
152 151 103
145 142 78
149 147 90
142 142 93
153 153 103
150 148 101
151 149 98
152 152 113
155 154 103
155 155 106
153 153 105
145 145 93
150 147 91
150 149 91
151 150 97
148 145 84
155 151 90
151 150 95
155 154 99
154 152 85
156 153 85
155 153 98
149 145 92
153 151 90
151 147 74
155 152 76
159 158 105
157 154 97
162 161 103
155 151 88
164 161 103
158 156 95
160 158 83
165 162 99
160 155 87
153 150 71
156 155 91
161 156 75
166 163 108
166 164 111
158 156 95
160 156 90
163 159 94
161 158 97
162 159 82
159 157 91
168 165 108
167 163 99
159 154 81
164 161 108
165 163 103
174 172 122
163 159 96
165 161 97
164 160 93
164 161 103
173 171 118
168 165 108
167 163 99
161 158 90
166 162 96
163 162 98
167 165 103
170 167 110
169 165 107
167 163 95
171 169 113
166 161 90
167 164 102
165 163 104
168 165 104
171 168 111
170 165 103
171 168 118
175 173 127
173 169 117
175 172 117
175 173 124
178 176 123
178 175 125
172 169 107
180 179 135
171 169 121
171 169 111
174 173 128
176 174 124
178 175 125
173 171 116
172 170 110
175 173 118
175 172 119
177 175 123
174 173 118
171 169 112
177 175 128
179 179 132
172 170 120
180 176 124
177 175 126
182 182 144
183 183 142
175 172 118
182 181 137
180 178 135
177 175 130
181 181 138
152 173 0
151 172 0
151 172 0
153 173 0
152 173 0
153 174 0
152 172 0
153 173 0
152 172 0
152 173 0
154 175 0
148 168 0
150 170 0
152 173 0
151 172 0
153 172 0
154 174 0
150 169 0
149 170 0
148 169 0
152 173 0
152 174 0
152 172 0
149 170 0
152 173 0
151 171 0
150 170 0
146 167 0
151 172 0
149 170 0
149 168 0
152 172 0
149 169 0
150 169 0
148 168 0
151 171 0
150 171 0
148 167 0
150 169 0
150 170 0
146 166 0
148 169 0
146 166 0
145 165 0
146 167 0
147 167 0
146 166 0
145 165 0
147 166 0
149 169 0
148 167 0
146 165 0
148 168 0
143 163 0
149 170 0
149 168 0
142 162 0
137 155 0
146 166 0
147 167 0
142 161 0
143 161 0
145 165 0
141 159 0
149 168 0
141 161 0
142 162 0
140 159 0
143 162 0
140 158 0
136 156 0
140 158 0
145 164 0
144 163 0
142 161 0
142 161 0
137 155 0
136 155 0
136 154 0
139 158 0
139 157 0
139 158 0
139 159 0
136 155 0
134 152 0
144 163 0
136 154 0
129 148 0
134 153 0
118 134 0
127 144 0
139 157 0
127 145 0
138 156 0
137 155 0
131 149 0
122 139 0
131 149 0
129 147 0
131 150 0
126 144 0
128 147 0
125 143 0
124 141 0
124 140 0
126 144 0
126 142 0
117 135 0
126 142 0
116 130 0
117 133 0
116 132 0
108 123 0
111 128 0
121 138 0
113 129 0
113 129 0
117 133 0
111 126 0
104 118 0
99 114 0
116 131 0
109 124 0
114 129 0
115 130 0
116 131 0
113 128 0
125 140 51
132 145 80
157 172 125
165 181 114
148 169 0
152 173 0
154 174 0
153 173 0
151 172 0
152 172 0
152 172 0
154 176 0
150 171 0
146 168 0
149 169 0
146 167 0
155 176 0
149 169 0
153 176 0
157 178 0
148 170 0
156 177 0
150 171 0
150 172 0
148 168 0
145 166 0
144 165 0
149 171 0
149 170 0
139 159 0
144 164 0
142 162 0
136 156 0
131 152 0
138 160 0
141 162 0
136 157 0
128 148 18
91 112 54
48 76 68
47 75 69
49 78 76
51 81 78
52 83 102
51 80 82
53 84 95
51 81 84
51 82 86
53 84 86
53 85 97
51 81 101
51 82 90
49 77 91
53 85 92
54 86 101
52 83 88
53 85 92
54 85 97
54 85 97
50 81 78
53 84 97
54 86 99
53 84 88
53 84 100
53 84 90
54 85 95
52 82 90
51 81 82
54 85 94
55 87 108
52 82 86
55 88 100
52 82 88
53 84 95
54 86 100
55 87 95
53 84 100
53 84 91
54 86 99
54 84 102
53 83 97
54 84 99
53 84 97
53 85 92
53 84 94
51 81 86
52 82 97
52 83 93
54 86 97
55 86 97
52 82 86
51 80 78
54 85 99
53 83 90
50 78 84
52 82 89
53 83 89
52 82 89
53 83 88
50 79 89
52 82 92
51 79 76
51 79 81
51 80 93
49 76 71
49 77 75
51 78 84
64 86 51
142 159 0
136 154 0
140 158 0
146 162 0
138 156 0
141 159 0
140 157 0
146 162 0
150 168 0
154 172 0
143 159 0
148 167 0
142 161 0
146 163 0
144 159 0
142 158 0
146 163 0
150 166 0
158 177 0
155 172 0
148 164 0
151 169 0
152 168 0
150 166 0
159 174 0
156 173 0
151 165 0
155 173 0
151 167 0
154 169 0
151 163 0
156 173 0
156 174 0
152 169 0
164 174 113
175 179 169
167 169 151
172 174 161
172 176 160
168 171 147
164 167 147
153 154 131
161 163 147
154 156 138
160 162 141
160 162 135
143 144 115
155 156 131
147 150 128
150 151 117
151 152 125
160 161 134
143 143 102
144 145 109
146 146 109
150 149 101
146 146 101
144 144 100
157 156 107
133 132 81
157 155 106
155 156 120
150 150 107
146 145 102
148 146 93
160 161 115
158 157 104
156 154 95
158 155 101
146 145 90
156 155 96
148 147 101
147 144 78
149 147 82
154 153 91
154 153 97
156 154 104
154 153 99
161 158 99
149 146 84
152 150 87
145 141 64
150 146 84
155 153 95
159 157 98
154 150 87
163 161 108
155 152 93
156 153 86
157 154 94
154 150 79
160 158 99
156 153 85
162 159 96
157 156 97
153 150 82
155 150 69
151 147 75
157 152 77
161 159 97
160 159 97
162 159 99
159 155 87
167 164 109
160 158 90
158 155 87
160 155 84
161 159 93
165 163 102
157 153 72
162 156 75
171 168 113
172 169 118
163 160 94
170 167 115
163 160 97
171 169 110
167 165 100
165 162 103
162 157 86
169 167 112
167 164 100
164 161 94
168 164 104
177 175 129
171 170 125
174 173 120
168 166 111
174 172 123
164 159 97
164 162 99
175 174 122
173 171 117
175 171 117
176 173 123
171 167 109
170 169 119
170 169 113
170 166 107
167 164 103
169 167 115
174 174 125
175 174 124
175 174 130
173 172 120
169 168 117
181 178 132
176 175 128
179 180 142
178 177 130
173 171 113
180 178 134
184 184 145
181 182 147
175 173 123
172 170 113
180 178 132
179 178 130
186 185 151
181 180 138
176 174 130
179 178 132
179 177 133
179 175 124
190 192 165
154 175 0
152 172 0
153 173 0
153 173 0
150 170 0
152 173 0
149 170 0
151 173 0
152 174 0
150 171 0
149 169 0
152 173 0
152 173 0
151 171 0
150 170 0
153 172 0
149 169 0
151 171 0
151 171 0
152 172 0
150 170 0
151 171 0
149 169 0
149 170 0
150 169 0
150 170 0
147 167 0
148 168 0
151 171 0
149 168 0
150 170 0
150 170 0
149 169 0
151 173 0
149 169 0
147 168 0
151 172 0
150 170 0
150 169 0
149 169 0
150 170 0
143 163 0
146 166 0
149 169 0
151 170 0
145 165 0
149 168 0
145 164 0
149 169 0
145 164 0
143 163 0
148 169 0
145 165 0
144 164 0
147 167 0
144 164 0
146 166 0
143 163 0
141 159 0
144 164 0
142 161 0
141 161 0
147 166 0
143 162 0
144 163 0
141 161 0
135 154 0
139 158 0
139 157 0
143 162 0
135 154 0
148 167 0
139 158 0
142 162 0
141 160 0
142 161 0
137 156 0
137 156 0
141 159 0
140 158 0
127 145 0
140 160 0
129 148 0
135 154 0
140 158 0
138 156 0
135 155 0
136 154 0
135 152 0
134 152 0
135 154 0
133 151 0
126 143 0
135 152 0
134 152 0
129 148 0
132 150 0
128 145 0
120 136 0
131 149 0
125 144 0
130 147 0
124 141 0
130 147 0
127 144 0
121 138 0
129 146 0
121 138 0
123 140 0
124 141 0
114 130 0
124 141 0
116 132 0
119 136 0
124 140 0
121 136 0
108 124 0
117 132 0
105 120 0
103 118 0
110 125 0
111 127 0
115 130 0
110 125 0
110 125 0
113 129 0
125 139 51
127 142 80
155 168 117
156 172 92
149 168 0
150 171 0
151 171 0
149 169 0
150 170 0
142 162 0
146 167 0
146 167 0
149 170 0
143 163 0
144 165 0
148 170 0
145 166 0
150 170 0
141 162 0
148 169 0
152 172 0
145 166 0
142 163 0
142 161 0
146 166 0
142 162 0
146 166 0
141 162 0
144 164 0
142 163 0
142 163 0
154 176 0
145 166 0
143 164 0
136 156 0
139 160 0
134 154 0
136 155 0
133 153 0
141 162 0
78 100 54
44 71 71
49 78 92
44 71 54
50 79 72
50 80 89
51 82 91
48 77 78
50 80 76
52 81 100
52 84 80
54 86 90
51 81 84
50 80 82
53 84 103
52 82 76
55 87 89
52 82 92
54 86 91
51 81 92
53 84 98
53 85 90
50 79 76
52 83 84
52 83 92
53 84 84
53 85 99
52 83 92
51 82 95
54 85 92
54 86 103
52 83 90
52 83 86
52 84 74
53 84 95
54 85 95
48 77 74
52 83 95
53 85 84
52 82 86
52 83 94
53 84 99
53 85 94
50 79 80
52 82 94
51 81 91
50 81 82
53 84 92
52 82 87
52 82 92
53 84 94
53 84 94
53 83 94
54 85 83
54 85 86
53 84 93
51 79 79
51 81 94
53 84 97
50 79 77
51 80 87
53 82 85
44 70 68
49 77 79
51 80 88
51 79 77
45 70 73
85 104 45
138 156 18
135 153 0
134 153 0
139 156 0
144 163 0
142 161 0
139 156 0
143 160 0
144 161 0
140 158 0
146 166 0
142 159 0
147 166 0
151 168 0
143 157 0
149 166 0
145 164 0
149 165 0
150 167 0
146 162 0
146 163 0
145 160 0
143 160 0
148 163 0
149 165 0
152 170 0
150 168 0
157 171 0
146 161 0
156 171 0
154 168 0
157 171 0
158 172 0
150 165 0
151 167 0
158 172 0
154 164 77
183 186 174
165 167 151
165 167 148
154 158 140
166 168 147
165 168 149
154 153 131
155 157 138
151 152 128
154 156 130
158 161 138
153 152 122
162 164 140
147 148 112
144 143 106
157 158 133
154 155 128
151 152 130
143 143 111
144 144 105
150 152 128
157 158 125
152 154 120
151 150 106
141 142 109
148 148 108
156 158 121
145 144 94
145 144 103
160 161 123
144 142 80
154 154 110
159 157 100
148 147 94
153 152 93
154 154 116
148 144 86
163 163 122
160 158 111
154 152 90
151 147 93
150 148 81
156 154 101
153 151 90
149 146 81
156 153 94
151 149 72
155 153 87
154 151 85
158 156 93
159 159 99
166 163 106
151 149 95
160 158 101
155 152 89
159 155 88
159 157 98
159 156 88
160 160 99
162 161 110
164 161 104
160 157 99
165 163 103
155 152 80
164 163 104
157 153 77
163 159 93
163 161 104
166 164 104
171 170 117
162 159 97
159 156 90
166 163 107
163 161 108
164 161 95
166 162 106
171 169 112
165 163 102
163 159 94
164 161 98
165 162 104
178 176 129
169 165 105
166 164 109
168 163 99
165 162 103
171 167 103
163 158 84
172 171 123
168 168 117
167 164 104
172 170 114
169 165 100
170 168 112
176 174 125
167 165 108
175 171 117
172 170 113
175 173 121
174 171 118
174 171 120
176 173 119
171 167 108
177 175 128
178 176 123
171 168 111
176 174 126
174 174 124
177 176 132
176 174 119
178 177 127
178 176 130
182 181 142
178 177 131
180 178 134
184 183 141
179 178 138
175 173 122
177 176 126
190 190 159
179 178 129
181 180 138
179 178 135
179 179 136
182 182 147
177 177 129
176 175 126
179 179 135
183 185 152
153 173 0
153 173 0
150 170 0
151 171 0
151 172 0
154 175 0
149 169 0
150 170 0
151 172 0
152 173 0
149 170 0
150 169 0
151 171 0
148 168 0
149 169 0
151 171 0
150 170 0
149 170 0
151 170 0
152 172 0
150 169 0
151 171 0
148 169 0
148 169 0
149 170 0
150 170 0
147 167 0
152 172 0
148 168 0
147 167 0
148 168 0
151 170 0
149 168 0
149 169 0
147 167 0
146 166 0
151 171 0
147 167 0
149 168 0
148 167 0
148 168 0
149 168 0
145 164 0
144 164 0
149 168 0
147 167 0
151 170 0
148 167 0
148 167 0
145 165 0
146 166 0
145 165 0
146 166 0
145 164 0
145 164 0
146 165 0
143 163 0
144 164 0
143 163 0
142 161 0
143 163 0
141 160 0
141 160 0
139 158 0
144 164 0
143 162 0
142 161 0
140 159 0
141 160 0
142 161 0
139 157 0
140 159 0
144 162 0
140 159 0
142 161 0
138 157 0
139 157 0
137 156 0
137 155 0
135 154 0
143 162 0
141 159 0
136 153 0
137 156 0
132 150 0
138 156 0
134 152 0
137 156 0
128 146 0
135 153 0
135 152 0
129 147 0
124 142 0
134 153 0
130 147 0
129 147 0
127 145 0
125 142 0
123 140 0
124 142 0
123 139 0
117 134 0
127 143 0
125 141 0
125 141 0
126 142 0
123 140 0
118 134 0
122 138 0
123 140 0
124 140 0
115 130 0
113 128 0
113 129 0
114 129 0
115 131 0
113 128 0
112 127 0
108 122 0
119 136 0
111 126 0
99 114 0
111 125 0
112 126 0
107 122 0
129 143 84
139 153 95
159 171 142
152 169 80
148 167 0
153 172 0
161 182 0
151 171 0
146 167 0
150 170 0
148 167 0
140 159 0
144 165 0
148 169 0
143 163 0
139 159 0
151 172 0
148 168 0
149 168 0
142 162 0
146 167 0
136 156 0
140 160 0
148 169 0
138 158 0
143 163 0
146 167 0
147 168 0
138 159 0
140 160 0
136 155 0
136 155 0
139 159 0
139 159 0
136 155 0
142 162 0
138 158 0
132 153 0
122 142 0
139 160 0
129 148 0
130 150 0
95 116 54
52 77 73
46 73 71
49 78 85
51 81 80
49 78 69
49 78 74
47 76 67
51 82 84
52 83 72
51 81 78
49 78 86
49 79 80
51 81 90
49 78 91
53 84 92
52 83 94
50 80 78
54 86 90
53 85 98
48 77 72
52 84 80
50 79 80
53 84 98
53 84 92
51 82 80
55 87 105
53 85 90
52 83 99
55 87 102
53 83 100
53 84 97
55 86 99
50 80 78
51 81 92
53 84 78
55 86 100
52 84 82
50 79 88
52 83 99
53 85 92
51 82 88
55 87 100
52 83 97
53 83 100
51 81 90
54 85 100
51 82 90
51 81 90
49 78 60
53 83 90
51 80 87
51 80 88
47 75 79
51 80 84
54 85 102
50 80 80
50 78 81
49 77 75
52 81 86
47 74 60
48 77 72
48 76 82
49 77 76
47 72 61
104 120 54
131 147 0
132 149 0
125 142 0
133 148 0
130 146 0
132 148 0
134 151 0
126 142 0
137 152 0
139 157 0
141 157 0
141 156 0
136 153 0
144 161 0
143 159 0
148 166 0
141 157 0
147 166 0
140 154 0
154 170 0
143 156 0
149 165 0
140 154 0
150 164 0
144 161 0
144 159 0
145 161 0
152 168 0
148 161 0
151 167 0
146 160 0
149 163 0
145 159 0
150 162 0
153 166 0
148 161 0
155 169 0
151 166 0
162 172 93
171 175 157
166 169 151
167 169 151
166 167 150
168 171 158
165 167 148
162 164 142
163 165 145
154 154 131
161 163 147
156 157 125
151 152 120
156 157 128
154 155 133
143 139 88
155 156 120
147 146 105
136 136 99
150 151 120
158 159 131
147 147 109
150 150 111
147 147 109
156 155 125
141 141 89
152 150 102
146 147 103
151 151 111
153 151 98
145 145 99
157 155 109
156 156 108
150 148 103
155 153 101
148 145 86
146 144 85
155 153 103
150 149 96
162 161 118
152 151 99
155 152 91
149 147 82
148 145 90
157 153 83
163 161 110
143 140 60
161 160 107
158 155 88
163 162 113
156 154 84
156 154 90
156 155 103
158 155 92
159 156 98
157 154 96
154 151 94
164 162 106
161 159 95
161 158 96
158 155 100
168 166 118
157 153 88
163 159 87
167 163 96
161 158 97
162 160 103
151 146 67
161 159 98
161 156 81
153 149 80
164 160 92
163 159 91
163 161 103
169 167 114
167 164 100
168 166 116
169 167 104
166 163 101
162 160 97
173 172 129
170 168 118
169 167 113
165 161 88
162 159 95
167 166 114
168 165 105
172 167 105
170 168 116
164 163 101
173 169 114
171 170 116
173 171 118
170 166 109
168 165 104
172 172 122
175 174 127
170 166 108
175 173 124
166 164 103
170 167 111
167 166 111
162 158 91
174 171 118
176 175 131
168 165 101
173 170 112
172 169 110
175 173 125
178 177 126
175 173 127
175 175 131
176 175 128
179 178 133
179 179 134
173 170 115
178 178 135
176 175 129
182 180 132
182 180 133
183 183 142
183 183 146
177 176 130
179 177 129
184 185 151
185 186 151
184 185 150
181 182 144
180 180 138
152 172 0
149 170 0
151 172 0
150 170 0
154 174 0
152 172 0
153 172 0
149 170 0
152 172 0
152 172 0
151 171 0
150 171 0
151 171 0
151 171 0
151 172 0
149 170 0
150 170 0
146 166 0
152 172 0
151 172 0
151 171 0
152 172 0
144 165 0
147 167 0
145 165 0
150 170 0
150 171 0
147 167 0
148 168 0
147 167 0
149 170 0
149 168 0
147 166 0
149 169 0
146 165 0
150 170 0
151 171 0
148 167 0
144 163 0
150 170 0
148 168 0
146 165 0
147 166 0
145 164 0
146 166 0
145 165 0
148 168 0
147 166 0
146 165 0
146 164 0
142 162 0
148 167 0
146 166 0
145 164 0
145 164 0
145 165 0
143 162 0
143 163 0
146 166 0
145 164 0
142 161 0
141 161 0
136 155 0
144 164 0
146 165 0
143 162 0
143 162 0
143 163 0
142 161 0
140 160 0
145 164 0
141 160 0
139 157 0
138 156 0
140 159 0
138 158 0
134 153 0
141 161 0
137 156 0
134 153 0
138 156 0
136 155 0
135 153 0
132 151 0
136 154 0
128 145 0
131 149 0
136 154 0
136 154 0
136 154 0
135 152 0
136 154 0
133 151 0
132 150 0
133 151 0
126 143 0
126 144 0
131 149 0
128 146 0
121 137 0
134 152 0
121 138 0
128 145 0
120 136 0
128 144 0
125 140 0
117 134 0
120 136 0
116 133 0
119 135 0
120 135 0
112 128 0
114 129 0
114 130 0
112 127 0
116 131 0
117 133 0
109 124 0
119 134 0
117 132 0
113 127 0
105 119 0
114 129 25
122 136 51
126 139 76
139 151 108
169 182 137
158 177 67
147 167 0
150 168 0
149 168 0
146 165 0
144 163 0
138 157 0
141 161 0
140 158 0
139 158 0
138 155 0
143 162 0
139 159 0
138 157 0
137 155 0
139 158 0
138 158 0
142 162 0
143 163 0
144 164 0
136 155 0
137 156 0
135 154 0
140 159 0
140 161 0
135 154 0
134 153 0
146 166 0
145 165 0
139 159 0
133 153 0
140 159 0
137 157 0
131 150 0
133 153 0
127 145 0
134 153 0
128 147 0
129 149 0
125 144 0
123 142 0
106 125 31
48 74 61
46 74 74
49 77 74
45 72 59
50 79 93
48 77 57
48 77 71
48 77 78
51 80 82
49 79 84
51 81 82
49 79 80
47 75 78
52 82 90
54 84 95
51 80 82
51 82 78
50 79 76
52 83 97
51 81 95
53 85 86
50 80 82
51 82 84
53 83 92
50 79 80
53 83 100
53 83 94
50 80 97
55 86 94
53 84 97
53 85 99
52 82 76
54 84 78
51 81 89
54 85 99
54 86 92
50 80 81
52 82 86
51 81 86
52 83 95
53 83 82
55 86 97
52 83 83
50 78 76
53 84 95
50 79 77
51 81 88
49 78 82
48 77 78
51 81 90
50 79 86
50 79 72
49 77 80
51 80 90
50 78 81
51 80 94
51 80 72
51 79 82
47 74 70
46 73 57
46 73 60
54 80 65
106 122 31
125 142 0
129 147 0
126 143 0
132 147 0
133 150 0
139 155 0
130 146 0
128 143 0
133 151 0
137 155 0
136 154 0
129 144 0
132 148 0
137 154 0
140 156 0
143 161 0
132 148 0
147 164 0
138 155 0
144 159 0
142 158 0
141 156 0
142 158 0
147 164 0
149 164 0
136 150 0
151 163 0
150 165 0
152 167 0
138 153 0
144 159 0
154 170 0
147 161 0
147 159 0
148 160 0
147 161 0
147 162 0
148 162 0
156 170 0
150 160 0
144 152 52
172 177 154
171 172 155
166 168 155
170 173 159
172 175 160
159 160 139
157 158 137
167 168 145
168 171 155
169 171 154
144 145 128
154 155 133
161 161 130
150 151 122
147 148 117
167 170 153
161 162 135
154 155 125
144 145 122
156 157 125
143 144 108
157 157 125
158 159 123
145 144 103
142 140 96
153 154 117
144 145 105
144 142 86
159 157 115
157 156 106
148 147 115
162 160 109
139 136 68
158 158 112
153 152 101
160 158 107
161 160 111
155 153 108
158 155 94
154 150 82
159 155 95
154 152 101
153 150 100
164 163 123
153 150 94
149 144 79
161 161 117
160 158 109
159 157 100
153 150 80
164 162 116
166 167 125
158 155 94
163 159 97
166 165 112
162 161 106
164 160 102
161 159 106
163 160 91
162 157 95
160 156 97
159 157 89
160 156 93
165 163 103
161 158 104
159 155 92
157 155 96
162 160 108
167 167 113
160 155 80
164 162 100
166 166 115
165 163 103
167 165 110
171 169 119
169 167 110
165 163 99
155 152 82
174 172 120
167 163 98
166 161 93
161 158 93
164 162 105
166 163 106
174 172 124
169 166 106
169 167 109
165 160 97
170 169 126
177 176 136
172 168 113
170 168 115
175 171 126
167 165 110
174 173 118
166 163 109
164 162 103
176 173 119
173 173 126
170 167 115
170 166 106
181 180 139
171 170 118
178 177 131
167 164 106
174 174 124
181 181 139
177 178 133
178 177 130
180 179 136
176 175 133
180 179 134
170 166 101
172 170 112
179 179 140
177 175 128
182 182 141
180 179 136
186 185 145
181 180 138
179 177 134
185 185 152
183 182 141
179 177 130
179 178 138
182 182 146
180 180 135
150 170 0
155 175 0
153 173 0
154 174 0
150 170 0
154 174 0
152 172 0
151 171 0
149 170 0
150 170 0
151 171 0
149 170 0
153 172 0
150 170 0
150 170 0
151 170 0
153 174 0
150 170 0
150 169 0
150 170 0
153 173 0
148 167 0
150 170 0
152 171 0
149 170 0
151 171 0
148 168 0
151 170 0
147 167 0
148 168 0
149 169 0
149 169 0
149 170 0
146 166 0
149 169 0
147 166 0
146 165 0
148 166 0
150 169 0
151 172 0
146 166 0
149 168 0
147 165 0
142 161 0
143 162 0
145 164 0
141 160 0
146 164 0
145 165 0
146 166 0
145 164 0
141 161 0
147 167 0
146 165 0
143 162 0
142 161 0
144 164 0
141 160 0
145 164 0
143 162 0
142 160 0
137 156 0
135 155 0
141 160 0
140 158 0
145 164 0
145 163 0
143 161 0
139 158 0
142 161 0
144 163 0
139 157 0
136 154 0
136 155 0
143 162 0
139 157 0
136 155 0
143 161 0
137 155 0
134 153 0
135 153 0
133 152 0
139 157 0
135 153 0
133 151 0
134 153 0
130 147 0
136 154 0
128 146 0
137 155 0
127 145 0
127 144 0
130 147 0
128 146 0
129 147 0
120 138 0
118 135 0
133 150 0
132 148 0
121 138 0
124 141 0
125 141 0
125 141 0
123 139 0
128 145 0
126 142 0
121 138 0
119 136 0
114 129 0
113 129 0
116 131 0
113 129 0
112 127 0
112 127 0
113 128 0
116 130 0
108 122 0
114 128 0
116 131 0
114 129 0
111 126 0
109 122 0
118 133 44
136 149 108
135 149 95
160 173 128
151 170 36
144 162 0
147 165 0
145 165 0
142 160 0
144 163 0
138 156 0
142 160 0
142 161 0
140 159 0
138 157 0
151 170 0
135 153 0
132 150 0
140 159 0
138 157 0
142 161 0
131 149 0
138 158 0
140 159 0
142 162 0
131 149 0
131 151 0
133 153 0
136 154 0
136 154 0
142 162 0
135 155 0
129 147 0
140 160 0
129 149 0
138 157 0
128 146 0
124 143 0
134 153 0
130 150 0
126 145 0
122 141 0
121 141 0
120 140 0
123 142 0
133 152 0
114 132 0
105 124 31
69 90 50
48 77 87
46 74 74
48 77 74
50 80 86
46 73 62
47 76 69
50 80 78
50 78 76
48 77 76
46 73 57
52 83 91
49 78 82
49 79 70
49 79 74
51 81 82
50 79 70
50 80 72
48 77 78
50 79 80
52 83 80
52 83 90
54 85 90
51 81 80
53 84 86
52 82 88
54 86 80
51 81 88
54 85 99
50 80 80
54 86 97
51 82 80
53 85 99
51 81 81
51 81 86
53 83 89
50 80 74
52 82 82
51 82 86
52 81 97
50 80 70
51 81 82
52 82 88
49 79 72
50 79 84
53 84 92
48 77 72
53 83 90
52 82 86
51 82 79
51 81 72
49 77 76
52 81 83
50 79 79
49 76 87
49 77 60
47 75 67
47 75 65
43 68 65
66 87 63
124 139 25
113 131 0
127 141 0
119 134 0
124 140 0
125 142 0
122 134 0
120 134 0
128 144 0
138 154 0
129 145 0
130 146 0
138 154 0
132 147 0
141 156 0
134 150 0
131 148 0
140 155 0
131 144 0
131 147 0
141 157 0
138 153 0
136 149 0
137 152 0
133 145 0
144 158 0
135 151 0
140 156 0
145 159 0
139 152 0
144 155 0
143 158 0
145 157 0
144 156 0
148 162 0
148 160 0
151 165 0
151 166 0
146 158 0
148 158 0
152 165 0
149 162 0
154 165 0
153 162 0
171 178 140
172 174 156
178 181 170
170 171 155
159 160 138
158 160 144
162 163 142
162 163 149
155 155 129
164 165 147
152 151 130
159 158 131
144 143 111
158 160 138
144 142 109
149 151 128
153 153 120
166 167 147
159 160 130
156 156 123
152 152 114
153 154 120
149 149 123
142 139 73
147 147 111
162 164 133
154 153 108
160 160 126
147 148 103
161 159 115
153 150 100
142 142 105
151 150 96
146 145 89
156 156 117
154 152 112
155 154 103
154 151 95
156 155 104
151 150 95
158 157 102
160 159 108
166 164 123
160 159 112
156 154 105
162 163 119
164 161 101
153 151 87
154 152 107
155 154 97
158 155 93
154 151 97
159 158 108
160 157 100
167 166 117
169 168 119
162 161 109
162 159 98
162 160 100
158 157 104
157 153 84
157 156 93
162 159 95
163 162 97
164 161 93
161 159 91
159 156 104
169 168 112
165 163 108
165 163 112
162 160 97
156 153 84
164 163 106
166 163 97
167 164 103
168 166 112
171 168 115
167 164 105
159 157 92
168 166 107
169 169 117
165 161 101
166 162 90
168 167 112
168 166 112
165 160 95
170 168 114
176 174 121
168 167 111
174 173 128
170 168 113
171 168 114
168 166 114
176 174 125
172 170 119
171 167 108
174 173 125
174 172 116
176 175 133
171 169 113
175 175 132
177 176 129
175 174 125
174 171 117
181 182 147
180 179 133
177 175 129
175 173 129
174 173 123
176 174 124
182 183 144
176 175 129
179 177 134
172 170 122
181 180 141
183 183 142
177 174 125
181 180 138
184 183 143
187 189 159
181 181 142
179 176 131
177 177 136
182 183 145
184 185 152
181 182 144
152 172 0
152 172 0
151 172 0
153 173 0
152 171 0
154 174 0
151 171 0
152 172 0
150 169 0
150 170 0
149 169 0
149 170 0
151 170 0
147 167 0
146 166 0
151 171 0
152 172 0
149 168 0
150 170 0
153 173 0
148 168 0
150 170 0
150 170 0
149 170 0
150 170 0
150 170 0
149 169 0
148 167 0
150 169 0
148 167 0
147 167 0
148 167 0
150 170 0
145 164 0
150 170 0
146 166 0
147 167 0
146 165 0
146 166 0
147 167 0
146 166 0
144 163 0
150 169 0
149 169 0
146 167 0
149 168 0
146 165 0
145 164 0
145 165 0
149 168 0
147 166 0
146 165 0
144 163 0
148 168 0
141 159 0
142 161 0
142 160 0
141 160 0
140 159 0
144 164 0
144 162 0
143 162 0
140 159 0
139 157 0
142 161 0
143 161 0
139 158 0
141 159 0
144 163 0
141 160 0
140 158 0
142 160 0
139 158 0
143 161 0
136 155 0
139 157 0
132 151 0
137 155 0
140 159 0
139 156 0
134 151 0
134 152 0
132 149 0
139 157 0
135 153 0
130 148 0
134 151 0
134 152 0
129 146 0
125 143 0
128 145 0
131 149 0
122 139 0
131 148 0
135 151 0
126 144 0
127 143 0
124 140 0
124 141 0
120 134 0
124 139 0
123 140 0
125 141 0
115 131 0
124 140 0
114 130 0
120 137 0
125 141 0
116 131 0
119 135 0
114 128 0
106 121 0
118 133 0
113 127 0
111 126 0
109 123 0
99 115 0
109 123 0
110 125 0
102 115 0
125 139 57
126 138 92
139 151 111
166 177 149
155 170 95
145 163 0
130 148 0
150 168 0
143 160 0
147 165 0
146 164 0
139 157 0
139 158 0
145 164 0
137 155 0
141 158 0
138 156 0
135 153 0
138 157 0
138 157 0
134 152 0
136 153 0
132 150 0
135 154 0
136 155 0
142 162 0
136 156 0
139 159 0
126 144 0
139 159 0
130 148 0
131 151 0
139 159 0
134 152 0
132 149 0
134 154 0
136 155 0
123 142 0
128 147 0
123 141 0
125 144 0
128 146 0
113 131 0
116 134 0
122 140 0
124 143 0
125 145 0
108 125 0
120 139 0
117 134 0
110 127 0
92 111 30
46 74 57
45 72 60
44 70 65
46 74 67
49 79 78
50 79 84
51 81 86
48 77 72
49 77 74
48 78 67
51 81 78
48 76 67
50 79 88
49 78 80
51 80 84
51 81 90
51 81 88
52 83 84
50 79 78
50 80 78
53 84 94
52 81 95
49 78 62
49 77 76
51 81 94
50 80 74
51 81 86
48 78 65
50 80 88
53 84 80
51 81 84
53 84 88
49 78 70
51 81 84
52 83 88
51 81 84
51 80 74
50 80 74
48 76 60
51 81 90
51 81 79
52 83 90
49 79 70
50 78 74
49 78 88
50 79 77
48 76 85
49 77 70
49 78 70
48 76 71
49 77 84
45 72 57
49 78 80
50 78 74
48 75 72
47 72 65
98 114 40
115 132 0
106 120 0
124 140 0
128 143 0
109 124 0
119 135 0
125 141 0
127 144 0
115 131 0
119 133 0
135 150 0
134 149 0
128 143 0
139 157 0
129 146 0
132 147 0
129 145 0
139 155 0
133 148 0
134 147 0
139 155 0
138 152 0
133 148 0
134 150 0
132 145 0
140 154 0
140 154 0
134 147 0
139 152 0
147 160 0
138 152 0
148 163 0
137 152 0
137 149 0
131 142 0
138 152 0
137 150 0
147 156 0
148 160 0
136 150 0
143 153 0
145 153 0
143 151 0
146 157 0
148 158 0
147 157 0
159 165 120
179 183 170
171 173 157
166 168 155
169 171 151
160 162 143
159 161 142
168 169 151
158 157 131
167 169 147
157 157 133
163 164 142
168 171 151
150 149 117
156 156 128
154 157 135
134 134 93
153 152 122
147 147 111
158 157 125
155 156 130
153 153 120
140 138 92
155 154 117
152 152 114
153 152 105
156 156 108
150 147 96
148 146 96
157 155 114
154 153 108
155 153 106
150 147 97
147 145 99
155 154 111
153 150 99
152 151 99
157 154 101
153 151 104
156 153 101
157 155 113
158 156 95
148 144 84
148 145 90
155 155 93
157 157 116
160 157 100
162 161 112
167 168 123
157 153 89
166 166 121
163 158 95
161 158 99
167 165 117
159 156 96
155 153 103
161 157 97
146 145 89
166 165 111
164 162 103
164 161 108
162 160 109
165 161 101
159 157 95
164 163 115
169 167 115
154 153 98
168 166 117
164 162 103
164 161 106
161 157 93
166 165 112
166 162 100
168 165 113
163 160 105
173 171 114
173 172 123
165 161 103
170 167 112
166 162 103
164 161 94
172 168 111
163 159 95
166 163 112
164 163 109
173 171 121
168 166 110
185 186 153
169 165 109
170 167 109
173 171 124
171 168 114
178 177 141
168 166 116
168 165 111
172 170 120
174 173 133
169 167 115
173 171 124
174 172 121
182 183 143
177 178 139
177 175 125
172 172 121
175 173 125
170 168 110
176 174 125
173 171 120
181 182 148
176 175 130
185 185 152
178 175 130
178 177 129
178 178 135
176 173 123
186 185 156
178 176 125
185 186 150
180 179 135
191 192 161
171 170 121
180 180 139
177 176 132
179 177 130
180 181 142
151 170 0
153 173 0
153 173 0
152 172 0
153 173 0
151 171 0
151 172 0
148 168 0
149 168 0
150 170 0
151 171 0
153 173 0
152 172 0
151 170 0
149 168 0
152 172 0
151 171 0
149 169 0
151 171 0
147 168 0
149 169 0
149 169 0
149 169 0
149 168 0
151 171 0
145 165 0
149 169 0
148 167 0
150 169 0
147 167 0
148 167 0
148 168 0
146 165 0
149 168 0
146 166 0
145 166 0
145 164 0
145 164 0
148 167 0
144 164 0
147 166 0
145 165 0
145 164 0
147 167 0
146 164 0
146 165 0
148 168 0
147 166 0
141 159 0
142 160 0
145 163 0
143 162 0
142 161 0
146 165 0
144 163 0
140 159 0
142 162 0
141 159 0
143 161 0
142 160 0
136 154 0
143 161 0
139 158 0
136 155 0
144 162 0
142 160 0
142 161 0
142 161 0
136 155 0
140 159 0
135 153 0
139 157 0
136 154 0
142 161 0
137 155 0
139 156 0
130 147 0
130 148 0
136 154 0
132 150 0
135 152 0
132 149 0
139 157 0
135 152 0
129 147 0
133 151 0
133 151 0
133 150 0
139 156 0
125 142 0
127 144 0
129 146 0
136 153 0
126 143 0
132 148 0
127 144 0
133 150 0
123 140 0
132 148 0
123 139 0
128 144 0
121 136 0
124 140 0
122 138 0
117 132 0
114 130 0
120 136 0
113 129 0
115 130 0
120 136 0
107 122 0
105 119 0
108 123 0
113 128 0
112 126 0
110 124 0
103 117 0
105 119 0
106 120 0
114 126 62
133 145 102
145 157 117
148 161 105
148 163 84
147 165 0
132 149 0
138 156 0
136 153 0
137 154 0
135 153 0
135 153 0
139 157 0
132 148 0
126 143 0
124 140 0
122 139 0
130 147 0
122 140 0
134 151 0
132 150 0
132 151 0
126 143 0
125 142 0
138 157 0
140 159 0
131 149 0
130 148 0
128 147 0
130 150 0
141 159 0
131 150 0
125 143 0
129 147 0
131 150 0
132 152 0
120 138 0
131 151 0
124 142 0
123 142 0
120 138 0
112 130 0
115 134 0
113 132 0
107 124 0
119 138 0
119 136 0
113 131 0
122 140 0
105 123 0
113 131 0
114 131 0
110 128 0
94 111 0
50 71 44
43 69 69
46 74 78
46 74 62
46 74 65
46 75 69
48 76 72
46 74 70
48 77 76
49 79 82
50 80 74
50 80 76
49 78 80
49 78 88
50 79 78
47 75 80
49 79 80
49 78 74
52 82 97
49 78 80
49 78 74
51 81 86
51 82 97
50 79 76
47 76 74
52 82 92
50 79 86
49 78 78
49 79 78
49 78 72
51 82 80
51 82 80
51 81 90
50 79 84
51 82 78
50 79 72
49 78 74
49 78 77
50 80 78
51 80 92
53 83 96
50 79 74
49 78 78
52 82 88
49 77 75
50 78 70
47 73 76
48 75 68
48 76 75
47 75 70
48 76 67
47 73 64
46 72 54
59 80 57
97 113 0
118 132 0
107 123 0
110 124 0
114 129 0
112 128 0
116 131 0
113 128 0
120 135 0
119 135 0
136 153 0
123 135 0
128 142 0
130 145 0
133 149 0
124 139 0
122 136 0
131 147 0
136 152 0
123 138 0
131 146 0
136 150 0
128 142 0
132 147 0
136 150 0
132 146 0
132 146 0
131 145 0
130 142 0
142 157 0
128 140 0
143 155 0
138 150 0
136 148 0
139 150 0
143 156 0
144 156 0
137 148 0
141 152 0
141 152 0
143 152 0
142 152 0
142 154 0
142 153 0
145 157 0
139 148 0
147 157 0
137 146 0
146 155 0
153 160 72
185 190 169
179 181 168
164 165 146
163 161 137
156 158 137
167 170 156
163 164 145
158 160 147
166 167 145
146 146 120
154 155 133
162 164 137
164 164 133
160 161 138
161 161 130
156 158 133
162 162 130
146 146 117
151 150 117
146 144 111
148 146 105
149 146 95
155 154 117
143 142 99
153 152 117
157 157 117
146 142 92
142 140 92
156 155 111
162 162 123
154 153 111
157 156 108
150 144 77
159 158 117
157 155 106
161 162 115
159 156 105
156 154 103
154 151 102
160 159 109
161 160 110
162 162 114
159 158 109
161 161 120
155 151 94
161 159 106
153 150 84
166 163 111
156 153 90
163 161 112
158 156 99
160 157 101
167 166 119
165 164 122
160 158 102
162 159 100
155 153 92
164 162 104
158 156 95
158 154 84
166 165 113
160 156 94
165 162 109
164 162 106
160 157 89
169 168 116
173 172 127
165 161 99
160 157 98
167 164 103
169 167 117
168 165 109
167 165 113
173 172 122
169 167 117
172 170 119
172 171 127
169 168 122
168 166 115
172 170 116
166 165 112
170 168 117
167 166 117
179 180 142
171 167 108
168 165 110
172 169 117
175 174 127
170 167 117
174 173 130
176 176 138
175 174 128
173 173 129
171 169 116
177 176 130
172 170 120
176 175 127
175 174 126
180 180 141
182 183 146
185 185 149
174 173 128
185 186 153
180 180 141
177 175 129
177 176 135
184 184 148
182 182 144
179 180 143
180 180 141
180 180 141
180 179 137
181 181 143
182 182 148
178 178 135
177 175 127
179 180 139
187 187 149
182 180 139
187 186 150
184 184 153
183 183 147
183 183 146
154 174 0
149 170 0
150 169 0
148 168 0
153 173 0
152 171 0
152 172 0
152 170 0
151 170 0
151 171 0
149 169 0
148 168 0
150 170 0
149 167 0
150 169 0
147 167 0
150 170 0
150 170 0
150 169 0
148 168 0
148 168 0
151 171 0
149 169 0
146 166 0
149 168 0
150 170 0
146 165 0
148 168 0
148 166 0
148 166 0
146 166 0
147 166 0
145 165 0
145 164 0
146 165 0
145 164 0
143 162 0
149 168 0
143 162 0
146 165 0
143 161 0
146 165 0
144 163 0
144 163 0
143 161 0
142 162 0
141 159 0
150 169 0
145 164 0
145 164 0
142 161 0
144 163 0
143 161 0
143 163 0
145 163 0
141 160 0
147 166 0
145 163 0
137 154 0
141 159 0
141 160 0
141 159 0
145 163 0
144 163 0
137 156 0
138 157 0
137 155 0
140 159 0
137 155 0
135 152 0
144 162 0
142 161 0
136 154 0
133 151 0
139 156 0
143 160 0
140 158 0
136 153 0
136 153 0
139 157 0
137 155 0
135 152 0
138 156 0
130 148 0
129 147 0
133 150 0
131 149 0
128 145 0
136 153 0
126 143 0
133 150 0
125 143 0
129 146 0
131 147 0
127 144 0
116 132 0
124 141 0
125 142 0
123 139 0
113 128 0
120 136 0
123 138 0
123 139 0
119 134 0
129 145 0
128 144 0
115 130 0
125 141 0
120 135 0
107 122 0
116 131 0
118 133 0
122 137 0
109 123 0
110 124 0
110 124 0
101 116 0
119 132 36
121 134 62
141 152 114
156 167 142
151 165 105
143 159 25
132 148 0
134 150 0
135 153 0
136 152 0
142 160 0
135 151 0
131 148 0
130 147 0
129 147 0
131 149 0
128 145 0
142 160 0
136 153 0
125 143 0
143 162 0
132 149 0
131 150 0
127 146 0
128 147 0
124 142 0
134 152 0
132 150 0
123 142 0
130 148 0
128 147 0
127 146 0
117 135 0
135 153 0
128 146 0
136 155 0
122 139 0
127 145 0
117 134 0
129 148 0
108 127 0
117 136 0
118 137 0
114 132 0
117 134 0
127 144 0
114 132 0
126 144 0
119 137 0
115 133 0
109 125 0
96 113 0
104 121 0
111 127 0
96 112 0
102 118 0
103 118 0
84 101 47
56 78 56
49 78 78
47 75 67
46 74 51
48 77 67
48 77 82
47 76 82
50 79 76
50 78 90
49 78 76
46 74 72
52 82 91
51 81 80
49 79 78
50 79 82
50 80 78
52 82 74
48 76 69
48 77 72
53 84 95
51 80 97
49 78 62
49 78 67
50 79 78
51 81 70
52 83 95
47 75 80
50 79 84
47 75 78
51 80 78
50 79 74
49 78 86
53 83 94
50 80 80
48 77 72
51 80 87
48 77 72
47 75 72
49 78 74
48 76 72
48 77 74
49 78 72
50 79 82
45 72 65
49 78 60
47 74 74
47 73 70
44 71 51
43 69 67
49 71 41
91 105 31
101 116 0
107 118 0
110 125 0
122 134 0
104 119 0
120 139 0
113 127 0
116 132 0
117 133 0
113 128 0
115 129 0
123 140 0
126 141 0
120 134 0
116 130 0
112 126 0
127 143 0
129 143 0
127 142 0
124 140 0
121 135 0
117 131 0
128 141 0
129 141 0
130 145 0
139 155 0
129 145 0
134 147 0
132 148 0
134 146 0
129 146 0
137 150 0
126 139 0
135 151 0
137 150 0
130 142 0
139 153 0
134 146 0
136 150 0
138 151 0
139 148 0
144 156 0
136 148 0
138 145 0
133 142 0
144 155 0
139 147 0
134 142 0
135 141 0
143 150 0
145 150 0
146 155 36
157 159 104
169 170 158
170 171 152
168 170 157
170 174 164
169 172 156
163 164 145
164 165 145
160 161 138
162 162 138
163 164 147
156 156 125
170 171 147
151 152 122
163 162 133
152 152 122
157 156 122
153 151 108
149 149 120
162 163 142
154 153 111
152 151 120
158 157 120
156 156 128
159 159 125
150 148 99
158 157 114
151 151 111
148 146 84
157 155 111
162 161 131
151 149 102
155 154 106
153 152 114
153 151 96
158 157 109
158 158 108
168 167 128
155 151 85
156 155 109
153 152 96
154 150 87
159 157 102
156 153 94
160 159 114
150 148 94
155 153 101
157 153 91
165 163 109
160 158 97
164 162 116
164 162 111
169 166 119
161 158 91
161 159 97
168 168 124
158 156 99
157 154 101
173 172 130
160 158 106
170 167 116
167 165 112
159 157 109
160 158 95
160 159 110
168 167 122
163 158 94
167 166 118
165 161 96
166 164 114
166 163 107
164 162 109
161 158 103
167 164 112
168 165 108
170 167 118
171 170 122
179 179 139
168 165 116
169 167 108
166 165 106
171 171 126
173 171 118
172 170 116
165 163 106
172 170 121
180 179 135
167 163 103
171 170 120
181 181 147
174 173 132
173 171 127
176 173 123
176 175 129
175 174 121
170 168 118
178 177 134
166 163 108
183 182 149
175 173 124
175 175 131
181 180 142
178 175 127
172 169 113
173 171 118
170 169 121
175 174 125
180 178 137
183 184 151
182 181 146
173 171 125
186 186 152
179 178 133
179 177 135
179 178 134
182 180 139
177 176 134
183 183 147
185 186 153
177 177 137
181 182 145
185 186 151
152 171 0
151 171 0
151 171 0
151 170 0
151 171 0
152 171 0
149 168 0
150 170 0
151 171 0
150 170 0
150 169 0
148 168 0
150 170 0
152 171 0
150 170 0
149 168 0
149 169 0
151 170 0
152 171 0
149 169 0
149 168 0
144 163 0
150 169 0
150 169 0
149 168 0
145 164 0
150 168 0
149 169 0
147 167 0
149 168 0
150 169 0
149 167 0
144 163 0
147 166 0
146 164 0
147 166 0
147 166 0
148 167 0
139 157 0
146 165 0
149 169 0
143 163 0
145 165 0
146 165 0
145 165 0
149 168 0
145 164 0
141 160 0
137 156 0
137 156 0
146 165 0
144 162 0
142 160 0
142 160 0
145 163 0
145 163 0
139 157 0
140 158 0
147 165 0
140 158 0
140 158 0
140 159 0
143 161 0
140 160 0
140 158 0
135 153 0
138 156 0
139 157 0
140 159 0
138 155 0
139 158 0
138 156 0
136 153 0
137 156 0
137 153 0
133 150 0
135 152 0
135 152 0
132 149 0
135 153 0
131 148 0
129 147 0
130 148 0
125 142 0
132 149 0
129 147 0
130 146 0
128 146 0
127 144 0
121 137 0
130 146 0
125 140 0
131 147 0
133 149 0
131 147 0
123 139 0
128 144 0
123 139 0
121 136 0
122 139 0
124 140 0
119 135 0
119 135 0
100 115 0
115 130 0
119 134 0
118 133 0
107 122 0
113 127 0
117 132 0
109 123 0
112 126 0
119 134 0
110 123 0
109 122 25
112 124 51
121 132 80
125 137 76
145 157 114
159 171 135
158 173 88
129 146 0
130 146 0
125 141 0
130 146 0
136 152 0
133 150 0
135 151 0
132 149 0
123 139 0
124 140 0
136 153 0
134 151 0
128 144 0
118 135 0
134 152 0
124 142 0
134 151 0
130 147 0
132 149 0
125 143 0
119 136 0
121 139 0
122 141 0
126 144 0
134 151 0
126 144 0
125 143 0
123 140 0
126 144 0
122 140 0
138 157 0
119 137 0
128 145 0
127 145 0
121 140 0
127 146 0
128 147 0
106 123 0
128 146 0
122 139 0
108 126 0
115 134 0
109 126 0
111 128 0
110 127 0
106 123 0
95 112 0
101 118 0
108 125 0
99 115 0
98 114 0
105 121 0
103 119 0
86 101 0
98 113 0
77 95 39
52 75 51
45 72 57
44 71 67
48 76 71
45 72 65
46 74 69
49 77 78
48 76 76
46 73 71
48 77 74
46 73 54
48 76 78
47 76 80
49 78 86
48 77 71
51 81 88
50 80 84
46 74 62
50 79 84
46 75 67
49 77 76
50 79 82
45 72 44
48 77 67
49 78 84
51 81 82
49 79 70
48 76 67
49 79 76
48 77 72
48 77 80
50 80 83
48 77 76
50 80 76
48 77 74
45 72 67
50 79 86
46 73 54
48 77 81
44 69 74
48 76 80
45 71 67
45 71 61
42 66 54
44 69 51
61 81 44
68 84 31
93 105 0
88 99 0
103 117 0
99 111 0
105 114 0
121 137 0
106 122 0
103 115 0
122 138 0
111 126 0
107 119 0
116 128 0
125 139 0
122 137 0
116 130 0
112 127 0
132 145 0
126 138 0
124 141 0
119 134 0
117 132 0
138 153 0
122 138 0
126 140 0
133 148 0
135 151 0
126 140 0
132 145 0
130 143 0
131 144 0
142 158 0
143 154 0
137 150 0
128 140 0
132 144 0
133 142 0
124 137 0
134 147 0
133 143 0
131 143 0
134 142 0
135 145 0
140 150 0
140 151 0
124 135 0
138 148 0
137 144 0
137 147 0
133 141 0
136 143 0
146 155 0
140 148 0
140 147 0
138 145 0
136 144 0
144 151 81
167 170 142
174 177 168
167 168 154
168 168 154
172 174 160
172 173 157
162 162 144
168 170 151
162 164 137
162 162 142
162 162 140
164 166 144
163 164 142
157 158 128
164 164 140
165 165 140
162 162 133
148 147 111
157 156 125
163 163 133
144 143 109
159 159 130
148 147 102
150 145 99
145 143 105
159 158 120
153 152 109
159 160 128
155 153 109
158 157 114
166 166 130
166 165 120
162 160 109
154 153 109
164 163 117
159 157 111
157 156 108
162 160 112
163 161 113
153 149 97
154 152 85
164 162 118
162 160 110
158 155 99
166 165 125
158 155 97
167 166 115
154 152 93
166 163 106
162 158 105
154 153 96
162 159 106
158 154 95
163 161 110
160 158 112
162 160 105
164 164 109
164 161 100
164 161 97
165 163 106
163 161 108
160 156 99
162 160 107
164 162 110
159 157 106
160 156 90
169 168 127
165 163 103
163 161 103
164 163 105
169 166 108
168 166 118
168 166 115
162 159 104
166 165 110
171 169 123
170 167 108
171 169 121
173 172 129
170 168 125
178 180 144
174 173 131
175 174 133
170 168 116
173 172 123
174 173 128
166 163 99
175 174 129
169 166 116
178 177 131
166 163 106
177 175 133
184 184 148
172 171 122
185 184 145
175 174 128
177 176 130
174 170 121
176 174 133
178 176 134
182 181 145
180 179 138
176 174 131
176 174 130
178 178 135
174 172 121
177 175 126
176 175 126
174 174 126
184 185 151
182 182 146
182 180 143
182 182 143
182 182 151
184 184 146
191 192 163
176 175 129
183 182 142
180 180 138
186 186 154
150 170 0
150 170 0
152 172 0
151 170 0
151 172 0
151 171 0
150 170 0
151 171 0
150 170 0
150 170 0
150 170 0
146 166 0
152 172 0
148 168 0
150 169 0
150 169 0
148 168 0
149 168 0
148 167 0
148 167 0
146 166 0
148 167 0
151 171 0
148 168 0
147 167 0
150 169 0
148 168 0
148 167 0
147 166 0
149 168 0
147 166 0
151 171 0
149 169 0
149 168 0
143 162 0
143 162 0
147 166 0
145 164 0
143 161 0
150 169 0
145 164 0
143 162 0
150 169 0
139 158 0
146 164 0
143 162 0
142 160 0
144 163 0
146 165 0
141 159 0
142 161 0
147 165 0
142 160 0
144 163 0
141 159 0
142 159 0
136 154 0
145 163 0
141 159 0
144 162 0
139 157 0
141 160 0
141 158 0
136 154 0
138 156 0
137 155 0
138 156 0
139 157 0
133 150 0
141 159 0
141 158 0
139 156 0
134 151 0
140 158 0
140 158 0
139 157 0
133 151 0
138 155 0
133 150 0
135 153 0
121 139 0
131 147 0
128 144 0
133 149 0
128 144 0
128 144 0
126 143 0
130 146 0
134 150 0
129 145 0
127 144 0
130 146 0
123 140 0
125 141 0
126 142 0
127 143 0
117 133 0
112 127 0
119 135 0
113 129 0
121 137 0
119 134 0
111 126 0
115 130 0
115 131 0
110 125 0
117 131 0
116 130 0
112 126 0
100 112 0
110 125 0
102 116 0
109 122 0
115 129 36
110 123 44
117 129 67
146 157 117
161 172 144
150 163 111
131 146 0
132 147 0
119 135 0
129 144 0
127 142 0
128 144 0
127 143 0
131 147 0
126 142 0
129 146 0
126 143 0
134 150 0
129 146 0
129 145 0
133 149 0
126 143 0
126 143 0
127 145 0
126 143 0
130 148 0
118 135 0
137 155 0
120 138 0
121 138 0
121 138 0
128 146 0
129 147 0
134 152 0
126 143 0
129 147 0
117 135 0
112 130 0
122 140 0
128 145 0
127 145 0
129 147 0
122 140 0
123 142 0
122 141 0
118 136 0
110 128 0
105 122 0
108 125 0
107 125 0
108 125 0
119 136 0
108 125 0
103 119 0
98 114 0
107 124 0
106 122 0
98 113 0
96 112 0
102 118 0
104 120 0
102 118 0
109 124 0
83 97 0
87 102 0
72 87 31
54 76 50
43 68 51
45 72 54
43 69 54
47 75 62
47 76 72
46 74 70
49 78 86
49 78 70
49 78 84
49 79 82
47 76 80
48 77 76
50 79 70
49 78 82
48 77 62
47 75 70
48 77 78
50 79 82
48 77 67
49 77 82
47 75 72
46 73 74
46 73 70
51 81 88
46 73 67
46 74 62
47 75 62
46 74 67
49 78 60
44 71 60
49 79 80
48 77 68
47 75 84
48 77 65
46 73 67
47 74 67
47 75 62
45 71 60
42 67 57
41 65 60
46 68 54
76 90 36
87 97 0
85 95 0
89 101 0
101 112 0
96 110 0
92 106 0
102 114 0
104 117 0
106 118 0
109 124 0
106 120 0
100 114 0
117 132 0
116 131 0
120 133 0
108 123 0
116 130 0
111 124 0
110 124 0
111 125 0
116 130 0
112 125 0
116 130 0
123 136 0
124 137 0
127 142 0
131 144 0
123 134 0
132 146 0
136 151 0
114 125 0
136 149 0
118 129 0
130 142 0
126 139 0
127 138 0
131 143 0
121 135 0
118 129 0
136 147 0
126 137 0
133 146 0
134 145 0
135 146 0
143 153 0
135 147 0
132 144 0
129 143 0
134 147 0
131 138 0
138 147 0
145 152 0
134 140 0
138 146 0
137 146 0
139 146 0
144 152 0
136 142 0
129 132 0
149 150 105
181 183 174
185 188 176
174 175 158
163 165 149
159 160 141
170 170 145
160 160 140
163 163 138
167 168 149
158 158 131
167 169 149
160 159 130
169 170 151
153 152 120
157 156 125
170 171 142
161 163 137
152 150 114
146 146 108
158 158 125
150 149 117
163 162 128
168 169 145
147 143 92
168 169 142
162 162 130
145 142 89
157 156 117
158 156 108
167 165 122
164 165 130
162 161 128
157 155 111
151 150 102
164 164 130
154 154 108
168 167 128
164 162 111
155 152 99
162 159 103
163 161 112
157 154 99
162 161 113
165 165 117
169 168 125
159 158 100
167 165 114
161 157 106
156 154 99
156 152 90
165 163 116
159 156 104
164 163 122
168 167 120
164 161 110
167 164 111
169 168 122
159 156 98
161 159 102
162 160 106
169 168 122
160 157 102
170 169 120
163 161 104
167 166 115
165 163 118
165 161 107
168 167 118
170 168 126
168 166 115
170 168 114
166 164 118
160 157 95
162 159 102
173 172 124
170 167 112
163 159 95
169 167 116
171 170 129
174 171 120
174 174 130
170 167 112
169 167 112
176 176 136
177 176 134
168 164 101
172 170 121
171 171 123
176 176 140
172 171 123
172 172 132
177 176 130
177 174 124
175 174 130
178 178 138
181 180 138
174 173 130
178 176 133
174 172 118
180 178 134
179 178 140
180 181 145
180 179 139
180 179 138
181 179 135
184 183 146
182 182 144
175 174 128
180 179 141
183 183 144
184 184 146
186 186 155
183 184 151
182 182 144
184 185 147
182 182 145
176 174 131
189 190 162
150 170 0
150 171 0
153 172 0
151 171 0
152 171 0
152 171 0
151 171 0
150 170 0
151 170 0
150 170 0
150 170 0
146 166 0
148 168 0
146 165 0
149 168 0
147 166 0
150 169 0
148 167 0
150 169 0
147 167 0
149 167 0
149 168 0
145 164 0
151 170 0
147 167 0
143 162 0
148 167 0
150 170 0
150 170 0
148 167 0
149 168 0
152 170 0
148 168 0
145 163 0
147 165 0
147 166 0
148 167 0
144 163 0
149 167 0
144 163 0
143 161 0
148 166 0
145 164 0
148 168 0
147 165 0
145 164 0
145 163 0
144 163 0
146 165 0
145 164 0
145 164 0
146 166 0
148 167 0
144 162 0
144 163 0
139 156 0
141 159 0
138 155 0
142 161 0
144 163 0
137 155 0
142 160 0
136 154 0
138 157 0
143 161 0
134 152 0
135 152 0
135 153 0
134 152 0
138 155 0
130 148 0
140 157 0
138 155 0
136 154 0
131 147 0
135 152 0
132 149 0
134 151 0
135 151 0
132 150 0
137 154 0
126 143 0
130 148 0
143 161 0
131 147 0
128 144 0
132 148 0
137 154 0
130 146 0
133 149 0
127 145 0
126 142 0
128 143 0
127 143 0
126 142 0
125 141 0
124 139 0
122 138 0
122 137 0
120 134 0
122 136 0
111 124 0
114 129 0
116 131 0
111 125 0
110 125 0
116 129 0
114 128 0
117 132 0
112 125 0
98 112 0
112 125 0
115 127 51
125 137 76
132 143 95
151 162 130
146 156 125
126 139 57
132 146 0
128 142 0
119 134 0
117 132 0
130 146 0
124 139 0
121 137 0
125 140 0
120 136 0
131 147 0
123 139 0
132 148 0
128 145 0
118 134 0
120 136 0
118 135 0
127 144 0
122 137 0
131 147 0
122 139 0
117 133 0
124 141 0
117 135 0
136 153 0
132 149 0
118 135 0
137 155 0
121 139 0
125 142 0
119 135 0
122 140 0
122 140 0
121 140 0
134 152 0
123 141 0
126 144 0
114 131 0
119 137 0
115 132 0
110 127 0
126 144 0
112 129 0
112 129 0
111 128 0
125 143 0
105 123 0
115 132 0
112 129 0
103 119 0
111 127 0
95 111 0
84 100 0
92 109 0
96 111 0
92 107 0
89 105 0
86 102 0
89 103 0
88 101 0
69 82 0
87 101 0
78 90 0
64 78 31
46 64 44
45 70 44
43 69 56
46 74 60
44 71 64
45 72 62
46 74 47
47 75 72
48 76 74
47 74 72
45 73 60
48 77 80
49 77 78
48 77 67
48 76 76
46 73 60
45 73 74
46 74 70
46 74 76
46 73 76
50 80 84
47 75 70
48 75 72
47 74 74
48 77 82
44 71 72
46 73 65
47 74 62
49 77 72
45 72 67
45 71 65
49 77 76
42 67 57
46 74 67
46 72 74
43 68 67
48 72 57
60 76 31
78 91 36
69 79 0
86 98 0
88 100 0
101 111 0
89 102 0
93 105 0
96 107 0
97 108 0
106 120 0
103 116 0
105 118 0
100 113 0
116 130 0
115 129 0
98 111 0
104 116 0
106 121 0
118 131 0
121 136 0
113 128 0
119 132 0
119 132 0
130 144 0
118 131 0
127 138 0
123 135 0
134 150 0
121 135 0
123 136 0
129 144 0
130 143 0
118 130 0
129 143 0
130 143 0
129 143 0
133 148 0
121 134 0
133 146 0
129 144 0
127 137 0
133 145 0
132 144 0
121 133 0
131 141 0
131 144 0
133 145 0
135 145 0
125 138 0
136 147 0
137 149 0
136 142 0
140 149 0
134 142 0
141 149 0
130 135 0
136 142 0
134 138 0
131 134 0
135 141 0
138 142 0
132 140 0
131 137 0
146 151 80
166 170 135
165 164 149
177 180 169
164 163 140
165 164 137
155 156 138
152 152 125
170 170 153
167 166 140
161 160 135
166 167 147
155 155 122
152 150 114
151 149 111
156 156 130
150 148 114
164 163 122
158 156 122
158 157 130
155 155 122
154 151 117
159 159 125
156 153 114
147 144 102
154 155 117
170 170 147
162 160 120
157 157 120
162 159 111
159 159 122
159 159 117
173 173 140
152 150 92
152 148 95
156 152 92
155 153 103
155 153 106
166 166 131
157 155 105
165 165 125
170 170 133
164 162 109
165 165 129
166 165 120
162 159 106
163 162 105
167 164 119
162 159 110
165 164 128
164 163 113
165 165 120
169 169 130
168 167 121
165 164 112
170 170 126
168 168 125
157 153 91
162 161 104
160 157 103
159 157 98
170 169 126
172 169 126
171 170 131
173 172 131
174 174 135
166 164 108
177 176 137
164 162 115
167 164 111
179 179 145
166 165 120
172 170 131
171 169 120
166 164 113
171 170 121
174 174 130
176 175 138
175 174 127
164 161 99
171 170 119
181 180 146
182 182 141
169 167 120
177 175 134
172 169 111
174 172 125
172 170 116
174 172 123
170 168 126
174 171 122
170 167 114
177 177 137
176 174 129
173 170 118
182 181 143
184 185 149
180 180 145
178 177 136
178 178 142
185 185 151
180 180 141
178 178 138
187 188 156
162 157 95
181 180 138
183 183 149
182 181 146
180 181 144
186 185 153
184 185 152
184 186 155
184 184 146
186 187 156
188 191 165
184 182 144
183 185 151
185 185 151
152 172 0
152 172 0
150 169 0
150 169 0
151 171 0
151 171 0
149 169 0
152 171 0
151 171 0
151 170 0
150 170 0
150 169 0
147 166 0
148 168 0
151 170 0
149 167 0
148 167 0
149 169 0
149 169 0
149 168 0
144 163 0
147 166 0
151 170 0
148 167 0
148 167 0
145 163 0
144 162 0
146 165 0
148 167 0
145 164 0
149 167 0
145 164 0
144 162 0
145 164 0
144 162 0
145 164 0
146 165 0
145 163 0
146 165 0
146 165 0
143 161 0
145 163 0
144 162 0
142 161 0
145 163 0
145 163 0
146 164 0
142 159 0
148 167 0
144 163 0
144 162 0
142 160 0
141 159 0
137 155 0
136 155 0
135 153 0
142 161 0
139 156 0
144 162 0
144 162 0
138 156 0
143 161 0
140 157 0
137 154 0
133 150 0
141 159 0
138 155 0
130 146 0
138 156 0
135 152 0
133 150 0
136 153 0
133 150 0
133 150 0
142 159 0
131 147 0
126 143 0
136 153 0
135 152 0
125 141 0
135 152 0
133 149 0
132 149 0
131 148 0
129 146 0
130 146 0
134 150 0
127 144 0
123 140 0
130 144 0
131 146 0
122 138 0
125 142 0
126 142 0
126 141 0
124 140 0
124 139 0
118 132 0
123 138 0
118 132 0
119 133 0
126 141 0
121 136 0
114 128 0
108 122 0
116 130 0
105 118 0
102 116 0
108 122 0
110 123 25
115 126 67
143 155 105
137 149 102
155 165 142
153 162 137
141 153 102
121 134 0
120 134 0
113 127 0
126 140 0
122 137 0
123 139 0
118 133 0
121 136 0
118 133 0
127 144 0
114 128 0
127 143 0
118 133 0
122 138 0
121 137 0
119 135 0
119 134 0
134 151 0
119 136 0
128 144 0
122 138 0
118 134 0
124 142 0
123 140 0
129 147 0
125 143 0
109 126 0
122 139 0
117 135 0
130 148 0
128 146 0
127 145 0
114 131 0
123 141 0
123 140 0
123 141 0
119 135 0
111 128 0
115 132 0
111 128 0
118 135 0
113 130 0
111 128 0
113 131 0
124 141 0
121 139 0
121 138 0
100 118 0
116 132 0
107 124 0
95 111 0
100 116 0
109 125 0
100 116 0
94 109 0
109 125 0
106 122 0
101 116 0
89 104 0
94 109 0
80 92 0
75 89 0
93 107 0
75 87 0
85 97 0
60 73 0
73 85 18
64 81 43
48 67 47
40 65 72
45 72 51
41 67 47
38 61 56
43 69 67
41 66 65
44 71 65
49 77 70
45 72 67
46 73 65
44 71 60
43 68 62
48 76 78
45 72 72
45 72 74
45 71 65
43 68 65
47 74 76
46 73 65
44 71 57
47 75 70
41 66 57
44 70 72
47 74 76
42 67 62
44 70 60
44 71 51
40 63 60
42 67 60
42 66 57
54 73 44
66 77 31
78 86 0
65 75 0
86 96 0
73 84 0
77 86 0
93 104 0
98 109 0
83 93 0
96 107 0
92 104 0
98 110 0
107 120 0
106 118 0
102 116 0
115 127 0
114 126 0
106 117 0
114 128 0
100 114 0
114 127 0
119 132 0
125 137 0
119 136 0
129 144 0
111 125 0
122 135 0
121 134 0
113 125 0
129 143 0
123 136 0
119 132 0
128 143 0
117 132 0
133 147 0
129 142 0
126 139 0
129 143 0
122 133 0
129 144 0
136 149 0
130 143 0
130 142 0
124 137 0
129 142 0
129 139 0
134 145 0
133 147 0
125 133 0
133 146 0
132 142 0
131 140 0
137 146 0
132 140 0
135 146 0
131 140 0
133 140 0
134 142 0
129 132 0
132 137 0
140 147 0
137 143 0
131 135 0
131 137 0
138 140 0
134 137 0
131 136 0
128 131 0
142 143 89
166 168 148
172 173 156
171 172 154
167 169 160
174 175 158
171 172 157
170 172 156
162 162 144
163 164 137
155 154 125
169 168 147
160 160 137
164 164 142
168 169 144
157 157 133
164 164 135
163 163 142
166 166 133
158 157 125
169 168 135
150 148 102
167 166 133
171 172 142
165 165 135
162 161 122
160 158 120
161 160 122
165 165 137
160 158 111
170 170 142
162 161 128
165 164 122
160 157 114
171 172 140
163 161 112
170 169 135
158 156 114
154 152 109
159 155 95
162 160 108
163 164 133
166 164 121
161 159 115
159 157 105
167 167 125
161 159 104
158 157 115
171 169 129
163 163 123
171 171 126
164 161 116
165 163 108
168 166 118
165 164 115
168 166 123
164 162 103
169 168 124
171 170 125
176 176 135
173 173 125
175 174 139
163 161 110
166 165 119
172 171 126
169 167 117
161 158 97
167 163 107
175 175 135
172 170 129
167 165 114
172 170 128
166 162 110
173 172 130
176 175 138
178 177 138
171 169 120
171 167 111
171 169 117
174 172 136
167 165 115
177 177 141
175 173 129
172 171 122
175 173 131
181 182 150
172 170 116
180 178 136
180 180 144
176 176 134
170 168 127
172 172 124
173 171 124
176 175 130
178 178 137
177 176 135
178 177 135
185 184 150
180 180 146
179 178 134
178 178 136
182 182 149
174 173 132
174 172 123
179 180 142
182 182 142
184 184 148
182 183 144
182 182 147
182 183 144
188 188 159
180 180 140
185 186 156
184 184 145
184 184 150
188 188 161
150 168 0
149 170 0
150 170 0
150 170 0
148 169 0
154 173 0
152 172 0
149 169 0
152 172 0
149 168 0
151 171 0
150 169 0
151 170 0
148 167 0
152 172 0
148 167 0
147 167 0
148 167 0
148 166 0
149 167 0
145 164 0
149 167 0
147 166 0
148 167 0
145 164 0
148 166 0
147 166 0
148 166 0
148 166 0
148 167 0
146 164 0
147 166 0
142 160 0
144 164 0
140 158 0
146 165 0
149 167 0
143 161 0
145 165 0
147 165 0
143 162 0
148 167 0
146 164 0
145 164 0
140 157 0
147 166 0
141 159 0
144 163 0
147 165 0
144 162 0
137 154 0
144 161 0
142 159 0
146 165 0
143 161 0
139 156 0
139 157 0
138 155 0
140 157 0
139 158 0
143 161 0
139 156 0
140 157 0
142 159 0
136 153 0
141 159 0
138 155 0
137 154 0
134 152 0
137 154 0
135 152 0
130 146 0
137 154 0
135 152 0
128 145 0
135 152 0
133 150 0
129 146 0
136 153 0
134 152 0
133 149 0
132 148 0
134 151 0
124 139 0
130 146 0
131 148 0
127 143 0
121 137 0
131 145 0
123 138 0
124 139 0
117 132 0
129 144 0
127 142 0
121 136 0
119 134 0
116 130 0
125 140 0
117 132 0
122 136 0
107 121 0
108 122 0
125 139 0
116 130 0
117 130 0
105 119 0
106 118 0
114 127 0
123 136 62
122 134 84
138 149 114
140 150 111
158 168 140
146 158 105
117 130 0
121 134 0
120 133 0
116 129 0
121 136 0
116 131 0
111 126 0
114 128 0
125 139 0
111 125 0
124 140 0
118 133 0
124 140 0
125 140 0
119 135 0
120 136 0
121 137 0
128 145 0
117 134 0
120 136 0
127 144 0
125 141 0
117 135 0
132 150 0
127 144 0
126 143 0
131 149 0
117 134 0
130 148 0
123 140 0
123 140 0
127 145 0
122 138 0
127 145 0
123 141 0
127 146 0
116 134 0
115 132 0
124 142 0
114 132 0
121 138 0
117 135 0
119 137 0
124 142 0
114 130 0
116 133 0
113 130 0
106 122 0
111 127 0
118 135 0
120 137 0
100 116 0
89 105 0
102 120 0
102 118 0
92 109 0
100 116 0
95 111 0
100 115 0
105 118 0
85 98 0
81 95 0
98 112 0
89 104 0
80 94 0
82 97 0
84 98 0
71 83 0
75 87 0
64 75 0
49 60 0
56 67 0
52 66 0
49 65 31
45 65 44
38 61 44
43 69 67
37 60 36
40 65 57
42 67 54
45 72 70
43 69 70
41 66 65
42 67 57
44 71 70
44 71 51
42 67 62
40 65 65
41 66 44
44 69 72
41 67 65
44 71 54
42 67 60
39 62 54
40 65 51
40 64 44
44 68 40
42 63 40
54 67 36
62 73 44
75 82 0
81 91 0
69 78 0
65 74 0
77 87 0
88 97 0
86 97 0
87 99 0
78 90 0
84 97 0
89 102 0
86 98 0
97 111 0
92 103 0
90 104 0
98 113 0
97 108 0
106 120 0
97 110 0
111 123 0
127 143 0
117 131 0
116 130 0
126 141 0
107 120 0
120 135 0
105 118 0
125 139 0
116 132 0
110 125 0
108 123 0
117 128 0
123 136 0
115 128 0
129 145 0
124 138 0
129 144 0
128 141 0
133 147 0
129 143 0
125 138 0
129 143 0
128 141 0
126 138 0
125 138 0
132 144 0
133 143 0
120 129 0
137 150 0
129 140 0
133 145 0
129 140 0
124 131 0
131 142 0
132 138 0
141 154 0
126 134 0
134 141 0
134 141 0
129 138 0
132 140 0
138 143 0
124 129 0
120 127 0
125 131 0
126 128 0
131 132 0
129 132 0
135 140 0
132 136 0
124 125 0
129 130 25
162 163 133
171 172 154
180 183 173
168 169 156
174 174 159
162 163 142
170 170 149
160 160 137
165 165 142
179 180 163
170 170 153
169 169 147
167 165 137
168 167 142
161 159 130
161 159 133
163 163 135
164 163 133
171 172 144
165 164 137
168 169 147
165 164 133
159 158 128
163 163 135
168 166 130
162 158 120
164 163 125
161 158 111
159 158 117
166 164 128
153 151 99
153 151 108
166 164 125
162 160 122
161 159 120
158 157 117
155 153 102
164 163 126
162 159 117
165 163 131
161 159 111
170 171 140
164 161 117
159 157 102
164 164 120
172 171 138
162 161 115
168 167 125
160 155 99
168 167 116
166 166 128
165 163 113
166 165 119
154 149 93
162 158 100
166 164 122
174 171 134
166 163 116
167 165 125
174 172 124
161 159 100
173 170 127
173 172 134
174 174 138
160 158 108
168 166 120
170 170 129
165 162 108
166 164 107
171 169 121
177 174 126
172 170 122
167 165 116
164 161 104
177 177 138
170 169 122
169 169 117
175 175 141
170 169 125
179 179 140
170 170 125
172 171 129
171 168 114
176 176 129
166 163 105
172 170 118
176 173 128
176 175 130
181 181 144
180 180 144
173 171 125
183 182 148
176 174 128
180 180 145
174 172 125
173 171 117
176 174 126
182 183 148
186 187 158
182 182 147
178 176 133
186 186 158
191 193 170
185 186 154
185 186 155
183 183 144
191 193 170
184 185 152
185 185 153
195 197 175
182 182 146
190 191 163
187 187 156
184 185 153
159 177 67
153 173 51
152 171 36
153 172 36
149 169 0
147 167 0
147 165 0
149 169 0
152 172 0
148 168 0
148 167 0
149 168 0
150 169 0
147 167 0
147 167 0
148 167 0
147 166 0
149 168 0
149 168 0
147 165 0
150 169 0
146 164 0
149 168 0
149 168 0
150 168 0
142 161 0
150 168 0
147 166 0
142 161 0
143 162 0
147 165 0
145 163 0
146 165 0
147 164 0
146 164 0
145 163 0
145 162 0
142 159 0
143 161 0
144 163 0
137 155 0
146 164 0
147 164 0
148 167 0
144 162 0
145 163 0
144 162 0
140 159 0
140 158 0
140 158 0
139 157 0
140 159 0
141 158 0
140 157 0
141 158 0
144 161 0
145 164 0
143 159 0
139 157 0
144 162 0
133 151 0
138 155 0
138 156 0
140 157 0
142 159 0
139 156 0
140 158 0
140 158 0
136 152 0
125 140 0
136 153 0
137 155 0
139 155 0
128 144 0
131 148 0
129 145 0
133 150 0
133 149 0
127 143 0
128 144 0
131 148 0
124 140 0
130 146 0
129 146 0
122 138 0
132 148 0
131 146 0
126 141 0
121 137 0
121 136 0
126 141 0
122 137 0
125 139 0
120 135 0
127 142 0
117 132 0
118 133 0
120 134 0
113 126 0
120 135 0
119 133 0
112 125 0
101 115 0
110 123 0
108 121 0
122 135 44
119 131 67
128 140 76
133 144 99
142 152 114
149 159 130
137 149 102
119 132 25
109 121 0
129 141 0
123 137 0
116 130 0
114 127 0
114 128 0
118 133 0
115 130 0
118 132 0
109 124 0
124 139 0
117 132 0
126 142 0
109 123 0
125 140 0
129 145 0
113 128 0
107 123 0
127 144 0
121 137 0
117 132 0
123 140 0
123 140 0
120 137 0
126 142 0
123 140 0
115 131 0
116 133 0
119 135 0
120 137 0
117 134 0
121 137 0
120 138 0
119 136 0
109 127 0
121 139 0
114 131 0
122 140 0
123 140 0
123 140 0
111 128 0
118 136 0
116 134 0
126 144 0
116 135 0
112 129 0
117 134 0
114 133 0
116 133 0
116 133 0
110 128 0
108 125 0
102 117 0
109 125 0
105 121 0
92 108 0
101 117 0
104 121 0
106 123 0
93 108 0
71 86 0
78 93 0
92 106 0
95 110 0
76 89 0
86 99 0
95 109 0
89 103 0
76 88 0
79 92 0
65 77 0
61 72 0
67 79 0
68 79 0
68 80 0
71 82 0
52 60 0
54 65 18
57 70 40
55 71 25
43 59 47
37 58 31
38 60 40
44 70 78
40 64 54
40 65 51
38 61 47
40 64 54
37 59 54
37 60 40
33 53 40
38 62 36
47 69 57
36 53 44
33 50 44
53 66 31
41 53 18
62 71 0
62 68 0
71 80 0
67 77 0
73 83 0
78 88 0
82 91 0
70 82 0
85 95 0
86 97 0
86 96 0
78 89 0
91 102 0
88 101 0
97 110 0
88 99 0
84 99 0
102 114 0
88 100 0
103 116 0
92 106 0
102 115 0
103 115 0
106 119 0
110 124 0
117 130 0
102 114 0
121 136 0
110 123 0
123 138 0
124 139 0
115 128 0
126 141 0
120 134 0
125 139 0
119 134 0
137 152 0
117 131 0
128 141 0
112 125 0
133 147 0
134 147 0
131 147 0
121 137 0
129 141 0
130 141 0
125 140 0
123 136 0
127 139 0
133 148 0
134 147 0
134 143 0
131 144 0
129 140 0
122 131 0
135 148 0
132 141 0
121 132 0
137 146 0
139 147 0
132 139 0
132 142 0
122 131 0
121 128 0
131 140 0
123 130 0
128 134 0
126 133 0
132 139 0
124 131 0
133 138 0
133 140 0
120 121 0
134 138 0
131 137 0
130 132 0
131 135 0
137 141 44
153 156 114
173 173 159
183 185 174
176 177 163
171 171 155
158 156 128
170 170 154
157 153 120
167 168 153
170 171 155
155 154 128
167 168 147
154 152 114
167 165 130
165 164 140
163 161 130
155 154 122
153 152 122
161 158 117
158 157 125
156 153 114
154 150 114
160 158 125
177 178 157
164 161 125
172 171 142
158 159 130
171 171 137
161 160 133
159 157 120
166 165 135
155 151 108
162 161 120
157 154 109
162 159 125
169 168 129
170 168 128
169 167 129
164 162 112
163 160 106
163 161 114
165 163 130
166 165 128
164 162 110
164 161 117
158 156 112
164 162 121
164 162 115
171 169 136
160 157 104
171 172 141
171 170 126
165 162 110
160 158 110
167 165 117
174 174 134
177 176 140
167 165 115
166 163 113
162 158 101
176 175 138
160 156 104
171 170 131
166 163 115
183 184 154
169 168 125
171 170 132
164 159 98
167 164 112
167 162 109
172 171 129
174 173 130
175 173 127
169 166 106
178 178 140
174 171 129
179 179 142
172 170 117
173 172 130
180 180 139
167 165 112
180 180 144
168 168 119
173 171 130
175 173 122
174 172 126
178 177 137
176 175 131
179 179 143
185 186 156
176 174 127
177 178 138
174 173 129
172 171 127
172 170 118
185 187 162
181 181 146
185 186 152
181 181 139
181 180 137
184 185 154
184 184 150
186 187 152
188 189 161
186 187 155
190 192 168
189 189 163
184 187 160
189 189 162
192 195 175
187 188 158
191 193 170
164 182 95
159 177 72
156 175 62
155 174 62
152 170 44
153 172 25
152 172 0
152 170 0
150 170 0
150 170 0
150 170 0
150 170 0
147 167 0
148 167 0
151 170 0
147 166 0
148 167 0
148 166 0
149 167 0
146 165 0
148 167 0
147 165 0
148 167 0
146 164 0
147 166 0
145 164 0
149 167 0
148 167 0
146 164 0
141 160 0
145 164 0
146 164 0
147 164 0
145 164 0
145 163 0
147 165 0
146 164 0
143 162 0
143 160 0
145 162 0
142 160 0
144 162 0
143 161 0
142 159 0
143 160 0
148 166 0
143 160 0
141 159 0
137 154 0
140 158 0
143 161 0
139 156 0
140 157 0
143 161 0
138 156 0
136 154 0
141 159 0
142 159 0
142 159 0
143 160 0
139 156 0
141 158 0
137 154 0
137 154 0
141 158 0
142 159 0
134 150 0
137 155 0
139 156 0
127 142 0
134 151 0
135 152 0
129 145 0
132 148 0
133 150 0
138 154 0
133 150 0
133 149 0
129 145 0
131 146 0
129 145 0
126 142 0
125 141 0
130 145 0
129 145 0
129 145 0
123 138 0
126 140 0
126 142 0
116 130 0
122 136 0
133 148 0
125 140 0
120 134 0
116 130 0
116 131 0
119 133 0
109 123 0
119 132 0
117 131 0
103 116 0
108 122 0
114 127 25
110 122 36
116 128 57
133 145 99
128 139 84
153 163 135
167 176 163
138 149 102
109 121 0
114 126 0
112 124 0
108 120 0
102 114 0
114 128 0
114 127 0
126 140 0
114 128 0
119 133 0
111 126 0
118 133 0
115 129 0
117 132 0
119 135 0
119 135 0
120 136 0
116 131 0
124 140 0
125 140 0
123 139 0
117 133 0
127 144 0
125 141 0
115 132 0
134 151 0
127 144 0
128 144 0
117 132 0
120 136 0
116 134 0
115 133 0
127 145 0
125 143 0
120 137 0
123 140 0
119 137 0
118 135 0
121 137 0
106 121 0
126 143 0
119 137 0
123 140 0
123 140 0
114 132 0
102 119 0
118 135 0
109 125 0
120 137 0
116 132 0
113 130 0
108 126 0
100 116 0
101 117 0
97 112 0
107 123 0
111 128 0
103 119 0
107 123 0
116 132 0
112 128 0
100 114 0
94 110 0
86 100 0
67 82 0
89 104 0
96 110 0
76 91 0
74 87 0
78 92 0
72 86 0
73 86 0
79 93 0
74 86 0
80 94 0
69 81 0
65 76 0
75 85 0
59 69 0
66 76 0
58 69 0
63 73 0
50 60 0
40 50 0
56 66 0
48 59 0
46 53 0
55 63 0
48 57 0
41 49 0
56 65 0
58 66 18
66 74 0
56 64 0
76 84 0
55 64 0
54 62 0
52 61 0
66 77 0
67 77 0
63 71 0
84 95 0
76 85 0
62 72 0
63 73 0
61 73 0
74 81 0
75 87 0
79 91 0
86 96 0
76 88 0
86 100 0
93 106 0
91 103 0
93 107 0
91 102 0
92 106 0
103 116 0
90 103 0
99 112 0
109 122 0
106 118 0
115 126 0
113 128 0
110 124 0
104 118 0
127 142 0
112 126 0
126 139 0
110 124 0
116 129 0
130 144 0
118 131 0
121 135 0
113 127 0
119 136 0
129 145 0
119 132 0
131 144 0
128 141 0
123 135 0
122 137 0
123 136 0
134 147 0
126 140 0
132 146 0
141 157 0
129 142 0
130 143 0
126 140 0
128 141 0
127 137 0
132 143 0
137 150 0
137 151 0
125 134 0
125 136 0
144 156 0
128 138 0
124 135 0
135 147 0
118 127 0
122 130 0
132 138 0
128 137 0
132 137 0
131 140 0
132 140 0
124 128 0
122 128 0
131 136 0
128 132 0
134 137 0
128 131 0
130 133 0
128 135 0
125 128 0
121 125 0
127 127 0
123 126 25
154 154 116
177 179 157
172 171 157
180 182 171
177 179 167
169 169 153
170 170 151
164 163 142
173 173 160
174 174 157
164 164 135
170 172 153
175 176 157
179 179 159
165 162 133
164 164 137
163 162 128
161 158 125
161 158 122
165 165 133
165 163 130
156 155 125
155 154 125
165 165 135
154 151 111
163 162 130
167 166 130
163 161 120
169 170 137
169 168 135
169 168 133
175 173 147
160 160 122
166 164 128
174 174 145
162 158 111
165 165 130
164 161 115
161 159 105
161 159 115
169 168 128
172 169 132
169 167 123
168 167 130
165 163 122
171 170 134
168 168 136
174 173 136
159 156 96
172 171 131
173 172 132
171 170 130
166 163 116
168 166 117
170 170 124
163 161 116
163 160 115
174 172 126
167 166 122
174 173 136
169 168 119
162 159 103
172 170 122
173 172 135
169 167 123
167 164 116
173 172 131
175 174 134
174 173 127
169 168 126
172 170 120
182 183 153
174 174 133
172 169 122
181 181 147
173 172 130
172 170 120
179 179 143
169 166 110
173 171 127
178 176 137
177 178 143
177 176 137
170 167 113
178 177 140
172 169 121
178 175 134
180 179 142
168 166 121
183 183 151
175 175 140
175 174 131
183 182 146
176 174 130
180 178 140
186 186 153
185 185 157
181 181 145
187 188 155
184 183 147
186 186 154
182 182 145
188 190 167
182 182 149
188 188 156
188 188 157
186 187 158
185 185 154
188 189 164
186 186 154
162 180 84
164 182 84
156 175 57
156 174 57
154 173 44
154 173 57
155 173 57
149 168 0
150 169 0
148 167 0
151 170 0
151 171 0
150 169 0
152 171 0
148 167 0
147 166 0
150 168 0
146 165 0
146 165 0
147 166 0
149 168 0
144 162 0
143 161 0
146 166 0
148 166 0
147 165 0
144 162 0
146 164 0
145 163 0
147 166 0
145 163 0
145 163 0
141 159 0
145 162 0
142 161 0
145 163 0
147 166 0
141 159 0
142 160 0
143 161 0
139 157 0
143 161 0
141 158 0
144 163 0
141 157 0
143 160 0
142 159 0
139 157 0
137 154 0
141 158 0
138 155 0
135 152 0
142 159 0
143 162 0
146 164 0
139 156 0
141 158 0
138 156 0
139 157 0
139 155 0
136 153 0
138 155 0
136 155 0
139 155 0
141 157 0
133 150 0
135 152 0
132 149 0
135 150 0
131 147 0
133 150 0
136 152 0
130 146 0
132 149 0
134 150 0
130 145 0
128 146 0
131 147 0
135 151 0
129 145 0
130 146 0
123 138 0
128 143 0
124 139 0
124 139 0
125 140 0
124 139 0
118 133 0
126 141 0
124 139 0
121 136 0
123 137 0
122 136 0
124 139 0
118 132 0
117 131 0
114 127 0
111 125 0
116 129 0
108 121 0
111 124 25
110 123 25
122 133 72
136 147 99
132 142 99
149 160 128
148 158 122
142 152 122
105 116 44
113 125 0
105 117 0
113 125 0
114 127 0
114 127 0
119 132 0
113 125 0
106 120 0
116 129 0
114 129 0
123 137 0
121 134 0
109 123 0
114 128 0
119 133 0
115 130 0
119 134 0
117 132 0
127 143 0
122 137 0
117 132 0
120 135 0
120 136 0
125 141 0
119 136 0
129 146 0
133 149 0
121 138 0
125 140 0
132 150 0
115 132 0
128 146 0
124 141 0
128 145 0
114 130 0
122 139 0
125 141 0
120 137 0
132 150 0
128 146 0
122 140 0
129 147 0
123 141 0
115 131 0
116 134 0
123 141 0
111 128 0
106 122 0
117 135 0
118 136 0
121 139 0
118 135 0
106 123 0
110 127 0
103 120 0
99 115 0
106 121 0
112 127 0
107 124 0
104 120 0
97 112 0
99 114 0
92 109 0
98 113 0
91 107 0
96 111 0
95 110 0
98 112 0
97 111 0
100 114 0
76 91 0
78 93 0
76 89 0
75 88 0
71 85 0
76 88 0
80 91 0
73 85 0
79 92 0
51 63 0
72 83 0
61 72 0
76 87 0
72 84 0
62 73 0
64 74 0
57 69 0
68 78 0
79 90 0
54 63 0
60 70 0
59 69 0
57 66 0
67 77 0
53 64 0
63 72 0
75 85 0
62 71 0
77 85 0
62 74 0
76 85 0
67 78 0
71 81 0
73 85 0
91 102 0
72 83 0
80 94 0
82 93 0
102 114 0
92 105 0
91 103 0
92 103 0
83 95 0
92 105 0
91 103 0
82 96 0
90 101 0
95 108 0
99 113 0
102 113 0
113 127 0
106 119 0
118 131 0
103 116 0
112 126 0
109 122 0
101 115 0
112 125 0
111 122 0
118 132 0
118 131 0
122 136 0
127 141 0
111 125 0
118 132 0
123 138 0
111 126 0
139 152 0
121 135 0
113 129 0
124 139 0
130 142 0
130 144 0
116 129 0
128 141 0
128 141 0
129 143 0
138 153 0
134 149 0
130 143 0
136 148 0
130 143 0
129 141 0
130 141 0
118 128 0
129 140 0
131 141 0
126 135 0
128 138 0
124 134 0
129 137 0
121 131 0
123 132 0
129 138 0
127 134 0
130 140 0
137 144 0
123 132 0
129 135 0
128 135 0
114 119 0
128 135 0
120 124 0
128 132 0
127 133 0
128 128 0
128 130 0
133 137 0
125 125 0
126 126 0
130 131 0
123 126 0
127 126 36
160 162 140
175 175 159
170 169 149
164 163 142
180 183 171
162 162 140
177 177 165
180 181 165
158 156 135
172 172 153
164 162 137
173 172 151
148 147 120
174 174 153
169 168 149
167 166 140
181 180 163
171 171 153
174 175 153
165 163 133
170 170 140
167 166 135
161 160 117
176 176 149
161 158 117
175 175 142
167 166 137
162 159 122
160 156 105
161 159 120
173 173 151
158 155 110
173 172 140
170 169 135
164 163 128
159 156 117
162 160 112
157 156 106
165 163 118
176 175 147
163 160 117
166 167 128
170 167 123
166 164 131
167 166 125
164 162 120
172 172 135
159 155 99
174 172 138
169 168 128
167 164 118
168 166 116
163 159 106
175 174 131
167 166 121
171 171 133
170 169 121
182 184 152
169 166 113
169 168 123
174 171 126
164 161 113
180 180 150
173 172 130
169 168 132
173 171 127
170 168 122
170 168 116
174 172 125
181 180 143
171 167 113
179 178 142
182 181 150
174 173 137
176 174 135
175 175 128
181 180 151
183 184 152
177 176 140
174 173 131
180 179 141
184 184 154
179 180 144
174 172 126
178 175 140
177 176 134
186 186 156
182 184 154
183 184 153
175 173 133
187 187 159
188 188 161
187 187 160
188 187 161
185 186 155
185 187 159
186 188 156
185 185 153
184 185 159
185 186 152
182 182 149
184 184 150
191 193 170
188 189 160
187 188 159
187 188 163
189 190 161
187 188 156
170 187 120
162 179 99
167 185 105
164 181 99
158 176 84
155 174 57
155 173 76
155 173 62
158 176 72
149 168 36
152 170 36
147 167 0
151 170 0
151 169 0
148 167 0
148 168 0
149 168 0
145 164 0
146 165 0
147 165 0
150 169 0
148 167 0
143 162 0
145 164 0
149 169 0
145 163 0
143 160 0
146 165 0
144 163 0
147 165 0
146 164 0
147 165 0
147 166 0
140 158 0
149 168 0
139 157 0
144 162 0
146 163 0
145 163 0
142 160 0
144 162 0
147 164 0
145 163 0
139 156 0
144 162 0
141 159 0
146 163 0
142 161 0
141 159 0
147 166 0
140 157 0
142 159 0
139 156 0
139 156 0
137 154 0
142 160 0
133 149 0
139 155 0
134 150 0
139 156 0
137 154 0
141 157 0
135 152 0
137 154 0
139 156 0
139 155 0
132 149 0
132 149 0
132 147 0
131 147 0
133 149 0
129 145 0
133 149 0
131 147 0
131 147 0
133 149 0
127 143 0
126 141 0
128 143 0
132 147 0
127 143 0
123 138 0
133 148 0
118 133 0
125 140 0
127 141 0
128 143 0
123 137 0
115 128 0
124 138 0
125 139 0
117 132 0
117 131 0
122 136 0
109 122 0
110 123 0
114 127 0
118 131 36
115 127 44
116 127 62
136 147 88
129 139 99
153 163 133
143 153 125
156 165 140
121 131 72
89 99 0
102 114 0
106 117 0
106 117 0
102 114 0
103 116 0
109 123 0
108 121 0
125 137 0
113 127 0
110 124 0
119 133 0
113 127 0
114 128 0
116 131 0
117 132 0
116 132 0
124 140 0
115 131 0
119 134 0
108 124 0
116 132 0
114 129 0
125 141 0
117 132 0
124 140 0
120 137 0
120 136 0
124 141 0
118 135 0
131 148 0
121 137 0
118 136 0
127 145 0
126 142 0
117 134 0
131 149 0
129 146 0
128 147 0
116 134 0
110 128 0
125 143 0
131 150 0
125 142 0
120 136 0
125 144 0
116 132 0
109 127 0
117 134 0
105 123 0
117 134 0
113 130 0
122 140 0
118 136 0
113 130 0
116 131 0
113 130 0
111 128 0
112 130 0
108 125 0
118 135 0
113 130 0
111 128 0
120 136 0
108 125 0
96 112 0
94 110 0
104 118 0
97 112 0
107 122 0
99 114 0
88 102 0
81 96 0
99 115 0
95 108 0
84 98 0
79 93 0
64 78 0
89 103 0
78 91 0
81 94 0
82 95 0
73 85 0
68 81 0
57 67 0
77 89 0
73 85 0
87 99 0
57 71 0
62 73 0
75 85 0
60 71 0
59 69 0
72 83 0
67 78 0
65 77 0
56 67 0
59 68 0
75 85 0
82 93 0
63 75 0
73 83 0
80 92 0
77 88 0
67 79 0
81 92 0
68 79 0
87 99 0
87 99 0
80 91 0
88 101 0
77 88 0
79 89 0
86 101 0
90 103 0
86 98 0
88 102 0
94 107 0
94 107 0
92 104 0
102 115 0
100 111 0
117 131 0
86 100 0
97 110 0
113 125 0
107 121 0
111 125 0
117 130 0
111 127 0
111 125 0
116 131 0
119 133 0
120 134 0
120 134 0
121 136 0
123 138 0
117 133 0
126 140 0
132 147 0
124 139 0
116 131 0
121 134 0
122 137 0
127 143 0
135 150 0
124 137 0
126 141 0
115 129 0
114 127 0
123 134 0
137 150 0
125 138 0
130 141 0
136 147 0
132 145 0
121 135 0
123 135 0
123 135 0
121 131 0
127 139 0
130 141 0
136 148 0
138 149 0
129 139 0
118 126 0
128 136 0
129 136 0
132 139 0
131 140 0
131 139 0
129 136 0
126 131 0
135 142 0
132 138 0
133 140 0
117 121 0
134 140 0
132 136 0
128 134 0
128 129 0
128 129 0
119 120 0
131 135 0
121 122 0
124 125 0
129 129 0
134 135 25
144 144 99
174 176 163
169 168 155
171 172 157
172 172 159
167 166 149
170 170 155
174 174 154
169 169 153
157 154 128
179 181 166
153 150 111
161 158 130
169 169 142
176 177 153
159 157 122
157 154 128
171 173 151
158 157 130
180 182 167
164 163 137
162 162 135
167 166 137
162 161 125
174 175 153
172 171 149
174 174 144
166 163 130
158 155 114
172 171 135
169 168 133
159 158 112
165 164 128
165 163 128
159 157 112
171 171 140
169 167 134
172 171 132
165 162 114
169 169 133
170 170 133
169 167 138
167 164 126
169 167 129
162 159 112
163 160 109
175 174 138
166 165 126
166 166 129
162 160 108
174 174 137
165 164 123
167 164 125
165 161 110
176 175 138
166 164 117
169 167 131
161 156 106
171 171 133
172 170 130
180 181 151
176 176 134
176 174 136
180 179 142
170 169 123
179 180 146
182 183 153
174 173 136
175 174 132
178 178 146
182 181 146
170 169 126
176 177 140
182 180 144
180 180 150
174 173 131
182 181 149
182 180 150
182 182 149
169 167 114
185 186 157
178 177 142
185 186 156
183 183 154
176 175 140
185 185 153
189 189 163
188 190 161
182 181 143
180 180 148
182 182 152
191 193 170
188 188 155
191 194 171
183 182 150
185 185 153
191 192 170
193 194 173
188 188 160
192 194 173
187 188 162
189 189 160
188 189 159
185 186 160
194 196 175
189 192 167
175 191 133
174 190 130
172 189 125
170 186 122
170 186 111
161 178 84
156 174 72
158 175 72
160 178 80
159 177 67
154 172 44
150 168 44
151 170 36
152 170 44
148 166 0
152 171 0
147 166 0
147 165 0
150 168 0
150 169 0
147 165 0
143 161 0
147 165 0
147 164 0
143 160 0
145 164 0
144 162 0
145 163 0
141 158 0
147 165 0
146 163 0
145 163 0
144 161 0
144 160 0
143 161 0
146 164 0
143 159 0
144 162 0
141 157 0
140 156 0
144 161 0
144 162 0
144 161 0
142 159 0
144 162 0
140 157 0
140 157 0
143 160 0
143 161 0
142 159 0
140 157 0
141 159 0
140 157 0
140 158 0
142 159 0
141 157 0
138 155 0
140 158 0
140 158 0
135 151 0
140 156 0
135 152 0
134 150 0
142 158 0
138 154 0
136 151 0
139 156 0
134 150 0
129 144 0
131 147 0
134 150 0
128 143 0
138 154 0
132 148 0
125 140 0
130 145 0
127 142 0
124 140 0
127 141 0
133 148 0
128 143 0
127 141 0
126 140 0
125 139 0
121 136 0
114 128 0
123 138 0
126 140 0
122 136 0
120 133 0
116 129 0
117 132 0
111 124 0
116 129 0
121 134 25
119 132 62
121 132 72
116 128 51
123 134 80
125 135 102
153 162 142
149 158 140
131 140 108
105 115 44
95 105 0
89 99 0
106 118 0
91 102 0
108 120 0
109 120 0
114 126 0
110 123 0
110 123 0
112 125 0
122 135 0
119 133 0
119 133 0
112 126 0
122 137 0
118 132 0
113 128 0
121 136 0
119 135 0
122 137 0
123 139 0
122 137 0
127 143 0
125 141 0
116 132 0
122 139 0
124 141 0
126 143 0
120 136 0
128 144 0
123 139 0
116 133 0
121 139 0
127 143 0
111 128 0
121 139 0
122 139 0
130 147 0
122 139 0
110 126 0
121 138 0
129 147 0
130 146 0
121 139 0
118 135 0
121 138 0
116 133 0
121 139 0
126 144 0
125 142 0
121 139 0
122 140 0
127 146 0
117 135 0
116 134 0
113 130 0
113 130 0
109 127 0
107 124 0
111 129 0
97 112 0
106 123 0
104 121 0
98 114 0
101 117 0
101 119 0
98 114 0
96 113 0
101 118 0
99 115 0
99 114 0
90 106 0
85 101 0
95 109 0
90 106 0
91 105 0
78 93 0
104 118 0
87 100 0
87 99 0
89 103 0
93 106 0
80 94 0
78 92 0
83 96 0
70 83 0
82 95 0
80 92 0
75 88 0
66 77 0
69 80 0
83 96 0
70 83 0
64 75 0
82 96 0
68 78 0
62 73 0
72 84 0
78 89 0
67 78 0
85 96 0
64 76 0
87 100 0
60 74 0
78 89 0
77 89 0
80 90 0
84 96 0
77 89 0
81 94 0
85 98 0
75 86 0
95 109 0
89 101 0
83 95 0
86 98 0
100 114 0
93 105 0
82 96 0
90 104 0
93 107 0
92 106 0
103 115 0
107 122 0
100 115 0
107 121 0
106 121 0
103 116 0
110 123 0
106 121 0
116 130 0
104 118 0
112 126 0
108 123 0
123 138 0
120 135 0
111 122 0
114 128 0
118 133 0
117 129 0
120 134 0
113 128 0
124 140 0
123 138 0
134 150 0
124 139 0
118 130 0
120 131 0
117 131 0
130 144 0
124 137 0
128 140 0
125 137 0
124 136 0
132 145 0
124 137 0
116 130 0
123 134 0
126 139 0
134 146 0
129 140 0
133 146 0
133 145 0
131 140 0
125 136 0
133 144 0
130 142 0
128 137 0
120 129 0
118 124 0
129 138 0
130 133 0
136 143 0
140 148 0
126 133 0
129 136 0
123 134 0
116 121 0
123 126 0
138 146 0
128 131 0
131 134 0
126 130 0
126 129 0
131 136 0
129 134 0
132 134 0
129 133 0
125 124 0
117 118 0
121 120 0
124 121 0
142 145 76
159 160 135
178 177 163
185 185 177
167 167 149
181 182 173
171 172 161
178 178 165
174 174 159
175 174 157
168 168 149
157 153 122
177 176 155
174 174 155
164 163 140
173 174 157
169 169 147
174 175 157
180 180 157
168 167 142
173 172 143
163 162 130
171 169 135
168 166 137
163 162 133
159 157 122
171 168 135
158 156 117
173 172 144
174 174 147
176 176 142
165 163 128
175 174 147
173 172 135
160 157 115
173 173 140
167 165 123
162 159 117
168 165 125
164 163 128
170 170 135
165 162 121
171 171 141
171 170 140
169 167 133
169 168 129
168 167 128
165 162 111
165 165 121
179 179 152
177 177 137
173 173 133
171 168 128
170 168 129
172 171 137
175 174 136
173 171 132
172 169 123
171 171 126
168 164 113
171 168 125
182 183 156
170 168 121
174 172 135
178 178 143
182 181 140
168 164 112
172 171 133
178 176 137
177 176 140
181 180 146
180 180 148
181 182 150
182 181 149
179 177 142
184 184 155
181 180 147
182 181 150
179 177 137
178 176 127
184 184 154
186 187 156
179 177 140
178 177 139
188 190 160
184 185 157
178 175 142
181 182 154
183 183 153
185 185 160
183 184 156
183 185 154
182 181 146
185 186 156
185 186 156
189 191 170
191 194 170
186 187 161
181 182 153
190 191 168
191 193 170
185 187 161
191 194 174
190 191 166
183 200 139
181 196 151
171 188 125
168 185 105
172 188 128
167 184 108
167 183 108
163 180 99
163 180 102
164 181 105
155 173 62
157 175 67
153 171 57
151 169 36
150 168 51
156 174 57
147 166 0
148 166 25
145 163 0
152 170 0
148 167 0
144 162 0
148 166 0
147 165 0
144 162 0
143 161 0
147 165 0
147 165 0
144 162 0
143 161 0
149 167 0
140 157 0
145 163 0
145 163 0
140 156 0
141 159 0
146 163 0
144 162 0
146 163 0
141 159 0
145 163 0
141 159 0
141 158 0
142 160 0
143 161 0
142 159 0
141 159 0
138 153 0
140 156 0
135 152 0
134 152 0
140 158 0
139 156 0
137 153 0
138 155 0
133 148 0
138 154 0
139 154 0
137 153 0
136 151 0
137 153 0
133 149 0
134 151 0
135 151 0
129 145 0
131 147 0
135 151 0
129 144 0
133 149 0
132 147 0
129 143 0
130 145 0
136 152 0
131 147 0
133 148 0
133 148 0
125 140 0
134 149 0
133 148 0
122 136 0
131 146 0
125 140 0
117 132 0
121 135 0
121 135 0
115 129 0
115 128 0
119 133 0
116 130 0
117 130 0
111 124 0
114 126 36
125 139 44
121 133 67
124 135 72
137 148 108
136 147 102
155 164 140
141 151 122
138 147 114
134 143 117
92 101 25
95 105 0
98 108 0
106 117 0
111 123 0
97 109 0
96 107 0
105 118 0
102 114 0
109 122 0
108 121 0
117 131 0
107 120 0
108 122 0
118 132 0
122 137 0
115 129 0
119 133 0
126 140 0
116 131 0
129 145 0
130 146 0
115 129 0
125 141 0
114 129 0
134 151 0
127 144 0
118 135 0
109 123 0
126 141 0
120 136 0
130 148 0
128 146 0
108 125 0
127 145 0
128 146 0
125 142 0
120 137 0
123 141 0
116 134 0
118 136 0
126 144 0
117 134 0
115 133 0
120 137 0
116 136 0
132 151 0
121 139 0
115 132 0
115 133 0
120 138 0
124 142 0
125 143 0
118 136 0
113 131 0
114 132 0
120 137 0
120 138 0
116 133 0
118 136 0
127 145 0
102 119 0
112 130 0
113 129 0
110 126 0
112 128 0
120 137 0
101 117 0
107 124 0
106 122 0
103 120 0
90 106 0
103 119 0
105 121 0
107 121 0
105 121 0
89 106 0
97 112 0
90 105 0
90 105 0
85 100 0
72 87 0
90 106 0
80 94 0
88 102 0
101 115 0
82 97 0
82 96 0
59 72 0
82 96 0
86 100 0
84 97 0
73 85 0
83 96 0
81 94 0
90 104 0
74 85 0
72 86 0
74 87 0
80 95 0
84 96 0
81 94 0
71 84 0
80 92 0
80 91 0
77 89 0
87 99 0
94 108 0
94 107 0
87 98 0
102 116 0
95 108 0
85 96 0
84 99 0
96 110 0
88 101 0
102 115 0
98 111 0
92 105 0
95 110 0
82 95 0
116 131 0
112 125 0
106 120 0
97 111 0
94 108 0
105 117 0
100 114 0
104 118 0
109 123 0
116 130 0
100 114 0
109 122 0
114 129 0
112 127 0
117 132 0
117 133 0
119 134 0
115 129 0
111 127 0
123 138 0
113 127 0
119 133 0
118 133 0
117 131 0
124 137 0
132 145 0
125 140 0
116 128 0
132 146 0
130 145 0
131 145 0
122 134 0
122 134 0
121 136 0
131 146 0
148 163 0
125 137 0
125 137 0
143 156 0
123 135 0
130 145 0
120 133 0
132 146 0
131 142 0
135 145 0
132 142 0
142 155 0
122 135 0
133 146 0
128 138 0
134 148 0
138 149 0
126 136 0
128 138 0
132 141 0
121 129 0
138 147 0
131 139 0
129 137 0
121 127 0
134 142 0
128 134 0
130 135 0
131 137 0
134 142 0
127 129 0
125 127 0
120 120 0
129 133 0
117 119 0
117 118 0
120 120 0
132 135 0
125 128 0
132 133 0
118 116 0
133 134 67
147 145 108
166 166 149
172 171 154
176 176 165
190 192 186
170 169 149
170 168 144
174 175 159
178 178 159
177 176 161
174 173 149
167 165 144
174 173 153
168 167 144
174 173 153
173 172 149
169 169 147
172 172 144
177 177 155
175 176 149
166 165 137
176 178 157
158 155 117
170 167 137
171 171 142
172 170 140
170 168 142
174 175 149
164 161 117
168 167 137
164 159 115
175 174 147
174 174 144
169 167 131
162 160 115
168 166 129
175 174 142
169 167 136
172 170 131
167 165 133
176 176 149
168 168 133
177 177 151
173 173 142
174 172 133
176 176 144
179 179 148
172 170 131
182 183 154
171 169 131
175 174 140
181 181 147
174 174 143
174 172 134
173 172 138
170 168 129
171 168 124
173 172 134
176 176 152
176 175 139
179 178 142
171 169 125
174 174 138
175 174 135
173 170 129
179 177 144
181 181 152
178 176 140
168 165 118
187 188 165
184 184 159
178 177 144
180 178 141
176 175 139
184 184 154
177 175 142
183 184 154
182 182 156
190 191 167
183 185 156
190 192 170
181 182 146
189 190 168
180 178 148
188 189 162
188 191 168
180 179 145
183 183 154
194 197 181
189 190 167
186 187 164
192 193 170
190 190 163
187 187 158
188 189 159
185 186 156
192 194 171
197 200 185
192 195 175
185 185 155
190 194 159
173 195 0
177 198 76
180 198 124
175 191 122
187 202 165
174 190 133
174 190 133
174 189 128
176 191 135
163 179 102
160 177 92
167 183 108
160 176 95
156 174 76
153 171 57
154 171 57
154 171 62
151 168 62
152 170 51
147 165 0
150 169 36
146 164 0
147 166 0
144 162 0
148 166 0
147 164 0
148 166 0
146 164 0
148 165 0
145 163 0
142 159 0
142 159 0
144 162 0
144 161 0
143 161 0
146 164 0
143 161 0
143 160 0
148 165 0
141 158 0
141 158 0
144 161 0
135 151 0
143 160 0
139 156 0
139 155 0
137 154 0
140 156 0
143 160 0
142 158 0
138 155 0
141 158 0
139 155 0
140 156 0
138 155 0
140 155 0
135 151 0
135 151 0
139 156 0
133 149 0
135 151 0
133 149 0
137 154 0
131 146 0
131 148 0
131 146 0
133 148 0
133 148 0
127 142 0
132 147 0
125 140 0
128 144 0
131 146 0
128 143 0
131 145 0
129 144 0
129 144 0
131 146 0
125 139 0
119 132 0
123 137 0
123 137 0
124 138 0
122 136 0
118 132 0
127 142 0
116 129 0
114 126 44
131 144 57
120 131 62
113 125 57
119 130 67
135 145 95
137 147 102
142 152 122
154 163 137
140 149 120
122 130 84
102 111 51
101 112 0
106 116 0
100 110 0
102 112 0
106 117 0
100 111 0
114 127 0
108 120 0
115 128 0
117 130 0
110 123 0
121 135 0
114 128 0
118 133 0
117 131 0
121 134 0
121 136 0
122 138 0
126 142 0
128 144 0
126 141 0
117 132 0
120 136 0
121 138 0
114 130 0
132 148 0
116 131 0
107 122 0
127 144 0
133 151 0
115 132 0
119 136 0
129 146 0
117 133 0
123 140 0
125 142 0
130 146 0
125 142 0
123 140 0
132 150 0
124 141 0
129 147 0
130 147 0
128 147 0
122 140 0
126 143 0
130 149 0
121 140 0
127 145 0
130 147 0
116 135 0
116 134 0
131 149 0
123 141 0
117 135 0
118 136 0
129 147 0
123 142 0
112 130 0
111 129 0
121 138 0
112 129 0
112 128 0
121 140 0
112 131 0
106 124 0
115 132 0
117 135 0
115 133 0
104 121 0
106 123 0
105 121 0
107 124 0
102 119 0
100 115 0
111 127 0
99 116 0
106 122 0
103 119 0
103 118 0
95 111 0
106 123 0
89 105 0
101 117 0
89 104 0
88 103 0
87 101 0
87 99 0
96 111 0
74 88 0
93 106 0
95 109 0
88 103 0
67 79 0
89 102 0
93 106 0
84 99 0
63 77 0
90 104 0
84 97 0
92 105 0
75 89 0
92 106 0
84 98 0
81 93 0
89 105 0
88 103 0
86 100 0
95 108 0
84 97 0
87 100 0
86 99 0
96 109 0
83 95 0
83 95 0
96 110 0
94 107 0
82 96 0
95 109 0
93 107 0
91 104 0
104 117 0
106 120 0
95 108 0
116 130 0
110 126 0
110 126 0
105 120 0
113 127 0
115 130 0
109 123 0
125 139 0
112 126 0
110 126 0
108 124 0
120 133 0
117 132 0
114 127 0
117 133 0
117 132 0
126 141 0
117 132 0
117 131 0
127 142 0
127 142 0
113 129 0
124 139 0
118 132 0
124 139 0
129 144 0
127 143 0
123 136 0
122 136 0
124 137 0
117 131 0
134 148 0
122 133 0
123 136 0
133 146 0
127 140 0
132 145 0
130 142 0
128 141 0
135 146 0
126 138 0
131 144 0
131 142 0
123 134 0
128 139 0
137 147 0
135 147 0
139 151 0
134 146 0
141 151 0
136 147 0
120 127 0
122 130 0
130 139 0
127 135 0
131 138 0
134 143 0
123 127 0
128 138 0
129 134 0
129 136 0
127 134 0
125 133 0
128 136 0
123 127 0
125 131 0
133 135 0
137 143 0
121 123 0
132 135 0
133 138 0
132 136 0
116 113 0
124 124 0
117 119 0
129 134 0
120 114 0
114 115 0
139 140 80
150 151 114
179 179 159
188 191 184
172 171 153
172 172 157
174 173 157
175 174 155
172 171 153
166 164 140
168 165 135
180 182 173
177 176 153
182 184 169
169 167 142
166 163 135
176 176 159
169 167 133
166 164 133
167 165 137
170 170 140
170 170 142
176 176 153
176 176 147
171 170 140
165 161 122
167 164 133
166 164 128
176 174 142
177 176 155
171 169 130
163 161 125
170 168 136
168 164 129
171 169 129
160 157 109
173 172 140
167 165 124
177 178 149
172 171 142
170 168 139
175 175 146
179 178 146
175 174 138
174 173 136
168 167 117
169 168 133
173 171 135
176 175 141
180 182 150
166 166 121
180 181 151
166 164 123
178 178 147
173 173 138
180 180 151
176 175 134
178 176 141
177 176 144
171 169 135
175 174 143
172 171 131
179 178 146
183 183 156
181 182 150
176 175 136
183 182 151
185 185 156
179 179 147
179 178 142
185 186 162
185 185 156
179 178 142
176 175 134
181 180 146
178 177 140
179 178 149
190 191 163
183 183 151
178 177 136
183 182 152
187 187 156
185 186 159
180 180 150
184 184 155
190 192 167
186 186 157
185 186 157
184 184 153
190 192 167
190 192 170
185 184 152
193 195 174
187 187 161
199 202 186
201 207 187
179 192 108
174 191 59
171 192 0
170 192 0
170 193 0
171 193 0
170 192 25
173 193 80
174 192 111
182 197 151
178 193 147
171 187 130
169 185 114
164 180 102
171 186 125
165 181 99
170 185 120
168 183 117
161 178 95
158 175 80
158 175 88
152 169 62
152 169 62
149 165 36
153 170 67
147 164 51
144 162 25
151 168 25
148 166 36
141 159 0
145 163 0
144 161 0
143 161 0
146 164 0
138 154 0
140 157 0
145 162 0
145 162 0
142 158 0
138 154 0
134 150 0
142 160 0
140 157 0
142 159 0
141 157 0
141 159 0
140 158 0
141 158 0
142 158 0
133 150 0
143 160 0
142 159 0
141 158 0
141 158 0
145 161 0
137 154 0
137 153 0
141 158 0
136 151 0
137 153 0
132 148 0
137 152 0
138 154 0
135 150 0
127 142 0
134 150 0
134 150 0
131 146 0
135 148 0
133 148 0
135 150 0
133 149 0
130 144 0
130 145 0
134 149 0
134 149 0
122 135 0
129 143 0
123 137 0
125 139 0
123 137 0
125 139 0
125 139 0
127 141 0
117 130 0
122 135 25
122 135 0
128 141 57
129 141 72
130 141 67
133 143 88
129 139 88
133 144 99
140 151 102
141 151 117
152 161 135
144 153 133
140 149 120
116 125 88
94 103 0
92 101 0
83 93 0
102 113 0
101 112 0
103 114 0
94 105 0
111 122 0
111 123 0
117 131 0
108 120 0
112 126 0
110 122 0
114 127 0
118 132 0
112 126 0
119 133 0
123 138 0
119 134 0
121 135 0
128 142 0
127 143 0
125 140 0
121 137 0
121 136 0
114 129 0
130 146 0
126 141 0
125 142 0
131 147 0
125 141 0
121 139 0
129 146 0
127 143 0
129 146 0
120 136 0
124 141 0
122 139 0
126 146 0
127 145 0
125 144 0
122 138 0
123 141 0
124 142 0
129 148 0
120 138 0
126 144 0
121 139 0
121 139 0
119 136 0
120 138 0
121 139 0
122 140 0
127 144 0
131 150 0
127 146 0
128 146 0
117 134 0
126 144 0
126 143 0
120 139 0
120 139 0
117 136 0
109 126 0
112 130 0
116 134 0
116 134 0
120 139 0
113 131 0
118 137 0
114 132 0
106 123 0
112 130 0
106 123 0
110 127 0
108 125 0
118 134 0
112 129 0
100 116 0
108 125 0
106 124 0
111 127 0
116 132 0
103 119 0
100 115 0
104 119 0
99 115 0
96 112 0
91 106 0
102 118 0
95 111 0
100 116 0
90 106 0
109 124 0
101 116 0
91 106 0
107 123 0
82 97 0
79 94 0
91 106 0
80 94 0
93 106 0
77 91 0
89 103 0
77 92 0
94 107 0
90 106 0
91 106 0
94 108 0
84 97 0
93 106 0
91 105 0
97 112 0
101 116 0
89 103 0
93 108 0
91 104 0
91 106 0
95 109 0
102 116 0
98 112 0
98 112 0
102 116 0
94 108 0
98 111 0
102 116 0
96 108 0
99 114 0
90 103 0
105 118 0
103 116 0
118 133 0
111 126 0
113 128 0
112 127 0
104 118 0
110 126 0
121 135 0
119 133 0
112 125 0
112 126 0
119 134 0
112 127 0
122 138 0
129 143 0
124 139 0
119 134 0
115 130 0
127 143 0
120 134 0
118 133 0
123 137 0
120 135 0
134 150 0
119 134 0
121 137 0
125 141 0
130 143 0
134 146 0
137 153 0
125 139 0
123 136 0
136 151 0
128 140 0
137 153 0
137 151 0
120 133 0
127 139 0
128 140 0
125 139 0
141 153 0
133 148 0
125 137 0
128 138 0
129 141 0
139 148 0
123 132 0
138 147 0
124 133 0
139 148 0
130 140 0
136 144 0
132 141 0
129 136 0
141 152 0
139 146 0
137 145 0
124 130 0
137 145 0
119 124 0
127 134 0
126 131 0
133 138 0
136 139 0
122 127 0
136 141 0
131 134 0
140 147 0
132 135 0
125 126 0
123 128 0
133 138 0
129 131 0
123 121 0
122 121 0
123 126 0
127 127 0
111 108 0
141 143 76
151 152 111
173 173 161
181 184 175
167 165 140
158 156 130
172 172 161
175 175 159
178 179 163
178 177 163
184 185 171
169 167 142
184 185 171
176 175 155
164 161 125
171 171 149
170 169 151
167 164 130
177 177 151
174 173 151
169 167 137
174 171 140
169 167 135
167 165 133
163 160 122
167 165 123
172 171 137
168 167 140
167 165 133
170 169 136
171 171 144
170 168 135
180 180 158
177 175 147
174 172 145
178 179 152
163 160 120
167 165 128
179 179 152
173 171 135
175 174 148
168 165 125
174 173 141
183 184 161
174 173 141
184 186 167
177 176 140
179 178 147
172 170 126
177 176 145
174 174 146
173 170 134
176 174 142
180 179 146
183 184 154
189 190 163
180 181 153
183 184 156
175 174 137
183 183 145
172 169 132
177 176 142
182 183 151
187 187 161
183 183 154
176 173 134
179 176 139
183 185 154
180 180 141
192 194 174
169 165 117
181 180 151
181 180 149
185 186 156
176 174 135
184 184 153
178 178 144
193 196 175
186 186 159
188 189 162
188 189 166
186 187 162
189 189 164
197 200 184
184 184 155
190 191 165
191 192 170
198 202 186
193 195 176
194 197 175
183 192 130
182 197 104
169 190 0
171 194 0
168 186 0
170 188 0
172 194 0
169 193 0
168 190 0
169 192 0
170 193 0
171 193 0
169 192 25
168 189 36
180 199 111
182 199 140
182 197 153
186 200 163
174 189 133
173 189 120
175 190 142
168 184 120
165 179 111
164 180 102
161 177 108
165 181 111
160 177 88
155 172 76
158 174 88
154 170 84
155 171 76
144 161 36
150 166 57
153 170 57
150 166 51
147 164 25
145 162 0
148 166 0
144 161 25
146 163 0
144 161 0
140 157 0
141 157 0
133 149 0
147 164 0
139 155 0
139 156 0
142 159 0
134 150 0
143 159 0
140 156 0
146 162 0
139 155 0
141 158 0
142 158 0
139 155 0
137 154 0
136 152 0
138 154 0
138 153 0
136 152 0
139 154 0
141 156 0
128 143 0
136 150 0
137 153 0
132 147 0
129 145 0
134 150 0
127 141 0
134 150 0
136 151 0
127 142 0
126 140 0
132 148 0
125 140 0
128 142 0
124 138 0
135 149 0
121 135 0
125 139 0
123 137 0
119 132 0
118 131 0
124 136 36
127 139 57
123 136 57
132 144 67
140 152 92
126 137 80
122 133 62
140 151 95
133 143 105
145 154 120
142 153 108
150 158 133
153 162 135
128 136 108
111 119 72
89 97 25
88 97 0
91 101 0
97 107 0
105 115 0
98 108 0
116 128 0
110 121 0
93 105 0
129 143 0
119 131 0
112 126 0
119 132 0
113 126 0
116 130 0
114 128 0
109 121 0
119 132 0
108 122 0
122 136 0
114 128 0
118 132 0
117 132 0
138 154 0
121 137 0
122 137 0
119 135 0
126 141 0
127 143 0
124 139 0
137 154 0
126 141 0
119 136 0
124 142 0
133 151 0
120 138 0
126 144 0
130 147 0
125 141 0
138 156 0
136 154 0
130 147 0
134 151 0
130 147 0
131 149 0
126 143 0
123 140 0
120 138 0
127 146 0
126 145 0
131 150 0
128 147 0
121 140 0
127 146 0
115 132 0
121 139 0
129 147 0
113 131 0
121 138 0
125 143 0
118 137 0
113 132 0
125 144 0
123 141 0
116 133 0
110 127 0
104 122 0
125 144 0
121 139 0
123 141 0
109 127 0
114 133 0
91 109 0
122 140 0
124 142 0
116 133 0
101 119 0
109 125 0
105 123 0
98 115 0
101 118 0
104 121 0
106 123 0
109 127 0
115 132 0
90 106 0
98 116 0
105 121 0
92 111 0
105 121 0
108 124 0
101 116 0
99 115 0
104 121 0
102 120 0
97 113 0
104 121 0
106 123 0
95 111 0
86 103 0
83 99 0
101 118 0
94 110 0
94 107 0
98 111 0
87 100 0
104 119 0
86 101 0
95 110 0
96 108 0
103 118 0
86 101 0
94 106 0
96 111 0
84 99 0
90 106 0
89 103 0
93 108 0
103 117 0
98 113 0
95 110 0
117 132 0
98 112 0
87 100 0
108 123 0
97 111 0
107 122 0
110 126 0
112 127 0
95 110 0
108 124 0
111 127 0
103 117 0
116 131 0
111 125 0
107 121 0
105 122 0
108 122 0
106 123 0
111 126 0
130 144 0
110 125 0
122 137 0
122 139 0
123 136 0
126 142 0
122 137 0
120 135 0
125 141 0
128 143 0
124 140 0
114 129 0
128 144 0
123 136 0
126 141 0
132 148 0
118 133 0
132 148 0
130 144 0
134 149 0
133 151 0
130 145 0
125 140 0
128 139 0
125 137 0
112 124 0
124 140 0
128 143 0
129 141 0
138 153 0
131 146 0
137 151 0
135 148 0
135 148 0
118 129 0
125 136 0
139 153 0
135 146 0
123 135 0
127 136 0
131 141 0
131 140 0
141 152 0
136 147 0
131 138 0
134 141 0
134 144 0
136 147 0
127 134 0
136 143 0
131 135 0
127 134 0
146 155 0
140 146 0
129 137 0
128 134 0
138 144 0
134 141 0
129 131 0
128 131 0
119 123 0
127 128 0
133 137 0
123 125 0
129 130 0
127 130 0
135 138 0
124 123 0
116 116 0
126 124 0
125 122 0
125 125 0
125 123 0
110 107 0
136 136 76
152 150 120
171 172 155
188 189 179
185 186 177
178 178 167
182 184 175
185 186 175
181 181 169
175 176 166
172 171 149
181 181 163
173 171 149
180 180 160
174 172 147
169 168 142
173 173 156
179 179 159
166 164 140
173 173 149
184 184 160
172 170 137
176 176 154
173 173 145
176 174 142
181 182 157
173 172 147
177 177 147
178 178 156
172 172 138
181 180 155
175 174 147
179 178 149
181 181 158
175 175 147
184 183 156
172 169 135
174 173 143
184 185 157
167 166 126
181 181 157
169 166 129
177 175 141
175 175 147
179 180 147
181 179 154
183 184 160
180 179 151
174 173 134
175 174 137
184 184 159
185 185 158
183 183 153
181 181 153
180 180 143
183 184 161
192 194 169
186 186 160
179 178 146
184 185 160
182 183 155
186 186 158
188 189 162
176 174 137
184 184 159
185 186 158
191 191 168
195 198 181
189 189 160
188 189 172
193 195 176
191 192 168
184 183 152
183 182 153
188 190 164
187 188 158
176 174 133
191 192 169
188 188 163
197 200 188
191 194 172
192 192 167
185 185 157
191 197 165
187 193 136
175 190 79
170 187 0
170 189 0
172 193 0
172 193 0
172 189 0
171 191 0
170 189 0
169 192 0
170 192 0
172 194 0
168 191 0
169 192 0
170 193 0
170 192 0
170 192 0
168 191 0
169 191 0
170 192 57
175 194 99
173 190 108
179 195 140
183 197 149
178 193 142
170 186 122
172 187 125
169 185 114
170 185 125
154 171 84
164 179 114
157 173 84
159 175 76
155 171 80
158 173 88
151 167 72
156 171 84
153 170 62
148 164 57
152 168 76
146 163 44
141 157 44
145 161 51
150 166 67
144 161 25
144 161 0
140 156 0
136 151 25
143 159 0
140 156 0
143 159 0
138 153 0
144 161 0
137 153 0
137 152 0
141 157 0
141 157 0
138 154 0
137 152 0
138 153 0
135 151 0
132 147 0
138 153 0
136 152 0
134 149 0
133 148 0
135 150 0
131 145 0
130 145 0
127 142 0
138 153 0
125 139 0
131 147 0
126 140 0
126 141 0
127 141 0
127 141 0
127 141 0
124 138 0
121 135 0
130 144 25
131 144 44
127 140 36
128 140 57
133 146 62
129 142 51
123 136 51
133 146 67
138 150 88
135 146 99
135 146 95
144 154 111
136 146 95
150 160 128
158 167 147
150 159 133
131 140 108
112 121 80
114 123 76
99 108 0
102 111 0
100 109 0
100 110 0
106 116 0
98 109 0
102 114 0
101 112 0
102 114 0
114 127 0
122 136 0
121 133 0
120 134 0
118 132 0
110 123 0
110 124 0
116 130 0
121 135 0
120 135 0
115 130 0
121 136 0
125 140 0
125 140 0
128 144 0
117 132 0
121 136 0
112 127 0
129 145 0
121 137 0
124 140 0
126 143 0
133 149 0
125 141 0
130 146 0
126 143 0
125 143 0
133 151 0
127 144 0
126 144 0
128 146 0
117 134 0
124 141 0
135 153 0
132 150 0
125 142 0
131 149 0
138 156 0
129 146 0
126 145 0
125 143 0
111 129 0
130 148 0
116 134 0
130 147 0
128 146 0
131 149 0
111 130 0
121 140 0
122 141 0
121 139 0
126 144 0
131 150 0
131 149 0
119 137 0
126 145 0
129 148 0
116 133 0
115 132 0
118 136 0
127 144 0
122 139 0
123 142 0
113 130 0
124 144 0
110 129 0
113 131 0
111 129 0
113 132 0
115 133 0
109 127 0
115 133 0
103 119 0
118 135 0
107 125 0
112 130 0
109 127 0
107 126 0
114 132 0
99 116 0
115 132 0
113 130 0
108 125 0
113 129 0
99 116 0
95 110 0
112 128 0
104 121 0
103 119 0
95 112 0
101 116 0
91 107 0
98 115 0
111 128 0
104 119 0
100 116 0
100 116 0
99 113 0
101 117 0
90 105 0
101 118 0
89 105 0
97 111 0
102 117 0
94 107 0
91 106 0
95 110 0
113 129 0
109 124 0
102 117 0
92 109 0
110 126 0
105 121 0
93 108 0
109 125 0
107 124 0
96 111 0
111 127 0
108 123 0
105 119 0
96 110 0
108 121 0
106 122 0
105 122 0
114 128 0
109 124 0
116 133 0
113 128 0
115 130 0
122 137 0
119 134 0
115 131 0
125 142 0
101 118 0
116 128 0
101 116 0
117 132 0
118 133 0
131 147 0
124 141 0
109 124 0
125 141 0
116 131 0
117 133 0
124 140 0
117 133 0
125 140 0
126 141 0
136 152 0
116 132 0
133 149 0
128 143 0
126 140 0
139 155 0
137 151 0
133 148 0
132 147 0
122 139 0
134 150 0
121 136 0
135 151 0
132 145 0
139 153 0
126 140 0
128 139 0
146 158 0
127 137 0
134 148 0
125 137 0
124 135 0
133 144 0
139 151 0
133 146 0
118 128 0
136 147 0
138 149 0
135 146 0
125 137 0
128 138 0
129 139 0
134 143 0
137 149 0
122 128 0
127 139 0
133 141 0
136 144 0
139 148 0
128 133 0
133 141 0
130 136 0
132 137 0
129 135 0
128 134 0
131 134 0
141 150 0
126 128 0
132 136 0
131 136 0
135 140 0
128 131 0
130 132 0
126 127 0
130 130 0
130 131 0
136 141 0
124 122 0
125 123 0
119 115 0
118 115 0
120 116 0
120 118 0
136 133 51
134 132 80
161 161 137
172 170 153
185 186 177
167 166 151
172 170 153
186 186 173
173 171 149
188 189 177
173 171 153
181 182 167
179 180 163
179 178 161
179 177 155
176 174 153
175 174 151
182 181 161
172 170 144
181 181 159
174 174 155
171 169 142
176 175 149
164 160 130
176 175 152
171 170 140
186 187 172
178 178 149
173 170 140
182 181 158
179 178 154
167 163 125
174 172 141
177 175 146
169 167 129
183 183 160
167 165 134
179 178 151
185 184 163
183 182 159
176 173 141
183 184 157
174 174 147
175 174 148
179 178 142
172 171 135
181 180 158
174 172 143
183 183 157
184 182 154
180 178 148
185 186 159
176 176 141
179 179 149
184 184 155
182 182 153
188 188 164
188 190 162
185 187 165
187 187 163
189 191 172
184 185 156
187 188 161
187 188 160
181 181 150
179 178 144
183 182 155
191 192 167
187 189 166
183 184 158
184 184 157
188 188 160
183 183 153
191 192 171
183 182 152
191 192 171
188 190 154
181 187 130
177 190 94
171 188 51
169 186 0
170 188 0
170 186 0
170 189 0
170 187 0
170 189 0
171 191 0
170 190 0
170 189 0
169 189 0
169 192 0
170 192 0
170 192 0
170 193 0
169 191 0
171 193 0
170 192 0
169 190 0
169 191 0
170 192 0
167 188 0
169 191 0
166 188 0
169 191 0
169 191 36
174 191 92
177 194 122
179 194 135
180 194 147
172 186 133
174 188 137
172 186 130
171 186 128
162 177 108
170 185 120
166 181 111
162 177 108
169 183 125
155 171 88
155 171 88
165 180 114
152 167 76
156 172 80
153 168 80
145 161 57
149 165 44
145 161 67
148 163 67
146 162 44
141 157 36
140 157 36
141 157 36
142 157 51
139 154 44
137 153 25
142 158 36
139 154 25
141 156 36
132 147 0
136 151 36
133 148 0
137 152 36
131 146 0
134 149 25
134 149 25
137 153 25
135 150 25
139 154 25
130 145 0
138 152 51
133 147 0
134 148 51
134 148 25
128 142 25
135 149 36
130 142 62
132 146 36
129 142 51
135 147 72
133 145 62
133 145 67
139 152 84
138 151 88
137 149 88
133 145 84
141 153 99
135 146 92
144 154 114
146 156 120
149 160 114
151 160 137
158 168 140
162 171 151
137 145 120
134 143 102
112 120 72
105 114 0
105 115 0
101 111 0
103 113 0
103 113 0
103 114 0
108 119 0
107 118 0
108 120 0
110 122 0
121 134 0
120 132 0
107 119 0
115 127 0
122 135 0
118 131 0
122 136 0
120 133 0
116 129 0
120 134 0
129 143 0
128 143 0
116 131 0
125 140 0
114 129 0
127 142 0
132 147 0
135 150 0
124 140 0
133 148 0
128 144 0
123 139 0
121 137 0
129 145 0
139 156 0
133 150 0
124 140 0
136 153 0
123 141 0
125 142 0
130 148 0
126 142 0
131 149 0
133 151 0
139 157 0
121 138 0
127 145 0
133 151 0
135 153 0
135 154 0
128 145 0
130 148 0
136 155 0
125 143 0
140 158 0
137 156 0
132 151 0
124 142 0
135 154 0
126 144 0
126 145 0
131 149 0
119 137 0
134 153 0
123 141 0
127 146 0
122 142 0
124 142 0
129 147 0
119 137 0
126 144 0
119 138 0
116 134 0
118 137 0
117 135 0
106 124 0
118 136 0
118 136 0
112 131 0
122 140 0
104 122 0
114 133 0
121 139 0
111 129 0
116 134 0
100 118 0
106 123 0
102 119 0
105 122 0
107 123 0
122 140 0
116 134 0
108 125 0
117 134 0
109 127 0
98 114 0
110 127 0
111 128 0
114 131 0
95 112 0
107 122 0
103 120 0
104 121 0
97 114 0
105 122 0
94 111 0
102 118 0
104 121 0
104 120 0
109 125 0
97 113 0
104 119 0
94 111 0
110 126 0
108 124 0
113 128 0
88 103 0
102 117 0
108 123 0
102 118 0
102 117 0
108 124 0
102 118 0
102 118 0
99 114 0
109 125 0
107 122 0
108 123 0
114 131 0
103 119 0
101 117 0
107 123 0
104 119 0
112 127 0
110 126 0
112 128 0
113 130 0
113 128 0
110 125 0
115 132 0
113 130 0
118 133 0
116 133 0
111 126 0
117 134 0
105 120 0
120 136 0
117 133 0
120 135 0
104 119 0
129 143 0
129 143 0
116 131 0
130 146 0
121 136 0
133 149 0
121 135 0
125 139 0
123 139 0
127 144 0
126 142 0
130 145 0
129 146 0
129 144 0
114 129 0
135 151 0
121 136 0
134 148 0
135 152 0
126 140 0
131 146 0
123 139 0
137 153 0
135 150 0
125 141 0
135 150 0
130 144 0
123 135 0
129 145 0
139 152 0
133 146 0
134 144 0
133 148 0
129 142 0
129 140 0
129 143 0
124 138 0
134 145 0
125 136 0
141 153 0
135 146 0
135 145 0
140 152 0
129 138 0
139 149 0
126 136 0
128 139 0
134 144 0
125 133 0
131 141 0
135 145 0
131 141 0
136 142 0
132 138 0
136 141 0
132 137 0
134 139 0
132 136 0
134 138 0
129 134 0
133 139 0
135 141 0
130 132 0
127 127 0
139 142 0
129 130 0
130 132 0
139 143 0
128 129 0
121 118 0
127 128 0
123 122 0
125 124 0
133 132 0
129 128 0
130 127 0
131 131 0
121 118 0
136 135 72
153 153 117
163 163 137
188 190 179
182 182 165
184 184 167
174 173 153
182 184 177
180 178 153
177 176 161
180 180 165
181 182 168
182 182 161
177 175 155
181 179 161
178 177 159
168 165 140
174 172 151
176 177 159
177 176 153
175 174 153
175 174 156
172 170 145
168 165 136
185 186 167
180 180 153
187 188 162
178 177 155
181 182 164
171 169 137
184 185 160
179 178 152
177 176 147
183 182 156
171 168 136
177 177 152
180 179 154
180 178 149
184 184 163
184 184 156
185 186 163
187 188 168
180 179 150
180 179 147
176 174 139
187 187 165
192 193 178
177 176 143
186 186 163
186 185 162
192 194 176
185 185 163
190 192 172
179 177 146
181 180 148
188 189 168
186 186 164
192 192 170
183 183 160
189 190 164
189 191 164
188 188 162
194 195 179
183 182 156
190 191 167
189 190 163
196 198 181
192 193 174
199 204 188
183 189 131
184 197 115
175 191 82
166 184 0
170 188 0
168 184 0
169 188 0
171 191 0
169 187 0
170 188 0
168 186 0
170 189 0
171 190 0
170 188 0
172 193 0
170 189 0
170 189 0
168 191 0
169 192 0
169 192 0
169 191 0
167 188 0
169 191 0
169 191 0
167 188 0
168 191 0
167 188 0
167 189 0
168 190 0
170 192 0
168 189 0
168 189 0
169 190 0
167 188 0
167 187 0
168 189 51
168 186 84
182 199 133
179 194 140
178 193 142
181 195 147
178 192 147
179 192 149
171 186 122
167 181 120
172 187 128
165 179 125
160 175 95
157 172 92
166 180 120
163 178 117
165 179 114
158 172 102
144 160 51
150 165 84
149 164 76
148 164 80
149 164 67
151 165 72
149 164 84
153 168 92
144 159 67
146 160 67
150 165 80
150 164 84
141 156 51
142 156 76
145 159 57
141 155 67
142 156 67
142 155 67
142 156 62
147 161 84
142 157 67
142 155 72
142 156 72
138 152 57
138 151 62
139 152 76
140 153 67
142 154 92
142 154 95
136 149 72
149 162 102
139 151 76
148 160 108
131 143 80
149 160 108
148 159 114
150 161 117
145 155 111
151 162 117
148 157 125
156 166 137
146 155 128
152 161 133
135 145 99
126 134 84
97 106 25
94 103 0
104 114 0
105 115 0
96 106 0
107 117 0
103 113 0
99 109 0
117 128 0
118 130 0
106 117 0
105 116 0
114 126 0
109 120 0
114 127 0
116 128 0
113 125 0
112 125 0
109 122 0
125 140 0
122 136 0
125 140 0
121 136 0
125 139 0
123 137 0
125 140 0
120 135 0
123 139 0
113 128 0
122 138 0
126 142 0
122 138 0
130 146 0
127 143 0
137 154 0
130 147 0
129 145 0
134 151 0
132 150 0
121 139 0
132 149 0
127 143 0
124 141 0
133 151 0
134 152 0
140 158 0
127 145 0
131 148 0
134 151 0
125 143 0
132 149 0
126 142 0
135 153 0
130 148 0
131 149 0
132 150 0
124 143 0
139 159 0
130 148 0
127 146 0
133 153 0
129 147 0
129 147 0
134 153 0
135 155 0
116 136 0
128 147 0
128 146 0
122 141 0
125 143 0
117 136 0
135 155 0
119 138 0
130 148 0
120 139 0
120 139 0
118 135 0
112 130 0
116 136 0
126 143 0
127 145 0
122 141 0
129 148 0
122 141 0
119 137 0
110 129 0
120 137 0
114 133 0
114 132 0
120 140 0
123 141 0
107 125 0
110 127 0
116 134 0
111 128 0
104 122 0
110 129 0
111 128 0
110 127 0
105 123 0
103 119 0
110 128 0
122 140 0
111 128 0
109 126 0
113 131 0
105 123 0
107 124 0
110 127 0
100 115 0
105 121 0
114 131 0
117 133 0
96 112 0
109 125 0
109 127 0
104 122 0
106 123 0
105 120 0
118 135 0
105 121 0
116 133 0
106 123 0
108 125 0
106 123 0
110 126 0
111 126 0
97 113 0
113 128 0
105 121 0
108 125 0
117 134 0
110 126 0
112 127 0
116 132 0
105 121 0
102 116 0
93 110 0
100 115 0
113 127 0
103 120 0
106 121 0
125 141 0
117 133 0
112 130 0
110 125 0
112 128 0
107 123 0
122 138 0
123 139 0
109 124 0
115 133 0
126 141 0
131 146 0
115 132 0
134 151 0
124 140 0
125 141 0
125 142 0
123 140 0
119 135 0
124 137 0
120 136 0
131 146 0
122 137 0
138 152 0
137 154 0
130 147 0
129 145 0
123 140 0
126 141 0
133 148 0
134 149 0
130 147 0
124 138 0
129 143 0
138 154 0
127 144 0
128 144 0
135 151 0
139 155 0
142 156 0
137 151 0
126 138 0
129 143 0
130 142 0
124 138 0
130 146 0
130 143 0
138 152 0
129 143 0
127 142 0
139 152 0
139 154 0
130 140 0
127 137 0
128 140 0
131 141 0
139 151 0
127 138 0
131 140 0
136 145 0
122 128 0
134 144 0
141 149 0
141 149 0
133 140 0
129 136 0
126 135 0
132 137 0
123 128 0
126 132 0
132 137 0
139 142 0
132 135 0
125 129 0
135 139 0
124 128 0
117 118 0
135 140 0
120 123 0
125 127 0
137 141 0
131 134 0
128 130 0
136 136 0
131 131 0
131 131 0
130 128 0
130 132 0
137 136 0
129 125 0
127 123 0
133 133 0
128 128 0
120 114 0
129 127 0
130 130 51
148 150 102
159 157 128
177 178 161
176 176 157
180 179 165
177 175 155
191 192 179
169 168 147
175 175 162
185 185 167
184 184 163
180 179 163
174 173 155
182 182 165
184 185 173
185 185 164
179 177 158
174 172 149
182 182 159
185 185 166
183 183 167
186 187 169
180 178 154
181 179 160
175 172 141
183 183 161
179 179 158
174 171 139
187 187 169
178 178 154
194 195 181
178 177 158
183 184 167
181 180 154
187 188 170
188 188 169
184 184 165
188 189 169
176 174 146
184 184 157
185 185 161
183 182 153
184 183 161
186 187 163
191 191 170
188 188 169
181 180 154
195 197 177
191 193 175
183 183 159
190 192 171
187 187 161
187 187 163
186 186 161
186 187 168
193 194 170
193 194 179
190 190 164
192 195 172
183 188 141
179 186 124
176 187 99
168 180 57
167 183 0
165 182 0
166 182 0
170 186 0
167 183 0
170 188 0
170 186 0
169 186 0
170 188 0
170 187 0
170 187 0
168 185 0
170 189 0
169 187 0
170 187 0
168 187 0
169 187 0
168 186 0
171 193 0
170 192 0
168 190 0
168 190 0
168 190 0
170 192 0
170 191 0
165 187 0
169 190 0
166 189 0
169 191 0
166 187 0
166 187 0
168 190 0
165 186 0
167 188 0
162 183 0
168 189 0
167 188 0
165 186 0
167 188 0
167 187 0
165 185 0
167 187 57
165 183 62
180 195 122
177 193 128
169 185 102
179 192 149
175 188 144
183 196 159
176 189 144
168 182 128
167 181 128
161 175 120
169 182 130
161 174 117
164 178 122
160 175 102
158 171 111
162 175 120
156 170 105
156 170 88
155 168 99
160 174 105
156 170 99
146 160 80
150 164 80
154 167 105
151 164 92
144 156 88
146 159 72
147 160 92
153 165 108
145 158 76
150 162 95
148 160 95
151 163 99
143 155 92
146 158 95
144 157 88
140 151 92
159 171 125
159 171 122
155 166 114
150 162 117
155 166 120
147 158 105
157 168 122
159 169 140
161 171 142
170 180 153
154 164 135
157 166 133
131 140 92
121 131 72
113 123 44
107 117 0
108 118 0
105 115 0
106 117 0
101 111 0
109 119 0
102 111 0
111 121 0
105 116 0
107 117 0
119 131 0
125 137 0
119 131 0
115 126 0
127 140 0
111 123 0
115 128 0
115 127 0
123 136 0
117 130 0
126 141 0
122 136 0
128 143 0
120 134 0
127 142 0
126 140 0
131 146 0
125 140 0
121 137 0
125 141 0
127 143 0
125 140 0
123 138 0
119 135 0
125 141 0
126 143 0
140 158 0
133 150 0
123 139 0
132 148 0
134 152 0
130 148 0
130 147 0
126 143 0
135 152 0
139 156 0
128 145 0
132 150 0
130 147 0
135 153 0
132 151 0
122 140 0
135 153 0
132 150 0
139 159 0
132 151 0
134 153 0
133 151 0
128 146 0
125 144 0
133 152 0
136 155 0
132 151 0
130 150 0
136 156 0
135 154 0
122 141 0
122 140 0
134 153 0
134 154 0
127 146 0
126 145 0
118 136 0
124 143 0
132 151 0
120 139 0
128 147 0
133 152 0
129 148 0
135 154 0
128 146 0
134 152 0
115 134 0
127 146 0
134 154 0
130 149 0
124 144 0
118 137 0
115 133 0
115 133 0
116 134 0
116 135 0
103 121 0
126 144 0
109 126 0
126 144 0
123 143 0
117 135 0
115 132 0
104 122 0
108 127 0
115 133 0
105 122 0
98 114 0
111 128 0
118 134 0
117 136 0
92 108 0
114 131 0
109 126 0
117 133 0
117 136 0
107 123 0
107 123 0
108 126 0
119 134 0
106 125 0
106 122 0
121 139 0
107 124 0
113 129 0
110 128 0
108 126 0
92 109 0
106 123 0
92 109 0
101 117 0
109 125 0
99 116 0
105 122 0
118 135 0
107 123 0
108 124 0
105 122 0
106 124 0
107 125 0
110 128 0
110 125 0
122 138 0
98 114 0
116 131 0
119 135 0
119 135 0
104 119 0
105 121 0
110 125 0
122 137 0
112 129 0
111 127 0
123 139 0
103 118 0
117 135 0
127 144 0
118 133 0
125 142 0
125 142 0
121 137 0
116 134 0
131 147 0
125 141 0
123 138 0
117 133 0
114 131 0
136 151 0
119 135 0
128 144 0
132 148 0
134 152 0
120 137 0
121 136 0
124 141 0
134 151 0
131 149 0
122 138 0
132 148 0
136 151 0
138 152 0
123 137 0
135 150 0
131 147 0
134 150 0
133 149 0
138 153 0
137 151 0
133 150 0
125 139 0
135 150 0
128 142 0
138 152 0
138 154 0
135 150 0
129 142 0
138 153 0
132 147 0
136 149 0
128 137 0
128 141 0
127 141 0
138 151 0
133 144 0
130 142 0
141 152 0
130 141 0
133 143 0
128 136 0
132 140 0
138 151 0
138 148 0
135 142 0
128 138 0
132 143 0
138 148 0
141 152 0
139 145 0
141 148 0
134 141 0
141 149 0
139 149 0
137 145 0
134 142 0
131 132 0
133 136 0
137 142 0
138 144 0
130 133 0
137 139 0
142 147 0
134 137 0
130 131 0
134 135 0
130 129 0
133 134 0
128 128 0
147 148 0
128 127 0
126 123 0
133 133 0
130 131 0
129 128 0
130 128 0
134 132 0
120 116 0
125 120 0
122 119 0
139 137 0
129 129 0
132 130 44
152 152 99
152 151 117
166 165 137
175 173 149
178 177 164
183 182 169
181 180 169
175 173 151
184 182 164
181 181 165
181 179 163
177 174 147
176 174 153
189 189 174
177 175 149
185 185 171
190 192 181
187 187 169
173 170 136
177 175 154
182 181 158
176 175 144
193 195 182
185 186 165
188 188 164
180 179 157
184 184 161
182 181 154
197 199 188
181 179 150
187 187 165
196 199 185
183 183 157
186 187 160
188 188 169
185 186 165
185 186 159
191 191 173
193 195 179
189 189 171
192 194 173
196 198 179
189 190 167
193 195 177
191 192 175
193 195 179
192 194 174
187 189 163
181 185 132
181 185 137
174 180 104
175 185 99
165 178 44
167 181 0
168 182 0
166 177 0
167 182 0
168 183 0
167 183 0
169 185 0
170 187 0
167 183 0
168 185 0
171 186 0
169 186 0
167 184 0
170 188 0
168 186 0
170 185 0
168 187 0
170 189 0
172 191 0
170 187 0
168 186 0
169 187 0
170 190 0
166 188 0
169 191 0
170 192 0
170 191 0
167 188 0
169 190 0
169 191 0
169 191 0
163 185 0
168 189 0
167 187 0
165 185 0
169 189 0
169 190 0
165 187 0
166 188 0
169 190 0
161 181 0
166 185 0
168 188 0
165 186 0
165 185 0
165 185 0
161 181 0
162 182 0
167 187 0
166 185 0
166 186 0
158 177 0
161 179 36
170 187 84
169 185 99
171 187 111
164 179 105
174 189 114
174 188 133
176 190 135
180 193 153
170 182 137
172 184 142
173 185 149
171 184 140
160 172 125
167 180 122
165 178 120
171 182 147
179 190 159
156 169 114
170 181 140
157 168 122
162 174 128
171 183 144
161 173 133
161 173 125
163 175 128
166 177 137
168 178 153
170 181 153
178 188 163
170 182 149
154 165 120
164 174 144
170 180 144
157 168 128
169 179 147
137 148 95
149 159 114
143 153 108
137 147 80
132 142 67
118 128 25
112 123 0
113 123 0
114 125 0
99 108 0
109 119 0
117 128 0
116 127 0
107 117 0
109 120 0
103 113 0
111 122 0
103 113 0
116 128 0
114 125 0
118 130 0
116 127 0
124 136 0
129 141 0
118 131 0
123 136 0
114 127 0
122 135 0
120 134 0
119 132 0
115 128 0
121 135 0
120 135 0
134 149 0
123 139 0
134 150 0
124 140 0
121 136 0
126 142 0
126 142 0
131 146 0
129 145 0
129 146 0
138 154 0
118 134 0
129 146 0
119 135 0
128 144 0
118 135 0
131 148 0
124 141 0
133 150 0
134 150 0
128 145 0
121 138 0
140 158 0
131 150 0
134 151 0
123 141 0
125 142 0
124 142 0
127 146 0
142 161 0
123 142 0
135 153 0
136 155 0
138 156 0
129 147 0
125 143 0
127 145 0
126 144 0
131 150 0
118 137 0
131 150 0
126 144 0
124 142 0
135 155 0
115 133 0
128 148 0
124 144 0
122 140 0
123 141 0
131 151 0
129 147 0
125 144 0
119 137 0
129 149 0
133 152 0
139 157 0
134 153 0
124 143 0
128 148 0
123 141 0
128 146 0
121 140 0
121 139 0
125 144 0
122 143 0
128 146 0
120 136 0
120 137 0
112 130 0
124 141 0
117 136 0
104 123 0
115 134 0
117 136 0
112 130 0
107 125 0
116 135 0
108 125 0
115 135 0
113 129 0
121 139 0
109 126 0
96 114 0
107 123 0
111 128 0
113 131 0
113 129 0
113 130 0
106 122 0
120 138 0
108 126 0
121 138 0
116 134 0
114 131 0
102 119 0
111 128 0
105 123 0
106 124 0
119 137 0
97 114 0
113 131 0
100 117 0
114 132 0
114 131 0
110 128 0
113 130 0
107 123 0
107 123 0
112 129 0
108 125 0
107 124 0
117 134 0
118 135 0
114 129 0
119 135 0
121 138 0
107 124 0
115 130 0
111 127 0
109 125 0
128 146 0
114 130 0
110 126 0
113 130 0
119 135 0
121 139 0
114 132 0
119 136 0
106 123 0
121 136 0
123 137 0
122 137 0
131 148 0
123 139 0
125 141 0
131 148 0
118 133 0
124 140 0
115 132 0
121 140 0
118 135 0
119 134 0
134 150 0
129 146 0
134 151 0
126 141 0
125 140 0
138 155 0
127 142 0
123 139 0
133 149 0
135 153 0
131 147 0
136 150 0
125 142 0
129 145 0
132 148 0
129 144 0
135 152 0
128 144 0
131 147 0
134 148 0
140 157 0
134 150 0
137 151 0
140 153 0
130 144 0
136 151 0
134 148 0
141 155 0
141 153 0
133 149 0
138 151 0
128 142 0
132 144 0
144 158 0
139 152 0
136 149 0
138 152 0
122 135 0
138 149 0
138 148 0
129 141 0
145 157 0
142 153 0
141 154 0
132 141 0
134 143 0
135 146 0
129 140 0
134 141 0
132 141 0
137 145 0
134 143 0
140 147 0
137 148 0
124 131 0
136 144 0
142 149 0
133 141 0
137 141 0
124 128 0
131 133 0
136 141 0
138 141 0
137 144 0
142 147 0
132 135 0
132 135 0
141 146 0
143 145 0
123 122 0
137 139 0
125 128 0
136 140 0
137 139 0
138 140 0
138 144 0
133 134 0
130 129 0
133 129 0
132 132 0
132 133 0
133 131 0
138 140 0
130 129 0
127 126 0
141 143 0
128 123 0
130 128 0
141 142 0
143 142 51
147 150 67
153 154 96
162 162 117
159 157 117
177 178 151
181 181 160
193 194 183
178 177 156
187 187 172
194 195 188
191 192 179
178 177 159
191 191 181
191 193 183
183 184 164
184 185 164
176 175 156
185 184 168
193 194 181
190 191 176
188 188 170
186 186 170
180 179 160
185 186 164
188 188 171
192 192 176
191 192 174
184 185 169
190 191 175
192 193 178
188 189 167
193 195 179
193 194 175
192 194 178
181 183 147
183 187 141
176 180 128
174 181 108
169 176 85
168 176 74
166 175 36
157 163 0
166 177 0
168 181 0
164 176 0
163 175 0
164 176 0
166 177 0
166 178 0
168 184 0
163 175 0
164 178 0
166 179 0
169 185 0
169 183 0
166 178 0
167 185 0
166 183 0
169 183 0
166 183 0
169 187 0
168 185 0
170 184 0
168 185 0
170 190 0
171 190 0
170 191 0
170 187 0
168 186 0
170 188 0
168 190 0
169 192 0
168 189 0
165 186 0
166 187 0
166 188 0
170 191 0
168 189 0
166 187 0
163 185 0
166 186 0
166 187 0
165 185 0
167 188 0
166 187 0
160 180 0
166 185 0
166 187 0
168 189 0
166 186 0
165 185 0
163 182 0
166 186 0
162 182 0
164 183 0
161 180 0
161 181 0
160 178 0
163 183 0
158 176 0
162 180 0
160 178 0
157 175 0
151 168 0
162 181 0
153 170 0
157 174 0
154 171 0
151 168 0
159 176 67
163 179 72
153 169 57
163 178 95
162 176 88
157 171 80
163 177 92
161 175 102
169 182 117
152 165 92
155 168 99
161 174 105
162 175 99
150 163 88
159 171 111
156 169 99
157 170 99
148 159 99
153 166 84
146 158 76
126 137 62
139 152 51
119 131 0
128 140 0
128 140 0
118 130 0
122 134 0
125 137 0
120 131 0
113 124 0
119 130 0
122 133 0
118 130 0
120 131 0
112 124 0
122 134 0
113 124 0
119 131 0
118 129 0
120 132 0
121 133 0
116 127 0
124 136 0
129 142 0
120 133 0
114 127 0
123 137 0
113 126 0
124 137 0
128 141 0
121 134 0
123 136 0
126 141 0
126 140 0
129 143 0
121 135 0
125 140 0
121 135 0
129 144 0
129 144 0
129 145 0
134 150 0
131 147 0
124 140 0
131 146 0
132 147 0
127 144 0
125 140 0
134 150 0
135 152 0
142 159 0
127 144 0
130 147 0
131 147 0
135 151 0
117 134 0
134 153 0
130 147 0
134 151 0
135 152 0
124 142 0
135 154 0
136 155 0
130 147 0
134 152 0
131 148 0
140 158 0
135 154 0
125 143 0
130 148 0
125 143 0
139 158 0
132 150 0
135 153 0
130 148 0
140 158 0
139 159 0
135 154 0
133 152 0
130 149 0
129 148 0
130 149 0
138 159 0
143 162 0
139 158 0
128 149 0
131 151 0
129 147 0
120 139 0
134 153 0
133 152 0
136 155 0
130 149 0
130 149 0
126 147 0
133 154 0
124 144 0
130 148 0
130 150 0
120 140 0
129 148 0
120 139 0
126 145 0
123 142 0
128 148 0
118 137 0
113 132 0
116 134 0
115 132 0
123 142 0
121 140 0
118 137 0
131 151 0
121 141 0
120 139 0
115 133 0
130 149 0
126 146 0
118 136 0
118 136 0
101 119 0
117 135 0
130 149 0
125 145 0
122 140 0
114 133 0
113 132 0
113 131 0
106 124 0
125 143 0
117 135 0
123 140 0
130 148 0
109 127 0
112 129 0
122 140 0
115 133 0
114 132 0
122 141 0
116 134 0
125 142 0
117 135 0
111 128 0
114 130 0
121 139 0
105 122 0
109 127 0
115 133 0
120 138 0
116 132 0
101 119 0
125 143 0
121 138 0
115 132 0
118 135 0
117 134 0
127 145 0
107 124 0
116 132 0
114 129 0
108 123 0
120 136 0
113 131 0
123 142 0
121 138 0
114 129 0
113 130 0
118 135 0
117 132 0
117 132 0
128 145 0
121 138 0
131 147 0
117 134 0
127 144 0
130 148 0
127 141 0
141 160 0
127 141 0
119 136 0
133 150 0
126 142 0
124 141 0
136 152 0
128 144 0
133 150 0
133 150 0
139 157 0
140 157 0
131 148 0
136 154 0
141 157 0
132 148 0
137 153 0
134 150 0
131 148 0
142 157 0
142 156 0
126 142 0
141 157 0
135 151 0
133 148 0
128 144 0
139 157 0
134 151 0
134 150 0
137 153 0
139 153 0
139 156 0
127 140 0
130 142 0
144 159 0
137 151 0
140 152 0
137 151 0
143 159 0
128 139 0
133 149 0
133 143 0
141 154 0
133 144 0
141 154 0
136 147 0
131 143 0
134 144 0
139 152 0
138 148 0
140 153 0
135 146 0
141 151 0
144 155 0
137 147 0
142 154 0
136 144 0
132 139 0
136 144 0
136 139 0
138 144 0
143 150 0
136 142 0
125 129 0
131 137 0
143 151 0
131 136 0
140 147 0
137 140 0
140 140 0
137 142 0
138 139 0
136 139 0
138 143 0
132 132 0
134 137 0
135 136 0
143 147 0
138 138 0
142 145 0
139 140 0
133 134 0
132 134 0
136 136 0
133 130 0
129 126 0
127 124 0
135 135 0
134 133 0
138 137 0
130 130 0
127 122 0
129 125 0
142 141 0
143 144 0
130 127 0
131 130 0
144 145 0
138 137 0
147 148 0
139 139 0
136 134 0
143 143 0
142 140 57
145 142 63
155 154 80
155 157 72
150 148 80
165 165 106
161 159 99
166 168 117
166 166 120
174 175 133
168 168 123
171 172 123
167 168 113
163 164 109
170 174 105
171 173 117
166 168 103
168 170 114
166 169 86
163 167 73
164 168 67
165 174 72
156 160 11
163 172 0
160 166 0
165 176 0
160 167 0
161 173 0
157 165 0
164 176 0
162 173 0
166 177 0
160 170 0
163 174 0
165 177 0
163 177 0
168 181 0
168 180 0
164 177 0
163 176 0
163 175 0
166 177 0
166 181 0
167 181 0
169 184 0
168 181 0
172 189 0
167 182 0
164 179 0
168 184 0
169 186 0
167 184 0
167 182 0
170 186 0
168 185 0
166 181 0
169 188 0
167 183 0
170 188 0
170 187 0
171 189 0
168 190 0
167 188 0
169 190 0
166 187 0
166 187 0
167 188 0
166 186 0
166 186 0
165 186 0
165 186 0
165 184 0
167 188 0
169 190 0
165 185 0
166 187 0
165 186 0
164 184 0
162 182 0
167 188 0
164 185 0
160 179 0
161 181 0
165 185 0
163 182 0
162 181 0
160 178 0
159 178 0
162 180 0
164 183 0
160 178 0
162 180 0
156 173 0
164 182 0
155 173 0
161 179 0
147 163 0
157 174 0
148 164 0
152 169 0
162 180 0
151 167 0
153 169 0
155 172 0
150 166 0
150 165 0
147 162 0
134 149 0
150 165 0
142 157 0
145 160 0
143 158 0
141 155 0
135 150 0
137 151 0
141 155 0
138 152 0
131 145 0
130 143 0
134 149 0
133 147 0
131 144 0
130 143 0
125 137 0
121 133 0
124 135 0
124 136 0
127 139 0
119 132 0
125 137 0
119 130 0
128 140 0
124 136 0
122 135 0
128 141 0
133 145 0
124 136 0
120 132 0
122 134 0
125 137 0
128 141 0
122 134 0
126 138 0
126 139 0
126 140 0
129 143 0
133 147 0
128 141 0
118 132 0
122 137 0
131 146 0
127 141 0
132 147 0
126 141 0
127 142 0
131 146 0
125 140 0
137 153 0
131 147 0
132 148 0
135 151 0
135 151 0
128 144 0
129 145 0
143 159 0
130 146 0
127 142 0
138 154 0
125 142 0
124 140 0
127 145 0
132 149 0
134 152 0
135 153 0
134 152 0
130 147 0
129 145 0
132 148 0
133 151 0
133 151 0
139 157 0
141 160 0
137 155 0
132 149 0
131 149 0
134 154 0
122 139 0
131 150 0
141 160 0
129 147 0
135 153 0
128 146 0
135 155 0
122 140 0
124 142 0
139 158 0
123 142 0
137 156 0
135 155 0
136 156 0
134 154 0
122 141 0
140 160 0
138 157 0
140 159 0
128 147 0
132 151 0
123 143 0
127 146 0
136 156 0
134 154 0
128 148 0
127 146 0
128 147 0
136 155 0
124 143 0
128 148 0
125 145 0
134 153 0
132 150 0
118 137 0
121 140 0
126 145 0
127 145 0
138 157 0
132 152 0
123 141 0
126 146 0
134 153 0
124 143 0
108 125 0
115 134 0
112 130 0
121 141 0
114 133 0
120 138 0
124 142 0
109 127 0
128 146 0
119 136 0
117 137 0
121 139 0
109 127 0
103 120 0
123 141 0
129 147 0
98 115 0
124 143 0
115 133 0
114 131 0
119 137 0
120 138 0
122 140 0
123 143 0
121 140 0
116 135 0
108 126 0
129 146 0
128 146 0
127 146 0
113 131 0
129 147 0
103 121 0
124 143 0
126 144 0
117 135 0
114 133 0
115 133 0
123 141 0
108 126 0
122 141 0
113 131 0
125 143 0
109 126 0
113 132 0
128 147 0
101 118 0
116 132 0
120 138 0
117 135 0
110 127 0
106 124 0
124 141 0
115 134 0
121 139 0
123 142 0
127 144 0
126 143 0
119 136 0
119 135 0
130 147 0
130 146 0
118 135 0
124 139 0
120 137 0
122 141 0
127 144 0
125 142 0
138 156 0
132 149 0
129 146 0
141 158 0
136 154 0
125 141 0
141 158 0
137 154 0
138 156 0
117 135 0
119 137 0
137 156 0
133 147 0
136 151 0
135 152 0
121 137 0
131 148 0
129 142 0
133 148 0
136 155 0
130 145 0
140 156 0
139 157 0
144 161 0
140 157 0
151 170 0
134 149 0
141 157 0
134 149 0
139 155 0
135 147 0
135 151 0
138 152 0
137 153 0
135 149 0
139 151 0
136 147 0
136 149 0
144 160 0
134 149 0
136 150 0
132 147 0
136 149 0
138 149 0
126 139 0
137 150 0
138 149 0
141 153 0
134 140 0
138 149 0
131 140 0
140 151 0
134 145 0
138 149 0
138 148 0
135 146 0
145 155 0
140 150 0
127 133 0
132 143 0
144 154 0
140 145 0
145 152 0
140 149 0
141 149 0
143 151 0
136 143 0
133 137 0
138 143 0
139 144 0
140 146 0
139 143 0
132 137 0
138 141 0
135 135 0
140 141 0
136 140 0
135 140 0
133 135 0
131 132 0
145 148 0
137 137 0
132 133 0
134 134 0
127 129 0
132 130 0
137 137 0
141 141 0
135 133 0
141 140 0
137 134 0
139 139 0
143 144 0
143 149 0
125 118 0
140 143 0
141 140 0
141 139 0
146 145 0
142 141 0
144 142 0
136 133 0
141 137 0
146 146 0
146 149 0
149 151 0
149 149 0
145 149 0
145 147 0
149 150 0
147 148 0
145 145 0
150 155 0
153 157 0
153 158 0
154 157 0
156 160 0
155 159 0
158 164 0
158 162 0
155 160 0
158 164 0
154 158 0
162 169 0
159 167 0
160 168 0
161 167 0
161 168 0
162 172 0
161 170 0
160 168 0
162 170 0
160 169 0
159 166 0
162 173 0
165 176 0
163 173 0
161 171 0
163 174 0
165 176 0
164 179 0
170 185 0
165 177 0
167 183 0
164 178 0
164 179 0
166 178 0
167 180 0
167 181 0
168 184 0
170 185 0
169 185 0
170 186 0
166 180 0
166 182 0
167 184 0
168 183 0
168 184 0
168 185 0
171 190 0
168 187 0
167 183 0
167 186 0
166 187 0
164 185 0
163 183 0
166 186 0
168 189 0
167 188 0
165 186 0
166 188 0
166 187 0
164 185 0
163 183 0
168 189 0
162 182 0
163 184 0
167 187 0
163 182 0
165 185 0
164 185 0
163 183 0
164 183 0
165 184 0
165 185 0
160 178 0
164 183 0
155 173 0
163 182 0
162 181 0
161 179 0
158 176 0
158 176 0
156 174 0
159 177 0
156 173 0
158 177 0
156 174 0
153 170 0
153 170 0
157 174 0
156 173 0
157 173 0
145 161 0
151 167 0
151 168 0
154 170 0
148 164 0
147 162 0
148 164 0
143 158 0
140 155 0
139 154 0
146 161 0
143 157 0
137 152 0
141 155 0
132 146 0
138 151 0
137 151 0
128 139 0
133 146 0
132 146 0
132 145 0
122 135 0
129 142 0
128 140 0
114 125 0
128 140 0
130 142 0
133 145 0
125 138 0
125 138 0
126 137 0
125 137 0
118 130 0
123 136 0
123 135 0
129 142 0
129 143 0
121 133 0
117 130 0
133 147 0
130 144 0
124 137 0
127 140 0
133 147 0
127 141 0
130 144 0
131 144 0
128 142 0
128 143 0
127 141 0
132 146 0
125 140 0
127 141 0
131 146 0
137 154 0
133 148 0
131 147 0
130 146 0
125 139 0
120 135 0
132 148 0
128 144 0
130 147 0
129 146 0
129 145 0
129 146 0
128 145 0
131 148 0
130 147 0
139 156 0
132 150 0
138 155 0
138 155 0
134 151 0
138 156 0
135 152 0
138 157 0
133 150 0
126 145 0
135 154 0
128 147 0
140 159 0
130 148 0
128 146 0
135 153 0
132 151 0
135 154 0
139 158 0
126 145 0
138 158 0
127 145 0
143 162 0
137 156 0
141 160 0
137 156 0
134 155 0
130 148 0
133 152 0
136 156 0
134 152 0
134 154 0
137 157 0
133 152 0
140 160 0
140 160 0
133 151 0
135 155 0
127 146 0
138 158 0
121 140 0
141 160 0
136 154 0
140 160 0
127 147 0
139 159 0
125 146 0
125 144 0
121 139 0
132 151 0
132 153 0
126 146 0
123 144 0
132 153 0
123 142 0
129 148 0
124 143 0
134 152 0
125 145 0
125 145 0
125 144 0
126 144 0
124 143 0
107 127 0
127 147 0
121 140 0
123 142 0
111 130 0
131 151 0
121 138 0
121 140 0
120 137 0
125 144 0
127 147 0
111 130 0
123 142 0
122 140 0
115 133 0
120 140 0
130 147 0
121 139 0
118 137 0
118 135 0
120 139 0
115 133 0
118 136 0
118 135 0
110 128 0
115 134 0
111 130 0
124 144 0
107 124 0
120 139 0
125 141 0
121 139 0
112 129 0
119 136 0
127 145 0
129 147 0
111 129 0
108 126 0
115 132 0
125 144 0
117 133 0
122 139 0
122 139 0
123 140 0
125 143 0
127 144 0
129 147 0
115 131 0
122 139 0
112 129 0
129 147 0
122 139 0
118 136 0
138 155 0
120 138 0
129 145 0
127 144 0
125 143 0
134 151 0
124 140 0
131 147 0
120 137 0
128 144 0
128 147 0
129 144 0
126 144 0
128 145 0
129 148 0
130 148 0
131 150 0
131 149 0
139 156 0
133 149 0
123 139 0
135 151 0
124 141 0
122 138 0
136 152 0
128 144 0
140 155 0
130 145 0
136 152 0
130 147 0
124 140 0
142 160 0
137 153 0
135 153 0
141 158 0
130 146 0
140 156 0
132 146 0
138 153 0
132 147 0
128 143 0
139 152 0
132 148 0
143 156 0
136 149 0
140 156 0
136 150 0
145 158 0
148 163 0
139 152 0
137 150 0
138 152 0
130 141 0
141 157 0
141 152 0
140 153 0
133 143 0
130 141 0
142 156 0
133 145 0
135 147 0
144 158 0
138 149 0
136 146 0
145 156 0
130 139 0
153 164 0
134 145 0
138 146 0
137 147 0
135 144 0
138 146 0
142 151 0
138 144 0
138 146 0
135 143 0
139 147 0
140 148 0
136 142 0
142 148 0
145 151 0
134 137 0
143 148 0
128 131 0
147 152 0
142 149 0
138 143 0
136 137 0
142 148 0
139 142 0
142 145 0
141 144 0
131 133 0
140 143 0
144 146 0
141 143 0
134 135 0
138 140 0
138 139 0
137 137 0
143 146 0
136 135 0
135 134 0
139 141 0
152 155 0
137 133 0
136 137 0
143 144 0
141 143 0
141 142 0
141 141 0
140 141 0
149 151 0
146 146 0
148 151 0
143 144 0
147 149 0
146 146 0
148 148 0
144 146 0
150 150 0
145 146 0
150 152 0
151 153 0
148 150 0
146 149 0
154 159 0
155 159 0
156 159 0
148 149 0
153 157 0
154 159 0
152 157 0
154 160 0
160 169 0
157 162 0
157 164 0
161 168 0
155 160 0
161 169 0
158 165 0
162 168 0
159 167 0
160 167 0
158 167 0
161 171 0
161 170 0
166 177 0
157 166 0
163 173 0
164 175 0
163 172 0
162 171 0
170 184 0
161 174 0
169 182 0
164 177 0
167 180 0
166 178 0
165 178 0
167 182 0
167 179 0
166 180 0
164 178 0
166 179 0
169 186 0
170 186 0
170 185 0
167 182 0
169 186 0
167 184 0
168 181 0
170 188 0
167 182 0
169 187 0
171 192 0
166 187 0
166 187 0
166 188 0
168 190 0
165 185 0
166 187 0
164 184 0
166 187 0
164 185 0
167 187 0
165 185 0
167 186 0
167 187 0
162 182 0
159 178 0
163 182 0
166 186 0
165 184 0
163 182 0
164 184 0
163 182 0
158 177 0
160 179 0
161 180 0
161 181 0
157 176 0
159 177 0
162 180 0
162 180 0
159 178 0
153 171 0
161 178 0
150 166 0
154 171 0
153 170 0
156 174 0
153 170 0
147 164 0
149 165 0
147 162 0
149 164 0
149 164 0
152 168 0
149 164 0
148 164 0
146 162 0
140 154 0
141 156 0
142 157 0
138 152 0
136 150 0
147 162 0
138 152 0
137 151 0
133 146 0
134 148 0
129 143 0
137 151 0
134 148 0
130 144 0
134 146 0
132 145 0
129 142 0
132 145 0
129 142 0
127 140 0
129 141 0
129 141 0
133 147 0
122 134 0
132 145 0
135 149 0
121 134 0
137 150 0
124 137 0
127 140 0
128 142 0
125 139 0
139 154 0
123 136 0
136 150 0
128 143 0
133 147 0
132 147 0
126 140 0
131 145 0
125 139 0
136 151 0
142 157 0
128 143 0
137 152 0
133 149 0
138 153 0
135 150 0
128 143 0
141 157 0
123 139 0
129 145 0
139 156 0
129 146 0
138 154 0
138 156 0
133 149 0
138 155 0
144 161 0
141 158 0
139 158 0
143 160 0
135 152 0
141 159 0
125 143 0
141 160 0
139 158 0
143 162 0
138 156 0
131 150 0
143 161 0
139 157 0
133 151 0
136 155 0
135 153 0
137 156 0
137 155 0
141 161 0
132 151 0
126 144 0
146 165 0
130 150 0
137 157 0
127 146 0
139 158 0
138 157 0
145 165 0
131 150 0
134 154 0
122 141 0
135 156 0
141 161 0
139 158 0
130 149 0
136 156 0
141 161 0
126 145 0
137 157 0
127 148 0
130 149 0
132 153 0
127 146 0
135 154 0
139 159 0
130 150 0
128 146 0
128 148 0
127 147 0
132 151 0
125 145 0
130 150 0
126 146 0
131 150 0
133 153 0
123 143 0
132 152 0
129 149 0
133 152 0
123 142 0
121 141 0
118 136 0
125 145 0
131 150 0
120 139 0
125 144 0
130 150 0
123 142 0
119 137 0
124 144 0
125 144 0
128 147 0
125 145 0
127 147 0
121 140 0
118 137 0
121 140 0
128 148 0
123 140 0
119 137 0
125 144 0
118 137 0
114 133 0
120 138 0
117 134 0
111 128 0
123 142 0
111 130 0
129 147 0
123 141 0
123 143 0
116 134 0
123 140 0
121 139 0
115 132 0
125 144 0
115 135 0
117 135 0
112 130 0
124 143 0
128 145 0
117 134 0
120 138 0
110 129 0
117 135 0
109 127 0
122 140 0
125 143 0
127 146 0
113 130 0
116 132 0
129 146 0
115 133 0
116 134 0
125 142 0
127 144 0
132 149 0
123 138 0
119 136 0
127 145 0
120 137 0
121 140 0
133 151 0
119 138 0
130 145 0
131 149 0
129 146 0
131 147 0
128 146 0
114 134 0
127 147 0
123 141 0
142 161 0
134 152 0
129 145 0
129 147 0
127 145 0
136 153 0
127 146 0
134 152 0
129 146 0
131 148 0
140 158 0
136 151 0
132 150 0
131 150 0
132 150 0
139 155 0
139 154 0
141 157 0
137 154 0
140 156 0
131 149 0
132 147 0
139 157 0
138 154 0
129 144 0
133 148 0
134 147 0
146 164 0
137 150 0
141 157 0
129 143 0
137 151 0
141 156 0
141 156 0
136 150 0
144 161 0
136 151 0
141 152 0
142 152 0
134 147 0
146 158 0
138 153 0
141 154 0
137 152 0
140 154 0
138 152 0
138 149 0
142 155 0
140 152 0
141 154 0
144 155 0
131 142 0
136 147 0
142 153 0
147 158 0
136 145 0
131 142 0
133 144 0
132 140 0
146 155 0
146 156 0
135 143 0
137 147 0
137 145 0
135 143 0
146 154 0
139 145 0
138 145 0
136 144 0
145 152 0
133 140 0
138 142 0
144 148 0
142 146 0
139 143 0
144 151 0
137 137 0
133 136 0
144 148 0
140 146 0
139 141 0
139 141 0
144 146 0
140 142 0
145 147 0
140 142 0
138 139 0
142 144 0
136 137 0
145 148 0
142 142 0
147 151 0
136 135 0
132 128 0
141 141 0
141 141 0
143 144 0
133 133 0
142 140 0
149 153 0
143 144 0
143 143 0
144 143 0
145 148 0
144 147 0
144 145 0
147 148 0
152 156 0
151 155 0
153 156 0
148 151 0
145 145 0
147 151 0
152 155 0
142 143 0
149 149 0
152 155 0
152 157 0
153 157 0
160 169 0
151 157 0
147 150 0
159 167 0
160 168 0
156 162 0
157 162 0
162 171 0
161 169 0
160 169 0
157 164 0
165 175 0
162 168 0
165 176 0
162 173 0
160 169 0
163 170 0
162 173 0
161 173 0
162 173 0
164 174 0
163 175 0
158 167 0
166 175 0
165 180 0
168 183 0
163 173 0
163 177 0
162 174 0
165 178 0
169 183 0
166 180 0
169 185 0
167 182 0
163 175 0
167 180 0
163 177 0
169 184 0
166 182 0
169 186 0
165 181 0
170 187 0
166 182 0
166 188 0
164 186 0
166 185 0
169 190 0
165 186 0
167 188 0
165 187 0
166 186 0
164 184 0
167 187 0
166 185 0
166 186 0
166 186 0
163 182 0
164 184 0
161 180 0
168 188 0
165 185 0
161 180 0
163 182 0
159 177 0
160 180 0
159 177 0
161 180 0
158 177 0
162 181 0
159 177 0
157 175 0
158 176 0
155 171 0
154 171 0
161 178 0
153 170 0
151 167 0
157 174 0
147 164 0
149 166 0
149 165 0
141 158 0
149 166 0
152 168 0
142 157 0
143 158 0
149 165 0
152 168 0
145 160 0
136 151 0
135 149 0
143 158 0
140 154 0
139 153 0
142 156 0
136 150 0
137 151 0
139 153 0
142 156 0
134 148 0
137 151 0
130 143 0
136 150 0
138 152 0
133 146 0
138 152 0
129 142 0
133 147 0
128 141 0
128 141 0
132 146 0
135 149 0
139 153 0
136 150 0
131 145 0
135 149 0
127 142 0
129 143 0
125 139 0
129 143 0
128 141 0
129 143 0
128 143 0
140 155 0
136 151 0
133 148 0
133 148 0
135 151 0
132 147 0
125 139 0
139 154 0
141 156 0
134 149 0
138 153 0
135 151 0
136 151 0
135 152 0
137 153 0
139 156 0
141 158 0
133 149 0
132 149 0
136 153 0
132 148 0
138 155 0
142 159 0
139 156 0
145 163 0
142 159 0
134 151 0
141 158 0
137 155 0
131 149 0
132 151 0
138 156 0
147 167 0
131 150 0
128 146 0
137 155 0
135 153 0
136 155 0
145 163 0
146 164 0
141 160 0
136 155 0
138 156 0
139 159 0
137 156 0
141 159 0
141 161 0
134 152 0
126 145 0
136 156 0
131 150 0
137 157 0
136 155 0
130 149 0
132 151 0
142 163 0
137 156 0
140 159 0
130 150 0
130 150 0
138 158 0
134 156 0
140 160 0
128 146 0
132 152 0
135 155 0
135 153 0
130 150 0
138 158 0
138 158 0
137 157 0
132 151 0
138 158 0
132 151 0
136 155 0
135 154 0
133 153 0
140 160 0
127 145 0
130 149 0
125 145 0
132 152 0
129 148 0
130 150 0
134 155 0
124 145 0
126 145 0
125 144 0
130 151 0
127 147 0
126 146 0
123 143 0
128 148 0
135 155 0
113 134 0
123 142 0
127 147 0
113 132 0
128 147 0
117 136 0
129 148 0
122 141 0
128 147 0
118 138 0
130 150 0
111 129 0
122 140 0
125 143 0
123 142 0
118 136 0
114 132 0
124 142 0
129 147 0
122 138 0
128 146 0
132 151 0
117 134 0
132 150 0
130 150 0
126 144 0
125 143 0
125 144 0
122 139 0
112 130 0
112 130 0
116 136 0
130 148 0
121 140 0
118 135 0
122 142 0
116 135 0
122 139 0
134 153 0
125 144 0
124 141 0
125 143 0
125 143 0
118 135 0
117 136 0
118 137 0
123 139 0
122 139 0
135 153 0
131 149 0
123 140 0
113 130 0
116 133 0
124 142 0
131 149 0
128 147 0
125 142 0
126 143 0
126 144 0
133 152 0
122 139 0
133 151 0
123 141 0
125 142 0
140 158 0
130 147 0
129 145 0
133 152 0
130 148 0
140 158 0
130 148 0
126 143 0
137 154 0
146 164 0
134 152 0
144 162 0
138 155 0
131 147 0
121 138 0
143 160 0
133 149 0
138 155 0
139 157 0
135 153 0
139 156 0
131 147 0
137 154 0
139 154 0
136 154 0
133 149 0
138 155 0
143 162 0
137 152 0
138 153 0
141 156 0
137 154 0
143 159 0
145 161 0
132 146 0
145 161 0
136 152 0
139 152 0
137 151 0
145 160 0
146 161 0
134 147 0
145 158 0
136 149 0
146 161 0
139 153 0
144 157 0
133 146 0
143 157 0
138 150 0
144 154 0
139 152 0
139 149 0
143 155 0
142 151 0
147 156 0
141 153 0
139 150 0
136 147 0
140 152 0
137 148 0
147 158 0
142 149 0
142 151 0
141 150 0
145 152 0
133 138 0
140 145 0
141 147 0
142 149 0
138 147 0
143 150 0
144 150 0
144 149 0
145 150 0
144 152 0
141 146 0
144 150 0
146 151 0
145 152 0
146 152 0
146 149 0
144 149 0
133 136 0
136 140 0
145 146 0
147 152 0
146 149 0
145 149 0
142 143 0
141 144 0
141 147 0
141 143 0
143 146 0
143 145 0
143 143 0
146 147 0
139 140 0
139 138 0
146 148 0
141 142 0
144 146 0
143 145 0
145 143 0
145 149 0
150 152 0
148 150 0
145 143 0
147 149 0
149 150 0
150 153 0
149 155 0
148 152 0
154 159 0
155 160 0
147 148 0
147 152 0
152 155 0
154 160 0
160 168 0
154 157 0
153 158 0
149 151 0
164 173 0
156 161 0
157 163 0
160 169 0
161 171 0
161 167 0
157 163 0
159 166 0
158 166 0
158 166 0
161 168 0
163 173 0
162 173 0
163 174 0
164 173 0
164 176 0
167 178 0
166 177 0
162 172 0
162 172 0
162 172 0
163 174 0
168 180 0
167 179 0
164 179 0
166 179 0
167 180 0
166 180 0
167 178 0
164 178 0
167 180 0
165 178 0
166 180 0
170 186 0
168 184 0
165 179 0
167 184 0
168 184 0
166 180 0
164 184 0
166 187 0
164 185 0
166 187 0
167 188 0
166 186 0
167 186 0
162 182 0
163 181 0
162 183 0
163 184 0
164 185 0
166 186 0
160 180 0
163 182 0
160 179 0
164 183 0
162 181 0
160 178 0
163 182 0
161 179 0
159 177 0
161 180 0
160 179 0
156 174 0
160 179 0
154 172 0
164 181 0
159 177 0
157 175 0
158 175 0
155 172 0
150 166 0
152 168 0
151 168 0
152 168 0
151 167 0
147 163 0
149 164 0
145 161 0
151 167 0
147 162 0
149 165 0
141 156 0
144 160 0
146 162 0
145 159 0
139 153 0
140 154 0
140 155 0
142 156 0
142 157 0
144 159 0
137 151 0
135 149 0
146 161 0
136 150 0
143 157 0
142 156 0
139 153 0
129 142 0
137 150 0
135 150 0
138 152 0
129 143 0
134 147 0
129 143 0
132 146 0
136 150 0
138 153 0
134 149 0
135 149 0
134 148 0
142 157 0
137 151 0
135 149 0
140 156 0
135 150 0
135 150 0
139 153 0
125 139 0
131 147 0
133 148 0
136 151 0
141 157 0
139 155 0
138 153 0
133 149 0
134 150 0
138 154 0
141 158 0
139 154 0
139 154 0
134 151 0
145 162 0
146 164 0
136 152 0
136 153 0
140 158 0
140 157 0
141 158 0
138 157 0
137 154 0
130 147 0
138 156 0
136 154 0
135 153 0
139 157 0
141 160 0
141 159 0
142 160 0
141 159 0
137 155 0
136 154 0
138 156 0
145 165 0
136 154 0
131 150 0
135 153 0
140 159 0
135 154 0
140 159 0
144 163 0
131 151 0
141 161 0
136 155 0
140 159 0
135 155 0
139 159 0
144 164 0
137 156 0
141 161 0
134 154 0
141 162 0
138 159 0
140 161 0
135 154 0
130 149 0
133 154 0
126 145 0
135 156 0
142 163 0
134 154 0
135 155 0
134 153 0
134 154 0
138 158 0
141 162 0
134 154 0
130 151 0
133 154 0
131 152 0
142 162 0
135 153 0
127 146 0
138 156 0
132 152 0
130 149 0
136 155 0
142 161 0
122 141 0
133 153 0
140 160 0
138 157 0
129 148 0
124 144 0
126 145 0
120 140 0
134 154 0
117 137 0
128 146 0
126 146 0
122 140 0
132 150 0
132 151 0
121 141 0
129 149 0
121 141 0
129 148 0
134 153 0
116 135 0
134 154 0
121 139 0
122 141 0
122 141 0
136 154 0
127 146 0
125 145 0
121 139 0
125 145 0
124 142 0
121 140 0
127 147 0
129 147 0
116 134 0
121 141 0
113 132 0
121 139 0
122 141 0
136 154 0
116 135 0
134 151 0
127 146 0
131 150 0
136 154 0
125 142 0
119 137 0
129 148 0
132 150 0
119 138 0
110 128 0
122 140 0
125 143 0
123 140 0
117 137 0
122 141 0
119 136 0
128 146 0
122 138 0
128 146 0
125 144 0
135 154 0
126 145 0
112 129 0
124 141 0
126 145 0
126 144 0
129 146 0
124 141 0
129 147 0
123 142 0
137 155 0
136 155 0
131 149 0
132 150 0
132 149 0
135 155 0
142 162 0
121 137 0
133 154 0
133 151 0
127 145 0
131 149 0
127 145 0
137 155 0
132 149 0
133 152 0
140 159 0
133 152 0
135 151 0
136 152 0
133 153 0
144 161 0
132 148 0
138 155 0
143 162 0
139 156 0
140 157 0
138 154 0
138 156 0
134 150 0
136 154 0
143 160 0
144 160 0
136 151 0
140 159 0
137 153 0
135 153 0
137 153 0
141 157 0
138 155 0
142 156 0
143 163 0
143 157 0
133 146 0
138 153 0
141 155 0
138 151 0
144 159 0
137 151 0
131 144 0
147 163 0
146 162 0
129 142 0
145 157 0
143 157 0
139 154 0
133 147 0
134 145 0
145 160 0
138 149 0
144 158 0
135 147 0
145 158 0
145 157 0
134 146 0
138 146 0
131 142 0
144 156 0
135 145 0
147 158 0
140 153 0
139 150 0
142 153 0
146 154 0
149 159 0
137 143 0
144 154 0
141 149 0
147 156 0
139 144 0
149 158 0
137 144 0
139 146 0
140 145 0
143 149 0
139 141 0
149 154 0
144 148 0
142 148 0
138 142 0
145 151 0
140 145 0
149 154 0
139 142 0
150 155 0
142 142 0
151 154 0
144 146 0
138 138 0
143 144 0
140 139 0
148 151 0
146 149 0
148 152 0
146 149 0
142 146 0
150 155 0
152 155 0
142 141 0
150 153 0
148 150 0
146 147 0
150 153 0
144 143 0
146 147 0
148 150 0
142 140 0
154 156 0
147 150 0
144 147 0
150 153 0
151 155 0
153 159 0
154 159 0
150 152 0
152 155 0
153 159 0
154 158 0
151 153 0
157 164 0
151 157 0
154 160 0
153 155 0
155 161 0
157 161 0
155 160 0
158 165 0
158 165 0
160 168 0
155 162 0
155 161 0
161 169 0
163 175 0
159 167 0
163 172 0
159 167 0
164 177 0
163 173 0
164 178 0
166 178 0
164 177 0
165 175 0
166 177 0
163 177 0
164 175 0
167 178 0
164 175 0
162 172 0
169 184 0
164 177 0
167 181 0
168 184 0
166 180 0
165 179 0
164 175 0
172 188 0
167 180 0
167 182 0
167 182 0
166 186 0
166 186 0
163 183 0
164 185 0
165 185 0
166 186 0
167 186 0
166 186 0
165 184 0
164 184 0
160 179 0
165 185 0
163 182 0
164 183 0
160 178 0
163 182 0
157 177 0
160 179 0
158 177 0
160 179 0
158 176 0
158 176 0
159 177 0
155 173 0
153 170 0
158 176 0
157 175 0
157 174 0
154 171 0
159 176 0
149 167 0
157 174 0
153 170 0
159 176 0
154 171 0
151 167 0
144 160 0
150 166 0
152 168 0
146 161 0
143 158 0
148 164 0
146 161 0
152 168 0
147 163 0
147 162 0
139 153 0
148 164 0
144 160 0
141 156 0
141 157 0
149 165 0
147 162 0
141 156 0
136 150 0
140 154 0
147 162 0
142 157 0
136 150 0
142 157 0
133 148 0
140 155 0
128 142 0
140 153 0
132 146 0
136 150 0
145 160 0
133 147 0
137 153 0
134 149 0
135 149 0
139 154 0
132 147 0
124 139 0
138 153 0
146 161 0
129 144 0
139 155 0
137 153 0
136 151 0
142 158 0
135 149 0
138 154 0
139 155 0
135 150 0
145 161 0
143 159 0
138 154 0
130 146 0
140 157 0
139 156 0
130 147 0
143 160 0
139 157 0
133 151 0
139 158 0
146 164 0
133 150 0
140 157 0
140 158 0
130 147 0
136 154 0
125 142 0
142 159 0
143 162 0
143 161 0
135 154 0
132 149 0
133 150 0
139 156 0
137 156 0
137 156 0
142 161 0
143 162 0
134 153 0
137 157 0
141 161 0
138 158 0
145 164 0
142 160 0
138 157 0
135 153 0
143 162 0
137 156 0
139 159 0
140 160 0
137 157 0
145 164 0
138 157 0
137 157 0
129 148 0
140 159 0
134 153 0
137 158 0
133 151 0
138 158 0
137 158 0
133 154 0
134 154 0
138 158 0
131 151 0
135 155 0
132 152 0
140 160 0
127 147 0
137 157 0
138 158 0
139 160 0
130 150 0
129 148 0
133 152 0
152 173 0
131 150 0
138 159 0
134 154 0
137 158 0
136 156 0
134 154 0
137 157 0
127 148 0
133 154 0
127 147 0
127 146 0
140 161 0
122 142 0
126 145 0
126 148 0
126 146 0
122 141 0
127 147 0
139 159 0
135 155 0
126 146 0
129 149 0
138 157 0
123 141 0
130 149 0
128 148 0
130 150 0
132 152 0
128 147 0
130 149 0
116 135 0
119 138 0
114 135 0
133 153 0
113 132 0
122 142 0
131 150 0
125 144 0
119 139 0
129 149 0
128 147 0
133 152 0
127 146 0
128 147 0
121 142 0
121 139 0
127 146 0
120 139 0
126 143 0
123 140 0
129 149 0
118 137 0
113 131 0
130 150 0
125 143 0
124 142 0
122 141 0
128 148 0
130 148 0
134 154 0
130 148 0
129 147 0
130 148 0
119 136 0
121 140 0
123 142 0
124 143 0
134 154 0
119 137 0
131 150 0
130 148 0
133 152 0
132 150 0
126 144 0
124 142 0
137 156 0
122 140 0
120 139 0
136 154 0
124 141 0
135 154 0
140 157 0
130 146 0
133 152 0
138 156 0
120 138 0
137 155 0
131 149 0
138 155 0
139 157 0
136 152 0
142 161 0
135 152 0
133 152 0
136 156 0
133 151 0
130 146 0
142 159 0
129 147 0
133 149 0
141 158 0
131 148 0
133 151 0
136 154 0
134 150 0
138 153 0
128 142 0
131 148 0
137 153 0
133 149 0
140 158 0
149 167 0
137 155 0
137 153 0
142 157 0
144 160 0
134 150 0
144 158 0
133 149 0
141 156 0
141 156 0
135 149 0
133 147 0
145 161 0
143 161 0
136 151 0
143 158 0
142 156 0
152 167 0
138 152 0
128 140 0
144 158 0
140 154 0
148 162 0
138 152 0
144 157 0
143 156 0
140 152 0
135 145 0
138 149 0
142 155 0
141 153 0
143 155 0
136 147 0
144 157 0
141 151 0
145 157 0
142 155 0
136 144 0
136 146 0
146 157 0
146 157 0
148 157 0
143 150 0
138 146 0
135 141 0
146 159 0
140 146 0
141 149 0
140 144 0
148 153 0
142 150 0
144 148 0
137 144 0
149 156 0
139 147 0
149 156 0
141 146 0
140 146 0
148 155 0
138 143 0
144 147 0
140 146 0
147 155 0
138 140 0
144 148 0
147 150 0
145 146 0
149 155 0
150 154 0
145 148 0
143 147 0
149 153 0
145 147 0
147 149 0
141 142 0
141 143 0
149 153 0
151 155 0
142 144 0
144 144 0
151 155 0
151 155 0
148 152 0
146 149 0
153 157 0
149 152 0
152 155 0
150 153 0
155 162 0
150 152 0
146 147 0
150 156 0
148 150 0
150 153 0
156 162 0
154 160 0
151 154 0
156 162 0
157 160 0
152 157 0
160 168 0
154 159 0
157 164 0
158 164 0
159 167 0
158 167 0
161 168 0
159 168 0
162 172 0
158 165 0
157 163 0
158 165 0
160 168 0
162 171 0
164 175 0
164 172 0
167 178 0
163 174 0
160 170 0
167 178 0
166 177 0
165 177 0
164 174 0
164 172 0
167 181 0
165 180 0
164 178 0
167 178 0
165 176 0
167 182 0
162 174 0
166 181 0
168 182 0
166 182 0
166 179 0
165 179 0
166 182 0
166 186 0
163 184 0
164 183 0
162 182 0
170 191 0
166 187 0
164 184 0
165 185 0
167 187 0
163 183 0
165 184 0
165 184 0
162 181 0
162 181 0
164 182 0
160 178 0
163 183 0
161 180 0
158 176 0
158 176 0
159 177 0
157 175 0
158 176 0
159 176 0
158 176 0
154 172 0
156 174 0
158 176 0
154 172 0
151 169 0
159 176 0
153 171 0
150 165 0
144 159 0
152 169 0
152 168 0
158 175 0
154 171 0
155 172 0
150 165 0
149 165 0
144 159 0
150 166 0
146 162 0
138 153 0
151 167 0
142 157 0
148 163 0
141 157 0
141 156 0
142 157 0
140 154 0
143 158 0
144 159 0
140 155 0
146 162 0
139 153 0
135 149 0
135 150 0
145 159 0
139 153 0
143 157 0
136 152 0
139 154 0
139 154 0
134 148 0
139 154 0
139 154 0
138 153 0
132 147 0
144 159 0
139 154 0
141 156 0
135 150 0
133 149 0
138 152 0
137 153 0
138 154 0
142 157 0
148 165 0
146 162 0
130 144 0
139 155 0
139 156 0
132 147 0
134 151 0
144 161 0
140 157 0
143 160 0
144 160 0
140 157 0
138 155 0
140 158 0
137 155 0
145 163 0
135 151 0
137 154 0
134 152 0
142 159 0
132 150 0
146 163 0
143 161 0
142 160 0
136 153 0
136 153 0
140 159 0
143 161 0
139 157 0
141 159 0
132 150 0
138 156 0
131 149 0
140 159 0
136 154 0
141 161 0
139 158 0
132 151 0
131 150 0
145 164 0
141 161 0
144 162 0
132 152 0
140 158 0
134 154 0
143 163 0
137 157 0
135 154 0
135 156 0
145 164 0
145 165 0
138 158 0
138 157 0
141 161 0
130 151 0
141 161 0
137 156 0
143 162 0
139 160 0
139 159 0
144 164 0
134 155 0
134 155 0
137 158 0
141 161 0
145 166 0
134 154 0
134 154 0
130 151 0
132 152 0
149 170 0
129 150 0
138 158 0
134 154 0
135 155 0
128 148 0
137 157 0
138 159 0
133 155 0
130 150 0
132 151 0
138 159 0
136 156 0
127 147 0
143 163 0
138 158 0
143 163 0
124 143 0
128 149 0
139 159 0
130 151 0
130 150 0
135 154 0
130 151 0
128 148 0
127 147 0
133 151 0
130 150 0
127 147 0
131 151 0
132 152 0
129 149 0
131 152 0
120 140 0
129 149 0
137 158 0
129 151 0
128 147 0
125 145 0
120 140 0
129 149 0
130 150 0
119 138 0
122 142 0
131 151 0
126 147 0
127 145 0
124 144 0
128 148 0
122 140 0
129 149 0
135 153 0
121 140 0
123 143 0
120 139 0
129 149 0
134 153 0
130 150 0
131 152 0
127 148 0
128 146 0
134 152 0
136 154 0
129 150 0
128 146 0
136 154 0
129 147 0
130 147 0
131 150 0
115 134 0
128 147 0
122 141 0
132 152 0
134 152 0
139 160 0
134 153 0
126 144 0
125 144 0
135 154 0
133 149 0
129 148 0
129 148 0
131 150 0
135 155 0
131 150 0
136 155 0
141 160 0
126 146 0
121 141 0
141 160 0
142 162 0
130 149 0
141 161 0
128 147 0
138 156 0
142 160 0
140 159 0
137 152 0
137 155 0
135 152 0
132 150 0
144 161 0
134 151 0
139 156 0
136 153 0
134 153 0
143 162 0
136 154 0
136 154 0
144 163 0
137 155 0
141 160 0
149 166 0
144 162 0
138 153 0
139 155 0
141 160 0
143 160 0
141 157 0
142 159 0
149 167 0
143 162 0
138 156 0
142 156 0
145 162 0
142 157 0
138 155 0
147 161 0
141 156 0
139 153 0
144 159 0
141 158 0
136 151 0
142 157 0
142 158 0
139 153 0
150 162 0
144 161 0
146 159 0
145 159 0
141 155 0
145 157 0
142 155 0
139 152 0
143 158 0
145 155 0
143 154 0
139 150 0
153 166 0
145 156 0
139 148 0
144 154 0
140 149 0
139 147 0
140 148 0
146 156 0
146 156 0
147 156 0
148 158 0
145 154 0
142 153 0
146 153 0
145 152 0
145 153 0
152 161 0
147 154 0
143 151 0
147 152 0
140 149 0
143 150 0
146 152 0
144 151 0
145 150 0
151 160 0
146 153 0
148 155 0
142 143 0
144 150 0
142 146 0
142 144 0
143 148 0
150 155 0
148 153 0
144 149 0
148 150 0
146 150 0
149 153 0
142 145 0
144 145 0
142 142 0
147 151 0
154 158 0
147 150 0
153 158 0
152 157 0
154 158 0
154 156 0
149 154 0
155 158 0
154 161 0
155 159 0
150 156 0
152 157 0
154 158 0
151 155 0
149 149 0
151 157 0
155 160 0
153 156 0
153 158 0
155 161 0
149 151 0
157 162 0
160 167 0
158 165 0
158 163 0
160 168 0
158 165 0
157 162 0
161 169 0
154 162 0
159 168 0
158 165 0
156 163 0
160 170 0
158 166 0
160 169 0
160 170 0
162 168 0
159 168 0
162 173 0
162 171 0
161 172 0
159 167 0
165 177 0
164 173 0
163 174 0
164 176 0
166 179 0
164 176 0
166 179 0
165 177 0
164 178 0
168 181 0
169 184 0
169 182 0
165 179 0
169 183 0
164 178 0
166 180 0
168 184 0
162 182 0
167 187 0
165 185 0
163 182 0
163 182 0
163 183 0
164 183 0
163 184 0
163 181 0
164 184 0
160 178 0
162 180 0
164 183 0
161 179 0
160 179 0
161 180 0
160 178 0
160 178 0
158 177 0
161 180 0
155 173 0
158 176 0
156 175 0
161 179 0
162 180 0
154 172 0
151 168 0
158 175 0
157 174 0
151 168 0
155 172 0
151 168 0
152 169 0
150 166 0
153 169 0
149 166 0
149 166 0
149 166 0
148 164 0
154 171 0
153 170 0
150 165 0
144 159 0
144 159 0
142 158 0
150 165 0
144 159 0
144 158 0
152 168 0
140 156 0
141 156 0
144 160 0
142 157 0
145 161 0
148 164 0
142 157 0
150 165 0
138 152 0
139 152 0
141 156 0
145 160 0
137 152 0
147 162 0
139 154 0
139 155 0
140 154 0
141 156 0
140 156 0
140 155 0
132 146 0
140 155 0
137 152 0
142 159 0
136 152 0
140 157 0
143 160 0
137 152 0
139 155 0
144 160 0
141 158 0
139 154 0
138 154 0
141 157 0
144 161 0
143 160 0
143 160 0
142 159 0
149 167 0
142 159 0
137 154 0
137 155 0
146 163 0
141 159 0
148 165 0
142 160 0
151 168 0
137 154 0
147 165 0
143 162 0
133 151 0
140 158 0
141 159 0
139 156 0
134 152 0
142 161 0
138 156 0
142 161 0
138 155 0
131 151 0
143 161 0
135 154 0
139 158 0
137 158 0
140 159 0
130 149 0
141 161 0
146 165 0
141 159 0
142 162 0
144 163 0
136 156 0
144 163 0
135 155 0
146 165 0
134 154 0
146 166 0
135 155 0
137 157 0
135 154 0
145 166 0
132 152 0
134 155 0
139 159 0
141 162 0
141 162 0
141 162 0
135 155 0
136 156 0
127 147 0
132 152 0
138 158 0
130 150 0
142 162 0
140 160 0
132 152 0
136 156 0
141 162 0
140 160 0
144 164 0
138 158 0
143 164 0
134 153 0
127 147 0
146 168 0
121 141 0
126 147 0
140 160 0
135 155 0
129 149 0
142 162 0
132 153 0
134 153 0
137 156 0
143 164 0
125 145 0
131 151 0
130 151 0
136 156 0
129 149 0
139 160 0
133 153 0
135 155 0
131 151 0
134 154 0
129 148 0
141 161 0
123 144 0
126 147 0
130 150 0
130 149 0
128 149 0
130 150 0
128 148 0
128 147 0
133 152 0
135 156 0
135 155 0
133 153 0
129 148 0
137 157 0
127 146 0
129 149 0
126 145 0
133 152 0
127 147 0
130 150 0
127 145 0
130 150 0
129 148 0
131 151 0
131 152 0
129 148 0
132 152 0
132 151 0
125 143 0
116 134 0
129 149 0
123 142 0
130 150 0
111 130 0
126 143 0
129 147 0
133 153 0
126 145 0
127 148 0
125 144 0
142 162 0
137 156 0
127 145 0
122 142 0
124 142 0
120 139 0
130 148 0
134 153 0
130 148 0
136 154 0
138 157 0
128 147 0
132 151 0
133 153 0
136 154 0
140 157 0
130 147 0
130 149 0
132 150 0
135 154 0
147 166 0
136 154 0
133 151 0
140 159 0
139 156 0
134 154 0
134 152 0
139 156 0
122 138 0
137 155 0
139 157 0
129 146 0
139 158 0
137 153 0
146 163 0
135 152 0
132 149 0
148 166 0
135 155 0
141 159 0
129 146 0
147 165 0
131 149 0
133 152 0
137 154 0
138 154 0
141 157 0
129 144 0
145 162 0
139 155 0
136 151 0
151 168 0
137 154 0
136 154 0
140 156 0
141 159 0
132 147 0
141 156 0
141 157 0
149 165 0
145 161 0
142 158 0
144 160 0
140 154 0
145 160 0
146 159 0
137 151 0
141 156 0
148 163 0
142 156 0
140 156 0
138 151 0
146 160 0
142 155 0
145 159 0
141 154 0
140 156 0
140 151 0
152 166 0
145 161 0
140 153 0
140 153 0
147 157 0
153 164 0
154 164 0
139 150 0
145 155 0
140 152 0
145 158 0
143 151 0
136 144 0
148 162 0
143 153 0
139 149 0
146 158 0
146 154 0
139 150 0
144 152 0
145 152 0
153 163 0
150 160 0
157 170 0
141 148 0
149 157 0
150 153 0
149 157 0
140 142 0
145 150 0
146 152 0
145 150 0
144 149 0
153 159 0
143 149 0
150 157 0
148 156 0
156 164 0
148 152 0
154 161 0
149 151 0
144 148 0
155 162 0
152 160 0
148 150 0
148 151 0
149 155 0
149 155 0
153 159 0
151 157 0
148 153 0
151 155 0
148 152 0
148 153 0
155 162 0
149 152 0
151 156 0
152 153 0
151 154 0
151 156 0
144 145 0
157 162 0
149 150 0
156 162 0
154 157 0
154 157 0
152 156 0
156 163 0
155 161 0
155 162 0
151 154 0
158 166 0
156 164 0
159 167 0
160 167 0
158 167 0
163 172 0
157 163 0
162 171 0
157 164 0
159 167 0
164 174 0
160 167 0
161 169 0
163 173 0
160 166 0
160 167 0
167 179 0
166 179 0
159 169 0
160 169 0
163 175 0
165 177 0
162 173 0
161 169 0
162 175 0
167 180 0
167 178 0
162 174 0
165 177 0
168 181 0
168 183 0
163 175 0
165 178 0
166 178 0
165 180 0
162 183 0
164 184 0
163 182 0
165 185 0
164 183 0
163 183 0
155 174 0
163 183 0
163 182 0
166 185 0
164 183 0
163 182 0
164 183 0
159 177 0
163 181 0
162 181 0
161 180 0
157 176 0
161 179 0
157 175 0
156 175 0
157 175 0
160 178 0
156 174 0
155 173 0
158 176 0
159 177 0
152 170 0
154 171 0
159 176 0
165 183 0
153 170 0
149 167 0
153 169 0
154 170 0
150 167 0
154 171 0
153 170 0
147 163 0
150 166 0
145 161 0
151 167 0
147 163 0
147 163 0
143 158 0
144 159 0
141 156 0
141 156 0
143 158 0
141 156 0
143 158 0
142 157 0
147 162 0
145 160 0
145 161 0
147 163 0
147 163 0
138 153 0
142 157 0
144 159 0
135 149 0
142 158 0
135 150 0
146 162 0
146 162 0
144 160 0
148 164 0
142 158 0
143 159 0
144 159 0
145 160 0
145 161 0
141 157 0
143 159 0
146 163 0
140 156 0
145 162 0
142 159 0
141 158 0
135 152 0
141 159 0
137 154 0
143 161 0
145 163 0
146 163 0
141 157 0
144 162 0
137 153 0
153 171 0
148 166 0
138 156 0
146 164 0
141 159 0
138 155 0
134 152 0
144 160 0
136 154 0
144 162 0
138 156 0
126 143 0
145 163 0
140 158 0
144 163 0
135 154 0
142 161 0
149 169 0
139 156 0
150 169 0
144 163 0
143 162 0
145 164 0
139 159 0
144 163 0
141 160 0
147 167 0
134 153 0
136 155 0
142 162 0
148 167 0
140 160 0
133 153 0
140 159 0
133 152 0
143 163 0
137 157 0
141 160 0
140 161 0
142 162 0
141 160 0
137 156 0
135 155 0
142 162 0
143 163 0
141 160 0
139 160 0
141 161 0
141 162 0
142 163 0
141 161 0
151 171 0
133 154 0
137 157 0
139 159 0
143 162 0
137 157 0
139 159 0
139 159 0
140 159 0
131 151 0
145 166 0
138 159 0
146 168 0
133 152 0
140 161 0
135 155 0
145 166 0
139 158 0
139 160 0
140 160 0
132 151 0
141 162 0
141 160 0
131 151 0
129 148 0
135 153 0
134 153 0
132 152 0
127 146 0
130 151 0
138 158 0
139 158 0
121 141 0
136 156 0
134 153 0
134 155 0
138 159 0
129 149 0
133 153 0
129 149 0
136 156 0
126 146 0
137 157 0
132 151 0
129 148 0
130 150 0
125 144 0
129 149 0
120 139 0
132 152 0
124 144 0
131 150 0
122 143 0
127 145 0
129 150 0
126 145 0
126 146 0
130 149 0
128 146 0
115 134 0
130 151 0
129 148 0
130 149 0
133 152 0
131 151 0
131 150 0
135 156 0
132 151 0
131 150 0
127 147 0
131 149 0
119 137 0
126 146 0
137 158 0
134 153 0
122 142 0
134 154 0
128 148 0
131 150 0
132 151 0
143 163 0
129 149 0
123 142 0
130 148 0
126 145 0
125 143 0
135 153 0
140 159 0
137 156 0
135 155 0
136 155 0
132 152 0
134 153 0
132 151 0
136 155 0
142 161 0
131 150 0
135 154 0
142 163 0
130 149 0
137 156 0
137 156 0
138 156 0
139 157 0
139 158 0
139 159 0
137 155 0
141 160 0
135 152 0
132 149 0
133 151 0
137 156 0
134 150 0
136 153 0
139 156 0
140 158 0
141 158 0
136 153 0
138 157 0
140 157 0
136 154 0
143 162 0
140 160 0
144 162 0
145 164 0
144 164 0
142 159 0
133 149 0
137 154 0
143 160 0
142 160 0
144 158 0
140 157 0
146 161 0
141 157 0
145 160 0
140 157 0
145 163 0
135 151 0
149 168 0
134 148 0
145 161 0
139 156 0
139 154 0
143 159 0
141 155 0
140 156 0
141 155 0
142 157 0
142 157 0
145 161 0
136 149 0
139 153 0
151 163 0
150 163 0
150 162 0
140 152 0
151 165 0
152 164 0
145 157 0
144 157 0
149 161 0
145 156 0
149 162 0
147 160 0
154 166 0
145 157 0
137 146 0
148 156 0
153 166 0
139 149 0
146 156 0
144 152 0
142 152 0
148 159 0
149 158 0
140 146 0
148 156 0
147 157 0
151 160 0
154 162 0
146 154 0
146 155 0
147 156 0
144 151 0
147 153 0
147 154 0
150 157 0
150 156 0
144 150 0
144 150 0
145 151 0
143 150 0
147 152 0
147 151 0
151 157 0
151 156 0
145 150 0
151 158 0
146 149 0
153 159 0
152 156 0
147 151 0
149 153 0
146 149 0
138 141 0
148 155 0
148 152 0
148 152 0
154 158 0
154 156 0
152 158 0
151 155 0
152 156 0
153 159 0
155 159 0
153 154 0
151 155 0
151 153 0
158 164 0
152 157 0
152 159 0
158 164 0
154 159 0
156 163 0
158 163 0
157 163 0
157 164 0
157 162 0
157 161 0
159 168 0
166 176 0
162 172 0
157 165 0
161 170 0
154 159 0
161 169 0
159 169 0
157 162 0
160 168 0
166 178 0
161 172 0
162 171 0
159 169 0
163 176 0
158 166 0
159 171 0
162 172 0
162 172 0
163 175 0
161 167 0
166 177 0
166 180 0
162 175 0
161 173 0
160 171 0
164 176 0
166 182 0
164 178 0
167 182 0
166 180 0
160 179 0
165 184 0
165 184 0
162 182 0
164 183 0
165 185 0
169 188 0
163 182 0
164 182 0
164 184 0
159 179 0
161 179 0
159 178 0
160 178 0
158 176 0
157 175 0
157 176 0
159 177 0
160 178 0
157 174 0
157 175 0
160 178 0
158 176 0
157 175 0
157 175 0
155 173 0
153 171 0
156 174 0
151 168 0
156 173 0
153 170 0
151 168 0
152 169 0
155 172 0
154 172 0
149 166 0
152 169 0
145 162 0
143 159 0
152 168 0
140 156 0
156 172 0
155 172 0
144 159 0
142 158 0
148 163 0
148 164 0
146 162 0
141 157 0
147 162 0
142 158 0
148 164 0
141 156 0
150 165 0
148 164 0
146 162 0
145 160 0
147 163 0
147 163 0
146 161 0
140 155 0
148 163 0
146 162 0
141 157 0
141 157 0
143 158 0
137 153 0
138 154 0
137 153 0
142 158 0
143 159 0
140 156 0
139 155 0
140 158 0
146 163 0
141 158 0
136 152 0
141 158 0
143 160 0
142 159 0
147 165 0
140 157 0
137 154 0
148 165 0
139 157 0
141 159 0
142 160 0
147 166 0
130 147 0
145 163 0
144 163 0
142 160 0
144 163 0
143 161 0
136 153 0
152 170 0
139 158 0
137 155 0
142 161 0
144 162 0
141 160 0
139 157 0
141 159 0
141 161 0
138 156 0
143 161 0
145 164 0
126 145 0
144 163 0
148 168 0
140 158 0
145 164 0
143 163 0
139 157 0
145 165 0
138 158 0
142 162 0
147 167 0
143 164 0
146 167 0
147 166 0
144 165 0
132 152 0
147 168 0
135 154 0
145 166 0
141 160 0
136 157 0
137 158 0
146 165 0
145 165 0
138 159 0
144 164 0
146 166 0
154 173 0
136 158 0
141 160 0
137 158 0
133 153 0
139 159 0
138 159 0
134 154 0
139 159 0
136 157 0
137 158 0
144 166 0
138 158 0
133 153 0
134 155 0
136 157 0
138 158 0
136 156 0
129 149 0
135 156 0
137 157 0
129 148 0
137 158 0
132 153 0
137 158 0
132 153 0
137 157 0
132 152 0
134 155 0
132 153 0
132 152 0
128 148 0
120 140 0
131 151 0
135 156 0
134 155 0
127 147 0
128 149 0
140 160 0
133 154 0
136 156 0
126 146 0
139 158 0
138 158 0
127 146 0
135 156 0
137 157 0
131 150 0
124 143 0
137 158 0
130 150 0
125 143 0
130 151 0
129 149 0
136 155 0
132 153 0
129 148 0
127 147 0
132 152 0
122 140 0
138 156 0
136 155 0
137 155 0
122 140 0
126 146 0
120 140 0
133 152 0
134 153 0
132 152 0
136 157 0
124 145 0
134 153 0
124 144 0
126 146 0
120 139 0
125 144 0
134 153 0
137 155 0
124 144 0
132 149 0
135 154 0
134 152 0
134 153 0
123 143 0
135 155 0
134 153 0
141 160 0
151 172 0
133 153 0
132 153 0
144 164 0
135 154 0
133 153 0
137 157 0
135 153 0
129 148 0
129 147 0
124 143 0
131 149 0
127 143 0
137 157 0
142 161 0
145 164 0
140 159 0
131 147 0
137 156 0
131 148 0
136 155 0
135 153 0
136 155 0
140 160 0
135 153 0
142 160 0
143 160 0
137 156 0
135 153 0
142 160 0
140 158 0
141 158 0
152 171 0
146 165 0
140 157 0
145 163 0
142 161 0
140 159 0
141 160 0
138 156 0
144 162 0
145 162 0
143 160 0
138 156 0
138 156 0
144 162 0
145 163 0
131 148 0
142 160 0
148 165 0
144 160 0
134 151 0
134 150 0
142 159 0
145 160 0
150 165 0
136 153 0
145 162 0
145 160 0
149 166 0
139 156 0
143 160 0
141 157 0
145 158 0
138 154 0
133 148 0
143 159 0
139 154 0
150 167 0
147 163 0
150 165 0
150 165 0
149 161 0
149 164 0
146 160 0
142 155 0
146 157 0
141 154 0
149 162 0
138 150 0
146 157 0
148 162 0
149 160 0
155 167 0
139 150 0
147 158 0
147 159 0
143 153 0
141 152 0
142 150 0
150 162 0
148 159 0
147 154 0
143 155 0
147 156 0
148 158 0
146 154 0
140 149 0
147 159 0
146 155 0
146 156 0
150 159 0
140 146 0
145 150 0
152 160 0
148 156 0
145 153 0
149 156 0
147 153 0
154 162 0
154 161 0
150 156 0
151 156 0
145 152 0
150 154 0
146 154 0
147 154 0
154 162 0
152 158 0
149 154 0
152 157 0
146 150 0
150 155 0
147 151 0
143 146 0
158 167 0
147 150 0
153 158 0
148 150 0
151 156 0
150 153 0
147 150 0
155 160 0
155 162 0
154 158 0
150 154 0
153 159 0
153 160 0
155 160 0
155 161 0
152 157 0
150 155 0
151 154 0
159 167 0
151 155 0
150 155 0
151 155 0
164 175 0
160 170 0
157 163 0
159 169 0
159 168 0
160 170 0
159 168 0
160 167 0
160 170 0
159 167 0
161 170 0
158 167 0
159 170 0
161 170 0
164 173 0
166 178 0
163 174 0
166 177 0
161 171 0
165 177 0
162 175 0
160 171 0
163 176 0
162 173 0
166 176 0
165 179 0
165 176 0
167 180 0
163 174 0
167 181 0
168 183 0
165 177 0
163 183 0
162 182 0
163 182 0
162 182 0
164 183 0
163 182 0
163 183 0
168 187 0
158 176 0
160 179 0
162 181 0
163 181 0
159 178 0
158 177 0
158 176 0
159 177 0
166 185 0
159 178 0
158 177 0
160 178 0
161 180 0
158 176 0
157 174 0
158 176 0
153 170 0
151 168 0
157 175 0
156 173 0
150 167 0
155 172 0
155 172 0
154 171 0
153 171 0
154 171 0
157 174 0
155 171 0
150 166 0
141 156 0
154 170 0
148 164 0
151 168 0
147 163 0
146 163 0
151 167 0
147 163 0
157 174 0
149 165 0
143 159 0
144 161 0
140 156 0
141 157 0
153 169 0
146 163 0
142 158 0
145 160 0
146 161 0
151 168 0
140 156 0
140 156 0
142 157 0
147 164 0
140 156 0
144 159 0
144 161 0
144 160 0
146 164 0
155 172 0
146 163 0
146 163 0
141 157 0
141 156 0
146 163 0
140 155 0
141 157 0
139 155 0
145 162 0
147 164 0
149 166 0
145 162 0
137 155 0
142 159 0
135 152 0
143 161 0
142 161 0
139 157 0
139 156 0
141 157 0
141 160 0
147 165 0
143 161 0
146 163 0
148 167 0
144 163 0
141 160 0
145 164 0
141 159 0
146 166 0
146 166 0
145 164 0
139 159 0
145 166 0
147 167 0
139 159 0
144 163 0
136 155 0
140 159 0
130 149 0
135 155 0
144 163 0
141 159 0
145 165 0
137 157 0
136 155 0
148 168 0
152 172 0
145 164 0
143 162 0
144 162 0
137 158 0
145 165 0
143 162 0
137 157 0
146 165 0
127 146 0
141 161 0
143 163 0
140 159 0
150 171 0
142 163 0
142 163 0
142 162 0
142 163 0
139 160 0
140 158 0
137 158 0
132 152 0
143 163 0
141 162 0
136 156 0
142 164 0
145 165 0
138 158 0
141 161 0
137 157 0
139 159 0
150 169 0
143 164 0
136 155 0
139 159 0
147 168 0
136 158 0
138 158 0
138 159 0
136 157 0
143 163 0
139 160 0
134 154 0
134 155 0
141 162 0
127 148 0
141 161 0
135 156 0
137 157 0
139 160 0
132 152 0
140 160 0
135 155 0
135 156 0
124 143 0
132 152 0
138 158 0
136 156 0
131 152 0
137 157 0
142 163 0
139 159 0
129 149 0
126 147 0
129 150 0
123 143 0
132 152 0
116 137 0
131 151 0
129 149 0
135 155 0
136 157 0
115 135 0
135 154 0
136 157 0
137 158 0
127 148 0
136 156 0
133 152 0
124 143 0
132 152 0
125 144 0
130 150 0
128 147 0
124 144 0
129 150 0
126 145 0
136 156 0
136 155 0
132 152 0
135 153 0
128 149 0
134 152 0
138 157 0
136 157 0
130 151 0
142 162 0
126 145 0
128 147 0
139 159 0
133 152 0
136 156 0
137 155 0
137 158 0
132 151 0
143 163 0
128 148 0
136 154 0
130 150 0
130 149 0
132 151 0
138 157 0
127 144 0
142 160 0
132 151 0
131 149 0
135 155 0
140 158 0
139 157 0
132 152 0
141 160 0
141 159 0
136 155 0
145 163 0
137 158 0
126 143 0
136 155 0
141 160 0
139 158 0
128 147 0
140 156 0
135 153 0
143 163 0
133 151 0
125 141 0
148 167 0
142 162 0
140 159 0
144 162 0
143 160 0
136 155 0
142 160 0
137 153 0
144 162 0
134 153 0
144 161 0
145 164 0
143 162 0
139 156 0
148 167 0
144 161 0
141 159 0
140 155 0
148 167 0
136 154 0
144 160 0
146 163 0
146 164 0
151 169 0
141 158 0
148 166 0
145 162 0
144 159 0
152 171 0
147 164 0
147 161 0
150 168 0
149 165 0
141 156 0
154 171 0
142 156 0
152 169 0
143 156 0
149 167 0
143 157 0
149 166 0
148 163 0
140 154 0
146 164 0
149 165 0
137 149 0
151 166 0
153 166 0
145 156 0
150 162 0
147 162 0
145 157 0
141 153 0
146 160 0
149 164 0
149 163 0
141 152 0
143 156 0
154 166 0
132 141 0
161 176 0
151 162 0
147 158 0
153 168 0
145 155 0
153 164 0
145 155 0
142 150 0
156 167 0
146 159 0
155 167 0
144 154 0
150 160 0
148 155 0
147 154 0
152 163 0
150 158 0
149 159 0
148 156 0
142 149 0
149 156 0
147 158 0
150 157 0
148 156 0
149 156 0
152 156 0
151 158 0
152 158 0
149 153 0
150 154 0
152 159 0
144 149 0
151 156 0
147 153 0
152 160 0
154 161 0
147 151 0
151 159 0
156 163 0
148 155 0
155 161 0
153 157 0
149 153 0
148 152 0
152 158 0
157 164 0
151 156 0
154 159 0
151 155 0
152 157 0
155 161 0
152 157 0
156 161 0
151 155 0
160 166 0
154 161 0
156 161 0
158 167 0
156 164 0
155 159 0
163 173 0
157 167 0
163 173 0
151 156 0
161 171 0
157 163 0
156 164 0
160 167 0
163 173 0
159 167 0
159 169 0
163 173 0
164 173 0
155 162 0
161 174 0
161 174 0
167 175 0
164 174 0
162 174 0
163 174 0
168 180 0
160 169 0
162 175 0
163 174 0
164 176 0
167 181 0
159 170 0
164 176 0
165 177 0
166 180 0
163 176 0
163 182 0
165 184 0
163 183 0
166 186 0
163 183 0
159 178 0
156 175 0
158 176 0
162 180 0
157 176 0
159 178 0
160 179 0
158 177 0
163 181 0
164 183 0
157 176 0
157 174 0
158 175 0
158 176 0
157 174 0
158 176 0
156 174 0
155 173 0
159 176 0
151 168 0
155 173 0
152 170 0
153 171 0
152 169 0
152 169 0
153 169 0
151 168 0
156 173 0
146 163 0
153 170 0
147 163 0
145 161 0
150 167 0
152 169 0
144 160 0
149 166 0
148 165 0
150 165 0
149 166 0
146 162 0
146 163 0
147 163 0
148 164 0
148 163 0
147 163 0
153 169 0
148 164 0
151 168 0
141 158 0
144 160 0
137 154 0
148 163 0
149 165 0
143 159 0
146 162 0
147 163 0
142 158 0
144 161 0
143 161 0
149 165 0
141 158 0
138 154 0
148 166 0
144 162 0
149 166 0
143 160 0
148 165 0
146 162 0
136 153 0
142 159 0
147 164 0
143 160 0
147 165 0
139 157 0
145 162 0
141 159 0
144 162 0
145 163 0
141 160 0
148 167 0
148 166 0
144 163 0
144 162 0
140 159 0
141 160 0
146 164 0
148 168 0
144 162 0
141 159 0
149 168 0
143 162 0
136 154 0
150 169 0
145 164 0
142 161 0
147 165 0
145 163 0
142 160 0
142 161 0
149 169 0
141 160 0
145 165 0
143 162 0
141 160 0
145 165 0
147 167 0
140 159 0
137 156 0
147 167 0
147 167 0
127 146 0
150 170 0
139 159 0
140 159 0
146 167 0
150 171 0
143 164 0
135 155 0
145 166 0
151 170 0
137 157 0
144 164 0
139 159 0
140 161 0
141 162 0
141 162 0
141 161 0
143 163 0
144 163 0
144 165 0
144 165 0
138 159 0
142 163 0
139 161 0
143 164 0
145 166 0
134 154 0
139 159 0
142 162 0
127 147 0
135 156 0
153 173 0
129 150 0
138 160 0
136 156 0
142 163 0
138 158 0
131 151 0
142 164 0
144 165 0
128 147 0
143 164 0
134 155 0
140 161 0
146 166 0
134 155 0
136 157 0
139 160 0
137 157 0
130 149 0
139 158 0
133 155 0
146 166 0
128 148 0
129 149 0
137 157 0
131 152 0
133 154 0
134 154 0
137 157 0
139 160 0
122 141 0
140 160 0
135 156 0
137 156 0
134 155 0
145 165 0
137 158 0
133 153 0
134 155 0
135 156 0
131 152 0
135 155 0
135 155 0
134 154 0
129 149 0
140 161 0
139 159 0
128 148 0
128 149 0
135 154 0
144 163 0
139 158 0
140 160 0
140 160 0
128 148 0
141 163 0
130 150 0
131 149 0
136 156 0
125 145 0
137 157 0
124 144 0
136 156 0
134 154 0
137 157 0
131 149 0
129 149 0
137 157 0
121 139 0
134 154 0
139 160 0
128 149 0
135 156 0
131 151 0
135 155 0
130 151 0
142 163 0
133 152 0
128 148 0
136 155 0
127 147 0
133 152 0
141 161 0
128 147 0
135 154 0
142 160 0
128 147 0
125 143 0
136 155 0
138 156 0
143 163 0
148 167 0
128 147 0
134 152 0
140 161 0
138 157 0
126 145 0
135 155 0
134 149 0
145 163 0
132 149 0
140 159 0
138 154 0
135 153 0
139 157 0
148 167 0
142 161 0
144 162 0
143 162 0
143 162 0
137 156 0
144 161 0
142 160 0
139 157 0
138 154 0
135 153 0
145 164 0
151 170 0
136 154 0
142 158 0
145 162 0
138 155 0
144 164 0
146 165 0
139 157 0
144 160 0
140 155 0
138 155 0
147 165 0
144 161 0
149 164 0
153 170 0
142 156 0
146 163 0
144 159 0
143 161 0
144 161 0
139 155 0
146 163 0
147 163 0
148 165 0
147 165 0
139 152 0
150 168 0
146 159 0
146 162 0
149 163 0
150 166 0
155 171 0
149 163 0
149 163 0
148 160 0
145 157 0
142 155 0
146 160 0
152 166 0
148 162 0
143 157 0
148 162 0
146 160 0
146 157 0
142 154 0
133 146 0
150 162 0
144 155 0
148 161 0
143 153 0
149 159 0
148 158 0
151 161 0
137 148 0
146 155 0
150 159 0
149 159 0
148 157 0
152 161 0
152 161 0
139 146 0
147 156 0
147 156 0
144 153 0
154 164 0
148 155 0
147 156 0
156 166 0
146 151 0
153 163 0
149 156 0
146 151 0
148 156 0
143 149 0
147 153 0
155 163 0
153 161 0
150 158 0
144 148 0
147 153 0
149 154 0
152 158 0
154 159 0
155 160 0
149 155 0
147 154 0
155 160 0
153 160 0
151 155 0
151 155 0
155 162 0
157 162 0
146 151 0
156 164 0
159 165 0
155 158 0
153 159 0
151 157 0
155 160 0
157 165 0
162 169 0
161 171 0
156 163 0
158 165 0
154 160 0
159 166 0
164 172 0
155 161 0
156 163 0
161 167 0
163 173 0
162 171 0
160 169 0
161 170 0
160 166 0
161 170 0
162 172 0
162 172 0
163 174 0
162 174 0
163 172 0
160 170 0
159 169 0
166 180 0
163 171 0
159 168 0
163 174 0
163 172 0
161 172 0
166 180 0
162 173 0
164 177 0
165 178 0
165 177 0
165 178 0
168 181 0
165 177 0
164 184 0
163 182 0
166 185 0
161 179 0
161 180 0
163 183 0
165 185 0
163 181 0
161 180 0
159 178 0
163 182 0
163 180 0
161 179 0
158 177 0
162 181 0
161 179 0
163 181 0
159 177 0
158 176 0
159 176 0
155 173 0
151 169 0
158 176 0
152 169 0
160 178 0
151 169 0
152 169 0
155 173 0
153 170 0
150 167 0
156 172 0
150 166 0
152 169 0
154 171 0
151 168 0
150 167 0
155 172 0
146 162 0
149 165 0
152 169 0
156 173 0
147 163 0
145 162 0
149 164 0
151 168 0
146 162 0
147 163 0
150 167 0
144 160 0
145 162 0
150 168 0
148 164 0
144 160 0
143 159 0
147 165 0
149 166 0
144 160 0
142 159 0
150 168 0
145 162 0
148 165 0
144 160 0
148 165 0
148 165 0
147 164 0
141 157 0
143 159 0
152 169 0
145 163 0
153 171 0
141 157 0
150 168 0
148 166 0
151 169 0
143 161 0
140 157 0
149 168 0
141 158 0
148 167 0
150 169 0
141 157 0
142 162 0
139 157 0
150 169 0
153 171 0
141 159 0
134 151 0
143 163 0
147 166 0
148 166 0
143 161 0
154 173 0
138 156 0
140 158 0
140 159 0
138 157 0
145 164 0
138 157 0
142 160 0
153 173 0
150 169 0
145 164 0
152 172 0
142 161 0
149 167 0
142 162 0
146 166 0
142 162 0
145 165 0
143 163 0
144 164 0
143 163 0
141 161 0
151 172 0
146 166 0
141 160 0
140 160 0
146 166 0
148 169 0
144 164 0
144 164 0
137 157 0
141 162 0
141 162 0
146 165 0
144 164 0
135 155 0
140 160 0
142 163 0
144 165 0
139 160 0
144 165 0
132 152 0
137 157 0
141 159 0
128 148 0
136 157 0
155 177 0
142 162 0
138 159 0
131 151 0
139 159 0
142 162 0
144 166 0
138 159 0
150 171 0
141 162 0
140 161 0
138 158 0
134 155 0
136 158 0
142 163 0
141 161 0
136 157 0
143 165 0
139 159 0
140 161 0
142 162 0
150 171 0
137 157 0
139 160 0
139 160 0
145 164 0
134 156 0
131 152 0
131 153 0
137 158 0
146 166 0
131 150 0
145 166 0
148 169 0
127 147 0
128 148 0
132 153 0
133 153 0
138 159 0
137 157 0
133 154 0
139 159 0
139 159 0
124 143 0
129 149 0
138 159 0
135 155 0
130 150 0
143 164 0
136 157 0
132 153 0
139 160 0
136 156 0
133 152 0
135 156 0
132 153 0
144 164 0
129 147 0
124 144 0
128 147 0
136 156 0
128 148 0
135 154 0
130 151 0
133 153 0
135 154 0
137 157 0
137 156 0
133 152 0
127 147 0
138 157 0
132 152 0
131 151 0
123 143 0
140 160 0
136 154 0
121 141 0
136 156 0
129 148 0
125 144 0
136 155 0
134 154 0
129 149 0
131 152 0
136 155 0
137 158 0
139 158 0
137 157 0
133 153 0
139 156 0
131 149 0
140 160 0
134 154 0
138 158 0
145 163 0
148 168 0
130 149 0
135 156 0
134 154 0
137 156 0
143 165 0
135 155 0
140 157 0
140 158 0
126 145 0
135 154 0
138 156 0
143 162 0
139 156 0
131 150 0
138 158 0
146 164 0
141 159 0
142 160 0
139 156 0
144 164 0
135 153 0
145 165 0
132 150 0
142 160 0
150 168 0
146 165 0
142 160 0
136 153 0
137 154 0
141 158 0
144 163 0
139 156 0
139 158 0
142 161 0
147 163 0
145 163 0
149 166 0
151 168 0
148 165 0
158 176 0
142 159 0
143 160 0
145 164 0
146 164 0
139 154 0
150 165 0
146 164 0
150 168 0
146 163 0
139 152 0
147 165 0
149 164 0
142 157 0
140 156 0
141 156 0
149 167 0
146 162 0
140 155 0
143 157 0
153 169 0
148 164 0
149 164 0
144 159 0
150 166 0
148 161 0
152 167 0
149 164 0
149 164 0
153 167 0
142 154 0
149 160 0
141 152 0
146 162 0
143 152 0
155 168 0
147 164 0
152 166 0
139 153 0
153 164 0
154 167 0
141 153 0
149 160 0
143 156 0
145 156 0
153 163 0
151 161 0
143 154 0
148 158 0
148 158 0
147 158 0
148 157 0
151 161 0
146 155 0
147 155 0
142 151 0
149 160 0
151 159 0
145 155 0
150 159 0
148 156 0
151 161 0
149 160 0
149 157 0
154 162 0
152 161 0
149 155 0
151 156 0
154 162 0
147 154 0
153 159 0
154 161 0
150 155 0
149 155 0
154 162 0
158 165 0
152 158 0
153 161 0
153 159 0
156 160 0
159 169 0
156 161 0
158 166 0
157 164 0
153 162 0
156 162 0
158 166 0
158 167 0
158 168 0
157 163 0
159 167 0
156 164 0
159 166 0
159 167 0
157 161 0
159 167 0
160 168 0
159 166 0
158 166 0
160 171 0
160 166 0
160 167 0
155 159 0
161 169 0
157 164 0
153 161 0
158 168 0
159 169 0
161 170 0
159 164 0
158 164 0
160 170 0
163 174 0
160 171 0
161 173 0
164 176 0
160 168 0
163 172 0
159 167 0
163 173 0
162 172 0
163 175 0
170 185 0
160 170 0
160 166 0
163 175 0
167 180 0
166 177 0
164 183 0
158 177 0
165 184 0
161 180 0
162 181 0
162 181 0
161 180 0
161 181 0
162 180 0
160 178 0
157 176 0
163 182 0
157 176 0
161 180 0
154 171 0
158 176 0
163 181 0
158 175 0
164 183 0
156 174 0
154 172 0
158 176 0
158 175 0
152 169 0
159 177 0
154 172 0
154 171 0
155 172 0
149 166 0
148 166 0
158 175 0
149 165 0
150 166 0
145 161 0
148 165 0
154 172 0
155 173 0
151 167 0
151 168 0
150 166 0
151 167 0
153 170 0
149 166 0
149 166 0
151 167 0
151 168 0
149 166 0
152 168 0
146 163 0
152 169 0
147 164 0
155 173 0
150 167 0
153 170 0
148 165 0
153 171 0
139 155 0
144 160 0
148 166 0
150 168 0
148 166 0
150 168 0
142 159 0
152 169 0
152 170 0
144 161 0
148 166 0
150 167 0
146 164 0
147 164 0
147 165 0
148 166 0
148 166 0
142 159 0
146 164 0
143 160 0
149 168 0
148 166 0
147 165 0
138 155 0
143 162 0
138 156 0
145 164 0
151 169 0
147 165 0
144 163 0
136 154 0
146 165 0
148 167 0
148 166 0
144 163 0
142 161 0
149 168 0
144 164 0
140 159 0
142 160 0
145 164 0
148 167 0
135 154 0
146 166 0
147 166 0
143 162 0
147 166 0
135 154 0
141 161 0
147 167 0
147 167 0
143 162 0
143 162 0
145 165 0
137 157 0
141 160 0
145 166 0
147 168 0
149 170 0
144 163 0
150 169 0
147 168 0
146 167 0
145 165 0
153 174 0
148 169 0
150 168 0
149 170 0
150 170 0
141 160 0
152 174 0
142 162 0
146 167 0
136 157 0
146 166 0
146 166 0
137 159 0
147 168 0
141 161 0
142 163 0
142 164 0
146 167 0
143 164 0
150 172 0
140 159 0
140 160 0
139 160 0
145 166 0
145 166 0
137 157 0
145 166 0
141 161 0
138 159 0
143 163 0
137 157 0
135 154 0
147 169 0
147 167 0
141 162 0
136 155 0
130 151 0
135 156 0
130 151 0
131 149 0
130 149 0
128 149 0
141 162 0
137 157 0
142 162 0
137 158 0
133 153 0
137 158 0
144 165 0
131 152 0
129 149 0
135 156 0
139 159 0
135 154 0
134 155 0
138 157 0
135 157 0
135 156 0
125 146 0
135 155 0
139 161 0
130 150 0
143 163 0
130 150 0
139 159 0
138 158 0
134 153 0
137 157 0
142 162 0
130 151 0
132 153 0
142 164 0
136 156 0
127 146 0
133 153 0
140 159 0
136 156 0
137 157 0
135 155 0
133 153 0
132 153 0
130 149 0
134 152 0
133 154 0
137 156 0
131 151 0
142 164 0
133 152 0
135 155 0
133 154 0
149 169 0
138 160 0
130 149 0
145 164 0
135 156 0
138 158 0
142 161 0
141 160 0
133 153 0
134 154 0
133 152 0
141 162 0
137 154 0
133 153 0
135 155 0
139 158 0
130 148 0
128 150 0
147 166 0
145 164 0
142 162 0
144 164 0
141 161 0
139 157 0
134 154 0
147 165 0
144 163 0
143 163 0
134 153 0
141 160 0
142 161 0
138 158 0
145 164 0
137 156 0
146 166 0
141 160 0
138 160 0
137 156 0
146 165 0
140 158 0
144 163 0
139 158 0
137 155 0
138 159 0
140 160 0
140 156 0
141 160 0
151 169 0
137 155 0
143 162 0
138 154 0
136 156 0
145 165 0
150 167 0
144 161 0
141 159 0
146 163 0
148 166 0
157 176 0
144 163 0
146 164 0
148 165 0
143 160 0
144 164 0
142 160 0
145 164 0
149 166 0
141 158 0
143 160 0
137 153 0
140 156 0
150 168 0
143 161 0
147 162 0
146 161 0
145 162 0
145 161 0
149 165 0
139 154 0
155 171 0
148 164 0
139 155 0
146 162 0
144 159 0
149 164 0
146 163 0
147 160 0
144 158 0
150 164 0
148 162 0
144 159 0
135 147 0
150 166 0
143 156 0
151 165 0
139 151 0
153 166 0
144 159 0
154 167 0
145 156 0
155 171 0
150 164 0
134 143 0
147 160 0
146 158 0
155 166 0
148 164 0
146 155 0
144 154 0
144 155 0
140 151 0
152 166 0
148 161 0
145 152 0
155 167 0
151 162 0
150 157 0
151 160 0
155 166 0
150 160 0
145 153 0
148 157 0
152 160 0
154 165 0
150 160 0
144 150 0
149 160 0
154 163 0
155 164 0
155 163 0
155 164 0
152 158 0
156 165 0
152 161 0
152 160 0
160 168 0
152 160 0
155 161 0
145 152 0
151 156 0
153 159 0
161 171 0
158 166 0
152 159 0
152 157 0
159 167 0
157 167 0
155 163 0
154 161 0
158 167 0
157 165 0
160 167 0
154 162 0
157 164 0
156 164 0
159 167 0
158 166 0
159 167 0
159 168 0
154 161 0
156 162 0
156 161 0
159 169 0
153 159 0
159 167 0
155 161 0
158 166 0
159 168 0
157 166 0
161 170 0
157 164 0
156 165 0
161 170 0
165 176 0
163 170 0
162 172 0
165 176 0
163 174 0
164 175 0
159 168 0
165 174 0
166 177 0
165 178 0
162 176 0
165 178 0
164 175 0
164 176 0
164 175 0
164 175 0
165 176 0
164 183 0
163 182 0
159 178 0
162 182 0
156 174 0
157 176 0
163 181 0
166 185 0
162 181 0
157 175 0
164 182 0
160 179 0
157 176 0
156 175 0
157 175 0
154 172 0
157 175 0
158 177 0
159 177 0
156 174 0
159 178 0
152 168 0
156 173 0
155 173 0
154 171 0
157 175 0
155 172 0
157 175 0
155 172 0
155 172 0
154 171 0
157 175 0
154 171 0
150 166 0
153 171 0
151 168 0
158 175 0
152 169 0
152 169 0
154 171 0
154 171 0
150 167 0
154 172 0
151 168 0
153 170 0
151 169 0
152 168 0
152 170 0
152 168 0
147 163 0
149 167 0
147 164 0
157 175 0
144 162 0
146 163 0
150 168 0
145 162 0
148 165 0
146 164 0
148 165 0
154 171 0
146 164 0
149 168 0
151 169 0
151 169 0
146 163 0
148 166 0
147 164 0
147 165 0
152 170 0
149 167 0
145 163 0
151 169 0
147 165 0
149 166 0
150 170 0
143 161 0
146 164 0
146 165 0
151 169 0
143 161 0
149 168 0
147 166 0
143 161 0
148 166 0
148 167 0
140 160 0
145 164 0
148 167 0
147 164 0
142 160 0
154 173 0
147 165 0
158 177 0
145 164 0
140 159 0
156 177 0
142 161 0
140 160 0
152 171 0
145 164 0
153 173 0
146 165 0
152 173 0
143 163 0
145 163 0
154 175 0
145 164 0
145 165 0
148 168 0
140 160 0
147 165 0
144 164 0
144 164 0
145 166 0
149 170 0
144 164 0
143 164 0
146 166 0
141 161 0
144 164 0
139 159 0
147 168 0
146 167 0
147 166 0
142 164 0
138 158 0
140 160 0
151 172 0
137 157 0
142 161 0
145 165 0
151 172 0
138 159 0
145 166 0
145 167 0
135 156 0
140 160 0
148 168 0
137 157 0
136 156 0
143 164 0
142 163 0
141 162 0
145 168 0
143 164 0
138 157 0
144 165 0
142 164 0
141 163 0
138 159 0
142 162 0
145 165 0
147 169 0
142 163 0
127 148 0
145 167 0
156 177 0
139 160 0
132 153 0
149 170 0
140 161 0
143 163 0
131 151 0
140 161 0
139 160 0
133 156 0
136 156 0
136 157 0
145 166 0
147 167 0
139 161 0
143 163 0
143 163 0
142 164 0
136 156 0
135 156 0
129 149 0
131 152 0
143 163 0
131 151 0
138 158 0
141 161 0
138 158 0
126 146 0
143 165 0
130 149 0
135 156 0
133 154 0
134 155 0
131 151 0
133 153 0
127 148 0
135 156 0
135 155 0
132 153 0
139 161 0
138 159 0
135 155 0
140 160 0
131 153 0
130 150 0
130 150 0
133 151 0
138 158 0
138 159 0
137 156 0
139 160 0
138 159 0
135 153 0
127 146 0
135 155 0
145 166 0
139 159 0
142 161 0
131 150 0
137 158 0
134 155 0
137 156 0
136 158 0
137 157 0
142 163 0
135 154 0
141 160 0
140 159 0
135 154 0
142 161 0
141 161 0
142 162 0
141 158 0
137 156 0
136 153 0
141 160 0
144 164 0
146 165 0
130 149 0
144 164 0
154 174 0
132 151 0
147 166 0
141 160 0
143 161 0
138 157 0
137 157 0
142 162 0
144 160 0
133 150 0
143 162 0
148 168 0
148 167 0
142 161 0
152 170 0
139 156 0
143 162 0
145 163 0
143 162 0
145 161 0
136 156 0
147 167 0
142 161 0
147 167 0
152 170 0
136 155 0
145 163 0
146 162 0
151 170 0
144 163 0
153 171 0
146 164 0
149 166 0
137 153 0
145 159 0
144 160 0
147 164 0
150 169 0
148 167 0
146 162 0
150 169 0
143 160 0
141 159 0
144 160 0
151 169 0
142 159 0
143 159 0
152 168 0
146 163 0
150 167 0
144 158 0
146 161 0
141 158 0
153 169 0
144 158 0
146 163 0
147 163 0
152 168 0
140 157 0
149 162 0
143 159 0
150 165 0
145 162 0
150 164 0
145 158 0
147 162 0
149 163 0
153 167 0
150 166 0
147 159 0
143 156 0
146 158 0
144 158 0
149 162 0
149 162 0
143 156 0
150 160 0
142 155 0
149 160 0
152 164 0
153 166 0
150 163 0
154 167 0
146 157 0
145 155 0
149 158 0
145 157 0
148 158 0
150 161 0
154 165 0
153 168 0
152 162 0
149 160 0
162 174 0
156 166 0
151 160 0
151 163 0
152 162 0
151 161 0
148 156 0
157 166 0
156 168 0
153 162 0
148 154 0
155 165 0
152 160 0
152 161 0
151 159 0
153 160 0
153 161 0
157 166 0
153 163 0
153 162 0
146 153 0
152 157 0
156 164 0
151 158 0
149 154 0
159 169 0
154 163 0
152 157 0
146 150 0
155 162 0
158 165 0
154 161 0
156 162 0
156 164 0
156 164 0
158 166 0
156 164 0
154 162 0
155 164 0
160 168 0
156 162 0
159 169 0
160 168 0
159 166 0
160 167 0
163 172 0
160 168 0
159 168 0
157 165 0
157 166 0
165 178 0
159 169 0
157 164 0
157 166 0
162 174 0
163 173 0
160 169 0
163 172 0
161 172 0
160 169 0
161 171 0
161 173 0
158 168 0
163 175 0
163 172 0
161 170 0
165 177 0
163 174 0
164 177 0
166 179 0
162 181 0
160 178 0
163 182 0
164 183 0
158 177 0
161 179 0
160 178 0
158 177 0
161 179 0
162 181 0
163 182 0
162 180 0
155 173 0
157 176 0
158 177 0
163 181 0
161 179 0
158 176 0
162 180 0
159 178 0
158 178 0
154 172 0
153 171 0
153 171 0
154 171 0
154 172 0
152 169 0
155 172 0
154 172 0
161 178 0
148 165 0
153 171 0
148 166 0
150 168 0
146 162 0
155 173 0
154 171 0
146 163 0
151 169 0
154 172 0
155 172 0
154 171 0
147 164 0
150 167 0
152 169 0
152 169 0
149 165 0
153 170 0
158 176 0
152 169 0
151 170 0
150 167 0
155 171 0
149 166 0
146 164 0
153 171 0
151 169 0
152 169 0
149 167 0
145 162 0
151 169 0
149 167 0
150 168 0
150 168 0
154 173 0
142 160 0
149 167 0
147 164 0
141 158 0
150 169 0
146 164 0
144 161 0
147 166 0
150 169 0
141 159 0
147 166 0
150 169 0
150 169 0
147 166 0
153 171 0
144 162 0
145 164 0
144 162 0
144 163 0
149 169 0
147 167 0
148 167 0
139 158 0
148 167 0
148 167 0
144 163 0
143 162 0
143 163 0
147 167 0
148 168 0
148 167 0
148 167 0
147 165 0
143 162 0
144 162 0
145 163 0
152 171 0
150 172 0
147 167 0
144 163 0
141 160 0
140 160 0
136 156 0
140 160 0
155 174 0
138 158 0
144 165 0
146 167 0
144 164 0
144 164 0
145 167 0
149 170 0
149 170 0
146 168 0
150 169 0
154 175 0
146 166 0
138 158 0
146 165 0
146 166 0
146 166 0
146 166 0
143 164 0
148 168 0
144 165 0
143 164 0
145 166 0
144 165 0
150 170 0
147 168 0
143 164 0
143 164 0
143 163 0
147 167 0
136 157 0
140 160 0
141 161 0
146 168 0
142 163 0
138 160 0
145 166 0
143 164 0
141 162 0
145 166 0
147 168 0
139 161 0
145 166 0
135 156 0
137 158 0
147 169 0
136 157 0
145 166 0
138 159 0
137 157 0
150 172 0
146 167 0
142 163 0
137 159 0
147 168 0
136 155 0
133 153 0
136 157 0
133 153 0
139 159 0
135 156 0
144 165 0
127 148 0
135 156 0
141 163 0
141 162 0
134 154 0
142 163 0
136 157 0
139 159 0
138 158 0
143 164 0
135 155 0
136 155 0
135 154 0
140 161 0
142 164 0
138 159 0
132 152 0
137 158 0
128 148 0
137 158 0
135 155 0
128 149 0
130 150 0
138 159 0
137 158 0
131 150 0
135 155 0
139 159 0
140 159 0
139 160 0
127 146 0
144 163 0
132 153 0
138 158 0
138 159 0
133 153 0
141 161 0
140 159 0
143 163 0
134 154 0
133 154 0
142 164 0
132 152 0
139 161 0
147 165 0
139 159 0
138 158 0
132 152 0
147 170 0
139 160 0
137 157 0
144 162 0
130 150 0
135 155 0
140 160 0
138 158 0
141 161 0
135 155 0
138 156 0
138 157 0
137 157 0
140 161 0
137 155 0
145 165 0
145 165 0
134 153 0
142 162 0
138 158 0
143 161 0
142 161 0
147 166 0
142 161 0
144 161 0
151 170 0
143 161 0
145 163 0
141 160 0
138 157 0
144 163 0
145 164 0
148 168 0
144 162 0
141 161 0
142 160 0
155 174 0
144 163 0
142 163 0
143 162 0
146 163 0
146 164 0
138 160 0
144 163 0
134 153 0
147 164 0
134 151 0
149 170 0
142 161 0
138 156 0
148 165 0
149 168 0
145 162 0
145 163 0
146 163 0
146 165 0
142 158 0
146 162 0
149 169 0
152 170 0
149 166 0
148 166 0
149 165 0
146 163 0
146 162 0
148 165 0
151 170 0
148 164 0
147 163 0
142 156 0
147 166 0
149 164 0
151 168 0
150 167 0
140 155 0
151 165 0
148 166 0
145 159 0
145 160 0
148 162 0
147 160 0
143 156 0
149 165 0
149 165 0
152 167 0
144 159 0
151 165 0
147 163 0
140 151 0
158 171 0
148 162 0
160 173 0
150 164 0
147 164 0
150 164 0
148 160 0
154 166 0
153 166 0
146 160 0
151 161 0
151 164 0
158 171 0
154 170 0
145 155 0
150 161 0
155 166 0
152 163 0
153 165 0
150 160 0
151 162 0
148 161 0
152 165 0
150 159 0
152 165 0
155 164 0
149 158 0
151 161 0
154 166 0
156 167 0
150 161 0
157 167 0
151 160 0
148 156 0
155 164 0
152 159 0
150 157 0
150 158 0
150 162 0
154 162 0
149 156 0
157 165 0
152 159 0
157 169 0
154 162 0
154 162 0
158 165 0
154 161 0
158 168 0
157 164 0
156 164 0
153 162 0
159 169 0
157 164 0
160 170 0
154 162 0
162 170 0
161 169 0
155 159 0
150 157 0
158 167 0
161 171 0
159 168 0
153 159 0
157 167 0
155 163 0
158 167 0
161 171 0
158 167 0
159 167 0
158 168 0
163 174 0
161 170 0
162 172 0
160 170 0
159 164 0
160 171 0
164 178 0
160 170 0
162 173 0
164 177 0
159 167 0
165 176 0
167 178 0
162 172 0
163 176 0
160 171 0
161 174 0
164 176 0
163 175 0
168 183 0
161 173 0
162 181 0
163 182 0
160 179 0
160 179 0
161 180 0
164 184 0
160 178 0
164 182 0
164 183 0
158 177 0
157 175 0
157 176 0
167 186 0
159 177 0
159 177 0
156 174 0
158 177 0
165 183 0
159 178 0
156 174 0
154 172 0
153 171 0
157 175 0
158 177 0
154 172 0
160 178 0
157 175 0
156 172 0
149 166 0
150 167 0
155 172 0
151 168 0
160 178 0
149 166 0
152 168 0
152 170 0
151 167 0
154 171 0
155 173 0
153 171 0
154 172 0
148 164 0
148 165 0
157 174 0
155 173 0
153 172 0
157 175 0
151 169 0
146 164 0
157 175 0
154 171 0
153 170 0
145 163 0
149 165 0
152 170 0
148 165 0
149 166 0
147 164 0
151 169 0
147 164 0
154 173 0
143 162 0
151 169 0
148 165 0
147 166 0
155 173 0
151 169 0
147 165 0
148 166 0
149 167 0
149 167 0
148 167 0
149 166 0
153 172 0
145 163 0
147 165 0
143 161 0
141 161 0
151 170 0
143 161 0
145 164 0
151 169 0
146 165 0
149 168 0
149 168 0
142 160 0
148 166 0
146 167 0
143 163 0
151 170 0
144 163 0
145 165 0
146 166 0
145 165 0
145 164 0
144 164 0
139 158 0
148 167 0
148 168 0
143 162 0
139 158 0
144 164 0
143 162 0
150 169 0
140 160 0
141 161 0
152 171 0
143 163 0
140 162 0
146 166 0
148 169 0
153 173 0
139 159 0
140 159 0
152 173 0
145 166 0
132 151 0
148 168 0
140 160 0
144 163 0
142 163 0
145 166 0
142 162 0
151 172 0
144 164 0
145 166 0
145 166 0
142 161 0
138 158 0
145 166 0
148 169 0
144 166 0
140 161 0
153 175 0
143 164 0
143 164 0
142 162 0
138 159 0
144 166 0
145 166 0
144 165 0
141 162 0
143 163 0
144 165 0
147 169 0
151 172 0
145 166 0
138 161 0
137 157 0
144 166 0
139 160 0
142 163 0
139 160 0
148 170 0
141 163 0
136 158 0
140 162 0
135 157 0
146 166 0
142 162 0
141 162 0
142 164 0
147 168 0
139 158 0
144 164 0
141 161 0
140 161 0
142 163 0
139 160 0
138 159 0
137 157 0
139 160 0
137 157 0
139 160 0
146 168 0
134 155 0
138 160 0
130 150 0
129 150 0
141 163 0
134 155 0
137 158 0
138 159 0
138 159 0
139 158 0
144 165 0
133 154 0
140 161 0
142 163 0
141 162 0
142 162 0
137 158 0
131 151 0
142 163 0
148 169 0
141 160 0
146 166 0
142 163 0
133 152 0
135 155 0
134 156 0
140 161 0
134 154 0
147 168 0
146 165 0
139 159 0
133 153 0
138 159 0
140 160 0
137 159 0
142 163 0
132 153 0
136 155 0
139 160 0
142 161 0
140 160 0
142 162 0
139 160 0
143 164 0
133 151 0
146 167 0
136 157 0
146 166 0
135 157 0
144 163 0
144 163 0
146 167 0
149 170 0
138 159 0
146 165 0
136 156 0
139 157 0
139 158 0
139 157 0
145 164 0
141 160 0
141 158 0
143 163 0
143 162 0
146 163 0
138 157 0
138 156 0
138 157 0
140 161 0
151 169 0
139 158 0
140 159 0
141 159 0
145 164 0
144 163 0
148 167 0
147 167 0
148 168 0
144 162 0
144 164 0
149 167 0
151 168 0
146 163 0
151 172 0
145 166 0
149 167 0
145 165 0
144 162 0
145 163 0
140 159 0
151 169 0
148 168 0
142 162 0
148 165 0
146 165 0
149 167 0
134 153 0
151 169 0
143 161 0
138 155 0
151 169 0
149 167 0
147 163 0
155 172 0
151 167 0
149 166 0
147 163 0
141 157 0
145 164 0
152 169 0
150 166 0
147 165 0
149 165 0
146 161 0
149 167 0
152 168 0
150 167 0
143 158 0
152 167 0
152 169 0
142 159 0
153 168 0
151 168 0
148 164 0
147 162 0
147 161 0
151 166 0
143 158 0
146 161 0
151 167 0
151 164 0
146 162 0
150 164 0
143 156 0
150 165 0
145 157 0
151 164 0
146 160 0
146 160 0
145 158 0
153 164 0
150 164 0
143 156 0
155 169 0
153 167 0
150 161 0
149 160 0
153 167 0
147 160 0
151 165 0
145 159 0
157 174 0
152 162 0
150 162 0
151 160 0
155 168 0
156 168 0
160 173 0
152 164 0
157 166 0
149 159 0
157 167 0
154 163 0
150 160 0
149 158 0
153 160 0
156 166 0
149 160 0
155 166 0
150 158 0
152 161 0
156 166 0
150 158 0
158 166 0
154 163 0
148 159 0
156 166 0
156 164 0
154 163 0
156 163 0
156 165 0
159 171 0
152 159 0
155 164 0
160 170 0
157 165 0
162 170 0
155 165 0
158 167 0
160 171 0
154 159 0
158 167 0
159 167 0
160 170 0
150 155 0
160 170 0
161 169 0
151 159 0
157 166 0
158 165 0
159 167 0
161 170 0
161 169 0
158 168 0
158 166 0
167 178 0
156 163 0
159 166 0
162 172 0
160 170 0
162 173 0
163 172 0
161 171 0
163 175 0
164 175 0
162 174 0
161 170 0
165 176 0
164 176 0
165 177 0
164 175 0
163 176 0
161 170 0
165 177 0
162 174 0
165 184 0
161 179 0
162 181 0
160 178 0
163 182 0
160 180 0
164 183 0
158 177 0
160 178 0
161 180 0
156 175 0
156 174 0
160 179 0
160 179 0
153 171 0
154 172 0
157 175 0
156 174 0
154 172 0
158 175 0
154 173 0
158 177 0
156 173 0
156 175 0
155 172 0
156 174 0
153 170 0
152 169 0
157 175 0
152 170 0
155 172 0
157 175 0
153 171 0
154 171 0
158 176 0
147 164 0
152 169 0
152 170 0
144 161 0
153 171 0
155 173 0
147 164 0
147 165 0
157 175 0
160 179 0
150 167 0
159 176 0
156 173 0
153 170 0
150 168 0
152 170 0
148 165 0
150 167 0
150 168 0
159 177 0
148 166 0
154 172 0
156 174 0
149 166 0
151 169 0
152 170 0
150 168 0
155 174 0
152 171 0
155 174 0
150 168 0
149 167 0
145 163 0
146 164 0
145 163 0
143 161 0
150 170 0
145 164 0
150 169 0
151 171 0
152 171 0
147 165 0
151 169 0
143 162 0
140 158 0
151 168 0
148 168 0
146 165 0
143 163 0
144 162 0
144 163 0
146 166 0
150 169 0
150 170 0
148 168 0
146 165 0
151 172 0
150 170 0
143 161 0
144 164 0
149 168 0
140 158 0
151 170 0
154 174 0
152 172 0
151 171 0
147 167 0
138 158 0
139 159 0
149 168 0
155 175 0
146 167 0
154 175 0
143 163 0
151 172 0
144 164 0
153 174 0
140 161 0
147 167 0
149 169 0
146 166 0
144 166 0
150 171 0
143 164 0
145 166 0
140 160 0
145 165 0
139 160 0
146 166 0
144 165 0
145 165 0
136 155 0
142 163 0
143 163 0
142 163 0
145 165 0
142 162 0
140 161 0
141 163 0
136 158 0
144 165 0
141 161 0
150 171 0
145 165 0
141 162 0
143 164 0
138 159 0
138 160 0
145 167 0
127 148 0
139 160 0
143 165 0
149 170 0
138 159 0
143 164 0
143 164 0
147 168 0
142 163 0
141 163 0
142 163 0
147 167 0
138 158 0
142 164 0
142 164 0
145 168 0
148 169 0
143 164 0
153 173 0
139 161 0
139 160 0
144 165 0
140 162 0
142 164 0
138 160 0
140 160 0
136 157 0
148 170 0
139 159 0
143 163 0
139 159 0
144 165 0
138 159 0
135 156 0
134 154 0
136 158 0
136 155 0
146 168 0
128 148 0
137 159 0
132 152 0
144 165 0
135 157 0
143 164 0
138 157 0
138 159 0
134 153 0
136 156 0
138 159 0
150 170 0
129 149 0
145 167 0
145 166 0
133 152 0
139 160 0
136 157 0
146 168 0
131 152 0
140 159 0
135 157 0
124 145 0
138 159 0
147 168 0
148 167 0
138 158 0
138 159 0
137 158 0
131 150 0
142 163 0
142 161 0
135 155 0
132 152 0
131 151 0
139 158 0
135 154 0
135 155 0
139 158 0
147 168 0
136 156 0
135 154 0
141 162 0
143 163 0
147 168 0
141 160 0
138 158 0
135 155 0
140 160 0
144 162 0
144 165 0
138 158 0
147 166 0
142 161 0
135 154 0
145 165 0
147 167 0
140 160 0
146 166 0
139 158 0
143 162 0
143 164 0
142 164 0
143 161 0
143 162 0
145 166 0
142 160 0
144 163 0
139 157 0
148 165 0
143 160 0
138 158 0
140 159 0
145 165 0
143 162 0
142 160 0
147 166 0
147 167 0
142 161 0
148 167 0
144 164 0
140 159 0
151 172 0
143 160 0
151 170 0
149 169 0
141 157 0
148 165 0
145 162 0
147 166 0
152 171 0
139 157 0
141 159 0
150 168 0
145 163 0
147 165 0
144 160 0
148 165 0
148 165 0
149 167 0
144 161 0
149 167 0
150 169 0
151 168 0
148 165 0
141 157 0
144 161 0
149 164 0
149 166 0
152 168 0
149 166 0
151 167 0
147 164 0
151 169 0
154 171 0
150 166 0
148 163 0
148 165 0
152 168 0
145 159 0
158 172 0
148 164 0
150 165 0
146 161 0
154 167 0
155 168 0
154 168 0
161 175 0
161 177 0
155 171 0
152 167 0
144 157 0
153 168 0
143 154 0
148 163 0
152 165 0
148 159 0
150 164 0
150 161 0
151 165 0
149 161 0
157 171 0
152 163 0
155 167 0
151 165 0
154 167 0
155 168 0
148 158 0
153 163 0
148 159 0
148 161 0
152 165 0
148 158 0
148 159 0
151 162 0
151 161 0
152 162 0
154 165 0
155 167 0
150 159 0
156 167 0
155 165 0
150 158 0
157 168 0
149 155 0
156 165 0
154 161 0
155 166 0
158 168 0
159 167 0
154 161 0
161 172 0
156 165 0
154 167 0
159 168 0
161 172 0
154 162 0
157 164 0
156 165 0
158 169 0
159 167 0
152 158 0
160 171 0
157 170 0
156 164 0
155 166 0
158 167 0
161 171 0
157 168 0
154 165 0
159 168 0
158 165 0
157 165 0
159 167 0
158 168 0
160 169 0
152 160 0
165 176 0
157 168 0
156 167 0
162 172 0
161 171 0
157 164 0
160 169 0
160 169 0
162 170 0
161 171 0
163 175 0
161 173 0
161 170 0
158 169 0
159 168 0
160 172 0
162 174 0
163 175 0
160 169 0
167 179 0
166 176 0
163 183 0
160 180 0
159 178 0
158 177 0
159 178 0
161 179 0
159 177 0
162 179 0
158 176 0
162 181 0
159 177 0
157 175 0
151 168 0
153 171 0
158 177 0
155 174 0
158 177 0
155 172 0
160 178 0
158 176 0
152 170 0
159 177 0
151 168 0
153 171 0
150 168 0
156 174 0
161 179 0
156 174 0
160 179 0
152 169 0
157 176 0
157 175 0
152 171 0
152 169 0
152 169 0
150 168 0
151 169 0
156 174 0
153 171 0
158 175 0
152 170 0
158 175 0
154 171 0
149 167 0
155 172 0
154 172 0
152 171 0
153 171 0
148 166 0
154 173 0
153 170 0
148 165 0
147 163 0
152 170 0
152 170 0
152 171 0
148 166 0
145 163 0
152 170 0
153 172 0
151 169 0
152 170 0
155 174 0
156 174 0
148 168 0
144 163 0
149 168 0
146 165 0
150 170 0
155 174 0
145 164 0
149 168 0
151 170 0
147 166 0
152 170 0
148 167 0
149 168 0
157 177 0
146 165 0
154 174 0
147 167 0
142 161 0
151 171 0
145 163 0
150 168 0
144 163 0
151 171 0
148 167 0
148 168 0
146 166 0
149 168 0
147 166 0
149 169 0
137 157 0
150 169 0
146 167 0
140 158 0
147 167 0
145 165 0
149 169 0
147 168 0
147 166 0
145 164 0
152 172 0
146 165 0
151 171 0
150 169 0
146 166 0
142 161 0
136 156 0
148 170 0
149 170 0
155 177 0
142 162 0
145 165 0
145 166 0
144 165 0
147 167 0
151 173 0
152 174 0
146 167 0
147 168 0
136 156 0
144 166 0
143 164 0
147 168 0
145 166 0
155 177 0
151 172 0
147 168 0
150 172 0
143 164 0
151 172 0
147 168 0
151 172 0
149 170 0
139 160 0
144 166 0
145 165 0
149 170 0
136 157 0
140 161 0
145 165 0
143 165 0
151 174 0
145 165 0
154 175 0
144 165 0
142 163 0
148 171 0
142 162 0
145 166 0
140 161 0
130 151 0
145 166 0
145 166 0
136 157 0
134 154 0
135 156 0
148 169 0
144 166 0
141 160 0
143 164 0
128 149 0
145 165 0
141 162 0
138 160 0
139 160 0
144 166 0
141 162 0
142 164 0
143 165 0
141 162 0
139 160 0
138 158 0
131 151 0
139 161 0
146 166 0
146 169 0
143 164 0
144 166 0
131 152 0
145 166 0
128 148 0
147 167 0
138 158 0
137 157 0
139 160 0
131 151 0
134 156 0
132 153 0
148 170 0
142 164 0
142 164 0
148 169 0
139 160 0
138 158 0
137 157 0
127 149 0
149 170 0
139 159 0
137 158 0
141 162 0
140 160 0
145 164 0
141 162 0
143 164 0
133 154 0
144 164 0
142 161 0
131 151 0
134 153 0
136 157 0
141 162 0
144 163 0
140 160 0
136 154 0
138 159 0
137 158 0
145 165 0
140 161 0
138 158 0
137 156 0
150 170 0
140 160 0
141 162 0
144 164 0
138 159 0
134 154 0
130 149 0
138 157 0
146 165 0
148 169 0
148 167 0
145 168 0
151 172 0
136 157 0
147 167 0
140 160 0
148 168 0
147 168 0
144 164 0
143 162 0
148 169 0
144 162 0
140 160 0
145 164 0
140 160 0
142 161 0
142 161 0
140 159 0
146 165 0
144 163 0
144 163 0
149 169 0
146 166 0
141 161 0
152 171 0
145 163 0
151 170 0
144 163 0
153 173 0
146 166 0
148 165 0
138 157 0
150 169 0
152 170 0
140 158 0
152 171 0
149 170 0
147 164 0
148 167 0
149 166 0
146 164 0
149 169 0
149 168 0
145 162 0
152 170 0
146 165 0
148 165 0
144 162 0
151 170 0
159 177 0
153 172 0
152 171 0
152 171 0
144 162 0
143 161 0
153 171 0
144 161 0
146 162 0
146 163 0
142 159 0
150 166 0
149 162 0
148 163 0
148 165 0
139 157 0
152 167 0
155 172 0
144 160 0
154 171 0
146 160 0
141 158 0
153 169 0
157 174 0
150 165 0
144 161 0
148 166 0
155 171 0
156 171 0
142 156 0
151 166 0
149 164 0
147 162 0
146 159 0
157 172 0
151 165 0
156 167 0
156 169 0
149 163 0
147 159 0
143 155 0
154 167 0
152 164 0
155 168 0
150 162 0
153 166 0
156 166 0
152 164 0
154 168 0
148 159 0
152 163 0
156 168 0
150 164 0
156 169 0
149 158 0
154 164 0
145 153 0
152 164 0
152 163 0
157 167 0
157 169 0
149 158 0
158 170 0
150 163 0
149 159 0
156 166 0
158 168 0
152 159 0
154 165 0
156 165 0
158 169 0
162 175 0
152 162 0
161 170 0
160 170 0
158 170 0
156 164 0
163 172 0
159 167 0
157 167 0
158 169 0
162 170 0
155 166 0
155 164 0
156 163 0
158 167 0
159 166 0
158 169 0
156 165 0
156 167 0
162 173 0
157 166 0
161 170 0
156 165 0
158 167 0
165 175 0
161 172 0
163 174 0
159 168 0
159 168 0
162 171 0
159 170 0
158 166 0
160 169 0
162 174 0
159 170 0
159 170 0
157 167 0
165 178 0
160 169 0
164 175 0
166 177 0
164 176 0
164 176 0
165 176 0
164 176 0
160 172 0
165 177 0
163 183 0
163 182 0
162 182 0
159 179 0
157 175 0
156 175 0
162 181 0
160 179 0
161 179 0
158 177 0
159 178 0
163 181 0
154 172 0
160 178 0
159 178 0
150 167 0
159 177 0
156 174 0
152 170 0
153 171 0
153 171 0
151 169 0
162 181 0
152 171 0
158 176 0
157 176 0
154 171 0
153 171 0
156 174 0
154 172 0
154 173 0
150 167 0
153 171 0
151 169 0
161 180 0
156 175 0
157 175 0
156 174 0
155 173 0
152 168 0
157 175 0
154 173 0
154 172 0
153 171 0
156 174 0
153 171 0
150 168 0
154 172 0
151 169 0
153 172 0
146 164 0
153 171 0
152 170 0
148 167 0
150 168 0
153 171 0
153 172 0
149 168 0
144 162 0
154 173 0
146 164 0
153 171 0
144 162 0
151 169 0
154 173 0
157 176 0
150 169 0
147 165 0
149 167 0
147 166 0
146 165 0
149 167 0
151 169 0
150 169 0
145 162 0
148 167 0
144 163 0
153 172 0
152 172 0
151 171 0
151 170 0
148 168 0
151 172 0
144 163 0
144 163 0
152 171 0
148 167 0
140 159 0
146 165 0
149 169 0
149 169 0
140 158 0
153 173 0
153 174 0
146 165 0
156 176 0
148 168 0
142 162 0
147 167 0
150 171 0
154 175 0
150 170 0
153 174 0
145 167 0
150 170 0
146 167 0
151 172 0
149 170 0
142 162 0
148 168 0
149 170 0
152 173 0
152 172 0
148 170 0
150 170 0
151 173 0
150 170 0
150 170 0
144 164 0
154 174 0
147 169 0
147 169 0
141 161 0
147 169 0
143 163 0
151 171 0
147 167 0
146 166 0
145 165 0
144 165 0
137 158 0
156 178 0
146 168 0
134 156 0
151 172 0
153 174 0
145 166 0
140 161 0
135 156 0
143 164 0
141 162 0
145 166 0
145 167 0
144 165 0
147 169 0
147 169 0
141 162 0
149 169 0
150 171 0
132 152 0
142 163 0
149 171 0
145 167 0
141 162 0
145 167 0
142 162 0
138 158 0
146 167 0
133 153 0
140 160 0
137 158 0
154 176 0
143 164 0
136 157 0
139 161 0
142 162 0
151 172 0
140 162 0
140 161 0
142 163 0
143 164 0
127 147 0
132 154 0
144 166 0
143 164 0
141 161 0
139 160 0
150 171 0
141 162 0
140 162 0
141 162 0
144 164 0
135 155 0
139 160 0
144 166 0
136 158 0
141 162 0
144 166 0
137 158 0
141 162 0
137 160 0
146 167 0
134 155 0
143 164 0
133 155 0
147 168 0
148 167 0
143 164 0
147 169 0
141 160 0
137 158 0
139 159 0
133 154 0
144 166 0
144 164 0
140 161 0
141 162 0
135 154 0
137 155 0
135 155 0
141 162 0
148 167 0
136 156 0
145 164 0
139 158 0
141 161 0
144 166 0
147 167 0
137 159 0
136 156 0
135 156 0
147 167 0
138 159 0
146 168 0
146 165 0
146 166 0
140 160 0
147 167 0
138 159 0
143 162 0
139 157 0
144 165 0
143 162 0
148 168 0
146 166 0
136 156 0
142 161 0
148 168 0
143 163 0
143 163 0
146 166 0
149 167 0
142 161 0
147 167 0
140 158 0
135 154 0
148 166 0
152 171 0
144 165 0
137 157 0
154 173 0
137 156 0
159 179 0
148 167 0
150 169 0
144 162 0
144 163 0
148 168 0
148 165 0
147 165 0
151 171 0
142 161 0
147 165 0
146 165 0
136 155 0
150 169 0
143 163 0
139 158 0
151 169 0
149 167 0
145 161 0
152 171 0
150 167 0
138 156 0
148 167 0
148 165 0
150 169 0
152 171 0
148 167 0
149 167 0
147 165 0
149 166 0
145 162 0
151 168 0
148 165 0
150 167 0
143 159 0
156 174 0
148 165 0
150 168 0
151 167 0
153 172 0
151 167 0
149 166 0
147 163 0
153 169 0
140 157 0
143 159 0
143 159 0
152 169 0
148 164 0
145 161 0
147 162 0
154 172 0
146 163 0
144 157 0
156 173 0
152 167 0
148 163 0
152 168 0
147 161 0
151 166 0
148 164 0
152 168 0
153 169 0
155 173 0
149 164 0
151 163 0
156 170 0
151 162 0
148 162 0
152 164 0
150 163 0
146 158 0
148 160 0
151 162 0
152 165 0
159 174 0
154 168 0
148 159 0
152 164 0
157 170 0
155 168 0
155 167 0
154 167 0
158 171 0
157 170 0
156 167 0
159 172 0
162 174 0
159 170 0
157 170 0
156 167 0
151 162 0
148 154 0
153 163 0
156 169 0
156 166 0
154 165 0
159 170 0
157 166 0
156 166 0
153 162 0
157 167 0
156 164 0
157 166 0
153 161 0
148 156 0
156 168 0
160 170 0
156 166 0
156 163 0
163 173 0
153 161 0
160 171 0
155 164 0
159 168 0
158 169 0
151 159 0
155 164 0
157 168 0
161 172 0
159 169 0
158 165 0
158 168 0
156 167 0
155 165 0
162 171 0
159 168 0
163 172 0
159 169 0
162 173 0
160 169 0
160 171 0
164 175 0
156 164 0
161 169 0
158 164 0
165 178 0
156 166 0
163 173 0
158 165 0
165 176 0
163 174 0
163 174 0
163 175 0
161 173 0
161 172 0
165 176 0
158 168 0
161 180 0
159 179 0
164 183 0
157 176 0
158 178 0
159 179 0
164 181 0
160 179 0
156 175 0
157 176 0
163 181 0
164 183 0
159 178 0
157 176 0
154 172 0
160 177 0
163 182 0
163 183 0
152 170 0
156 175 0
160 178 0
154 172 0
158 176 0
158 176 0
157 176 0
152 171 0
156 174 0
159 178 0
156 174 0
159 177 0
150 168 0
155 173 0
153 171 0
158 175 0
159 177 0
154 172 0
154 173 0
157 174 0
146 163 0
155 173 0
156 173 0
146 163 0
151 170 0
156 174 0
151 169 0
153 172 0
154 173 0
150 168 0
151 169 0
148 166 0
155 173 0
154 173 0
149 167 0
153 172 0
151 170 0
150 168 0
153 172 0
153 173 0
151 170 0
144 162 0
155 175 0
148 167 0
152 171 0
152 170 0
154 173 0
156 175 0
151 170 0
155 175 0
148 167 0
148 167 0
151 171 0
150 169 0
153 173 0
155 174 0
149 168 0
155 174 0
153 172 0
147 167 0
150 170 0
143 162 0
149 169 0
148 167 0
146 166 0
157 178 0
154 173 0
145 164 0
146 165 0
152 173 0
146 166 0
149 170 0
157 178 0
146 167 0
152 172 0
148 168 0
152 173 0
159 180 0
147 168 0
157 177 0
149 169 0
149 170 0
150 170 0
149 170 0
153 173 0
148 168 0
148 169 0
146 167 0
149 170 0
151 171 0
143 163 0
154 175 0
147 167 0
146 166 0
146 167 0
153 174 0
147 167 0
139 159 0
139 160 0
144 164 0
142 162 0
147 167 0
154 175 0
146 168 0
150 171 0
146 167 0
147 168 0
147 167 0
147 168 0
140 161 0
143 164 0
145 166 0
145 165 0
151 172 0
144 166 0
138 160 0
142 163 0
139 161 0
142 163 0
145 166 0
144 166 0
139 160 0
144 165 0
139 161 0
148 169 0
149 170 0
145 167 0
141 161 0
140 160 0
145 167 0
147 170 0
143 163 0
136 158 0
143 164 0
148 169 0
144 165 0
146 167 0
144 166 0
148 168 0
149 171 0
140 162 0
150 171 0
136 156 0
141 163 0
146 167 0
144 166 0
143 165 0
149 169 0
144 166 0
140 162 0
149 171 0
137 157 0
139 160 0
145 166 0
143 165 0
135 156 0
146 167 0
141 162 0
138 158 0
149 171 0
137 158 0
151 173 0
148 169 0
136 157 0
141 163 0
141 161 0
130 151 0
150 173 0
133 155 0
139 161 0
129 150 0
144 165 0
132 152 0
146 167 0
145 167 0
136 158 0
143 162 0
147 169 0
140 160 0
139 160 0
145 166 0
152 173 0
143 164 0
126 147 0
131 151 0
148 169 0
144 164 0
150 170 0
141 161 0
140 162 0
140 160 0
131 152 0
142 164 0
145 166 0
136 156 0
148 168 0
139 160 0
144 166 0
139 160 0
144 165 0
141 160 0
140 160 0
146 166 0
146 165 0
144 165 0
137 157 0
138 158 0
151 171 0
139 160 0
147 167 0
144 163 0
146 167 0
141 162 0
144 165 0
142 162 0
148 167 0
133 153 0
144 164 0
144 164 0
145 163 0
138 158 0
152 172 0
149 168 0
145 165 0
145 165 0
147 167 0
143 162 0
148 169 0
147 166 0
142 161 0
143 162 0
144 164 0
145 165 0
155 176 0
148 167 0
149 167 0
148 166 0
144 162 0
140 158 0
146 165 0
141 160 0
139 160 0
147 168 0
139 158 0
146 165 0
144 161 0
148 168 0
148 168 0
145 164 0
153 172 0
144 162 0
144 164 0
155 175 0
149 169 0
149 168 0
150 170 0
154 171 0
152 171 0
142 159 0
149 166 0
145 165 0
141 158 0
148 166 0
146 163 0
151 168 0
139 156 0
155 174 0
152 170 0
146 163 0
144 164 0
153 170 0
146 162 0
149 165 0
148 166 0
154 171 0
153 173 0
152 169 0
146 162 0
154 169 0
152 167 0
152 169 0
157 174 0
155 170 0
155 172 0
147 165 0
146 162 0
150 165 0
152 166 0
152 170 0
149 164 0
147 164 0
144 157 0
145 161 0
153 167 0
144 159 0
158 172 0
160 176 0
145 159 0
147 162 0
152 166 0
155 169 0
151 165 0
156 169 0
156 173 0
156 171 0
154 167 0
157 170 0
154 168 0
158 171 0
152 164 0
157 171 0
151 162 0
151 160 0
154 169 0
155 168 0
155 166 0
153 165 0
154 166 0
156 169 0
152 166 0
151 161 0
155 168 0
150 160 0
154 166 0
149 160 0
151 162 0
155 169 0
156 168 0
156 167 0
150 158 0
157 168 0
158 168 0
160 173 0
157 169 0
162 174 0
152 163 0
156 168 0
157 167 0
156 167 0
153 163 0
155 162 0
159 171 0
154 162 0
165 177 0
155 163 0
151 159 0
161 171 0
156 167 0
158 165 0
154 163 0
154 162 0
155 164 0
164 175 0
148 155 0
165 178 0
159 168 0
156 167 0
158 170 0
161 171 0
159 168 0
166 177 0
160 171 0
158 167 0
158 166 0
155 163 0
161 171 0
158 167 0
156 164 0
159 169 0
162 175 0
167 178 0
163 176 0
161 171 0
163 173 0
158 168 0
162 173 0
162 174 0
165 178 0
163 175 0
165 177 0
164 176 0
161 171 0
164 183 0
160 178 0
162 180 0
159 178 0
158 178 0
164 182 0
157 177 0
155 173 0
160 178 0
157 176 0
158 176 0
159 178 0
155 174 0
158 176 0
159 178 0
158 176 0
156 175 0
153 172 0
152 170 0
157 176 0
159 177 0
161 180 0
157 176 0
158 177 0
153 171 0
148 166 0
157 177 0
157 176 0
153 172 0
161 181 0
153 172 0
151 169 0
154 173 0
156 175 0
153 172 0
155 174 0
157 176 0
154 172 0
154 172 0
148 166 0
149 168 0
157 176 0
152 171 0
150 168 0
156 174 0
152 170 0
156 174 0
147 165 0
148 167 0
149 167 0
148 167 0
154 171 0
151 169 0
157 177 0
156 175 0
157 177 0
151 170 0
152 171 0
158 177 0
151 171 0
152 170 0
149 168 0
155 174 0
154 173 0
156 175 0
156 177 0
149 168 0
148 167 0
154 174 0
152 171 0
144 163 0
153 173 0
151 171 0
151 170 0
146 165 0
146 165 0
152 172 0
155 174 0
150 169 0
151 170 0
155 175 0
153 172 0
148 167 0
148 167 0
151 171 0
149 169 0
149 168 0
139 158 0
155 175 0
144 163 0
148 168 0
155 176 0
151 171 0
156 177 0
151 173 0
153 174 0
147 168 0
145 165 0
152 172 0
142 162 0
140 160 0
155 175 0
142 163 0
147 166 0
142 163 0
152 173 0
156 177 0
145 165 0
149 170 0
144 164 0
141 162 0
143 164 0
143 165 0
143 163 0
144 166 0
146 168 0
140 161 0
152 173 0
152 173 0
146 167 0
157 179 0
147 168 0
142 164 0
149 170 0
145 166 0
152 173 0
146 168 0
139 160 0
148 170 0
144 165 0
141 162 0
154 175 0
141 161 0
150 171 0
147 167 0
151 173 0
150 172 0
150 172 0
146 166 0
151 172 0
149 170 0
148 170 0
139 161 0
147 169 0
146 166 0
143 163 0
142 165 0
147 168 0
148 170 0
147 168 0
148 169 0
147 168 0
142 165 0
149 171 0
142 163 0
146 167 0
144 166 0
140 159 0
137 157 0
136 157 0
141 162 0
141 163 0
142 163 0
142 163 0
142 164 0
137 157 0
137 158 0
143 164 0
148 168 0
131 152 0
147 169 0
147 167 0
144 165 0
155 177 0
138 159 0
147 168 0
136 158 0
144 165 0
136 158 0
153 174 0
143 165 0
148 169 0
136 157 0
140 161 0
137 157 0
142 163 0
149 170 0
146 167 0
148 169 0
131 151 0
138 158 0
145 166 0
145 165 0
150 170 0
143 164 0
133 154 0
137 156 0
146 167 0
149 169 0
144 164 0
146 167 0
136 157 0
140 162 0
141 163 0
139 159 0
133 153 0
145 165 0
140 161 0
147 168 0
150 171 0
141 160 0
137 157 0
147 168 0
145 166 0
143 164 0
133 154 0
146 167 0
142 161 0
141 161 0
141 161 0
147 169 0
144 165 0
146 166 0
143 164 0
139 158 0
134 155 0
147 168 0
148 168 0
145 164 0
145 164 0
145 166 0
137 155 0
142 162 0
151 171 0
140 161 0
145 166 0
145 165 0
148 169 0
146 167 0
141 161 0
145 166 0
145 165 0
147 166 0
141 161 0
144 163 0
144 164 0
138 156 0
142 161 0
144 165 0
151 172 0
146 165 0
151 170 0
149 168 0
146 166 0
149 170 0
148 167 0
145 164 0
145 164 0
150 169 0
147 168 0
147 166 0
159 180 0
140 158 0
146 166 0
138 157 0
145 165 0
150 170 0
148 168 0
151 170 0
149 169 0
150 170 0
149 167 0
148 166 0
149 168 0
149 168 0
146 164 0
139 158 0
155 173 0
151 168 0
152 169 0
146 162 0
147 163 0
148 167 0
149 166 0
148 166 0
151 169 0
151 168 0
143 159 0
144 163 0
152 169 0
152 168 0
147 164 0
154 172 0
146 165 0
153 171 0
149 167 0
149 165 0
141 156 0
156 173 0
155 169 0
154 170 0
143 159 0
145 164 0
150 165 0
163 180 0
149 166 0
157 173 0
152 167 0
144 161 0
155 170 0
152 167 0
151 167 0
149 166 0
147 161 0
149 162 0
152 168 0
149 164 0
156 172 0
152 169 0
153 166 0
151 165 0
153 169 0
150 163 0
154 167 0
152 166 0
156 170 0
150 166 0
160 177 0
153 165 0
154 165 0
155 168 0
155 170 0
153 166 0
151 166 0
157 170 0
153 167 0
151 162 0
151 163 0
155 168 0
159 173 0
154 165 0
160 173 0
156 168 0
161 174 0
154 165 0
152 166 0
151 164 0
156 166 0
145 155 0
156 166 0
154 167 0
158 170 0
151 162 0
154 165 0
158 169 0
161 170 0
160 172 0
149 155 0
146 153 0
160 171 0
158 167 0
158 167 0
160 173 0
157 165 0
160 171 0
160 171 0
161 172 0
158 169 0
162 174 0
158 169 0
163 175 0
154 164 0
158 169 0
160 174 0
162 174 0
159 169 0
156 165 0
163 175 0
158 169 0
157 169 0
159 169 0
156 166 0
157 165 0
164 176 0
160 171 0
160 168 0
163 174 0
162 172 0
164 175 0
165 177 0
162 172 0
163 176 0
162 174 0
162 172 0
156 164 0
159 169 0
160 170 0
163 174 0
167 180 0
162 173 0
160 179 0
163 183 0
164 184 0
163 182 0
161 180 0
157 176 0
158 177 0
164 184 0
159 179 0
159 177 0
157 175 0
153 171 0
158 177 0
159 178 0
154 172 0
158 177 0
157 176 0
160 179 0
160 178 0
160 179 0
158 176 0
157 176 0
155 173 0
162 182 0
156 173 0
157 176 0
152 170 0
155 173 0
159 177 0
158 177 0
155 173 0
153 172 0
155 173 0
152 171 0
151 170 0
159 178 0
157 177 0
159 178 0
153 170 0
159 177 0
154 172 0
150 168 0
156 174 0
153 172 0
154 172 0
150 167 0
153 172 0
153 173 0
156 175 0
155 173 0
155 174 0
153 171 0
153 171 0
147 165 0
143 162 0
153 172 0
151 169 0
151 170 0
150 168 0
150 169 0
146 166 0
159 178 0
152 172 0
150 169 0
151 171 0
150 170 0
152 171 0
156 176 0
147 166 0
153 173 0
153 173 0
150 170 0
158 178 0
154 174 0
155 175 0
148 168 0
150 169 0
149 168 0
146 166 0
153 172 0
148 169 0
147 167 0
152 172 0
144 164 0
154 175 0
144 163 0
152 172 0
152 172 0
153 173 0
150 171 0
141 161 0
155 175 0
141 160 0
156 176 0
144 164 0
139 159 0
151 172 0
157 179 0
149 169 0
150 171 0
146 166 0
148 167 0
152 172 0
147 167 0
145 165 0
149 169 0
154 175 0
151 172 0
157 179 0
148 169 0
147 167 0
141 162 0
154 174 0
147 168 0
150 172 0
148 169 0
143 164 0
134 155 0
147 167 0
145 167 0
153 176 0
150 172 0
146 167 0
148 170 0
144 166 0
146 166 0
152 174 0
150 170 0
145 166 0
149 170 0
152 174 0
144 165 0
141 162 0
140 161 0
149 170 0
149 171 0
147 170 0
138 159 0
148 169 0
146 168 0
144 166 0
141 161 0
147 167 0
145 167 0
143 164 0
150 171 0
143 164 0
146 167 0
150 172 0
148 169 0
146 168 0
145 166 0
144 166 0
143 165 0
149 171 0
147 168 0
149 170 0
148 168 0
149 170 0
139 161 0
140 159 0
142 164 0
143 163 0
145 166 0
147 169 0
148 168 0
142 163 0
149 171 0
144 166 0
144 165 0
146 168 0
140 162 0
144 165 0
142 163 0
135 157 0
147 167 0
142 164 0
141 163 0
149 171 0
135 156 0
140 160 0
145 166 0
136 156 0
138 160 0
134 155 0
142 163 0
134 155 0
148 170 0
139 160 0
142 163 0
141 163 0
145 167 0
136 156 0
139 160 0
130 151 0
145 166 0
143 164 0
138 159 0
146 168 0
140 161 0
146 167 0
141 162 0
146 168 0
143 164 0
144 165 0
136 157 0
143 163 0
140 161 0
150 171 0
137 158 0
143 164 0
144 164 0
149 170 0
146 164 0
136 156 0
145 165 0
142 162 0
142 161 0
141 160 0
144 164 0
147 167 0
145 166 0
139 159 0
142 163 0
148 168 0
142 164 0
142 163 0
142 161 0
133 154 0
151 172 0
143 162 0
147 166 0
144 166 0
141 161 0
144 165 0
143 164 0
146 167 0
139 160 0
140 161 0
142 164 0
145 164 0
145 165 0
142 163 0
142 161 0
138 158 0
147 168 0
146 166 0
141 161 0
148 168 0
147 167 0
142 162 0
146 166 0
148 167 0
145 166 0
142 160 0
140 160 0
146 166 0
145 164 0
146 165 0
151 169 0
152 171 0
152 171 0
141 161 0
148 167 0
143 161 0
148 167 0
142 163 0
147 167 0
146 167 0
151 168 0
148 167 0
149 168 0
150 171 0
154 174 0
147 166 0
147 165 0
146 166 0
148 165 0
149 166 0
144 162 0
146 165 0
143 159 0
155 172 0
143 162 0
150 167 0
151 170 0
152 169 0
159 179 0
152 168 0
152 170 0
151 168 0
150 167 0
154 172 0
147 163 0
149 166 0
143 158 0
147 164 0
149 165 0
157 173 0
149 167 0
157 175 0
148 163 0
152 167 0
155 173 0
148 163 0
145 161 0
146 164 0
149 165 0
141 157 0
144 160 0
147 163 0
155 170 0
149 164 0
156 173 0
152 169 0
154 169 0
151 167 0
152 167 0
151 167 0
147 163 0
153 166 0
151 165 0
153 168 0
153 167 0
146 158 0
155 171 0
155 169 0
149 163 0
151 165 0
152 165 0
150 164 0
152 165 0
152 165 0
155 168 0
155 170 0
150 165 0
155 168 0
158 171 0
163 177 0
155 170 0
154 167 0
152 166 0
156 171 0
151 164 0
153 167 0
152 162 0
154 168 0
156 169 0
156 166 0
159 170 0
157 169 0
158 169 0
155 167 0
158 171 0
157 169 0
156 168 0
156 169 0
159 172 0
154 164 0
157 168 0
158 167 0
158 170 0
157 167 0
160 172 0
156 166 0
159 169 0
159 167 0
162 175 0
159 170 0
158 168 0
158 171 0
165 178 0
165 177 0
169 179 0
160 170 0
158 169 0
157 165 0
165 176 0
155 164 0
162 174 0
161 175 0
160 169 0
157 167 0
159 171 0
166 179 0
164 178 0
161 172 0
156 167 0
160 169 0
164 172 0
164 177 0
160 171 0
166 178 0
163 176 0
159 170 0
163 177 0
163 175 0
164 176 0
161 171 0
164 175 0
164 183 0
158 177 0
162 181 0
158 177 0
163 183 0
159 179 0
157 175 0
160 179 0
161 180 0
160 179 0
159 178 0
163 182 0
158 177 0
159 178 0
155 173 0
158 177 0
158 177 0
157 176 0
160 179 0
155 174 0
151 169 0
154 173 0
157 175 0
154 173 0
156 175 0
157 176 0
160 179 0
156 175 0
155 173 0
155 174 0
155 173 0
153 171 0
161 180 0
159 177 0
158 177 0
153 172 0
157 175 0
158 177 0
153 171 0
151 169 0
161 180 0
150 169 0
158 177 0
159 179 0
156 176 0
160 180 0
154 172 0
142 160 0
155 174 0
147 168 0
155 174 0
152 171 0
155 174 0
155 174 0
149 168 0
154 173 0
153 172 0
155 174 0
150 170 0
158 178 0
152 171 0
151 170 0
146 164 0
149 168 0
156 176 0
150 168 0
151 171 0
161 180 0
156 175 0
155 175 0
161 181 0
149 169 0
147 165 0
154 174 0
153 173 0
150 169 0
156 175 0
153 172 0
147 167 0
147 167 0
149 169 0
149 170 0
163 183 0
151 171 0
158 178 0
149 169 0
151 170 0
148 168 0
147 167 0
147 167 0
150 170 0
152 172 0
154 174 0
149 170 0
140 160 0
155 175 0
153 174 0
147 168 0
146 166 0
149 169 0
143 163 0
144 164 0
155 175 0
158 179 0
149 170 0
150 171 0
147 168 0
139 160 0
147 167 0
144 166 0
145 166 0
147 168 0
146 166 0
146 167 0
152 174 0
150 171 0
149 169 0
150 172 0
148 170 0
137 157 0
152 173 0
148 169 0
154 176 0
151 172 0
149 169 0
147 167 0
148 169 0
148 168 0
157 180 0
149 170 0
145 166 0
137 158 0
145 167 0
152 174 0
136 158 0
144 165 0
150 171 0
142 163 0
141 161 0
146 167 0
133 154 0
141 163 0
138 158 0
142 162 0
145 168 0
144 165 0
145 166 0
141 161 0
147 169 0
145 167 0
140 161 0
152 173 0
138 158 0
141 162 0
146 167 0
147 167 0
151 173 0
148 170 0
148 169 0
149 171 0
145 166 0
143 165 0
151 172 0
143 163 0
144 165 0
141 161 0
144 165 0
145 166 0
141 161 0
134 155 0
136 158 0
136 158 0
144 165 0
146 166 0
139 160 0
142 162 0
145 166 0
149 171 0
143 164 0
147 167 0
145 166 0
134 155 0
142 164 0
132 153 0
149 171 0
139 160 0
146 167 0
145 167 0
148 168 0
148 169 0
143 165 0
137 158 0
137 157 0
147 167 0
152 175 0
143 164 0
138 160 0
143 164 0
139 161 0
143 164 0
138 158 0
137 158 0
145 166 0
143 164 0
135 156 0
142 164 0
139 160 0
138 159 0
149 170 0
142 163 0
144 165 0
141 161 0
131 151 0
148 168 0
140 159 0
144 164 0
145 164 0
147 167 0
144 165 0
134 155 0
150 170 0
144 166 0
153 175 0
145 165 0
152 172 0
139 159 0
142 162 0
137 158 0
141 161 0
134 153 0
149 171 0
141 160 0
148 168 0
144 164 0
140 159 0
146 165 0
151 172 0
137 156 0
149 167 0
143 164 0
144 164 0
145 164 0
141 162 0
143 163 0
154 174 0
147 166 0
148 169 0
139 159 0
149 167 0
143 163 0
145 167 0
153 173 0
141 160 0
135 154 0
153 171 0
143 162 0
148 168 0
149 167 0
149 168 0
151 170 0
147 167 0
147 168 0
145 166 0
154 174 0
146 165 0
148 167 0
148 167 0
153 172 0
150 170 0
152 171 0
150 170 0
146 164 0
154 170 0
147 165 0
153 173 0
143 162 0
150 169 0
148 166 0
146 165 0
147 165 0
149 169 0
146 165 0
150 170 0
152 171 0
145 163 0
145 162 0
152 171 0
151 169 0
150 167 0
149 167 0
151 172 0
152 170 0
151 167 0
151 168 0
153 171 0
154 173 0
151 169 0
157 174 0
157 172 0
150 166 0
149 166 0
153 171 0
154 172 0
149 165 0
151 169 0
151 170 0
152 168 0
156 173 0
151 168 0
150 168 0
156 175 0
157 174 0
154 171 0
150 165 0
148 163 0
157 173 0
144 157 0
152 168 0
152 168 0
153 168 0
153 169 0
154 169 0
154 169 0
141 155 0
151 163 0
152 168 0
153 168 0
155 169 0
156 175 0
160 173 0
146 159 0
157 171 0
151 164 0
161 174 0
144 156 0
156 171 0
156 169 0
154 168 0
154 169 0
152 164 0
142 153 0
157 171 0
154 167 0
152 163 0
159 171 0
159 173 0
157 171 0
158 172 0
156 168 0
161 171 0
159 170 0
161 172 0
156 168 0
151 157 0
155 168 0
155 166 0
159 171 0
153 162 0
160 173 0
159 169 0
159 168 0
161 173 0
162 175 0
155 163 0
153 163 0
161 172 0
161 175 0
162 174 0
160 172 0
155 164 0
158 170 0
154 164 0
162 175 0
157 167 0
163 176 0
159 173 0
161 171 0
156 167 0
160 170 0
160 172 0
161 172 0
159 170 0
162 174 0
158 167 0
166 179 0
160 170 0
164 176 0
160 170 0
158 169 0
164 178 0
159 169 0
165 178 0
163 171 0
163 173 0
158 167 0
164 173 0
163 175 0
163 174 0
162 177 0
166 177 0
164 183 0
160 179 0
156 176 0
156 175 0
157 176 0
165 185 0
157 176 0
159 178 0
161 180 0
162 181 0
155 173 0
158 177 0
155 174 0
156 175 0
157 176 0
160 179 0
158 177 0
164 183 0
158 176 0
160 179 0
157 176 0
157 176 0
159 178 0
155 175 0
158 176 0
153 171 0
158 176 0
154 172 0
156 174 0
157 176 0
156 174 0
159 177 0
152 171 0
155 174 0
153 172 0
151 170 0
157 176 0
153 172 0
153 172 0
150 169 0
155 175 0
161 180 0
153 171 0
157 176 0
152 170 0
157 176 0
153 171 0
152 171 0
151 170 0
155 173 0
155 174 0
158 176 0
154 173 0
155 175 0
154 173 0
151 170 0
157 177 0
150 169 0
148 168 0
150 170 0
153 172 0
156 176 0
157 176 0
152 172 0
151 170 0
155 175 0
149 168 0
153 173 0
153 171 0
149 168 0
148 166 0
149 169 0
147 166 0
157 176 0
152 172 0
155 175 0
152 172 0
152 173 0
148 169 0
141 160 0
148 168 0
156 177 0
151 171 0
146 166 0
148 169 0
142 163 0
150 171 0
146 167 0
140 159 0
157 178 0
148 168 0
147 167 0
154 175 0
153 175 0
151 173 0
147 167 0
151 172 0
151 173 0
144 165 0
149 169 0
146 166 0
148 169 0
153 174 0
140 160 0
153 174 0
153 174 0
152 173 0
147 167 0
153 174 0
153 173 0
157 178 0
150 170 0
149 170 0
146 167 0
147 167 0
143 164 0
147 167 0
148 169 0
146 168 0
150 171 0
150 171 0
151 173 0
151 171 0
154 175 0
149 169 0
147 167 0
153 174 0
148 169 0
154 175 0
149 171 0
142 163 0
146 169 0
149 170 0
153 174 0
151 171 0
147 169 0
143 165 0
146 168 0
152 173 0
149 171 0
144 165 0
151 172 0
151 173 0
143 165 0
145 166 0
146 167 0
145 166 0
144 164 0
153 174 0
142 163 0
142 162 0
143 166 0
140 162 0
149 171 0
158 179 0
143 163 0
136 157 0
142 163 0
143 164 0
146 167 0
151 172 0
140 161 0
148 169 0
142 164 0
151 173 0
148 171 0
145 166 0
148 168 0
151 172 0
147 168 0
139 162 0
144 165 0
144 166 0
142 164 0
143 164 0
142 163 0
147 169 0
135 157 0
143 166 0
133 154 0
149 170 0
148 169 0
144 165 0
140 161 0
141 162 0
155 177 0
141 161 0
141 163 0
142 164 0
142 162 0
143 165 0
140 161 0
139 159 0
140 161 0
145 166 0
138 159 0
142 162 0
142 164 0
144 166 0
147 168 0
138 160 0
149 170 0
141 160 0
138 161 0
145 166 0
146 167 0
149 169 0
145 166 0
137 158 0
147 168 0
150 171 0
143 164 0
140 159 0
136 158 0
144 165 0
153 174 0
147 168 0
144 164 0
145 164 0
141 164 0
145 167 0
147 168 0
145 165 0
151 172 0
138 158 0
146 165 0
150 171 0
138 159 0
138 158 0
142 162 0
144 165 0
137 158 0
140 160 0
150 171 0
135 155 0
145 164 0
142 162 0
144 164 0
146 165 0
145 165 0
148 167 0
140 160 0
147 166 0
150 170 0
139 158 0
153 174 0
150 171 0
139 158 0
144 161 0
150 170 0
152 172 0
139 159 0
146 164 0
141 161 0
154 173 0
153 173 0
152 171 0
157 177 0
144 165 0
151 171 0
149 168 0
149 171 0
147 167 0
154 174 0
147 166 0
149 167 0
152 172 0
146 167 0
148 168 0
153 172 0
153 174 0
151 170 0
154 172 0
154 173 0
150 169 0
149 167 0
152 170 0
140 158 0
152 171 0
153 173 0
145 164 0
154 174 0
154 172 0
152 168 0
145 162 0
156 174 0
147 163 0
151 170 0
146 163 0
152 173 0
148 166 0
149 167 0
151 169 0
149 167 0
156 174 0
150 168 0
147 165 0
151 168 0
152 169 0
147 164 0
146 163 0
147 163 0
145 162 0
146 164 0
154 173 0
153 169 0
151 168 0
143 161 0
146 162 0
155 170 0
151 169 0
155 172 0
152 169 0
154 169 0
155 171 0
144 159 0
156 174 0
153 168 0
155 171 0
158 172 0
149 163 0
155 172 0
152 168 0
160 175 0
152 166 0
147 163 0
158 173 0
151 170 0
155 171 0
150 164 0
145 160 0
151 165 0
154 171 0
152 164 0
151 165 0
153 167 0
155 172 0
151 166 0
152 166 0
150 163 0
148 160 0
156 168 0
156 168 0
155 169 0
156 169 0
160 172 0
155 170 0
159 175 0
145 156 0
160 174 0
161 173 0
161 175 0
155 167 0
156 169 0
156 169 0
158 172 0
156 168 0
159 171 0
157 169 0
156 168 0
156 167 0
158 171 0
161 171 0
154 166 0
160 172 0
158 169 0
156 165 0
159 170 0
156 167 0
162 172 0
163 175 0
160 171 0
161 172 0
162 173 0
162 174 0
159 172 0
165 178 0
157 169 0
157 166 0
160 170 0
160 172 0
159 171 0
164 176 0
155 167 0
165 178 0
162 175 0
159 172 0
161 173 0
161 172 0
163 175 0
158 170 0
162 174 0
161 173 0
159 170 0
160 172 0
164 176 0
161 172 0
162 174 0
165 177 0
161 172 0
160 180 0
157 176 0
162 181 0
161 181 0
159 177 0
159 178 0
161 181 0
161 181 0
160 179 0
161 180 0
161 180 0
156 175 0
155 172 0
162 181 0
160 178 0
159 178 0
159 178 0
163 182 0
160 180 0
162 182 0
161 181 0
151 170 0
158 177 0
159 179 0
157 177 0
151 170 0
157 176 0
153 172 0
152 171 0
152 170 0
159 177 0
158 177 0
156 175 0
157 176 0
155 174 0
155 173 0
157 177 0
151 169 0
154 173 0
155 175 0
155 174 0
151 170 0
151 169 0
152 170 0
145 163 0
158 177 0
159 179 0
145 164 0
156 176 0
158 177 0
149 170 0
157 178 0
159 179 0
151 171 0
151 170 0
153 173 0
159 179 0
157 178 0
155 175 0
153 173 0
155 175 0
153 172 0
155 175 0
154 174 0
152 172 0
153 173 0
146 166 0
160 180 0
152 171 0
152 172 0
149 168 0
158 179 0
152 171 0
155 175 0
142 162 0
159 180 0
158 179 0
156 176 0
153 173 0
154 173 0
151 172 0
152 174 0
153 173 0
157 179 0
149 170 0
147 166 0
141 160 0
148 169 0
157 177 0
153 174 0
149 170 0
151 171 0
147 166 0
158 179 0
145 166 0
146 167 0
147 168 0
153 174 0
153 174 0
149 171 0
149 170 0
147 168 0
146 166 0
151 173 0
150 171 0
150 171 0
155 177 0
145 166 0
155 178 0
150 171 0
152 174 0
153 175 0
157 179 0
146 167 0
149 171 0
144 164 0
156 178 0
145 165 0
144 166 0
148 169 0
151 173 0
147 167 0
148 168 0
150 170 0
149 170 0
155 177 0
147 169 0
148 170 0
148 169 0
146 166 0
149 170 0
144 166 0
145 167 0
145 166 0
148 169 0
144 166 0
150 171 0
148 169 0
153 174 0
150 173 0
148 170 0
142 163 0
145 167 0
141 162 0
151 174 0
151 172 0
147 168 0
140 161 0
144 166 0
140 161 0
145 167 0
147 168 0
147 169 0
147 168 0
144 165 0
141 163 0
152 174 0
144 166 0
147 167 0
148 169 0
148 169 0
149 171 0
145 166 0
145 168 0
147 168 0
142 162 0
145 169 0
147 169 0
147 168 0
149 170 0
149 169 0
141 162 0
154 176 0
152 174 0
140 160 0
145 165 0
148 168 0
147 168 0
143 165 0
139 161 0
143 163 0
139 160 0
146 167 0
142 163 0
141 162 0
147 168 0
141 163 0
145 165 0
149 170 0
143 164 0
138 158 0
144 165 0
150 170 0
139 161 0
141 162 0
147 169 0
143 164 0
146 167 0
138 158 0
145 166 0
147 167 0
142 163 0
137 159 0
153 175 0
149 170 0
148 170 0
157 178 0
140 161 0
143 164 0
146 167 0
149 169 0
135 157 0
153 174 0
146 167 0
146 167 0
147 167 0
150 171 0
145 167 0
152 173 0
143 163 0
137 157 0
135 155 0
139 160 0
145 166 0
143 162 0
141 162 0
137 159 0
148 170 0
140 161 0
137 158 0
138 158 0
152 174 0
149 169 0
143 164 0
149 171 0
147 166 0
142 162 0
144 165 0
144 163 0
141 162 0
146 167 0
145 164 0
147 166 0
149 170 0
143 162 0
152 171 0
147 167 0
145 166 0
143 163 0
148 169 0
149 168 0
142 164 0
152 171 0
145 164 0
151 170 0
143 162 0
148 169 0
149 168 0
146 165 0
150 171 0
146 167 0
151 171 0
153 172 0
147 166 0
150 172 0
150 169 0
151 170 0
144 164 0
148 166 0
150 166 0
145 166 0
149 170 0
149 168 0
149 168 0
150 169 0
148 167 0
148 168 0
139 157 0
148 164 0
150 168 0
147 164 0
148 166 0
152 170 0
146 165 0
154 173 0
150 169 0
150 169 0
150 168 0
144 162 0
148 166 0
148 169 0
155 175 0
157 177 0
153 173 0
155 171 0
154 174 0
152 171 0
152 172 0
152 169 0
158 176 0
150 168 0
151 172 0
149 165 0
153 171 0
145 163 0
153 168 0
151 168 0
149 166 0
148 163 0
153 170 0
149 166 0
151 165 0
161 178 0
155 170 0
152 168 0
151 166 0
150 166 0
154 170 0
152 170 0
154 170 0
149 165 0
157 174 0
153 170 0
152 166 0
152 168 0
155 169 0
153 166 0
154 166 0
155 170 0
145 158 0
155 167 0
149 164 0
159 176 0
156 169 0
154 171 0
156 170 0
156 170 0
157 171 0
151 166 0
146 159 0
153 167 0
158 171 0
156 170 0
156 170 0
155 170 0
152 163 0
154 169 0
149 160 0
155 168 0
158 170 0
163 179 0
159 175 0
151 164 0
155 168 0
152 164 0
157 171 0
157 169 0
153 164 0
160 176 0
154 164 0
160 171 0
160 173 0
162 174 0
163 175 0
156 168 0
160 173 0
161 173 0
159 170 0
154 166 0
158 169 0
156 165 0
154 165 0
159 168 0
158 170 0
159 170 0
162 172 0
165 178 0
156 166 0
159 172 0
157 168 0
159 169 0
165 179 0
160 170 0
163 173 0
158 169 0
160 168 0
156 168 0
163 172 0
164 175 0
160 169 0
161 174 0
162 173 0
164 175 0
158 168 0
165 177 0
160 171 0
163 177 0
163 175 0
161 171 0
164 178 0
162 181 0
161 180 0
162 182 0
159 179 0
156 175 0
161 181 0
163 182 0
162 181 0
155 174 0
164 184 0
157 176 0
153 172 0
155 174 0
162 181 0
158 177 0
154 173 0
154 172 0
163 181 0
160 179 0
160 180 0
159 178 0
154 173 0
152 171 0
155 175 0
159 178 0
149 167 0
152 170 0
155 173 0
159 178 0
160 180 0
156 174 0
159 178 0
154 173 0
162 181 0
157 176 0
149 168 0
153 172 0
157 176 0
155 174 0
162 182 0
157 176 0
156 175 0
157 177 0
158 178 0
154 174 0
157 176 0
158 179 0
154 174 0
151 170 0
155 175 0
150 169 0
157 176 0
150 169 0
157 177 0
154 174 0
150 169 0
153 172 0
155 175 0
156 175 0
149 168 0
151 171 0
154 174 0
149 168 0
153 173 0
155 175 0
155 175 0
154 173 0
159 179 0
154 174 0
154 175 0
156 175 0
155 175 0
153 173 0
152 172 0
157 177 0
150 170 0
149 169 0
154 173 0
153 173 0
151 171 0
148 169 0
159 181 0
155 176 0
150 172 0
154 175 0
151 173 0
143 163 0
152 173 0
153 174 0
152 172 0
147 167 0
148 169 0
152 173 0
158 180 0
153 174 0
153 174 0
149 170 0
149 169 0
141 161 0
153 174 0
151 172 0
150 171 0
153 173 0
147 169 0
145 165 0
154 174 0
156 177 0
149 169 0
147 169 0
152 172 0
155 176 0
154 176 0
143 165 0
149 171 0
152 174 0
138 159 0
148 168 0
141 164 0
153 175 0
145 166 0
154 176 0
151 173 0
145 166 0
149 170 0
155 177 0
146 167 0
153 174 0
155 177 0
142 163 0
153 175 0
151 173 0
148 169 0
147 167 0
141 161 0
157 180 0
149 170 0
147 169 0
145 166 0
146 168 0
142 165 0
148 169 0
147 170 0
146 168 0
144 165 0
151 173 0
138 159 0
147 169 0
147 168 0
150 171 0
146 167 0
146 168 0
141 164 0
134 156 0
144 166 0
150 171 0
152 173 0
147 170 0
143 164 0
150 170 0
144 166 0
152 173 0
143 164 0
144 165 0
144 165 0
149 172 0
153 174 0
143 165 0
136 157 0
144 168 0
151 172 0
146 169 0
151 174 0
147 169 0
144 165 0
146 166 0
148 169 0
146 167 0
149 169 0
142 163 0
152 173 0
151 173 0
146 168 0
143 164 0
149 171 0
150 172 0
141 161 0
148 169 0
147 169 0
144 165 0
148 169 0
148 168 0
143 165 0
143 164 0
151 174 0
150 172 0
146 168 0
144 165 0
146 169 0
150 172 0
141 163 0
137 158 0
146 168 0
140 158 0
150 171 0
138 159 0
141 163 0
138 159 0
137 159 0
149 171 0
145 165 0
138 160 0
152 171 0
146 167 0
142 163 0
143 163 0
140 163 0
143 165 0
154 173 0
138 160 0
140 161 0
144 165 0
156 176 0
147 168 0
141 162 0
148 167 0
150 168 0
149 169 0
146 167 0
158 178 0
149 169 0
145 166 0
139 159 0
147 168 0
144 164 0
147 168 0
146 167 0
142 164 0
151 172 0
137 158 0
145 164 0
151 171 0
148 169 0
136 157 0
145 165 0
147 167 0
143 165 0
155 175 0
152 173 0
144 162 0
148 170 0
143 163 0
146 167 0
148 168 0
150 169 0
149 170 0
144 165 0
143 163 0
144 164 0
149 169 0
148 169 0
148 169 0
147 167 0
149 167 0
149 170 0
142 160 0
150 170 0
147 166 0
151 171 0
145 165 0
157 177 0
147 167 0
152 172 0
146 163 0
145 164 0
143 161 0
148 168 0
146 164 0
146 165 0
152 173 0
149 169 0
146 165 0
150 170 0
148 167 0
152 170 0
144 163 0
158 177 0
150 167 0
151 172 0
156 173 0
150 169 0
158 176 0
150 168 0
152 171 0
153 171 0
149 166 0
151 168 0
146 164 0
147 163 0
150 166 0
150 166 0
152 169 0
158 176 0
150 165 0
157 174 0
158 174 0
151 169 0
149 167 0
150 168 0
149 166 0
158 174 0
152 169 0
156 174 0
151 168 0
148 165 0
153 170 0
157 172 0
157 175 0
153 170 0
154 169 0
154 171 0
155 171 0
155 172 0
155 168 0
150 164 0
152 166 0
148 163 0
157 171 0
152 168 0
154 170 0
151 168 0
160 176 0
155 172 0
159 175 0
157 171 0
150 164 0
150 166 0
158 170 0
153 168 0
151 166 0
160 173 0
154 167 0
153 165 0
155 169 0
155 170 0
156 171 0
161 176 0
156 170 0
154 168 0
159 173 0
156 167 0
153 166 0
155 166 0
154 168 0
157 171 0
159 174 0
157 169 0
161 174 0
159 174 0
159 172 0
159 174 0
155 170 0
162 177 0
163 173 0
155 167 0
156 168 0
152 163 0
160 172 0
161 174 0
160 173 0
161 171 0
161 172 0
162 176 0
162 173 0
161 174 0
158 168 0
156 166 0
160 173 0
163 177 0
162 172 0
160 172 0
166 177 0
162 173 0
163 175 0
161 173 0
155 166 0
160 174 0
157 169 0
160 173 0
165 179 0
164 178 0
162 175 0
161 172 0
160 173 0
164 177 0
159 170 0
161 173 0
161 174 0
166 179 0
156 165 0
162 173 0
163 183 0
163 182 0
160 179 0
159 179 0
163 182 0
154 173 0
163 181 0
158 177 0
161 181 0
159 179 0
151 169 0
156 175 0
161 181 0
160 180 0
160 180 0
156 175 0
160 179 0
164 183 0
162 181 0
158 177 0
160 179 0
156 175 0
162 180 0
157 176 0
159 178 0
161 180 0
158 176 0
157 175 0
156 176 0
155 174 0
151 171 0
155 174 0
155 175 0
156 175 0
151 170 0
153 173 0
152 171 0
161 181 0
158 178 0
155 175 0
157 176 0
160 180 0
157 175 0
151 170 0
150 169 0
159 178 0
158 177 0
157 176 0
156 176 0
154 174 0
156 175 0
158 178 0
159 178 0
155 174 0
150 170 0
154 174 0
152 171 0
146 165 0
154 174 0
156 178 0
152 173 0
153 174 0
152 173 0
153 174 0
158 178 0
148 169 0
148 168 0
154 173 0
148 168 0
157 178 0
151 172 0
151 171 0
151 172 0
148 169 0
154 174 0
151 172 0
155 175 0
154 175 0
148 168 0
161 182 0
149 169 0
157 178 0
151 172 0
150 171 0
155 176 0
150 170 0
155 176 0
154 175 0
147 168 0
159 180 0
156 176 0
157 178 0
151 171 0
153 173 0
149 169 0
156 177 0
146 167 0
156 178 0
152 173 0
151 172 0
160 181 0
152 173 0
145 166 0
150 171 0
150 171 0
151 173 0
155 176 0
150 170 0
158 179 0
151 172 0
145 166 0
150 171 0
152 173 0
147 168 0
151 173 0
153 174 0
143 164 0
147 168 0
154 175 0
145 165 0
151 172 0
147 168 0
147 167 0
145 166 0
152 174 0
145 166 0
148 169 0
143 163 0
152 174 0
149 170 0
153 176 0
155 177 0
144 167 0
148 169 0
142 164 0
153 174 0
145 168 0
149 171 0
143 166 0
146 167 0
152 174 0
155 178 0
150 172 0
134 152 0
147 168 0
154 176 0
154 176 0
151 174 0
142 163 0
147 167 0
142 163 0
150 173 0
148 171 0
146 167 0
151 173 0
145 166 0
145 168 0
151 172 0
147 168 0
145 167 0
145 167 0
149 172 0
145 167 0
148 171 0
143 164 0
147 168 0
145 167 0
145 167 0
151 172 0
149 170 0
145 167 0
141 163 0
143 164 0
147 169 0
153 175 0
144 166 0
143 164 0
148 169 0
142 162 0
138 157 0
143 165 0
142 165 0
146 169 0
139 160 0
135 157 0
140 161 0
142 162 0
139 160 0
140 161 0
149 170 0
149 171 0
144 166 0
140 162 0
140 161 0
145 167 0
136 156 0
141 162 0
144 166 0
146 167 0
143 163 0
149 170 0
149 171 0
148 168 0
145 166 0
152 173 0
150 172 0
157 177 0
138 160 0
146 166 0
144 164 0
144 163 0
147 167 0
146 168 0
150 171 0
147 168 0
140 161 0
142 162 0
150 171 0
145 168 0
142 162 0
143 163 0
141 163 0
152 172 0
150 171 0
145 167 0
134 155 0
142 162 0
137 158 0
144 164 0
152 172 0
141 161 0
146 166 0
137 156 0
149 170 0
143 163 0
145 167 0
154 174 0
145 166 0
145 166 0
148 169 0
155 176 0
153 173 0
150 170 0
148 168 0
149 170 0
153 174 0
146 167 0
153 172 0
153 174 0
150 170 0
143 164 0
145 166 0
147 166 0
146 166 0
150 169 0
148 168 0
153 173 0
148 166 0
141 161 0
145 164 0
151 171 0
148 168 0
145 166 0
151 172 0
147 168 0
146 166 0
143 160 0
149 167 0
145 165 0
152 171 0
145 165 0
148 166 0
154 174 0
142 161 0
156 174 0
155 175 0
153 173 0
155 173 0
145 164 0
156 174 0
155 173 0
149 168 0
145 163 0
157 176 0
149 168 0
156 176 0
149 169 0
144 160 0
151 168 0
146 165 0
142 160 0
151 168 0
155 173 0
153 171 0
150 170 0
154 173 0
145 164 0
152 171 0
157 176 0
154 173 0
143 162 0
152 169 0
150 167 0
155 172 0
154 171 0
146 163 0
150 170 0
146 160 0
156 174 0
156 171 0
159 176 0
144 160 0
146 162 0
151 167 0
151 166 0
153 169 0
147 165 0
151 166 0
158 177 0
151 169 0
154 170 0
148 166 0
152 169 0
156 169 0
153 170 0
155 172 0
150 168 0
152 168 0
152 166 0
158 174 0
148 162 0
154 169 0
157 173 0
154 168 0
157 174 0
159 176 0
152 167 0
156 170 0
158 173 0
152 166 0
157 171 0
153 169 0
158 172 0
150 164 0
153 167 0
148 160 0
156 168 0
161 174 0
153 165 0
157 170 0
159 173 0
157 170 0
160 177 0
157 171 0
159 172 0
155 168 0
160 176 0
159 173 0
159 171 0
154 167 0
154 168 0
150 161 0
149 160 0
160 172 0
154 166 0
157 170 0
159 173 0
153 165 0
159 170 0
159 171 0
162 174 0
157 167 0
161 175 0
156 167 0
162 174 0
163 175 0
158 168 0
156 167 0
155 164 0
162 176 0
164 177 0
161 173 0
158 170 0
159 171 0
162 175 0
159 169 0
164 176 0
163 175 0
157 168 0
160 169 0
162 176 0
161 173 0
165 178 0
160 170 0
160 172 0
160 170 0
161 173 0
160 172 0
162 177 0
166 181 0
159 178 0
151 170 0
154 173 0
164 183 0
158 177 0
161 180 0
159 179 0
159 179 0
161 180 0
158 177 0
157 177 0
160 180 0
158 177 0
162 182 0
150 169 0
159 178 0
161 180 0
153 172 0
160 179 0
153 173 0
159 178 0
155 175 0
163 182 0
156 176 0
152 170 0
159 178 0
158 178 0
160 179 0
156 176 0
155 175 0
156 176 0
156 175 0
155 175 0
157 176 0
160 180 0
158 177 0
155 174 0
161 181 0
150 169 0
159 180 0
155 174 0
154 174 0
158 178 0
160 179 0
143 162 0
158 178 0
157 177 0
156 175 0
158 178 0
154 173 0
148 167 0
158 178 0
151 171 0
155 175 0
154 175 0
154 174 0
157 177 0
159 178 0
153 173 0
154 174 0
152 172 0
154 176 0
151 172 0
150 170 0
155 175 0
154 174 0
158 178 0
152 172 0
159 180 0
152 172 0
154 175 0
147 167 0
153 174 0
148 168 0
161 181 0
153 173 0
149 169 0
153 174 0
157 178 0
153 173 0
157 178 0
157 178 0
157 178 0
153 174 0
156 177 0
152 173 0
150 171 0
154 175 0
156 176 0
151 172 0
151 170 0
150 171 0
149 170 0
154 175 0
148 169 0
148 169 0
146 166 0
155 176 0
152 173 0
147 169 0
151 172 0
155 175 0
154 175 0
154 176 0
152 173 0
146 166 0
148 170 0
147 167 0
154 177 0
153 175 0
149 170 0
148 168 0
152 173 0
146 167 0
156 178 0
152 175 0
150 171 0
151 171 0
152 174 0
152 174 0
149 171 0
151 173 0
148 170 0
148 169 0
147 168 0
142 164 0
146 168 0
147 169 0
145 166 0
151 173 0
148 170 0
153 175 0
149 171 0
143 164 0
149 171 0
150 172 0
149 170 0
146 168 0
153 175 0
153 176 0
146 168 0
150 171 0
148 170 0
149 171 0
150 172 0
144 165 0
150 171 0
144 165 0
152 173 0
148 170 0
154 176 0
147 168 0
152 172 0
149 170 0
150 171 0
149 171 0
143 165 0
139 160 0
149 170 0
158 178 0
138 159 0
149 170 0
138 160 0
144 167 0
150 173 0
148 169 0
142 162 0
154 175 0
146 166 0
142 162 0
151 173 0
144 166 0
145 166 0
145 166 0
142 162 0
142 163 0
152 174 0
146 166 0
150 172 0
142 164 0
148 170 0
154 176 0
147 169 0
146 167 0
144 165 0
138 159 0
151 173 0
155 176 0
149 171 0
140 161 0
142 163 0
150 170 0
150 171 0
147 168 0
149 171 0
147 169 0
150 172 0
151 173 0
145 167 0
146 166 0
146 167 0
144 166 0
147 168 0
152 173 0
145 167 0
145 166 0
149 170 0
152 173 0
144 165 0
139 160 0
148 170 0
156 177 0
148 170 0
147 169 0
153 174 0
149 171 0
147 166 0
148 170 0
150 170 0
141 163 0
138 160 0
146 166 0
142 163 0
142 162 0
142 163 0
145 166 0
140 160 0
146 167 0
141 163 0
144 164 0
143 163 0
144 164 0
149 170 0
150 171 0
143 164 0
148 168 0
152 174 0
144 165 0
142 161 0
137 157 0
149 168 0
145 166 0
144 165 0
146 167 0
146 166 0
145 166 0
147 168 0
145 167 0
149 169 0
146 167 0
150 170 0
148 170 0
151 172 0
141 161 0
150 170 0
145 165 0
151 172 0
152 172 0
152 172 0
149 169 0
142 161 0
152 172 0
149 169 0
148 168 0
145 164 0
153 172 0
148 169 0
151 170 0
145 165 0
155 175 0
151 171 0
146 166 0
148 166 0
147 166 0
146 166 0
145 165 0
148 168 0
146 164 0
148 166 0
148 167 0
151 168 0
144 163 0
145 164 0
150 170 0
148 168 0
154 173 0
153 171 0
153 172 0
147 166 0
155 174 0
152 171 0
150 169 0
147 166 0
150 166 0
153 171 0
154 173 0
152 170 0
156 174 0
149 165 0
158 176 0
159 176 0
151 170 0
147 167 0
151 170 0
144 163 0
161 180 0
151 169 0
159 176 0
157 176 0
156 175 0
151 167 0
149 166 0
149 166 0
150 166 0
147 162 0
157 174 0
156 173 0
151 168 0
153 169 0
154 170 0
162 179 0
149 164 0
150 168 0
155 172 0
157 174 0
153 167 0
152 168 0
155 170 0
153 169 0
155 173 0
152 168 0
151 166 0
155 171 0
153 169 0
150 165 0
153 169 0
150 163 0
155 171 0
155 168 0
150 163 0
159 172 0
149 168 0
150 163 0
155 169 0
157 171 0
155 170 0
158 173 0
157 172 0
154 170 0
153 166 0
151 165 0
158 172 0
159 175 0
164 177 0
157 168 0
152 166 0
154 166 0
158 170 0
152 163 0
154 166 0
157 169 0
160 173 0
163 178 0
160 174 0
161 174 0
158 172 0
159 172 0
162 176 0
162 174 0
166 181 0
161 174 0
158 171 0
157 168 0
159 169 0
159 170 0
157 170 0
155 167 0
160 172 0
160 170 0
160 172 0
161 173 0
165 181 0
160 172 0
161 172 0
156 168 0
162 175 0
166 180 0
158 169 0
160 170 0
162 174 0
161 173 0
159 169 0
160 170 0
159 173 0
158 168 0
157 169 0
162 175 0
161 173 0
158 167 0
162 174 0
159 178 0
160 180 0
161 180 0
161 180 0
158 176 0
157 177 0
158 177 0
162 181 0
160 179 0
163 184 0
156 176 0
162 181 0
160 179 0
155 174 0
162 180 0
156 175 0
160 179 0
162 181 0
162 181 0
160 180 0
156 175 0
159 179 0
161 181 0
161 181 0
164 184 0
161 180 0
155 175 0
151 171 0
159 179 0
154 174 0
159 178 0
160 180 0
156 177 0
151 170 0
154 173 0
153 173 0
158 176 0
156 176 0
156 176 0
151 171 0
156 176 0
155 174 0
157 177 0
152 172 0
155 175 0
153 172 0
157 176 0
155 175 0
157 177 0
153 172 0
154 173 0
159 180 0
161 181 0
151 171 0
154 174 0
159 178 0
154 175 0
149 169 0
148 169 0
157 179 0
158 180 0
142 162 0
152 172 0
157 178 0
150 171 0
155 176 0
153 173 0
156 178 0
160 181 0
150 170 0
153 173 0
161 180 0
155 175 0
149 169 0
151 171 0
155 175 0
152 173 0
149 169 0
159 181 0
155 176 0
155 175 0
149 169 0
151 173 0
156 176 0
152 172 0
148 167 0
153 174 0
151 173 0
155 176 0
143 165 0
150 172 0
157 179 0
150 171 0
152 173 0
152 172 0
151 173 0
149 170 0
148 171 0
151 172 0
156 177 0
154 176 0
150 171 0
155 176 0
145 166 0
154 175 0
144 165 0
146 167 0
154 175 0
150 171 0
152 174 0
150 169 0
150 171 0
155 176 0
152 173 0
148 169 0
151 173 0
148 168 0
147 168 0
155 176 0
154 176 0
148 170 0
154 177 0
148 169 0
157 178 0
143 165 0
151 173 0
152 173 0
154 174 0
151 174 0
149 171 0
147 169 0
149 171 0
141 162 0
152 174 0
151 173 0
149 171 0
156 176 0
139 161 0
148 170 0
150 171 0
152 175 0
144 165 0
147 169 0
142 164 0
151 171 0
145 167 0
151 172 0
147 168 0
151 173 0
149 171 0
143 166 0
149 171 0
141 162 0
145 166 0
147 168 0
146 166 0
148 169 0
147 168 0
142 163 0
145 166 0
153 174 0
148 169 0
145 167 0
142 163 0
145 166 0
146 167 0
151 173 0
148 170 0
146 169 0
149 171 0
147 168 0
155 177 0
149 171 0
151 173 0
149 170 0
143 165 0
146 166 0
149 171 0
155 177 0
150 173 0
147 169 0
150 170 0
152 173 0
149 170 0
143 163 0
146 168 0
150 171 0
148 170 0
150 172 0
138 158 0
147 168 0
145 166 0
146 167 0
137 158 0
152 173 0
148 171 0
147 169 0
150 173 0
143 165 0
137 158 0
147 169 0
144 166 0
141 161 0
141 162 0
147 169 0
145 168 0
150 171 0
152 173 0
152 173 0
147 168 0
142 163 0
141 162 0
150 173 0
146 168 0
150 170 0
151 173 0
146 166 0
148 168 0
148 169 0
147 169 0
149 170 0
148 169 0
150 172 0
152 174 0
148 171 0
150 173 0
151 171 0
156 176 0
143 164 0
153 173 0
152 173 0
142 164 0
158 180 0
144 163 0
144 165 0
149 171 0
142 162 0
148 168 0
151 173 0
151 173 0
141 160 0
148 169 0
152 174 0
149 170 0
139 159 0
146 168 0
147 166 0
148 168 0
150 171 0
151 168 0
153 173 0
154 174 0
153 173 0
155 175 0
144 163 0
154 175 0
151 170 0
152 173 0
150 170 0
151 171 0
152 173 0
154 174 0
154 174 0
151 170 0
154 174 0
156 177 0
156 175 0
152 172 0
155 174 0
150 170 0
145 166 0
150 169 0
152 170 0
144 164 0
157 177 0
158 178 0
157 177 0
146 164 0
151 170 0
152 171 0
158 179 0
150 168 0
151 170 0
154 174 0
154 173 0
151 171 0
146 163 0
148 168 0
151 170 0
151 170 0
150 169 0
156 175 0
155 176 0
146 163 0
154 173 0
151 170 0
152 172 0
151 171 0
144 163 0
153 172 0
155 173 0
156 174 0
155 174 0
149 167 0
150 169 0
154 172 0
155 173 0
153 173 0
152 171 0
156 173 0
158 177 0
159 177 0
154 173 0
156 172 0
150 167 0
152 171 0
150 167 0
151 168 0
152 170 0
150 166 0
152 166 0
148 164 0
150 166 0
155 172 0
154 171 0
154 169 0
152 166 0
155 174 0
154 171 0
149 165 0
152 168 0
160 175 0
151 165 0
157 174 0
147 160 0
149 163 0
150 166 0
149 162 0
159 177 0
161 176 0
154 170 0
154 170 0
158 173 0
151 165 0
152 167 0
154 171 0
157 173 0
159 175 0
155 168 0
152 166 0
158 171 0
156 170 0
158 172 0
158 173 0
155 170 0
154 167 0
157 170 0
154 167 0
154 166 0
159 173 0
157 171 0
161 175 0
159 173 0
151 161 0
155 164 0
159 174 0
155 167 0
158 175 0
158 173 0
157 171 0
161 174 0
156 164 0
153 164 0
162 177 0
160 171 0
161 174 0
164 178 0
160 173 0
163 176 0
162 175 0
154 166 0
163 176 0
161 172 0
163 177 0
161 174 0
159 170 0
162 176 0
161 174 0
163 176 0
160 171 0
161 174 0
162 174 0
163 175 0
163 173 0
163 175 0
162 174 0
160 174 0
164 178 0
166 178 0
164 176 0
164 183 0
165 186 0
161 181 0
158 175 0
163 182 0
158 178 0
158 176 0
158 179 0
160 180 0
165 183 0
157 176 0
162 182 0
157 177 0
154 174 0
158 177 0
159 178 0
162 182 0
157 177 0
158 176 0
159 179 0
158 177 0
161 180 0
159 179 0
160 180 0
155 174 0
158 178 0
155 174 0
159 179 0
161 180 0
161 180 0
157 176 0
156 175 0
154 174 0
158 178 0
161 181 0
159 180 0
158 178 0
162 182 0
156 175 0
157 176 0
152 172 0
156 175 0
154 174 0
154 174 0
150 169 0
158 177 0
149 169 0
159 180 0
159 179 0
155 175 0
155 175 0
156 176 0
157 177 0
152 172 0
153 173 0
155 175 0
155 175 0
163 183 0
152 172 0
153 173 0
149 169 0
150 169 0
153 173 0
156 177 0
153 172 0
158 177 0
157 178 0
139 159 0
154 175 0
160 181 0
154 175 0
153 173 0
148 169 0
156 175 0
153 173 0
153 174 0
150 171 0
153 173 0
153 174 0
155 176 0
158 179 0
153 173 0
153 173 0
152 173 0
153 173 0
154 175 0
153 174 0
154 176 0
149 170 0
152 173 0
150 172 0
151 171 0
152 174 0
146 166 0
151 172 0
150 171 0
157 179 0
150 170 0
149 169 0
155 175 0
149 170 0
149 170 0
156 177 0
152 172 0
149 170 0
156 176 0
151 172 0
148 170 0
150 172 0
155 177 0
150 171 0
143 163 0
146 168 0
149 170 0
145 167 0
152 173 0
147 169 0
150 171 0
148 168 0
152 173 0
149 170 0
152 174 0
144 165 0
148 170 0
149 171 0
152 173 0
146 167 0
155 176 0
147 168 0
153 175 0
147 169 0
149 170 0
140 162 0
147 169 0
144 165 0
140 161 0
152 175 0
152 173 0
148 169 0
147 168 0
155 176 0
143 164 0
142 163 0
147 168 0
150 172 0
150 172 0
150 172 0
147 170 0
151 172 0
148 170 0
144 166 0
149 170 0
155 177 0
150 173 0
147 168 0
142 163 0
148 170 0
147 168 0
149 171 0
144 167 0
149 170 0
137 158 0
147 168 0
141 162 0
149 172 0
152 174 0
150 171 0
152 174 0
149 170 0
153 175 0
138 159 0
151 172 0
151 170 0
153 175 0
152 173 0
146 168 0
147 169 0
142 164 0
145 166 0
147 169 0
143 163 0
151 173 0
143 164 0
146 167 0
147 168 0
149 170 0
143 164 0
149 171 0
146 168 0
143 165 0
144 166 0
149 170 0
145 167 0
146 167 0
153 174 0
142 164 0
146 166 0
151 172 0
141 162 0
143 164 0
146 167 0
148 168 0
140 162 0
144 165 0
150 171 0
149 170 0
144 166 0
142 162 0
149 170 0
151 172 0
144 165 0
140 160 0
147 168 0
149 170 0
143 164 0
147 167 0
150 171 0
142 163 0
145 165 0
146 167 0
151 172 0
145 166 0
151 172 0
148 167 0
139 159 0
147 167 0
141 162 0
144 165 0
143 163 0
156 175 0
148 170 0
150 170 0
158 178 0
145 166 0
152 175 0
152 173 0
153 174 0
143 163 0
148 169 0
146 167 0
143 163 0
146 167 0
149 171 0
147 167 0
145 165 0
155 175 0
150 172 0
145 164 0
150 171 0
143 164 0
149 170 0
143 162 0
147 166 0
149 169 0
149 169 0
158 180 0
142 160 0
144 165 0
148 168 0
144 163 0
148 169 0
155 176 0
149 170 0
143 163 0
153 174 0
150 170 0
147 169 0
146 168 0
155 176 0
152 172 0
153 173 0
156 178 0
146 165 0
152 172 0
147 166 0
145 164 0
151 171 0
150 169 0
148 168 0
149 168 0
149 168 0
149 168 0
157 176 0
155 175 0
155 175 0
146 164 0
154 172 0
150 168 0
147 165 0
153 171 0
154 171 0
143 162 0
150 170 0
152 171 0
145 160 0
159 179 0
149 168 0
140 159 0
150 167 0
154 173 0
154 173 0
152 169 0
152 170 0
148 167 0
150 169 0
149 165 0
157 174 0
157 176 0
148 166 0
161 180 0
152 170 0
152 168 0
153 170 0
152 171 0
157 176 0
154 173 0
157 174 0
151 167 0
158 176 0
161 178 0
151 169 0
155 171 0
154 171 0
146 161 0
150 167 0
153 170 0
157 172 0
155 169 0
156 172 0
153 168 0
155 174 0
152 169 0
160 177 0
153 167 0
156 174 0
157 171 0
147 162 0
155 168 0
153 169 0
157 175 0
162 179 0
154 168 0
159 176 0
157 175 0
154 168 0
158 175 0
159 175 0
157 171 0
151 165 0
159 175 0
156 170 0
159 174 0
150 163 0
159 173 0
159 172 0
159 173 0
164 179 0
157 173 0
153 166 0
161 176 0
155 170 0
158 175 0
154 167 0
156 169 0
158 171 0
164 179 0
154 165 0
160 172 0
160 175 0
157 171 0
162 174 0
159 172 0
161 175 0
159 169 0
161 174 0
155 167 0
161 173 0
161 175 0
158 172 0
160 172 0
160 172 0
163 174 0
155 169 0
160 171 0
160 170 0
158 168 0
161 175 0
157 169 0
167 181 0
164 175 0
162 177 0
161 174 0
162 175 0
160 173 0
162 173 0
163 175 0
166 181 0
162 173 0
160 173 0
161 171 0
161 180 0
164 183 0
162 182 0
163 183 0
161 182 0
159 177 0
162 181 0
160 180 0
165 186 0
159 179 0
156 175 0
157 177 0
157 176 0
160 180 0
154 174 0
164 183 0
160 180 0
153 173 0
157 177 0
158 178 0
161 181 0
149 168 0
157 177 0
152 172 0
158 178 0
159 178 0
158 177 0
158 178 0
159 179 0
156 177 0
153 172 0
154 173 0
152 172 0
158 178 0
153 173 0
158 178 0
161 180 0
157 177 0
155 175 0
157 178 0
155 175 0
155 176 0
152 171 0
159 179 0
158 178 0
156 176 0
150 171 0
156 177 0
150 170 0
158 177 0
154 173 0
157 178 0
147 168 0
151 171 0
151 171 0
156 177 0
153 173 0
158 179 0
154 175 0
159 180 0
158 180 0
153 174 0
157 177 0
151 172 0
147 167 0
152 173 0
153 173 0
153 174 0
147 168 0
157 177 0
157 178 0
149 169 0
154 174 0
155 176 0
153 173 0
150 172 0
157 178 0
152 173 0
150 172 0
149 169 0
153 173 0
152 173 0
153 174 0
150 171 0
150 170 0
152 173 0
156 177 0
155 176 0
150 170 0
148 168 0
154 176 0
155 177 0
153 173 0
154 175 0
153 175 0
155 175 0
147 169 0
147 168 0
152 175 0
153 175 0
151 173 0
156 178 0
151 173 0
149 170 0
154 174 0
149 169 0
158 180 0
157 178 0
157 179 0
154 174 0
150 171 0
150 172 0
159 180 0
155 177 0
154 176 0
151 173 0
146 167 0
149 171 0
147 169 0
148 170 0
146 167 0
149 170 0
146 168 0
141 162 0
150 171 0
152 174 0
153 174 0
149 171 0
147 168 0
154 176 0
142 163 0
153 174 0
153 175 0
144 164 0
150 173 0
147 170 0
145 167 0
146 168 0
151 171 0
147 168 0
142 164 0
150 172 0
152 172 0
151 172 0
146 167 0
144 167 0
154 176 0
144 166 0
146 168 0
151 174 0
148 170 0
148 170 0
149 171 0
145 167 0
153 175 0
149 170 0
152 174 0
148 170 0
149 170 0
153 175 0
146 168 0
147 170 0
155 176 0
150 173 0
145 167 0
150 171 0
145 167 0
140 161 0
141 163 0
146 169 0
150 172 0
148 169 0
145 167 0
138 159 0
151 172 0
148 171 0
154 176 0
146 167 0
145 167 0
154 177 0
141 163 0
145 165 0
152 175 0
147 168 0
149 170 0
156 178 0
147 168 0
150 171 0
149 169 0
153 174 0
145 165 0
150 172 0
146 168 0
145 167 0
147 168 0
147 168 0
151 173 0
144 165 0
147 168 0
153 174 0
149 169 0
145 165 0
147 168 0
136 156 0
151 174 0
143 164 0
147 168 0
144 165 0
152 173 0
144 165 0
147 169 0
138 158 0
142 164 0
148 168 0
154 175 0
152 173 0
147 169 0
146 166 0
147 169 0
150 172 0
147 170 0
148 168 0
146 167 0
147 168 0
146 168 0
153 173 0
149 172 0
145 165 0
149 170 0
144 165 0
152 173 0
148 169 0
139 159 0
147 168 0
144 164 0
148 167 0
153 174 0
147 168 0
153 174 0
144 163 0
148 170 0
147 169 0
156 176 0
154 175 0
139 159 0
154 176 0
150 171 0
153 174 0
152 173 0
148 169 0
144 165 0
144 165 0
153 174 0
144 163 0
149 169 0
149 170 0
151 172 0
155 176 0
148 169 0
148 168 0
149 169 0
144 164 0
158 177 0
155 175 0
146 165 0
152 174 0
149 169 0
140 159 0
149 169 0
151 171 0
155 174 0
150 171 0
147 166 0
153 174 0
154 175 0
153 173 0
145 165 0
155 177 0
158 178 0
156 175 0
154 173 0
150 166 0
150 168 0
150 168 0
150 168 0
156 173 0
153 172 0
157 176 0
155 176 0
149 167 0
158 178 0
153 173 0
151 171 0
156 175 0
152 172 0
153 170 0
148 167 0
152 170 0
154 174 0
150 167 0
160 177 0
149 166 0
152 171 0
151 169 0
149 165 0
154 174 0
152 171 0
161 180 0
152 170 0
152 169 0
149 167 0
150 168 0
151 170 0
164 180 0
160 180 0
156 175 0
156 173 0
154 173 0
151 168 0
151 168 0
161 182 0
154 169 0
155 172 0
160 177 0
159 177 0
158 175 0
151 166 0
148 165 0
155 172 0
158 175 0
159 175 0
154 171 0
152 168 0
158 176 0
153 167 0
156 173 0
157 171 0
160 175 0
160 176 0
155 168 0
151 162 0
152 168 0
160 176 0
158 172 0
156 171 0
156 170 0
159 175 0
154 169 0
157 172 0
156 172 0
162 175 0
154 163 0
158 172 0
160 175 0
155 167 0
154 169 0
159 172 0
154 169 0
156 171 0
154 168 0
161 174 0
158 172 0
156 168 0
157 173 0
162 176 0
160 173 0
154 168 0
160 173 0
156 168 0
154 168 0
157 170 0
153 165 0
157 171 0
159 171 0
157 171 0
160 173 0
162 176 0
159 172 0
162 175 0
161 173 0
159 170 0
160 174 0
156 170 0
161 175 0
159 172 0
164 178 0
165 179 0
161 173 0
164 177 0
161 173 0
156 168 0
167 180 0
165 180 0
165 178 0
161 173 0
158 168 0
164 178 0
163 175 0
164 179 0
161 175 0
160 179 0
155 174 0
155 174 0
159 178 0
156 175 0
152 171 0
161 179 0
159 178 0
159 177 0
160 180 0
156 176 0
159 178 0
156 175 0
150 170 0
154 174 0
157 177 0
163 183 0
158 177 0
154 174 0
161 180 0
156 176 0
157 176 0
161 180 0
159 179 0
158 178 0
152 172 0
157 176 0
161 181 0
156 174 0
158 177 0
158 177 0
158 178 0
159 179 0
157 177 0
161 181 0
154 174 0
159 179 0
154 174 0
159 178 0
158 178 0
155 174 0
152 173 0
155 174 0
153 173 0
153 172 0
151 171 0
150 169 0
157 176 0
157 177 0
158 178 0
154 175 0
152 172 0
160 181 0
154 175 0
150 170 0
146 167 0
156 175 0
154 173 0
153 175 0
155 175 0
155 177 0
156 177 0
159 179 0
143 164 0
157 177 0
153 175 0
156 177 0
153 173 0
143 163 0
152 172 0
151 172 0
150 171 0
153 173 0
152 173 0
154 175 0
146 166 0
159 180 0
151 171 0
154 175 0
149 170 0
158 179 0
154 175 0
153 174 0
154 174 0
150 172 0
153 174 0
155 176 0
150 172 0
150 172 0
145 165 0
157 179 0
156 178 0
152 175 0
151 173 0
149 170 0
151 172 0
154 176 0
153 175 0
155 177 0
148 169 0
155 176 0
152 174 0
151 172 0
157 177 0
151 173 0
146 166 0
149 170 0
149 171 0
155 176 0
151 172 0
149 170 0
153 175 0
154 178 0
152 173 0
151 173 0
139 162 0
150 171 0
150 173 0
147 169 0
157 178 0
149 169 0
147 169 0
149 171 0
147 169 0
151 173 0
147 168 0
154 175 0
149 171 0
159 181 0
147 168 0
151 174 0
144 165 0
140 161 0
146 169 0
151 173 0
149 171 0
144 165 0
146 167 0
149 171 0
152 175 0
148 169 0
148 169 0
150 172 0
157 179 0
144 165 0
155 176 0
153 175 0
153 175 0
144 166 0
150 172 0
147 169 0
153 175 0
154 176 0
141 163 0
141 163 0
150 171 0
152 174 0
153 174 0
154 177 0
148 169 0
152 175 0
141 162 0
152 174 0
148 169 0
144 167 0
156 178 0
146 169 0
153 174 0
146 167 0
147 167 0
149 172 0
154 176 0
153 174 0
146 167 0
155 177 0
147 168 0
152 174 0
148 171 0
143 165 0
142 164 0
146 167 0
150 172 0
150 172 0
138 160 0
145 167 0
143 164 0
146 168 0
149 170 0
155 178 0
149 169 0
138 159 0
148 169 0
153 175 0
151 172 0
143 164 0
149 170 0
142 162 0
150 171 0
151 173 0
137 159 0
146 168 0
154 175 0
147 169 0
149 169 0
152 172 0
147 168 0
143 163 0
147 169 0
149 170 0
147 169 0
145 166 0
153 175 0
146 168 0
147 168 0
149 170 0
142 163 0
149 170 0
145 168 0
150 172 0
146 167 0
149 170 0
149 170 0
149 171 0
151 173 0
144 165 0
152 174 0
145 165 0
145 167 0
149 169 0
146 167 0
152 172 0
145 165 0
147 167 0
148 167 0
146 168 0
146 167 0
151 171 0
148 169 0
147 167 0
147 167 0
148 169 0
149 170 0
147 168 0
146 167 0
152 176 0
147 167 0
147 168 0
147 170 0
148 168 0
146 166 0
156 177 0
152 173 0
149 169 0
153 176 0
150 171 0
154 175 0
147 167 0
154 175 0
142 162 0
151 171 0
154 173 0
142 161 0
158 177 0
155 174 0
156 175 0
154 174 0
155 174 0
149 169 0
145 163 0
154 173 0
142 160 0
145 164 0
152 171 0
147 166 0
149 166 0
146 165 0
154 173 0
149 167 0
154 175 0
155 174 0
150 170 0
151 170 0
137 156 0
152 171 0
155 175 0
153 170 0
153 172 0
159 178 0
155 175 0
153 172 0
144 162 0
157 177 0
155 174 0
148 167 0
153 172 0
157 177 0
155 173 0
148 167 0
148 167 0
154 172 0
148 168 0
150 168 0
156 174 0
154 172 0
151 170 0
152 169 0
151 168 0
148 164 0
150 166 0
152 169 0
155 171 0
155 174 0
148 165 0
147 165 0
157 176 0
151 170 0
155 174 0
150 169 0
151 167 0
148 164 0
148 165 0
150 166 0
154 172 0
156 172 0
153 170 0
156 173 0
153 167 0
156 173 0
152 168 0
153 170 0
150 166 0
156 170 0
163 179 0
158 175 0
156 173 0
151 169 0
151 165 0
156 175 0
157 172 0
154 172 0
153 167 0
153 169 0
156 171 0
156 172 0
160 177 0
159 174 0
154 170 0
150 165 0
160 174 0
155 170 0
155 169 0
157 170 0
158 173 0
162 177 0
159 175 0
156 169 0
157 174 0
153 165 0
156 169 0
157 171 0
156 172 0
157 170 0
163 178 0
158 174 0
160 175 0
156 171 0
160 174 0
158 171 0
152 165 0
158 171 0
154 169 0
162 176 0
162 175 0
154 166 0
160 174 0
156 169 0
166 180 0
164 179 0
156 169 0
160 172 0
164 178 0
159 171 0
161 173 0
161 173 0
162 176 0
167 181 0
162 175 0
163 178 0
164 176 0
164 179 0
158 169 0
161 173 0
165 177 0
157 169 0
161 174 0
162 174 0
163 178 0
159 169 0
163 173 0
165 177 0
164 184 0
166 186 0
160 180 0
158 177 0
165 185 0
159 179 0
166 186 0
155 175 0
159 179 0
157 176 0
158 178 0
160 180 0
151 170 0
163 184 0
159 179 0
158 178 0
154 175 0
156 175 0
159 180 0
156 177 0
154 173 0
155 175 0
159 179 0
153 172 0
162 182 0
154 174 0
162 183 0
158 178 0
155 175 0
153 173 0
160 181 0
155 175 0
156 177 0
158 179 0
158 179 0
162 182 0
153 174 0
153 173 0
161 181 0
158 177 0
152 171 0
152 171 0
157 178 0
160 180 0
154 175 0
158 178 0
159 181 0
156 175 0
155 174 0
154 174 0
151 172 0
153 173 0
151 171 0
146 167 0
149 169 0
152 172 0
156 177 0
152 172 0
155 175 0
148 169 0
154 174 0
156 177 0
153 173 0
150 170 0
153 173 0
153 174 0
150 170 0
155 176 0
150 170 0
157 177 0
151 171 0
154 175 0
149 169 0
152 174 0
151 172 0
153 175 0
148 169 0
150 171 0
152 174 0
155 177 0
149 169 0
152 174 0
154 176 0
154 175 0
153 174 0
152 174 0
149 170 0
150 172 0
151 173 0
152 173 0
157 177 0
146 168 0
152 174 0
156 177 0
153 174 0
151 174 0
149 171 0
155 178 0
153 173 0
153 175 0
152 173 0
147 167 0
154 176 0
158 180 0
154 175 0
152 173 0
150 172 0
150 173 0
152 174 0
155 177 0
148 168 0
156 177 0
150 171 0
151 172 0
148 170 0
150 172 0
149 171 0
151 172 0
152 174 0
145 167 0
150 173 0
151 173 0
149 171 0
149 170 0
156 178 0
148 169 0
153 175 0
149 171 0
155 177 0
146 167 0
156 178 0
148 170 0
155 177 0
154 176 0
150 172 0
149 171 0
146 169 0
157 178 0
152 173 0
154 175 0
145 168 0
154 176 0
149 170 0
140 162 0
152 175 0
152 175 0
150 171 0
150 172 0
151 173 0
153 173 0
152 174 0
148 170 0
143 165 0
155 177 0
145 165 0
144 165 0
144 165 0
148 169 0
149 171 0
150 172 0
143 164 0
159 182 0
155 177 0
146 169 0
150 173 0
144 166 0
144 164 0
151 173 0
145 165 0
142 164 0
149 171 0
153 175 0
150 171 0
146 168 0
147 168 0
148 169 0
144 165 0
145 166 0
148 170 0
151 171 0
144 166 0
151 172 0
148 170 0
149 170 0
144 165 0
144 166 0
157 178 0
145 168 0
148 168 0
141 162 0
147 168 0
144 165 0
149 171 0
143 165 0
151 172 0
153 174 0
144 165 0
151 171 0
150 171 0
148 170 0
148 171 0
151 172 0
146 167 0
145 165 0
145 166 0
151 173 0
150 172 0
151 173 0
147 169 0
146 168 0
140 161 0
150 171 0
144 165 0
149 170 0
147 167 0
150 171 0
149 169 0
153 171 0
143 165 0
141 163 0
142 161 0
146 166 0
150 169 0
147 168 0
143 163 0
155 177 0
150 170 0
148 171 0
151 170 0
140 160 0
153 174 0
149 171 0
144 165 0
144 166 0
148 169 0
146 168 0
148 170 0
144 165 0
155 176 0
144 165 0
146 166 0
158 179 0
154 175 0
144 163 0
151 172 0
157 178 0
153 175 0
147 168 0
155 176 0
146 167 0
149 171 0
148 168 0
145 165 0
142 162 0
157 178 0
145 165 0
146 164 0
157 179 0
156 176 0
152 172 0
151 171 0
157 179 0
146 166 0
152 173 0
153 173 0
153 173 0
148 168 0
153 172 0
153 173 0
148 168 0
148 168 0
155 175 0
148 169 0
144 164 0
150 169 0
141 160 0
149 168 0
147 165 0
152 171 0
153 173 0
151 170 0
148 168 0
147 168 0
148 166 0
147 167 0
148 167 0
151 172 0
146 167 0
157 177 0
149 168 0
152 172 0
158 178 0
153 171 0
151 171 0
158 177 0
157 175 0
157 177 0
150 170 0
153 172 0
159 181 0
153 170 0
154 173 0
149 168 0
148 164 0
153 173 0
155 174 0
153 172 0
154 170 0
157 174 0
150 168 0
152 169 0
152 173 0
149 168 0
149 169 0
149 167 0
146 162 0
153 171 0
159 178 0
152 168 0
157 175 0
156 174 0
154 174 0
157 175 0
148 166 0
150 167 0
158 174 0
158 173 0
154 170 0
153 169 0
155 171 0
154 171 0
153 170 0
159 177 0
161 179 0
156 174 0
158 176 0
156 170 0
149 165 0
161 178 0
158 175 0
157 174 0
161 177 0
163 180 0
158 176 0
154 170 0
160 177 0
154 170 0
152 166 0
157 171 0
161 176 0
155 169 0
155 169 0
161 177 0
157 172 0
159 175 0
159 174 0
160 179 0
156 169 0
155 169 0
154 168 0
155 167 0
162 177 0
158 170 0
158 174 0
157 171 0
160 175 0
157 171 0
158 171 0
155 167 0
155 168 0
159 172 0
159 172 0
161 175 0
161 172 0
159 173 0
161 174 0
155 169 0
164 179 0
161 174 0
160 175 0
160 174 0
159 172 0
158 169 0
162 175 0
162 177 0
162 175 0
157 170 0
157 170 0
163 174 0
156 170 0
158 172 0
162 175 0
160 174 0
162 175 0
157 168 0
162 173 0
166 181 0
163 179 0
159 172 0
160 170 0
161 181 0
160 179 0
158 179 0
157 177 0
157 177 0
165 185 0
149 168 0
161 180 0
163 184 0
158 180 0
159 179 0
161 182 0
161 181 0
158 178 0
161 182 0
165 185 0
161 181 0
162 181 0
157 176 0
162 182 0
162 183 0
157 178 0
158 177 0
157 175 0
159 179 0
150 170 0
160 180 0
153 172 0
158 177 0
160 181 0
164 184 0
156 175 0
148 167 0
152 170 0
156 175 0
156 176 0
159 178 0
160 181 0
157 177 0
156 178 0
158 179 0
156 176 0
155 174 0
155 176 0
151 170 0
158 180 0
155 176 0
159 179 0
159 179 0
154 175 0
153 173 0
149 170 0
154 176 0
153 173 0
146 166 0
153 173 0
156 177 0
148 167 0
157 178 0
153 173 0
155 176 0
153 174 0
158 178 0
154 175 0
153 172 0
151 172 0
153 174 0
145 165 0
159 180 0
148 169 0
154 175 0
157 178 0
153 173 0
155 177 0
152 172 0
155 176 0
154 175 0
157 179 0
151 172 0
155 176 0
158 179 0
153 174 0
161 182 0
152 172 0
154 175 0
152 173 0
140 161 0
150 171 0
149 171 0
146 167 0
153 174 0
151 172 0
151 172 0
142 164 0
157 178 0
159 180 0
151 172 0
154 175 0
154 175 0
158 179 0
163 184 0
148 169 0
152 175 0
156 177 0
157 179 0
146 168 0
151 173 0
159 180 0
145 167 0
148 169 0
149 171 0
149 170 0
153 175 0
143 165 0
147 169 0
153 174 0
154 175 0
153 175 0
149 171 0
148 169 0
150 172 0
152 175 0
147 169 0
151 172 0
142 164 0
154 177 0
155 176 0
150 171 0
154 176 0
147 169 0
146 168 0
152 173 0
160 180 0
147 169 0
148 168 0
148 170 0
153 175 0
156 177 0
154 175 0
149 171 0
143 166 0
154 176 0
153 176 0
149 171 0
150 172 0
153 174 0
144 165 0
154 176 0
146 168 0
145 167 0
156 177 0
155 177 0
144 165 0
149 171 0
140 161 0
145 167 0
155 176 0
151 173 0
152 174 0
151 173 0
146 169 0
143 165 0
153 175 0
150 172 0
142 164 0
154 175 0
147 169 0
153 175 0
147 169 0
151 172 0
146 168 0
150 172 0
144 165 0
150 172 0
142 163 0
145 166 0
148 168 0
154 176 0
148 169 0
146 170 0
146 167 0
151 172 0
152 174 0
146 168 0
149 170 0
144 167 0
143 165 0
148 170 0
149 169 0
147 168 0
147 169 0
160 181 0
143 165 0
139 161 0
140 162 0
146 167 0
145 165 0
145 168 0
139 161 0
156 178 0
154 175 0
139 158 0
150 172 0
148 170 0
149 171 0
144 164 0
144 167 0
153 173 0
153 175 0
145 165 0
146 166 0
156 179 0
143 165 0
151 172 0
151 174 0
150 171 0
147 167 0
142 163 0
142 162 0
154 175 0
147 168 0
146 169 0
141 161 0
153 174 0
141 163 0
153 173 0
146 167 0
151 173 0
150 169 0
153 175 0
154 176 0
147 168 0
146 167 0
154 175 0
143 163 0
150 172 0
143 164 0
143 165 0
152 175 0
148 170 0
151 172 0
152 173 0
144 163 0
144 165 0
156 176 0
139 159 0
156 176 0
154 175 0
145 165 0
149 169 0
143 164 0
157 178 0
154 174 0
154 176 0
148 169 0
150 172 0
154 176 0
151 171 0
151 172 0
150 171 0
156 178 0
148 167 0
143 164 0
157 180 0
149 169 0
147 168 0
150 169 0
155 174 0
153 173 0
154 175 0
146 165 0
151 173 0
152 172 0
159 179 0
152 172 0
149 169 0
148 169 0
156 175 0
152 173 0
151 172 0
149 169 0
148 168 0
154 175 0
153 172 0
151 173 0
153 172 0
150 168 0
149 168 0
144 162 0
154 175 0
152 170 0
147 166 0
154 175 0
162 184 0
148 167 0
151 172 0
156 176 0
150 167 0
150 169 0
149 168 0
158 177 0
152 171 0
156 174 0
153 172 0
148 166 0
154 172 0
157 177 0
158 177 0
155 174 0
157 177 0
151 167 0
155 174 0
157 177 0
155 173 0
154 171 0
151 169 0
146 162 0
152 170 0
153 171 0
156 173 0
156 177 0
155 173 0
154 171 0
160 179 0
161 179 0
159 176 0
158 175 0
153 171 0
158 175 0
156 173 0
159 176 0
155 173 0
158 176 0
157 175 0
155 170 0
156 173 0
154 168 0
155 172 0
158 176 0
156 173 0
157 175 0
157 174 0
154 171 0
156 174 0
156 174 0
153 167 0
160 178 0
162 180 0
157 175 0
154 169 0
158 174 0
152 170 0
163 176 0
155 169 0
153 168 0
155 171 0
157 172 0
159 172 0
158 173 0
151 168 0
158 174 0
161 176 0
158 171 0
154 168 0
159 173 0
161 174 0
160 173 0
159 172 0
161 175 0
156 171 0
161 174 0
156 167 0
163 175 0
162 178 0
160 172 0
157 170 0
160 175 0
164 179 0
159 174 0
163 177 0
160 172 0
163 178 0
163 178 0
164 177 0
162 176 0
158 170 0
164 179 0
167 184 0
159 173 0
161 175 0
159 170 0
164 179 0
164 176 0
157 170 0
160 175 0
159 175 0
160 174 0
158 171 0
160 175 0
168 184 0
155 175 0
161 181 0
159 179 0
164 183 0
164 184 0
161 180 0
156 176 0
159 179 0
162 182 0
159 179 0
160 180 0
159 178 0
161 182 0
159 179 0
162 182 0
159 179 0
157 177 0
157 178 0
160 181 0
158 177 0
153 173 0
159 178 0
158 177 0
158 179 0
154 174 0
163 183 0
151 171 0
160 179 0
157 176 0
155 175 0
152 172 0
155 175 0
160 180 0
161 180 0
157 177 0
153 173 0
155 175 0
158 178 0
155 175 0
154 174 0
155 176 0
161 181 0
158 179 0
149 168 0
155 175 0
162 182 0
155 175 0
159 181 0
155 175 0
155 176 0
150 170 0
159 181 0
148 169 0
153 174 0
155 177 0
157 177 0
152 173 0
152 173 0
157 177 0
149 169 0
156 178 0
159 180 0
153 175 0
156 177 0
156 177 0
152 172 0
144 165 0
156 177 0
150 172 0
158 179 0
152 174 0
156 177 0
149 171 0
155 175 0
148 168 0
148 170 0
152 173 0
152 173 0
155 177 0
156 178 0
152 172 0
152 174 0
153 174 0
148 170 0
148 169 0
146 168 0
154 176 0
150 172 0
155 178 0
156 179 0
153 175 0
159 181 0
151 172 0
151 175 0
154 177 0
152 173 0
146 167 0
152 173 0
155 177 0
151 173 0
154 175 0
154 176 0
153 175 0
147 167 0
146 168 0
145 166 0
149 170 0
150 171 0
151 173 0
155 177 0
150 172 0
158 180 0
154 175 0
151 172 0
154 176 0
155 177 0
158 181 0
161 183 0
150 171 0
153 175 0
155 177 0
153 175 0
153 175 0
152 174 0
150 171 0
151 172 0
151 173 0
148 169 0
149 171 0
153 176 0
154 178 0
162 184 0
159 180 0
155 176 0
157 180 0
156 178 0
156 178 0
145 167 0
154 175 0
149 171 0
151 173 0
148 170 0
145 167 0
144 165 0
153 175 0
151 173 0
145 167 0
149 171 0
150 172 0
151 174 0
149 171 0
153 175 0
143 165 0
148 170 0
146 166 0
150 172 0
150 173 0
148 170 0
150 171 0
147 168 0
146 167 0
144 166 0
155 176 0
151 172 0
151 174 0
147 168 0
150 172 0
144 166 0
147 168 0
150 171 0
143 165 0
148 170 0
148 169 0
143 165 0
146 168 0
151 172 0
150 172 0
153 175 0
145 167 0
147 170 0
144 165 0
153 176 0
144 166 0
150 171 0
148 170 0
146 167 0
143 165 0
143 164 0
150 172 0
148 170 0
146 168 0
149 170 0
153 173 0
150 172 0
146 167 0
138 159 0
152 175 0
145 166 0
153 174 0
148 169 0
146 167 0
147 168 0
154 176 0
145 167 0
145 167 0
144 165 0
152 173 0
147 168 0
153 175 0
152 173 0
145 168 0
153 174 0
144 164 0
151 172 0
151 170 0
150 172 0
146 167 0
155 176 0
150 171 0
145 167 0
148 170 0
151 174 0
148 170 0
156 178 0
149 169 0
147 168 0
152 173 0
141 161 0
160 181 0
146 167 0
151 171 0
146 167 0
142 163 0
146 169 0
154 174 0
155 176 0
151 173 0
146 166 0
148 169 0
150 171 0
149 172 0
147 168 0
151 172 0
153 174 0
151 171 0
154 175 0
149 171 0
150 170 0
137 158 0
150 168 0
144 164 0
149 172 0
152 171 0
154 175 0
155 176 0
154 175 0
147 167 0
148 167 0
146 166 0
155 176 0
152 172 0
157 178 0
145 165 0
149 169 0
152 174 0
151 170 0
154 174 0
155 176 0
150 170 0
144 164 0
152 172 0
158 180 0
158 181 0
149 168 0
150 170 0
157 176 0
149 169 0
154 172 0
155 177 0
157 178 0
145 165 0
153 173 0
152 172 0
150 169 0
155 175 0
147 167 0
141 160 0
154 174 0
149 170 0
156 177 0
152 171 0
154 173 0
157 177 0
153 173 0
154 171 0
147 163 0
150 170 0
158 178 0
158 178 0
153 170 0
150 170 0
155 173 0
151 171 0
149 167 0
152 171 0
152 171 0
151 170 0
156 175 0
156 176 0
155 174 0
155 173 0
160 180 0
155 172 0
151 170 0
160 177 0
152 170 0
161 181 0
153 171 0
155 172 0
153 170 0
155 173 0
149 166 0
152 170 0
157 174 0
162 182 0
151 168 0
153 171 0
156 174 0
146 161 0
158 175 0
160 177 0
152 170 0
153 169 0
157 175 0
159 178 0
156 173 0
156 173 0
153 167 0
160 176 0
156 174 0
156 174 0
158 176 0
159 175 0
159 177 0
154 170 0
157 173 0
153 169 0
155 172 0
156 169 0
159 174 0
152 167 0
153 167 0
156 171 0
155 170 0
159 173 0
161 175 0
161 179 0
157 173 0
159 174 0
155 169 0
161 179 0
162 177 0
160 175 0
156 171 0
153 168 0
157 172 0
162 176 0
154 170 0
162 178 0
157 171 0
160 174 0
156 169 0
159 176 0
163 176 0
159 175 0
159 173 0
161 178 0
158 171 0
157 172 0
156 170 0
154 168 0
162 176 0
163 178 0
164 179 0
164 179 0
165 180 0
160 175 0
160 173 0
160 172 0
159 173 0
162 177 0
158 170 0
157 168 0
163 177 0
166 181 0
165 180 0
163 177 0
160 173 0
165 176 0
162 177 0
157 176 0
169 189 0
160 180 0
159 179 0
161 181 0
159 180 0
157 178 0
154 174 0
161 182 0
154 175 0
155 175 0
159 180 0
158 178 0
164 184 0
157 176 0
157 178 0
157 177 0
159 179 0
163 183 0
164 184 0
155 175 0
161 182 0
152 172 0
160 181 0
156 176 0
162 183 0
160 180 0
149 168 0
156 177 0
159 178 0
159 180 0
160 181 0
157 178 0
155 175 0
158 179 0
155 175 0
157 177 0
158 178 0
159 179 0
153 172 0
157 177 0
156 177 0
154 175 0
156 177 0
160 181 0
157 178 0
154 174 0
150 171 0
154 174 0
154 174 0
152 173 0
160 181 0
155 176 0
156 177 0
156 178 0
158 178 0
159 178 0
155 176 0
161 182 0
156 177 0
154 175 0
156 177 0
157 177 0
151 172 0
154 176 0
154 174 0
155 176 0
157 178 0
156 176 0
152 173 0
153 175 0
151 172 0
153 175 0
157 177 0
151 173 0
149 169 0
151 170 0
153 173 0
150 171 0
152 173 0
156 178 0
153 174 0
146 167 0
156 177 0
149 170 0
152 173 0
150 172 0
154 175 0
155 176 0
151 173 0
155 177 0
155 178 0
151 173 0
156 177 0
155 176 0
156 178 0
151 170 0
150 171 0
146 166 0
153 173 0
151 172 0
153 176 0
150 171 0
157 179 0
161 183 0
147 169 0
154 175 0
155 176 0
145 166 0
158 180 0
152 174 0
148 171 0
149 170 0
148 169 0
159 180 0
147 169 0
154 177 0
155 177 0
146 168 0
149 170 0
145 168 0
151 173 0
137 158 0
154 176 0
146 167 0
154 176 0
160 181 0
159 180 0
153 175 0
150 170 0
156 177 0
146 167 0
149 171 0
146 168 0
154 176 0
144 165 0
147 169 0
154 176 0
146 167 0
151 173 0
148 170 0
148 168 0
155 176 0
152 174 0
154 176 0
148 170 0
155 177 0
158 180 0
153 175 0
148 169 0
148 170 0
147 168 0
144 166 0
154 177 0
153 174 0
144 165 0
148 169 0
155 175 0
150 171 0
153 175 0
150 172 0
146 168 0
148 169 0
145 167 0
146 168 0
151 174 0
149 171 0
155 178 0
153 176 0
145 167 0
151 174 0
142 163 0
140 162 0
138 160 0
141 163 0
147 168 0
150 172 0
140 161 0
143 164 0
147 169 0
145 167 0
145 166 0
148 171 0
139 161 0
150 171 0
154 176 0
151 173 0
147 168 0
150 172 0
157 177 0
153 176 0
146 167 0
155 175 0
146 169 0
141 163 0
150 172 0
152 175 0
150 172 0
147 168 0
149 170 0
147 168 0
146 166 0
149 171 0
158 180 0
148 170 0
145 166 0
148 169 0
145 168 0
155 176 0
145 166 0
150 172 0
153 175 0
143 163 0
147 167 0
153 175 0
152 173 0
152 173 0
149 170 0
148 169 0
150 170 0
148 169 0
142 162 0
143 164 0
150 172 0
152 174 0
152 173 0
152 173 0
147 170 0
142 163 0
150 173 0
152 173 0
157 179 0
153 175 0
155 176 0
152 172 0
151 171 0
146 166 0
144 166 0
139 160 0
145 166 0
152 173 0
152 173 0
146 166 0
149 168 0
157 178 0
150 172 0
148 170 0
148 168 0
150 170 0
153 175 0
144 166 0
154 174 0
138 158 0
152 173 0
147 166 0
147 169 0
156 177 0
148 167 0
150 169 0
154 174 0
154 175 0
157 178 0
149 169 0
153 172 0
150 170 0
133 153 0
151 171 0
154 175 0
148 169 0
158 179 0
150 170 0
154 176 0
152 173 0
147 168 0
150 170 0
154 175 0
148 166 0
148 167 0
152 172 0
156 177 0
149 169 0
149 168 0
159 180 0
152 173 0
152 172 0
152 170 0
157 175 0
153 172 0
152 169 0
156 174 0
157 175 0
151 171 0
150 169 0
151 171 0
151 172 0
151 171 0
156 176 0
149 167 0
153 172 0
153 172 0
153 172 0
156 173 0
154 172 0
152 168 0
156 176 0
157 176 0
151 169 0
147 167 0
150 168 0
158 176 0
151 170 0
159 179 0
155 174 0
159 176 0
153 171 0
146 163 0
152 169 0
156 174 0
150 166 0
155 170 0
157 174 0
150 168 0
159 177 0
154 173 0
156 175 0
150 165 0
161 179 0
159 179 0
163 181 0
151 168 0
152 171 0
155 174 0
156 173 0
152 170 0
151 168 0
155 173 0
158 175 0
154 172 0
163 181 0
153 169 0
157 173 0
160 178 0
156 172 0
159 175 0
159 177 0
158 175 0
158 174 0
153 169 0
160 176 0
157 173 0
159 175 0
159 175 0
156 171 0
163 181 0
158 174 0
156 172 0
162 178 0
162 177 0
156 172 0
155 170 0
148 163 0
159 174 0
161 179 0
162 177 0
164 177 0
159 174 0
156 170 0
159 175 0
159 176 0
158 174 0
164 178 0
152 164 0
155 169 0
162 178 0
162 175 0
159 175 0
162 178 0
157 172 0
163 176 0
157 171 0
155 167 0
151 163 0
158 170 0
157 172 0
156 170 0
161 176 0
161 175 0
164 180 0
161 177 0
159 172 0
163 175 0
163 176 0
160 174 0
163 174 0
158 175 0
164 181 0
166 181 0
162 176 0
163 178 0
162 176 0
160 181 0
165 184 0
159 179 0
161 183 0
161 180 0
164 183 0
158 178 0
161 181 0
164 184 0
160 180 0
161 181 0
160 181 0
158 178 0
162 183 0
160 181 0
159 179 0
163 183 0
162 182 0
160 181 0
155 176 0
159 179 0
154 174 0
161 182 0
157 177 0
152 172 0
162 183 0
160 181 0
153 173 0
160 181 0
158 178 0
159 180 0
154 174 0
158 177 0
154 175 0
157 178 0
154 175 0
157 178 0
160 181 0
156 177 0
151 170 0
163 183 0
158 179 0
153 173 0
160 179 0
158 179 0
154 176 0
156 177 0
160 181 0
153 174 0
156 177 0
157 178 0
161 182 0
158 178 0
161 181 0
158 178 0
151 172 0
154 175 0
155 177 0
159 180 0
155 177 0
155 176 0
152 174 0
155 176 0
152 173 0
164 185 0
160 181 0
156 177 0
160 181 0
156 178 0
147 169 0
151 172 0
154 175 0
152 173 0
151 173 0
156 177 0
159 180 0
155 176 0
150 172 0
155 177 0
157 179 0
155 177 0
151 174 0
156 178 0
151 172 0
155 176 0
156 178 0
151 173 0
151 173 0
157 179 0
151 171 0
153 174 0
150 172 0
152 173 0
151 173 0
154 176 0
156 178 0
152 174 0
150 171 0
150 171 0
155 176 0
143 165 0
150 173 0
157 180 0
149 170 0
149 171 0
155 177 0
152 173 0
149 171 0
151 172 0
155 177 0
155 177 0
150 172 0
151 172 0
155 176 0
150 172 0
150 172 0
148 170 0
153 175 0
154 174 0
149 170 0
150 172 0
145 165 0
146 169 0
155 176 0
154 175 0
151 172 0
150 171 0
152 172 0
150 172 0
149 172 0
154 175 0
157 180 0
152 174 0
153 174 0
149 170 0
155 177 0
153 176 0
141 162 0
156 178 0
148 170 0
150 171 0
149 172 0
152 174 0
150 172 0
146 168 0
152 174 0
146 167 0
156 177 0
151 171 0
155 177 0
148 168 0
154 176 0
155 177 0
149 170 0
146 168 0
148 170 0
149 168 0
148 169 0
140 162 0
152 175 0
154 176 0
149 171 0
149 171 0
156 177 0
154 176 0
157 179 0
157 179 0
151 172 0
151 173 0
154 175 0
155 177 0
151 172 0
149 171 0
153 175 0
143 164 0
142 162 0
148 170 0
141 163 0
150 171 0
141 162 0
154 175 0
156 179 0
149 170 0
149 171 0
153 175 0
149 172 0
143 164 0
155 177 0
148 170 0
152 173 0
149 171 0
147 168 0
146 167 0
137 157 0
149 170 0
149 170 0
148 169 0
147 168 0
147 168 0
149 172 0
149 171 0
154 177 0
150 173 0
151 171 0
151 171 0
146 169 0
144 166 0
147 168 0
150 170 0
153 175 0
153 175 0
148 169 0
145 167 0
148 170 0
149 170 0
153 174 0
148 167 0
151 172 0
154 177 0
150 172 0
151 174 0
143 164 0
158 181 0
141 161 0
154 175 0
150 170 0
150 171 0
147 169 0
146 166 0
153 173 0
150 173 0
153 175 0
146 167 0
153 175 0
147 167 0
151 172 0
150 170 0
150 170 0
151 171 0
148 169 0
153 174 0
153 175 0
141 162 0
144 164 0
147 168 0
154 174 0
151 173 0
150 171 0
155 176 0
150 172 0
151 172 0
157 177 0
150 169 0
142 164 0
150 171 0
155 175 0
154 176 0
147 169 0
157 179 0
156 177 0
154 176 0
152 172 0
147 169 0
148 168 0
155 176 0
151 170 0
150 171 0
154 173 0
149 171 0
146 167 0
155 176 0
154 176 0
154 175 0
155 176 0
158 178 0
153 173 0
151 170 0
147 166 0
147 167 0
151 171 0
156 175 0
151 170 0
149 168 0
151 169 0
150 171 0
149 169 0
157 177 0
154 174 0
156 176 0
156 174 0
153 173 0
158 179 0
155 177 0
156 174 0
152 171 0
156 176 0
152 171 0
153 173 0
156 174 0
154 173 0
157 178 0
151 168 0
147 166 0
160 180 0
151 168 0
156 175 0
159 176 0
155 175 0
153 173 0
148 165 0
155 174 0
150 167 0
157 177 0
148 167 0
154 173 0
156 176 0
150 170 0
153 171 0
154 173 0
157 176 0
153 171 0
160 178 0
147 166 0
153 170 0
152 170 0
152 171 0
145 161 0
154 172 0
160 180 0
158 177 0
156 172 0
158 176 0
155 171 0
158 177 0
159 177 0
163 180 0
155 172 0
156 173 0
157 174 0
162 179 0
157 174 0
158 176 0
161 179 0
153 167 0
156 174 0
155 173 0
160 177 0
155 170 0
160 179 0
163 180 0
157 172 0
159 174 0
160 179 0
161 178 0
161 176 0
155 169 0
158 174 0
159 174 0
163 180 0
160 175 0
154 168 0
160 175 0
154 170 0
161 177 0
160 175 0
161 176 0
158 174 0
159 175 0
158 171 0
159 175 0
157 173 0
158 173 0
153 171 0
163 178 0
157 170 0
160 174 0
160 175 0
163 179 0
154 168 0
157 169 0
158 171 0
162 176 0
160 175 0
160 176 0
160 174 0
160 175 0
160 176 0
164 179 0
160 173 0
158 173 0
162 177 0
164 177 0
160 175 0
163 178 0
158 173 0
160 176 0
160 174 0
160 174 0
161 173 0
158 170 0
161 181 0
159 179 0
162 182 0
161 183 0
158 177 0
158 178 0
160 179 0
163 183 0
161 182 0
158 178 0
159 178 0
162 183 0
161 183 0
156 176 0
162 183 0
163 182 0
158 179 0
161 180 0
156 176 0
160 179 0
162 183 0
158 178 0
159 179 0
160 179 0
162 182 0
162 183 0
163 184 0
156 177 0
152 171 0
154 174 0
157 177 0
162 182 0
158 179 0
158 179 0
152 174 0
163 183 0
153 174 0
160 181 0
155 175 0
159 179 0
156 178 0
160 180 0
156 176 0
159 179 0
157 178 0
156 176 0
161 180 0
151 171 0
155 174 0
155 176 0
159 181 0
155 176 0
154 175 0
157 178 0
151 171 0
157 178 0
154 175 0
160 181 0
157 177 0
155 175 0
158 179 0
156 177 0
156 178 0
157 178 0
153 174 0
152 173 0
152 173 0
159 180 0
157 179 0
150 172 0
148 168 0
154 175 0
156 178 0
151 172 0
162 184 0
152 172 0
154 175 0
155 176 0
159 182 0
154 176 0
153 175 0
152 173 0
158 179 0
161 183 0
157 178 0
159 181 0
154 176 0
149 171 0
155 177 0
157 178 0
154 176 0
152 173 0
158 180 0
159 180 0
151 172 0
147 168 0
148 169 0
154 175 0
151 172 0
154 176 0
152 173 0
153 174 0
154 175 0
151 172 0
158 180 0
154 176 0
150 171 0
151 173 0
147 169 0
155 177 0
157 179 0
158 180 0
152 174 0
152 174 0
154 176 0
149 170 0
151 174 0
154 176 0
159 180 0
154 176 0
148 169 0
152 174 0
148 170 0
153 175 0
144 167 0
138 161 0
156 178 0
150 171 0
153 175 0
145 166 0
157 179 0
153 174 0
151 174 0
152 174 0
152 174 0
160 182 0
148 170 0
154 176 0
154 176 0
145 166 0
153 176 0
153 175 0
153 174 0
157 177 0
149 171 0
152 175 0
153 175 0
157 177 0
149 172 0
146 167 0
147 169 0
154 176 0
153 175 0
150 172 0
150 174 0
149 170 0
153 175 0
147 167 0
156 178 0
150 172 0
146 167 0
154 176 0
143 167 0
155 177 0
153 175 0
153 175 0
146 166 0
151 173 0
156 178 0
148 170 0
151 172 0
155 176 0
146 168 0
155 176 0
150 172 0
151 173 0
142 164 0
152 174 0
149 171 0
149 170 0
147 169 0
148 171 0
146 166 0
159 181 0
141 163 0
153 175 0
145 166 0
147 169 0
150 172 0
148 171 0
144 164 0
152 172 0
151 174 0
150 172 0
143 165 0
156 178 0
148 169 0
142 165 0
146 167 0
148 169 0
144 164 0
148 169 0
151 172 0
146 166 0
153 175 0
152 174 0
150 172 0
145 165 0
136 158 0
152 174 0
148 170 0
154 176 0
142 163 0
153 174 0
147 168 0
150 172 0
153 175 0
150 171 0
147 169 0
150 171 0
150 172 0
142 162 0
155 176 0
144 166 0
150 171 0
148 168 0
152 174 0
149 171 0
147 170 0
149 170 0
144 165 0
150 172 0
154 175 0
158 179 0
148 169 0
147 167 0
152 174 0
151 172 0
150 173 0
150 170 0
153 175 0
144 165 0
155 176 0
151 172 0
151 172 0
151 174 0
148 170 0
158 180 0
147 168 0
148 169 0
148 168 0
160 181 0
152 172 0
152 173 0
152 171 0
160 180 0
149 169 0
154 175 0
155 177 0
147 169 0
148 167 0
145 166 0
147 168 0
155 177 0
154 175 0
144 165 0
153 173 0
147 169 0
151 172 0
150 170 0
147 169 0
156 176 0
149 169 0
159 179 0
153 174 0
153 172 0
155 175 0
146 167 0
152 172 0
158 178 0
150 170 0
152 172 0
148 168 0
153 172 0
158 180 0
148 168 0
147 168 0
158 179 0
151 171 0
159 179 0
152 171 0
153 172 0
158 177 0
154 175 0
147 166 0
153 173 0
150 168 0
161 181 0
157 175 0
162 182 0
153 173 0
151 171 0
146 165 0
158 175 0
151 171 0
158 177 0
157 175 0
152 169 0
152 172 0
151 169 0
155 173 0
155 176 0
150 169 0
155 172 0
158 177 0
158 178 0
156 175 0
158 175 0
154 170 0
150 169 0
151 171 0
150 167 0
155 171 0
155 172 0
156 176 0
157 172 0
151 166 0
156 176 0
156 174 0
161 181 0
156 176 0
148 163 0
156 173 0
153 169 0
156 175 0
155 175 0
155 173 0
151 167 0
158 176 0
157 175 0
165 184 0
153 169 0
153 171 0
162 179 0
162 182 0
158 175 0
153 170 0
150 166 0
158 176 0
156 171 0
153 171 0
158 174 0
157 174 0
159 176 0
161 178 0
159 176 0
156 169 0
157 172 0
157 173 0
152 168 0
164 180 0
157 172 0
154 170 0
156 172 0
153 169 0
161 177 0
159 174 0
160 175 0
158 174 0
161 175 0
159 175 0
158 172 0
161 174 0
162 178 0
164 179 0
163 178 0
163 178 0
161 176 0
161 177 0
161 177 0
161 177 0
161 175 0
165 182 0
163 174 0
159 174 0
162 178 0
161 175 0
161 174 0
153 167 0
165 181 0
161 177 0
162 175 0
161 176 0
166 181 0
164 179 0
156 170 0
161 175 0
162 174 0
162 177 0
163 178 0
161 181 0
157 176 0
155 175 0
163 183 0
161 181 0
162 183 0
163 183 0
162 182 0
164 185 0
160 180 0
161 182 0
156 176 0
159 179 0
156 176 0
160 181 0
160 179 0
157 178 0
159 179 0
154 174 0
160 181 0
160 181 0
161 182 0
159 179 0
160 181 0
153 172 0
160 183 0
157 177 0
159 181 0
162 183 0
151 171 0
153 173 0
160 180 0
156 177 0
162 183 0
160 181 0
154 174 0
153 173 0
157 177 0
156 176 0
156 176 0
153 174 0
157 177 0
160 181 0
159 179 0
160 181 0
153 173 0
153 174 0
157 177 0
152 174 0
157 177 0
158 179 0
152 173 0
156 178 0
158 178 0
154 176 0
151 173 0
154 175 0
148 169 0
162 184 0
162 183 0
157 178 0
157 179 0
152 174 0
157 178 0
157 178 0
155 177 0
150 172 0
157 178 0
154 174 0
155 176 0
157 177 0
157 178 0
150 171 0
161 182 0
153 173 0
155 176 0
155 177 0
156 178 0
154 175 0
159 180 0
153 175 0
156 177 0
157 178 0
150 170 0
154 176 0
145 166 0
152 174 0
153 175 0
153 174 0
158 181 0
151 172 0
154 175 0
155 176 0
152 172 0
155 176 0
152 173 0
150 170 0
154 176 0
157 178 0
147 169 0
152 175 0
149 171 0
153 174 0
155 177 0
159 181 0
156 179 0
152 174 0
152 175 0
151 173 0
151 174 0
158 180 0
164 185 0
153 175 0
153 175 0
160 183 0
155 177 0
155 177 0
156 177 0
157 177 0
154 175 0
151 172 0
156 178 0
154 174 0
152 172 0
154 176 0
152 175 0
147 169 0
152 175 0
156 178 0
158 180 0
152 174 0
157 178 0
147 169 0
152 173 0
154 176 0
154 176 0
150 173 0
151 173 0
147 169 0
150 173 0
152 173 0
145 167 0
145 168 0
154 176 0
150 172 0
150 172 0
145 166 0
155 176 0
152 175 0
153 175 0
154 175 0
150 172 0
148 168 0
148 169 0
152 174 0
144 165 0
151 172 0
152 174 0
141 162 0
148 171 0
153 174 0
153 176 0
155 178 0
155 176 0
147 170 0
152 173 0
156 178 0
151 174 0
151 171 0
155 177 0
151 173 0
146 167 0
151 173 0
146 167 0
152 175 0
158 181 0
153 174 0
145 167 0
151 173 0
148 171 0
143 163 0
149 170 0
143 165 0
145 167 0
149 171 0
147 168 0
151 174 0
141 162 0
152 173 0
148 171 0
153 174 0
154 176 0
136 157 0
150 172 0
149 172 0
153 176 0
143 164 0
147 168 0
149 171 0
146 167 0
153 174 0
156 177 0
149 172 0
140 161 0
142 165 0
149 170 0
150 172 0
151 174 0
144 165 0
148 169 0
149 171 0
156 177 0
145 166 0
151 173 0
154 176 0
150 172 0
145 167 0
145 167 0
141 161 0
141 162 0
151 173 0
156 178 0
145 167 0
145 164 0
148 169 0
151 173 0
152 171 0
149 170 0
146 167 0
154 176 0
153 173 0
152 173 0
152 174 0
144 165 0
147 166 0
152 172 0
147 168 0
150 172 0
152 173 0
148 168 0
155 176 0
149 171 0
150 170 0
150 171 0
146 168 0
152 172 0
151 173 0
149 171 0
149 169 0
151 171 0
146 168 0
155 175 0
142 161 0
152 172 0
157 179 0
152 173 0
142 163 0
149 169 0
152 175 0
151 172 0
154 176 0
151 170 0
156 177 0
146 165 0
148 168 0
147 167 0
152 173 0
154 172 0
147 168 0
154 175 0
156 178 0
146 167 0
154 173 0
153 173 0
154 174 0
158 179 0
152 172 0
161 179 0
153 173 0
160 181 0
151 170 0
152 172 0
153 172 0
150 170 0
153 175 0
161 183 0
159 180 0
155 175 0
161 181 0
157 177 0
149 167 0
149 168 0
150 169 0
153 174 0
155 173 0
152 171 0
151 172 0
157 176 0
155 174 0
153 172 0
155 175 0
151 169 0
157 176 0
150 169 0
156 177 0
151 172 0
152 171 0
151 169 0
157 177 0
158 177 0
152 171 0
156 176 0
151 169 0
159 180 0
156 172 0
152 172 0
152 172 0
156 175 0
155 172 0
162 181 0
159 176 0
157 176 0
153 170 0
152 170 0
158 176 0
156 175 0
156 173 0
153 170 0
156 174 0
154 170 0
158 176 0
156 173 0
157 174 0
159 177 0
160 176 0
159 179 0
158 177 0
157 177 0
154 172 0
155 173 0
151 167 0
159 175 0
159 176 0
156 174 0
152 169 0
154 169 0
157 175 0
160 176 0
157 172 0
159 174 0
165 182 0
160 174 0
157 173 0
157 174 0
157 171 0
158 176 0
157 173 0
157 172 0
162 178 0
156 173 0
151 168 0
158 173 0
155 170 0
158 173 0
162 178 0
157 172 0
154 172 0
155 172 0
155 168 0
159 174 0
160 175 0
160 178 0
163 180 0
163 181 0
160 175 0
161 175 0
159 176 0
158 174 0
158 173 0
165 181 0
160 177 0
157 171 0
161 174 0
160 176 0
165 180 0
157 168 0
162 174 0
163 179 0
158 171 0
162 177 0
161 176 0
158 172 0
161 175 0
163 177 0
159 173 0
159 172 0
158 172 0
164 180 0
158 172 0
161 175 0
161 181 0
156 177 0
165 184 0
157 178 0
157 176 0
160 180 0
160 181 0
158 179 0
162 182 0
160 181 0
154 173 0
159 180 0
158 179 0
163 184 0
160 179 0
158 179 0
156 177 0
161 182 0
159 178 0
157 177 0
151 171 0
159 179 0
159 180 0
158 179 0
161 182 0
155 175 0
154 175 0
156 177 0
158 180 0
159 180 0
157 177 0
157 178 0
155 175 0
159 181 0
161 182 0
155 176 0
158 178 0
161 182 0
156 177 0
153 173 0
154 174 0
160 180 0
155 175 0
152 172 0
154 175 0
162 183 0
148 168 0
155 178 0
154 175 0
159 180 0
155 176 0
157 178 0
155 176 0
159 181 0
153 176 0
156 177 0
150 170 0
152 172 0
151 172 0
159 180 0
155 175 0
157 178 0
156 178 0
151 172 0
161 184 0
162 183 0
157 180 0
151 172 0
151 171 0
160 182 0
155 176 0
154 176 0
157 180 0
156 178 0
153 175 0
156 178 0
150 170 0
149 170 0
150 172 0
153 175 0
153 175 0
152 173 0
153 175 0
157 179 0
155 177 0
150 172 0
155 178 0
148 170 0
154 177 0
155 176 0
150 171 0
155 177 0
154 176 0
151 173 0
153 175 0
156 177 0
150 171 0
153 175 0
147 170 0
152 175 0
146 167 0
159 180 0
150 173 0
154 176 0
157 179 0
161 183 0
146 168 0
160 182 0
158 181 0
150 172 0
157 178 0
151 174 0
149 171 0
159 181 0
154 175 0
147 169 0
155 177 0
148 169 0
154 177 0
152 175 0
153 175 0
152 175 0
148 169 0
150 170 0
151 172 0
149 170 0
154 177 0
143 164 0
153 174 0
149 171 0
148 169 0
148 171 0
146 169 0
151 173 0
152 175 0
154 176 0
147 169 0
151 172 0
151 173 0
150 173 0
153 175 0
156 178 0
152 173 0
155 176 0
145 166 0
155 177 0
156 179 0
153 176 0
158 182 0
151 173 0
154 176 0
150 173 0
154 176 0
145 165 0
155 178 0
153 176 0
150 173 0
154 177 0
147 168 0
147 169 0
150 173 0
149 172 0
145 166 0
151 173 0
148 169 0
152 174 0
153 175 0
150 170 0
150 173 0
145 168 0
146 168 0
151 172 0
155 177 0
152 175 0
151 173 0
153 174 0
149 171 0
145 167 0
152 175 0
152 174 0
149 170 0
150 173 0
154 176 0
150 172 0
143 164 0
154 176 0
146 167 0
154 176 0
154 176 0
140 163 0
148 170 0
147 168 0
148 170 0
146 167 0
153 176 0
147 169 0
148 169 0
152 174 0
146 167 0
146 167 0
151 174 0
149 170 0
146 167 0
152 173 0
144 165 0
148 168 0
149 170 0
149 170 0
153 175 0
150 172 0
150 171 0
153 174 0
146 167 0
151 174 0
148 170 0
149 170 0
151 172 0
144 165 0
147 167 0
145 167 0
147 168 0
153 175 0
152 174 0
152 173 0
152 173 0
149 169 0
149 169 0
155 176 0
154 175 0
150 171 0
154 175 0
146 166 0
153 173 0
150 171 0
156 178 0
151 171 0
155 176 0
150 170 0
156 177 0
147 166 0
148 170 0
156 179 0
150 173 0
149 169 0
151 172 0
149 171 0
157 178 0
154 175 0
157 177 0
141 162 0
151 171 0
156 177 0
152 173 0
148 171 0
155 177 0
154 174 0
149 170 0
148 168 0
152 172 0
154 175 0
150 171 0
147 166 0
157 178 0
153 174 0
156 176 0
153 173 0
154 174 0
145 167 0
162 183 0
153 174 0
153 173 0
159 180 0
149 169 0
154 175 0
155 175 0
147 167 0
155 178 0
157 177 0
155 175 0
153 172 0
160 181 0
151 173 0
154 174 0
157 177 0
158 178 0
158 179 0
156 175 0
147 165 0
152 172 0
159 180 0
158 178 0
154 175 0
155 174 0
156 177 0
153 174 0
153 174 0
154 173 0
146 166 0
157 177 0
160 178 0
151 170 0
152 172 0
150 170 0
151 170 0
155 174 0
155 173 0
148 169 0
157 175 0
158 177 0
156 173 0
155 175 0
157 177 0
157 174 0
159 178 0
155 175 0
157 175 0
157 176 0
154 170 0
150 170 0
157 175 0
156 175 0
156 174 0
160 178 0
161 180 0
154 172 0
157 174 0
164 183 0
158 175 0
154 173 0
156 174 0
150 167 0
157 176 0
155 173 0
150 167 0
159 176 0
164 181 0
152 170 0
155 172 0
149 165 0
156 176 0
160 177 0
161 178 0
159 177 0
157 174 0
160 176 0
154 171 0
161 177 0
157 174 0
159 177 0
159 175 0
159 178 0
160 177 0
155 170 0
157 174 0
159 175 0
163 180 0
161 179 0
158 174 0
156 171 0
157 172 0
154 171 0
159 172 0
158 177 0
159 175 0
161 179 0
158 176 0
156 169 0
152 169 0
160 178 0
156 171 0
153 168 0
158 171 0
161 178 0
163 178 0
158 174 0
159 172 0
156 170 0
159 174 0
153 165 0
160 177 0
165 182 0
163 180 0
160 176 0
159 171 0
159 173 0
162 177 0
161 175 0
165 180 0
161 177 0
164 180 0
158 173 0
166 182 0
162 179 0
158 172 0
156 171 0
161 176 0
168 184 0
163 178 0
162 175 0
162 177 0
161 182 0
156 176 0
160 181 0
160 180 0
162 184 0
156 177 0
162 183 0
161 182 0
162 183 0
155 175 0
156 176 0
160 180 0
159 181 0
160 180 0
153 174 0
158 178 0
163 184 0
158 179 0
159 180 0
161 181 0
154 175 0
160 179 0
159 179 0
157 178 0
160 180 0
158 179 0
158 179 0
158 179 0
157 177 0
152 172 0
162 183 0
156 176 0
160 181 0
156 177 0
157 178 0
149 169 0
157 178 0
158 179 0
155 176 0
156 176 0
155 176 0
152 173 0
157 177 0
156 176 0
145 166 0
159 181 0
159 179 0
154 174 0
154 177 0
154 174 0
155 175 0
154 176 0
155 176 0
158 179 0
155 176 0
156 177 0
157 178 0
158 180 0
157 178 0
156 176 0
159 180 0
155 176 0
158 179 0
157 177 0
154 175 0
154 175 0
151 172 0
155 175 0
157 178 0
153 174 0
150 171 0
156 176 0
158 179 0
161 183 0
156 179 0
153 175 0
149 171 0
158 180 0
157 178 0
153 173 0
152 172 0
156 178 0
154 175 0
157 179 0
153 175 0
154 176 0
151 173 0
157 179 0
153 175 0
156 178 0
152 174 0
154 176 0
158 180 0
160 182 0
161 182 0
156 177 0
152 174 0
155 176 0
149 171 0
152 174 0
156 178 0
151 173 0
154 175 0
156 178 0
155 176 0
155 177 0
144 165 0
153 174 0
152 173 0
153 175 0
155 177 0
154 176 0
156 177 0
153 174 0
151 173 0
149 170 0
145 167 0
148 170 0
152 173 0
164 185 0
157 179 0
151 174 0
146 168 0
155 178 0
148 170 0
152 174 0
154 177 0
145 167 0
153 175 0
155 177 0
153 175 0
150 172 0
156 178 0
151 172 0
147 169 0
157 179 0
151 173 0
153 175 0
154 176 0
151 174 0
154 176 0
146 168 0
151 172 0
150 172 0
150 172 0
149 172 0
156 179 0
146 168 0
152 174 0
146 168 0
153 174 0
154 178 0
152 173 0
147 169 0
151 172 0
151 173 0
148 171 0
145 168 0
146 166 0
151 173 0
151 173 0
148 170 0
150 172 0
156 178 0
152 175 0
148 170 0
151 173 0
151 173 0
156 177 0
150 171 0
151 173 0
154 176 0
153 175 0
151 172 0
147 169 0
148 170 0
148 169 0
150 171 0
154 176 0
154 176 0
155 177 0
145 167 0
155 176 0
150 172 0
149 170 0
149 171 0
154 175 0
152 174 0
153 175 0
152 174 0
146 169 0
150 172 0
147 169 0
142 164 0
150 171 0
159 181 0
151 173 0
149 170 0
143 165 0
157 178 0
151 173 0
151 173 0
146 168 0
150 171 0
151 172 0
152 173 0
153 174 0
153 175 0
152 174 0
155 176 0
152 173 0
152 174 0
151 172 0
150 172 0
145 166 0
147 169 0
153 176 0
146 167 0
144 165 0
148 169 0
152 173 0
152 173 0
147 168 0
141 162 0
151 171 0
153 173 0
152 174 0
144 165 0
150 171 0
142 164 0
157 178 0
147 169 0
150 171 0
150 171 0
152 174 0
147 169 0
156 176 0
156 178 0
151 171 0
146 167 0
156 179 0
152 173 0
147 167 0
152 173 0
160 181 0
158 180 0
151 171 0
154 175 0
155 176 0
149 170 0
150 171 0
151 171 0
153 176 0
151 173 0
148 168 0
154 174 0
144 164 0
148 169 0
153 175 0
147 166 0
151 170 0
158 179 0
157 179 0
148 169 0
155 175 0
151 173 0
154 175 0
149 170 0
155 175 0
157 179 0
155 177 0
156 177 0
155 177 0
154 175 0
153 173 0
159 180 0
150 169 0
154 175 0
156 177 0
155 176 0
157 176 0
147 166 0
152 172 0
151 172 0
148 169 0
147 166 0
158 177 0
152 174 0
158 177 0
152 171 0
154 174 0
151 171 0
152 171 0
158 179 0
157 178 0
154 173 0
156 176 0
156 177 0
159 180 0
155 175 0
151 168 0
155 175 0
151 170 0
155 176 0
150 168 0
157 178 0
153 173 0
155 174 0
162 179 0
162 182 0
159 176 0
154 174 0
158 179 0
155 173 0
156 174 0
153 170 0
159 178 0
155 173 0
157 177 0
156 174 0
161 181 0
164 184 0
155 174 0
160 178 0
157 175 0
156 174 0
162 180 0
159 178 0
158 178 0
154 174 0
158 176 0
158 176 0
158 176 0
157 175 0
158 175 0
154 172 0
157 174 0
158 178 0
157 175 0
159 176 0
154 174 0
162 180 0
157 172 0
158 174 0
155 173 0
156 173 0
161 177 0
152 170 0
158 175 0
153 169 0
161 177 0
162 177 0
159 176 0
159 177 0
158 176 0
156 174 0
152 167 0
157 175 0
159 174 0
158 175 0
156 173 0
157 172 0
159 176 0
163 181 0
154 168 0
159 175 0
163 180 0
157 173 0
161 178 0
158 175 0
156 171 0
163 179 0
161 177 0
159 175 0
162 177 0
158 175 0
157 172 0
157 172 0
161 177 0
160 175 0
157 173 0
163 180 0
167 185 0
160 176 0
162 179 0
164 180 0
162 176 0
164 176 0
163 178 0
160 175 0
160 175 0
162 177 0
162 176 0
161 176 0
157 170 0
160 176 0
159 174 0
163 176 0
165 181 0
159 176 0
157 177 0
157 178 0
161 181 0
163 183 0
161 182 0
161 182 0
158 178 0
160 181 0
156 176 0
154 175 0
160 179 0
162 183 0
157 178 0
159 179 0
156 177 0
159 180 0
160 180 0
159 180 0
159 180 0
157 178 0
158 179 0
158 178 0
164 184 0
160 180 0
155 176 0
157 177 0
153 174 0
164 185 0
157 176 0
155 176 0
155 175 0
160 182 0
154 175 0
159 181 0
154 175 0
152 173 0
152 172 0
155 175 0
154 176 0
154 174 0
159 180 0
156 177 0
161 182 0
159 180 0
161 182 0
154 175 0
159 181 0
159 180 0
154 176 0
153 173 0
155 176 0
151 172 0
157 178 0
160 181 0
154 177 0
157 179 0
149 170 0
156 177 0
162 183 0
155 175 0
159 180 0
150 172 0
157 177 0
152 172 0
153 173 0
160 181 0
159 181 0
158 181 0
152 174 0
154 174 0
146 168 0
154 175 0
155 177 0
160 181 0
154 176 0
158 181 0
156 177 0
155 177 0
156 177 0
151 173 0
155 176 0
150 173 0
156 178 0
149 170 0
153 174 0
154 176 0
152 174 0
146 166 0
146 167 0
157 179 0
152 173 0
158 180 0
158 180 0
153 174 0
150 171 0
154 175 0
152 174 0
152 175 0
154 177 0
144 167 0
152 174 0
154 175 0
151 173 0
157 178 0
152 173 0
150 172 0
154 177 0
159 182 0
157 179 0
150 173 0
152 174 0
152 175 0
155 176 0
153 175 0
147 169 0
153 176 0
158 180 0
153 175 0
152 173 0
154 176 0
156 178 0
155 177 0
154 176 0
149 172 0
153 175 0
159 181 0
152 173 0
147 170 0
161 183 0
147 169 0
160 183 0
152 175 0
153 175 0
153 173 0
150 172 0
158 181 0
147 169 0
157 179 0
155 176 0
146 168 0
155 176 0
149 169 0
157 177 0
158 179 0
148 170 0
152 173 0
154 177 0
155 178 0
157 179 0
152 173 0
157 179 0
159 181 0
144 166 0
148 170 0
151 172 0
153 175 0
149 170 0
159 181 0
151 173 0
154 176 0
154 177 0
161 184 0
149 169 0
154 177 0
155 176 0
150 173 0
153 177 0
149 172 0
155 176 0
152 175 0
154 177 0
153 176 0
151 173 0
155 176 0
147 167 0
149 170 0
156 178 0
154 175 0
155 176 0
152 175 0
150 171 0
150 172 0
150 172 0
143 164 0
157 180 0
150 173 0
143 165 0
153 176 0
152 174 0
153 175 0
147 169 0
147 169 0
152 174 0
151 171 0
149 171 0
144 165 0
155 176 0
156 178 0
147 169 0
147 169 0
152 175 0
152 174 0
150 172 0
147 168 0
150 173 0
147 168 0
150 171 0
154 177 0
153 174 0
148 169 0
151 171 0
152 174 0
152 173 0
149 172 0
150 172 0
154 175 0
158 180 0
152 173 0
149 170 0
150 172 0
154 176 0
157 179 0
153 175 0
151 173 0
148 171 0
153 174 0
158 179 0
144 165 0
147 169 0
156 178 0
144 165 0
149 170 0
149 170 0
149 169 0
142 164 0
151 173 0
151 172 0
154 175 0
150 172 0
154 175 0
154 176 0
152 173 0
148 169 0
146 167 0
150 172 0
154 176 0
151 173 0
146 167 0
163 183 0
150 171 0
153 175 0
149 169 0
159 182 0
160 182 0
153 173 0
152 172 0
158 177 0
152 173 0
145 166 0
154 173 0
157 178 0
144 166 0
158 179 0
159 180 0
156 177 0
153 174 0
156 176 0
153 173 0
148 168 0
154 174 0
152 173 0
156 177 0
150 171 0
150 171 0
155 174 0
155 177 0
159 179 0
145 164 0
146 168 0
152 172 0
155 174 0
156 177 0
152 172 0
148 167 0
154 174 0
151 170 0
159 179 0
156 176 0
151 172 0
153 172 0
160 180 0
153 173 0
147 166 0
154 174 0
153 172 0
156 178 0
154 172 0
155 174 0
157 177 0
154 175 0
157 177 0
157 174 0
152 173 0
153 172 0
153 173 0
153 172 0
155 175 0
163 183 0
158 178 0
159 179 0
160 182 0
154 172 0
155 173 0
155 174 0
152 172 0
151 171 0
154 172 0
156 174 0
160 180 0
152 171 0
154 172 0
161 181 0
158 176 0
157 174 0
154 172 0
155 174 0
158 176 0
155 173 0
154 172 0
155 174 0
153 172 0
157 174 0
157 176 0
157 176 0
157 175 0
160 178 0
157 174 0
154 173 0
160 180 0
156 174 0
160 178 0
156 176 0
163 182 0
158 176 0
164 180 0
156 172 0
158 171 0
158 175 0
161 180 0
158 177 0
163 180 0
157 175 0
159 175 0
156 171 0
158 176 0
158 174 0
159 172 0
153 169 0
158 175 0
158 175 0
158 175 0
157 175 0
156 173 0
157 173 0
156 172 0
154 170 0
159 175 0
149 166 0
162 178 0
160 177 0
165 183 0
167 183 0
162 177 0
160 177 0
158 173 0
162 180 0
154 168 0
161 178 0
155 168 0
162 178 0
157 172 0
163 180 0
158 171 0
161 177 0
164 179 0
160 174 0
162 178 0
161 177 0
164 178 0
160 175 0
161 177 0
163 178 0
161 177 0
164 178 0
161 175 0
164 180 0
163 178 0
165 182 0
161 176 0
159 173 0
159 180 0
159 179 0
157 177 0
162 183 0
158 178 0
158 178 0
162 183 0
160 182 0
163 184 0
161 182 0
157 178 0
165 185 0
158 180 0
163 184 0
161 183 0
154 175 0
162 183 0
158 179 0
156 176 0
154 175 0
161 182 0
157 178 0
157 178 0
159 181 0
161 182 0
153 174 0
153 174 0
161 181 0
155 177 0
164 185 0
160 180 0
155 174 0
163 183 0
159 181 0
154 176 0
151 171 0
161 182 0
160 181 0
157 178 0
156 177 0
161 182 0
154 175 0
154 173 0
158 180 0
161 183 0
155 177 0
161 182 0
156 176 0
159 181 0
154 176 0
154 176 0
153 174 0
159 180 0
154 176 0
159 181 0
156 177 0
152 173 0
155 177 0
157 179 0
160 181 0
158 180 0
152 173 0
152 173 0
158 179 0
163 184 0
156 178 0
151 173 0
159 180 0
156 176 0
154 176 0
153 174 0
149 170 0
154 175 0
156 178 0
157 178 0
158 180 0
149 170 0
161 182 0
155 176 0
160 183 0
156 176 0
149 170 0
154 174 0
155 176 0
155 177 0
156 178 0
151 174 0
157 179 0
156 177 0
152 174 0
156 178 0
163 184 0
157 181 0
155 176 0
163 185 0
155 177 0
157 179 0
152 174 0
160 181 0
157 178 0
154 177 0
150 172 0
155 177 0
155 177 0
147 168 0
153 176 0
151 173 0
152 175 0
149 171 0
150 171 0
155 177 0
143 166 0
153 175 0
154 176 0
148 169 0
149 171 0
151 173 0
155 178 0
153 174 0
155 178 0
153 173 0
151 172 0
154 176 0
158 179 0
149 170 0
157 179 0
155 177 0
154 174 0
147 170 0
153 174 0
151 173 0
160 183 0
153 174 0
150 173 0
154 176 0
156 178 0
150 171 0
146 167 0
157 180 0
150 173 0
155 176 0
144 165 0
146 168 0
154 174 0
154 177 0
153 174 0
155 177 0
152 173 0
152 173 0
156 177 0
157 179 0
150 173 0
149 171 0
154 176 0
154 176 0
153 175 0
153 175 0
155 176 0
158 180 0
147 168 0
149 171 0
152 173 0
148 171 0
149 171 0
159 182 0
148 169 0
150 171 0
152 174 0
146 168 0
150 173 0
156 178 0
150 172 0
151 173 0
148 170 0
148 171 0
157 180 0
154 177 0
146 168 0
149 171 0
149 171 0
150 172 0
158 180 0
156 178 0
148 170 0
155 177 0
149 171 0
153 175 0
154 176 0
152 173 0
152 173 0
144 165 0
151 173 0
149 171 0
149 172 0
144 166 0
150 171 0
149 171 0
155 177 0
150 172 0
150 173 0
146 168 0
157 178 0
149 171 0
153 174 0
149 171 0
154 176 0
151 174 0
142 164 0
148 169 0
148 169 0
152 174 0
147 168 0
148 170 0
160 182 0
145 167 0
149 170 0
154 176 0
146 168 0
152 173 0
155 176 0
151 172 0
149 170 0
147 167 0
153 175 0
149 170 0
150 170 0
151 172 0
146 167 0
151 172 0
153 176 0
153 174 0
147 169 0
144 165 0
152 174 0
153 173 0
150 171 0
152 174 0
146 167 0
152 173 0
150 170 0
153 174 0
154 174 0
153 174 0
155 176 0
156 176 0
146 166 0
147 166 0
156 177 0
154 174 0
159 181 0
155 177 0
158 179 0
155 175 0
154 176 0
150 172 0
155 175 0
150 171 0
153 174 0
150 171 0
154 175 0
153 174 0
155 176 0
156 177 0
153 175 0
152 172 0
156 176 0
145 166 0
151 172 0
150 169 0
148 168 0
150 170 0
152 172 0
151 171 0
153 174 0
153 174 0
156 177 0
150 170 0
158 179 0
157 178 0
152 173 0
151 170 0
156 177 0
154 174 0
159 179 0
154 175 0
154 173 0
152 172 0
158 177 0
157 176 0
151 171 0
152 171 0
153 173 0
160 181 0
149 168 0
157 177 0
160 180 0
155 173 0
147 167 0
158 180 0
157 177 0
161 180 0
158 176 0
156 173 0
160 180 0
158 177 0
148 167 0
156 176 0
159 181 0
157 175 0
162 183 0
156 175 0
159 181 0
159 179 0
156 177 0
153 174 0
156 176 0
158 176 0
162 182 0
155 173 0
160 180 0
157 175 0
159 179 0
161 180 0
157 175 0
159 177 0
162 182 0
157 175 0
157 175 0
150 167 0
152 170 0
161 178 0
158 178 0
162 181 0
159 178 0
155 174 0
155 171 0
157 176 0
158 177 0
161 180 0
158 176 0
160 178 0
155 171 0
161 181 0
162 180 0
150 167 0
156 177 0
161 180 0
152 170 0
160 178 0
157 174 0
158 175 0
157 174 0
159 175 0
156 172 0
157 176 0
157 174 0
159 173 0
157 174 0
160 176 0
156 174 0
154 170 0
154 169 0
153 170 0
161 178 0
159 175 0
157 175 0
156 170 0
157 174 0
160 178 0
162 177 0
159 174 0
164 180 0
163 178 0
157 172 0
157 172 0
159 175 0
156 170 0
158 176 0
157 173 0
164 180 0
162 177 0
163 179 0
166 182 0
162 176 0
158 173 0
160 175 0
157 170 0
161 175 0
163 179 0
158 171 0
160 176 0
161 175 0
162 179 0
162 178 0
166 181 0
163 179 0
162 178 0
158 175 0
161 177 0
158 171 0
160 181 0
161 182 0
161 182 0
159 179 0
159 180 0
161 183 0
160 180 0
159 179 0
161 183 0
161 182 0
162 182 0
158 179 0
162 184 0
160 181 0
157 178 0
157 178 0
163 183 0
158 179 0
162 183 0
157 178 0
161 182 0
157 177 0
163 184 0
159 180 0
155 176 0
166 188 0
157 177 0
158 179 0
152 173 0
159 180 0
164 184 0
152 172 0
158 179 0
160 180 0
150 171 0
162 182 0
161 182 0
156 177 0
157 179 0
160 182 0
154 176 0
157 178 0
159 181 0
157 178 0
158 179 0
160 181 0
158 180 0
158 180 0
153 173 0
160 181 0
153 174 0
152 173 0
154 176 0
161 183 0
155 176 0
155 176 0
156 178 0
151 171 0
155 175 0
149 171 0
151 173 0
155 176 0
155 176 0
151 172 0
159 181 0
155 178 0
156 178 0
155 177 0
161 182 0
155 176 0
156 177 0
152 173 0
157 179 0
160 181 0
157 179 0
148 170 0
158 180 0
159 181 0
161 182 0
156 177 0
152 173 0
154 175 0
153 175 0
153 175 0
155 176 0
151 173 0
150 171 0
147 169 0
155 177 0
147 167 0
155 176 0
150 171 0
155 177 0
149 170 0
154 175 0
156 178 0
150 171 0
155 177 0
155 177 0
160 181 0
153 175 0
153 175 0
146 168 0
147 169 0
152 174 0
151 171 0
155 177 0
159 182 0
156 178 0
155 178 0
148 170 0
156 178 0
150 171 0
156 177 0
152 174 0
155 177 0
149 170 0
155 177 0
154 177 0
156 179 0
150 171 0
150 172 0
151 173 0
157 180 0
158 180 0
154 176 0
154 176 0
153 175 0
153 175 0
157 178 0
155 177 0
153 175 0
158 179 0
153 174 0
148 171 0
156 178 0
151 174 0
157 178 0
150 173 0
155 177 0
149 172 0
154 174 0
147 169 0
150 172 0
149 171 0
148 169 0
157 179 0
150 172 0
154 177 0
148 169 0
149 170 0
146 168 0
155 177 0
153 174 0
153 176 0
150 172 0
151 173 0
155 177 0
150 172 0
156 177 0
148 170 0
156 177 0
146 167 0
151 172 0
150 172 0
152 173 0
151 172 0
157 180 0
147 169 0
154 175 0
152 176 0
152 175 0
155 178 0
155 178 0
159 182 0
152 173 0
155 177 0
151 174 0
148 170 0
153 176 0
153 175 0
155 177 0
148 169 0
156 178 0
153 174 0
151 172 0
155 176 0
155 175 0
151 173 0
147 169 0
145 165 0
150 173 0
148 170 0
149 171 0
151 173 0
152 174 0
149 170 0
150 171 0
146 167 0
154 177 0
150 171 0
145 167 0
148 170 0
150 172 0
144 166 0
151 173 0
152 173 0
154 175 0
157 179 0
150 172 0
153 175 0
152 174 0
156 178 0
152 172 0
153 174 0
151 174 0
153 175 0
142 163 0
153 175 0
151 173 0
158 179 0
153 175 0
152 174 0
155 177 0
145 166 0
146 169 0
150 171 0
152 174 0
153 174 0
146 167 0
154 174 0
147 170 0
151 173 0
155 176 0
143 165 0
160 182 0
153 175 0
154 175 0
152 174 0
148 169 0
152 173 0
157 178 0
153 174 0
148 169 0
154 175 0
155 176 0
153 175 0
152 173 0
153 173 0
152 173 0
152 174 0
157 177 0
148 170 0
156 177 0
147 169 0
161 183 0
157 178 0
151 170 0
150 173 0
153 174 0
158 179 0
158 179 0
154 174 0
149 168 0
141 161 0
157 177 0
158 177 0
152 174 0
154 174 0
154 175 0
158 178 0
158 178 0
154 173 0
153 174 0
151 171 0
149 171 0
154 176 0
151 171 0
160 179 0
154 176 0
154 173 0
149 168 0
150 170 0
155 176 0
150 169 0
157 179 0
158 178 0
156 176 0
149 169 0
152 173 0
157 176 0
154 175 0
147 167 0
153 171 0
154 174 0
154 174 0
155 176 0
156 175 0
152 172 0
156 178 0
144 163 0
152 173 0
149 168 0
150 167 0
153 173 0
153 172 0
155 176 0
153 172 0
159 179 0
155 175 0
150 168 0
149 166 0
163 184 0
159 179 0
153 172 0
150 169 0
159 178 0
158 179 0
161 180 0
156 176 0
153 173 0
155 172 0
156 176 0
165 184 0
159 176 0
150 168 0
160 177 0
149 169 0
157 175 0
158 177 0
156 175 0
160 178 0
155 173 0
163 183 0
157 175 0
165 183 0
157 176 0
156 174 0
158 175 0
158 178 0
158 175 0
156 175 0
161 179 0
160 179 0
159 176 0
161 176 0
164 183 0
158 175 0
149 165 0
157 173 0
162 180 0
162 179 0
165 182 0
158 175 0
157 175 0
158 174 0
157 173 0
161 178 0
161 179 0
163 181 0
155 171 0
163 181 0
154 170 0
157 173 0
161 181 0
159 177 0
166 184 0
158 173 0
160 178 0
159 178 0
160 175 0
161 179 0
161 177 0
155 173 0
157 172 0
159 173 0
162 178 0
160 175 0
159 174 0
161 177 0
164 181 0
162 178 0
159 172 0
155 171 0
158 173 0
163 179 0
164 180 0
162 178 0
154 169 0
158 174 0
161 176 0
160 173 0
161 177 0
159 176 0
159 175 0
165 182 0
158 173 0
161 176 0
165 181 0
166 181 0
162 183 0
158 178 0
158 180 0
164 186 0
162 184 0
156 176 0
162 182 0
162 182 0
156 176 0
160 181 0
159 179 0
157 178 0
162 184 0
161 180 0
157 178 0
161 182 0
157 177 0
158 180 0
155 176 0
157 176 0
158 179 0
160 182 0
156 176 0
157 178 0
152 173 0
161 182 0
160 181 0
160 182 0
164 185 0
157 178 0
157 177 0
156 176 0
154 174 0
164 184 0
159 179 0
158 179 0
159 180 0
156 177 0
152 173 0
154 175 0
158 181 0
156 176 0
159 181 0
160 181 0
161 182 0
155 178 0
159 181 0
148 169 0
149 169 0
154 175 0
161 182 0
156 178 0
159 181 0
155 175 0
153 173 0
153 175 0
159 182 0
157 178 0
159 180 0
155 176 0
150 171 0
156 177 0
161 184 0
149 170 0
156 178 0
160 180 0
156 178 0
151 172 0
158 179 0
156 177 0
147 168 0
152 173 0
152 174 0
153 174 0
158 179 0
161 182 0
149 170 0
158 180 0
156 179 0
156 177 0
150 172 0
148 171 0
155 178 0
156 179 0
161 182 0
147 168 0
151 173 0
156 178 0
159 181 0
152 173 0
150 172 0
154 176 0
150 172 0
155 177 0
148 170 0
154 177 0
156 179 0
155 177 0
152 174 0
155 177 0
153 175 0
157 178 0
151 173 0
153 176 0
153 175 0
149 171 0
151 173 0
162 183 0
153 174 0
160 181 0
162 185 0
148 170 0
153 176 0
154 177 0
157 179 0
156 178 0
156 178 0
156 178 0
149 171 0
154 176 0
151 173 0
143 164 0
143 165 0
152 175 0
153 176 0
156 178 0
156 177 0
154 176 0
161 182 0
150 172 0
149 170 0
147 170 0
149 172 0
153 175 0
151 172 0
157 179 0
154 177 0
150 172 0
152 175 0
150 172 0
149 169 0
157 180 0
148 170 0
157 179 0
150 172 0
159 182 0
152 174 0
151 173 0
145 167 0
154 176 0
145 167 0
153 175 0
155 176 0
154 175 0
149 172 0
150 171 0
151 173 0
156 179 0
156 177 0
150 172 0
157 179 0
155 176 0
155 177 0
146 168 0
153 174 0
153 176 0
156 177 0
155 179 0
145 167 0
146 168 0
151 172 0
148 171 0
152 173 0
149 172 0
155 178 0
148 171 0
153 174 0
156 178 0
151 173 0
151 172 0
151 170 0
156 178 0
152 174 0
147 168 0
154 176 0
147 170 0
152 174 0
146 167 0
148 171 0
155 175 0
152 173 0
150 172 0
154 176 0
146 167 0
151 173 0
150 171 0
147 168 0
151 174 0
155 177 0
155 177 0
151 173 0
146 169 0
149 171 0
144 165 0
154 176 0
154 176 0
150 172 0
147 169 0
147 169 0
155 178 0
154 175 0
151 172 0
154 176 0
143 166 0
154 174 0
142 161 0
155 176 0
160 181 0
146 165 0
151 172 0
148 170 0
150 173 0
151 173 0
154 175 0
156 178 0
158 179 0
148 169 0
149 171 0
155 177 0
141 162 0
148 170 0
151 173 0
154 176 0
146 168 0
153 175 0
147 167 0
154 174 0
154 176 0
154 176 0
155 177 0
151 172 0
149 170 0
151 172 0
150 172 0
153 174 0
149 168 0
157 178 0
150 171 0
148 169 0
160 181 0
155 177 0
153 172 0
149 170 0
151 173 0
151 173 0
155 176 0
149 170 0
154 173 0
153 173 0
156 177 0
153 174 0
155 176 0
153 174 0
154 174 0
153 174 0
157 179 0
154 175 0
156 177 0
159 177 0
148 169 0
158 178 0
151 172 0
151 173 0
155 175 0
159 180 0
148 168 0
161 181 0
156 177 0
152 171 0
156 176 0
152 174 0
155 174 0
144 163 0
153 173 0
152 174 0
159 179 0
155 173 0
156 176 0
160 179 0
150 170 0
157 176 0
150 169 0
155 176 0
153 172 0
154 172 0
156 177 0
154 176 0
155 175 0
161 182 0
156 176 0
157 175 0
160 180 0
155 174 0
158 178 0
158 175 0
155 175 0
159 178 0
155 174 0
160 178 0
150 169 0
158 178 0
154 172 0
163 182 0
155 173 0
159 178 0
159 177 0
149 169 0
154 174 0
159 175 0
156 177 0
155 175 0
148 165 0
163 182 0
151 169 0
157 175 0
154 172 0
154 172 0
150 169 0
148 167 0
161 181 0
160 179 0
157 176 0
160 181 0
157 176 0
155 172 0
158 175 0
161 178 0
157 177 0
158 175 0
162 180 0
158 177 0
156 175 0
160 178 0
156 172 0
154 171 0
162 181 0
155 173 0
162 178 0
163 183 0
160 178 0
157 173 0
157 176 0
161 181 0
164 182 0
155 173 0
159 179 0
156 172 0
159 175 0
159 178 0
163 179 0
154 170 0
162 180 0
160 177 0
160 177 0
158 175 0
158 174 0
159 177 0
164 182 0
159 175 0
160 175 0
160 176 0
155 169 0
160 178 0
162 179 0
156 175 0
159 176 0
159 173 0
159 177 0
164 183 0
162 179 0
165 183 0
160 179 0
163 181 0
160 174 0
160 174 0
159 175 0
159 175 0
156 172 0
165 181 0
164 180 0
163 177 0
158 174 0
163 181 0
160 178 0
159 175 0
161 175 0
165 182 0
160 177 0
162 178 0
163 180 0
158 179 0
159 179 0
158 178 0
156 177 0
161 182 0
161 182 0
156 176 0
157 178 0
156 176 0
162 184 0
162 182 0
154 174 0
157 178 0
159 180 0
157 178 0
162 182 0
159 180 0
159 180 0
155 177 0
159 179 0
160 180 0
161 182 0
159 180 0
157 178 0
157 177 0
154 175 0
159 180 0
155 176 0
162 184 0
152 173 0
156 178 0
158 180 0
155 176 0
154 175 0
153 173 0
155 176 0
157 178 0
160 180 0
154 174 0
162 184 0
157 178 0
158 179 0
157 179 0
156 177 0
163 185 0
156 178 0
155 176 0
160 181 0
154 177 0
158 180 0
161 182 0
154 175 0
157 179 0
154 174 0
150 170 0
156 179 0
160 182 0
151 172 0
149 170 0
161 183 0
156 178 0
158 180 0
157 179 0
155 176 0
155 178 0
158 180 0
155 176 0
154 176 0
158 178 0
149 170 0
157 179 0
154 176 0
158 179 0
159 182 0
153 175 0
159 182 0
155 177 0
157 179 0
154 176 0
157 178 0
159 181 0
150 171 0
153 175 0
160 181 0
154 175 0
156 177 0
151 171 0
150 173 0
158 179 0
151 173 0
149 170 0
152 173 0
154 177 0
156 178 0
157 178 0
155 177 0
159 182 0
154 177 0
156 180 0
155 177 0
157 180 0
150 170 0
160 182 0
153 175 0
155 177 0
152 174 0
153 175 0
162 184 0
149 171 0
159 181 0
153 174 0
151 173 0
158 182 0
150 172 0
153 175 0
148 169 0
153 174 0
156 178 0
154 177 0
154 176 0
160 182 0
151 173 0
155 176 0
150 172 0
157 180 0
160 183 0
155 178 0
152 174 0
148 171 0
155 178 0
153 175 0
149 171 0
147 168 0
144 165 0
148 171 0
152 175 0
153 175 0
152 174 0
148 171 0
154 176 0
152 174 0
153 175 0
156 177 0
159 182 0
156 178 0
155 176 0
153 176 0
154 176 0
149 170 0
148 170 0
153 175 0
148 170 0
153 175 0
155 177 0
149 171 0
149 170 0
154 176 0
148 171 0
159 181 0
159 182 0
154 176 0
156 178 0
145 166 0
152 174 0
164 187 0
152 174 0
148 169 0
148 170 0
152 173 0
149 171 0
153 174 0
150 172 0
155 177 0
155 177 0
150 170 0
150 173 0
150 172 0
155 177 0
146 168 0
150 172 0
147 170 0
156 177 0
154 176 0
150 171 0
160 182 0
151 172 0
150 173 0
151 173 0
147 170 0
149 172 0
154 176 0
152 176 0
160 182 0
148 169 0
153 174 0
145 166 0
156 179 0
153 173 0
147 168 0
151 173 0
154 175 0
152 172 0
146 169 0
147 168 0
158 180 0
152 173 0
147 169 0
155 177 0
148 169 0
156 179 0
142 162 0
153 174 0
157 178 0
144 164 0
152 173 0
153 175 0
155 176 0
146 168 0
153 176 0
151 173 0
148 169 0
150 171 0
152 175 0
148 169 0
152 173 0
154 175 0
153 175 0
155 177 0
147 171 0
153 174 0
149 170 0
152 173 0
154 176 0
157 178 0
148 169 0
155 177 0
152 174 0
154 176 0
150 169 0
152 173 0
149 171 0
154 176 0
150 173 0
158 180 0
150 171 0
153 175 0
149 170 0
150 171 0
155 177 0
151 171 0
159 181 0
156 178 0
153 175 0
149 170 0
158 179 0
149 170 0
151 173 0
157 178 0
154 175 0
150 171 0
150 172 0
154 174 0
153 174 0
149 171 0
160 182 0
159 181 0
152 171 0
151 172 0
153 174 0
154 175 0
158 179 0
155 176 0
150 170 0
154 175 0
151 172 0
158 178 0
158 178 0
151 171 0
157 179 0
151 173 0
156 176 0
162 182 0
151 170 0
159 179 0
161 182 0
154 176 0
155 177 0
151 171 0
152 172 0
150 169 0
153 172 0
149 170 0
159 179 0
156 177 0
163 183 0
157 176 0
154 174 0
154 175 0
160 181 0
155 175 0
157 178 0
154 175 0
155 176 0
152 171 0
152 172 0
157 177 0
162 183 0
154 174 0
159 180 0
159 179 0
155 173 0
160 179 0
153 173 0
155 173 0
162 182 0
155 176 0
156 175 0
161 181 0
156 174 0
150 169 0
160 181 0
156 175 0
159 177 0
162 181 0
154 172 0
158 177 0
158 178 0
153 172 0
154 174 0
159 178 0
153 172 0
161 178 0
157 176 0
161 178 0
156 175 0
155 173 0
157 175 0
157 176 0
156 174 0
156 173 0
158 179 0
159 179 0
160 180 0
157 173 0
160 179 0
161 177 0
156 175 0
158 176 0
155 174 0
164 183 0
157 173 0
156 174 0
156 174 0
159 178 0
157 175 0
160 176 0
156 174 0
157 173 0
161 177 0
165 183 0
154 172 0
160 178 0
161 178 0
158 175 0
155 171 0
158 174 0
160 179 0
163 181 0
155 171 0
165 183 0
162 180 0
161 178 0
154 171 0
161 178 0
157 175 0
159 178 0
163 180 0
160 177 0
161 179 0
160 179 0
160 178 0
161 178 0
161 176 0
159 177 0
161 175 0
162 178 0
154 170 0
160 176 0
158 174 0
158 175 0
163 178 0
159 175 0
165 182 0
162 179 0
160 171 0
161 177 0
161 178 0
159 176 0
158 173 0
161 178 0
