P3
400 225
255
204 226 255
204 226 255
204 226 255
204 226 255
204 226 255
204 226 255
204 226 255
204 226 255
204 226 255
204 226 255
204 226 255
204 226 255
204 226 255
204 226 255
204 226 255
203 226 255
203 226 255
203 226 255
203 226 255
203 226 255
203 226 255
203 226 255
203 226 255
203 225 255
203 225 255
203 225 255
203 225 255
203 225 255
203 225 255
203 225 255
203 225 255
203 225 255
202 225 255
202 225 255
202 225 255
202 225 255
202 225 255
202 225 255
202 225 255
202 225 255
202 225 255
202 225 255
202 225 255
202 225 255
202 225 255
202 225 255
202 225 255
202 225 255
201 225 255
201 225 255
201 225 255
201 225 255
201 224 255
201 224 255
201 224 255
201 224 255
201 224 255
201 224 255
201 224 255
201 224 255
201 224 255
201 224 255
201 224 255
200 224 255
200 224 255
200 224 255
200 224 255
200 224 255
200 224 255
200 224 255
200 224 255
200 224 255
200 224 255
200 224 255
200 224 255
200 224 255
200 224 255
200 224 255
199 224 255
199 224 255
199 223 255
199 223 255
199 223 255
199 223 255
199 223 255
199 223 255
199 223 255
199 223 255
199 223 255
199 223 255
199 223 255
199 223 255
198 223 255
198 223 255
198 223 255
198 223 255
198 223 255
198 223 255
198 223 255
198 223 255
198 223 255
198 223 255
198 223 255
198 223 255
198 223 255
198 223 255
197 223 255
197 222 255
197 222 255
197 222 255
197 222 255
197 222 255
197 222 255
197 222 255
197 222 255
197 222 255
197 222 255
197 222 255
197 222 255
197 222 255
197 222 255
196 222 255
196 222 255
196 222 255
196 222 255
196 222 255
196 222 255
196 222 255
196 222 255
196 222 255
196 222 255
196 222 255
196 222 255
196 222 255
196 222 255
196 221 255
196 221 255
195 221 255
195 221 255
195 221 255
195 221 255
195 221 255
195 221 255
195 221 255
195 221 255
195 221 255
195 221 255
195 221 255
195 221 255
195 221 255
195 221 255
195 221 255
195 221 255
195 221 255
195 221 255
194 221 255
194 221 255
194 221 255
194 221 255
194 221 255
194 221 255
194 221 255
194 221 255
194 221 255
194 221 255
194 221 255
194 221 255
194 221 255
194 221 255
194 221 255
194 221 255
194 221 255
194 221 255
194 221 255
194 221 255
194 221 255
194 221 255
194 220 255
194 220 255
194 220 255
194 220 255
194 220 255
194 220 255
194 220 255
194 220 255
194 220 255
193 220 255
193 220 255
193 220 255
193 220 255
193 220 255
193 220 255
193 220 255
193 220 255
193 220 255
193 220 255
193 220 255
193 220 255
193 220 255
193 220 255
193 220 255
193 220 255
193 220 255
193 220 255
193 220 255
193 220 255
193 220 255
193 220 255
193 220 255
193 220 255
193 220 255
193 220 255
193 220 255
193 220 255
194 220 255
194 220 255
194 220 255
194 220 255
194 220 255
194 220 255
194 220 255
194 220 255
194 221 255
194 221 255
194 221 255
194 221 255
194 221 255
194 221 255
194 221 255
194 221 255
194 221 255
194 221 255
194 221 255
194 221 255
194 221 255
194 221 255
194 221 255
194 221 255
194 221 255
194 221 255
194 221 255
194 221 255
194 221 255
194 221 255
194 221 255
195 221 255
195 221 255
195 221 255
195 221 255
195 221 255
195 221 255
195 221 255
195 221 255
195 221 255
195 221 255
195 221 255
195 221 255
195 221 255
195 221 255
195 221 255
195 221 255
195 221 255
195 221 255
196 221 255
196 221 255
196 222 255
196 222 255
196 222 255
196 222 255
196 222 255
196 222 255
196 222 255
196 222 255
196 222 255
196 222 255
196 222 255
196 222 255
196 222 255
196 222 255
197 222 255
197 222 255
197 222 255
197 222 255
197 222 255
197 222 255
197 222 255
197 222 255
197 222 255
197 222 255
197 222 255
197 222 255
197 222 255
197 222 255
197 223 255
198 223 255
198 223 255
198 223 255
198 223 255
198 223 255
198 223 255
198 223 255
198 223 255
198 223 255
198 223 255
198 223 255
198 223 255
198 223 255
198 223 255
199 223 255
199 223 255
199 223 255
199 223 255
199 223 255
199 223 255
199 223 255
199 223 255
199 223 255
199 223 255
199 223 255
199 223 255
199 224 255
199 224 255
199 224 255
200 224 255
200 224 255
200 224 255
200 224 255
200 224 255
200 224 255
200 224 255
200 224 255
200 224 255
200 224 255
200 224 255
200 224 255
200 224 255
200 224 255
201 224 255
201 224 255
201 224 255
201 224 255
201 224 255
201 224 255
201 224 255
201 224 255
201 224 255
201 224 255
201 225 255
201 225 255
201 225 255
201 225 255
201 225 255
202 225 255
202 225 255
202 225 255
202 225 255
202 225 255
202 225 255
202 225 255
202 225 255
202 225 255
202 225 255
202 225 255
202 225 255
202 225 255
202 225 255
202 225 255
202 225 255
203 225 255
203 225 255
203 225 255
203 225 255
203 225 255
203 225 255
203 225 255
203 225 255
203 225 255
203 226 255
203 226 255
203 226 255
203 226 255
203 226 255
203 226 255
203 226 255
203 226 255
204 226 255
204 226 255
204 226 255
204 226 255
204 226 255
204 226 255
204 226 255
204 226 255
204 226 255
204 226 255
204 226 255
204 226 255
204 226 255
204 226 255
204 226 255
204 226 255
204 226 255
204 226 255
204 226 255
204 226 255
204 226 255
204 226 255
204 226 255
204 226 255
204 226 255
204 226 255
204 226 255
204 226 255
204 226 255
204 226 255
204 226 255
204 226 255
204 226 255
203 226 255
203 226 255
203 226 255
203 226 255
203 226 255
203 226 255
203 226 255
203 225 255
203 225 255
203 225 255
203 225 255
203 225 255
203 225 255
203 225 255
203 225 255
203 225 255
202 225 255
202 225 255
202 225 255
202 225 255
202 225 255
202 225 255
202 225 255
202 225 255
202 225 255
202 225 255
202 225 255
202 225 255
202 225 255
202 225 255
202 225 255
202 225 255
201 225 255
201 225 255
201 225 255
201 225 255
201 225 255
201 224 255
201 224 255
201 224 255
201 224 255
201 224 255
201 224 255
201 224 255
201 224 255
201 224 255
201 224 255
200 224 255
200 224 255
200 224 255
200 224 255
200 224 255
200 224 255
200 224 255
200 224 255
200 224 255
200 224 255
200 224 255
200 224 255
200 224 255
200 224 255
200 224 255
199 224 255
199 224 255
199 223 255
199 223 255
199 223 255
199 223 255
199 223 255
199 223 255
199 223 255
199 223 255
199 223 255
199 223 255
199 223 255
199 223 255
198 223 255
198 223 255
198 223 255
198 223 255
198 223 255
198 223 255
198 223 255
198 223 255
198 223 255
198 223 255
198 223 255
198 223 255
198 223 255
198 223 255
197 223 255
197 222 255
197 222 255
197 222 255
197 222 255
197 222 255
197 222 255
197 222 255
197 222 255
197 222 255
197 222 255
197 222 255
197 222 255
197 222 255
197 222 255
196 222 255
196 222 255
196 222 255
196 222 255
196 222 255
196 222 255
196 222 255
196 222 255
196 222 255
196 222 255
196 222 255
196 222 255
196 222 255
196 222 255
196 222 255
196 221 255
195 221 255
195 221 255
195 221 255
195 221 255
195 221 255
195 221 255
195 221 255
195 221 255
195 221 255
195 221 255
195 221 255
195 221 255
195 221 255
195 221 255
195 221 255
195 221 255
195 221 255
195 221 255
195 221 255
194 221 255
194 221 255
194 221 255
194 221 255
194 221 255
194 221 255
194 221 255
194 221 255
194 221 255
194 221 255
194 221 255
194 221 255
194 221 255
194 221 255
194 221 255
194 221 255
194 221 255
194 221 255
194 221 255
194 221 255
194 221 255
194 221 255
194 221 255
194 221 255
194 221 255
194 220 255
194 220 255
194 220 255
194 220 255
194 220 255
194 220 255
194 220 255
194 220 255
194 220 255
194 220 255
194 220 255
194 220 255
194 220 255
194 220 255
194 220 255
194 220 255
194 220 255
194 220 255
194 220 255
194 220 255
194 220 255
194 220 255
194 220 255
194 220 255
194 220 255
194 220 255
194 220 255
194 220 255
194 220 255
194 220 255
194 220 255
194 220 255
194 220 255
194 220 255
194 221 255
194 221 255
194 221 255
194 221 255
194 221 255
194 221 255
194 221 255
194 221 255
194 221 255
194 221 255
194 221 255
194 221 255
194 221 255
194 221 255
194 221 255
194 221 255
194 221 255
194 221 255
194 221 255
194 221 255
194 221 255
194 221 255
194 221 255
194 221 255
195 221 255
195 221 255
195 221 255
195 221 255
195 221 255
195 221 255
195 221 255
195 221 255
195 221 255
195 221 255
195 221 255
195 221 255
195 221 255
195 221 255
195 221 255
195 221 255
195 221 255
195 221 255
195 221 255
195 221 255
196 221 255
196 222 255
196 222 255
196 222 255
196 222 255
196 222 255
196 222 255
196 222 255
196 222 255
196 222 255
196 222 255
196 222 255
196 222 255
196 222 255
196 222 255
196 222 255
197 222 255
197 222 255
197 222 255
197 222 255
197 222 255
197 222 255
197 222 255
197 222 255
197 222 255
197 222 255
197 222 255
197 222 255
197 222 255
197 222 255
197 223 255
198 223 255
198 223 255
198 223 255
198 223 255
198 223 255
198 223 255
198 223 255
198 223 255
198 223 255
198 223 255
198 223 255
198 223 255
198 223 255
198 223 255
199 223 255
199 223 255
199 223 255
199 223 255
199 223 255
199 223 255
199 223 255
199 223 255
199 223 255
199 223 255
199 223 255
199 223 255
199 224 255
199 224 255
199 224 255
200 224 255
200 224 255
200 224 255
200 224 255
200 224 255
200 224 255
200 224 255
200 224 255
200 224 255
200 224 255
200 224 255
200 224 255
200 224 255
200 224 255
201 224 255
201 224 255
201 224 255
201 224 255
201 224 255
201 224 255
201 224 255
201 224 255
201 224 255
201 224 255
201 225 255
201 225 255
201 225 255
201 225 255
201 225 255
202 225 255
202 225 255
202 225 255
202 225 255
202 225 255
202 225 255
202 225 255
202 225 255
202 225 255
202 225 255
202 225 255
202 225 255
202 225 255
202 225 255
202 225 255
202 225 255
203 225 255
203 225 255
203 225 255
203 225 255
203 225 255
203 225 255
203 225 255
203 225 255
203 225 255
203 226 255
203 226 255
203 226 255
203 226 255
203 226 255
203 226 255
203 226 255
204 226 255
204 226 255
204 226 255
204 226 255
204 226 255
204 226 255
204 226 255
204 226 255
204 226 255
204 226 255
204 226 255
204 226 255
204 226 255
204 226 255
204 226 255
204 226 255
204 226 255
204 226 255
205 226 255
205 226 255
204 226 255
204 226 255
204 226 255
204 226 255
204 226 255
204 226 255
204 226 255
204 226 255
204 226 255
204 226 255
204 226 255
204 226 255
204 226 255
204 226 255
204 226 255
204 226 255
204 226 255
204 226 255
203 226 255
203 226 255
203 226 255
203 226 255
203 226 255
203 226 255
203 226 255
203 225 255
203 225 255
203 225 255
203 225 255
203 225 255
203 225 255
203 225 255
203 225 255
203 225 255
202 225 255
202 225 255
202 225 255
202 225 255
202 225 255
202 225 255
202 225 255
202 225 255
202 225 255
202 225 255
202 225 255
202 225 255
202 225 255
202 225 255
202 225 255
202 225 255
201 225 255
201 225 255
201 225 255
201 225 255
201 225 255
201 224 255
201 224 255
201 224 255
201 224 255
201 224 255
201 224 255
201 224 255
201 224 255
201 224 255
201 224 255
200 224 255
200 224 255
200 224 255
200 224 255
200 224 255
200 224 255
200 224 255
200 224 255
200 224 255
200 224 255
200 224 255
200 224 255
200 224 255
200 224 255
200 224 255
199 224 255
199 224 255
199 223 255
199 223 255
199 223 255
199 223 255
199 223 255
199 223 255
199 223 255
199 223 255
199 223 255
199 223 255
199 223 255
199 223 255
198 223 255
198 223 255
198 223 255
198 223 255
198 223 255
198 223 255
198 223 255
198 223 255
198 223 255
198 223 255
198 223 255
198 223 255
198 223 255
198 223 255
197 223 255
197 222 255
197 222 255
197 222 255
197 222 255
197 222 255
197 222 255
197 222 255
197 222 255
197 222 255
197 222 255
197 222 255
197 222 255
197 222 255
197 222 255
196 222 255
196 222 255
196 222 255
196 222 255
196 222 255
196 222 255
196 222 255
196 222 255
196 222 255
196 222 255
196 222 255
196 222 255
196 222 255
196 222 255
196 222 255
196 221 255
195 221 255
195 221 255
195 221 255
195 221 255
195 221 255
195 221 255
195 221 255
195 221 255
195 221 255
195 221 255
195 221 255
195 221 255
195 221 255
195 221 255
195 221 255
195 221 255
195 221 255
195 221 255
195 221 255
195 221 255
194 221 255
194 221 255
194 221 255
194 221 255
194 221 255
194 221 255
194 221 255
194 221 255
194 221 255
194 221 255
194 221 255
194 221 255
194 221 255
194 221 255
194 221 255
194 221 255
194 221 255
194 221 255
194 221 255
194 221 255
194 221 255
194 221 255
194 221 255
194 221 255
194 221 255
194 221 255
194 221 255
194 221 255
194 221 255
194 221 255
194 221 255
194 220 255
194 220 255
194 220 255
194 220 255
194 220 255
194 220 255
194 220 255
194 220 255
194 220 255
194 220 255
194 220 255
194 220 255
194 220 255
194 220 255
194 220 255
194 220 255
194 221 255
194 221 255
194 221 255
194 221 255
194 221 255
194 221 255
194 221 255
194 221 255
194 221 255
194 221 255
194 221 255
194 221 255
194 221 255
194 221 255
194 221 255
194 221 255
194 221 255
194 221 255
194 221 255
194 221 255
194 221 255
194 221 255
194 221 255
194 221 255
194 221 255
194 221 255
194 221 255
194 221 255
194 221 255
194 221 255
195 221 255
195 221 255
195 221 255
195 221 255
195 221 255
195 221 255
195 221 255
195 221 255
195 221 255
195 221 255
195 221 255
195 221 255
195 221 255
195 221 255
195 221 255
195 221 255
195 221 255
195 221 255
195 221 255
195 221 255
196 221 255
196 221 255
196 222 255
196 222 255
196 222 255
196 222 255
196 222 255
196 222 255
196 222 255
196 222 255
196 222 255
196 222 255
196 222 255
196 222 255
196 222 255
196 222 255
196 222 255
197 222 255
197 222 255
197 222 255
197 222 255
197 222 255
197 222 255
197 222 255
197 222 255
197 222 255
197 222 255
197 222 255
197 222 255
197 222 255
197 222 255
197 223 255
198 223 255
198 223 255
198 223 255
198 223 255
198 223 255
198 223 255
198 223 255
198 223 255
198 223 255
198 223 255
198 223 255
198 223 255
198 223 255
198 223 255
199 223 255
199 223 255
199 223 255
199 223 255
199 223 255
199 223 255
199 223 255
199 223 255
199 223 255
199 223 255
199 223 255
199 223 255
199 224 255
199 224 255
200 224 255
200 224 255
200 224 255
200 224 255
200 224 255
200 224 255
200 224 255
200 224 255
200 224 255
200 224 255
200 224 255
200 224 255
200 224 255
200 224 255
200 224 255
201 224 255
201 224 255
201 224 255
201 224 255
201 224 255
201 224 255
201 224 255
201 224 255
201 224 255
201 224 255
201 225 255
201 225 255
201 225 255
201 225 255
201 225 255
202 225 255
202 225 255
202 225 255
202 225 255
202 225 255
202 225 255
202 225 255
202 225 255
202 225 255
202 225 255
202 225 255
202 225 255
202 225 255
202 225 255
202 225 255
203 225 255
203 225 255
203 225 255
203 225 255
203 225 255
203 225 255
203 225 255
203 225 255
203 225 255
203 225 255
203 226 255
203 226 255
203 226 255
203 226 255
203 226 255
203 226 255
203 226 255
204 226 255
204 226 255
204 226 255
204 226 255
204 226 255
204 226 255
204 226 255
204 226 255
204 226 255
204 226 255
204 226 255
204 226 255
204 226 255
204 226 255
204 226 255
204 226 255
204 226 255
204 226 255
205 226 255
205 226 255
205 226 255
205 226 255
205 226 255
205 226 255
204 226 255
204 226 255
204 226 255
204 226 255
204 226 255
204 226 255
204 226 255
204 226 255
204 226 255
204 226 255
204 226 255
204 226 255
204 226 255
204 226 255
204 226 255
204 226 255
204 226 255
204 226 255
203 226 255
203 226 255
203 226 255
203 226 255
203 226 255
203 226 255
203 226 255
203 226 255
203 225 255
203 225 255
203 225 255
203 225 255
203 225 255
203 225 255
203 225 255
203 225 255
203 225 255
202 225 255
202 225 255
202 225 255
202 225 255
202 225 255
202 225 255
202 225 255
202 225 255
202 225 255
202 225 255
202 225 255
202 225 255
202 225 255
202 225 255
202 225 255
201 225 255
201 225 255
201 225 255
201 225 255
201 225 255
201 224 255
201 224 255
201 224 255
201 224 255
201 224 255
201 224 255
201 224 255
201 224 255
201 224 255
201 224 255
200 224 255
200 224 255
200 224 255
200 224 255
200 224 255
200 224 255
200 224 255
200 224 255
200 224 255
200 224 255
200 224 255
200 224 255
200 224 255
200 224 255
200 224 255
199 224 255
199 224 255
199 223 255
199 223 255
199 223 255
199 223 255
199 223 255
199 223 255
199 223 255
199 223 255
199 223 255
199 223 255
199 223 255
199 223 255
198 223 255
198 223 255
198 223 255
198 223 255
198 223 255
198 223 255
198 223 255
198 223 255
198 223 255
198 223 255
198 223 255
198 223 255
198 223 255
198 223 255
197 223 255
197 222 255
197 222 255
197 222 255
197 222 255
197 222 255
197 222 255
197 222 255
197 222 255
197 222 255
197 222 255
197 222 255
197 222 255
197 222 255
197 222 255
196 222 255
196 222 255
196 222 255
196 222 255
196 222 255
196 222 255
196 222 255
196 222 255
196 222 255
196 222 255
196 222 255
196 222 255
196 222 255
196 222 255
196 222 255
196 221 255
196 221 255
195 221 255
195 221 255
195 221 255
195 221 255
195 221 255
195 221 255
195 221 255
195 221 255
195 221 255
195 221 255
195 221 255
195 221 255
195 221 255
195 221 255
195 221 255
195 221 255
195 221 255
195 221 255
195 221 255
195 221 255
195 221 255
194 221 255
194 221 255
194 221 255
194 221 255
194 221 255
194 221 255
194 221 255
194 221 255
194 221 255
194 221 255
194 221 255
194 221 255
194 221 255
194 221 255
194 221 255
194 221 255
194 221 255
194 221 255
194 221 255
194 221 255
194 221 255
194 221 255
194 221 255
194 221 255
194 221 255
194 221 255
194 221 255
194 221 255
194 221 255
194 221 255
194 221 255
194 221 255
194 221 255
194 221 255
194 221 255
194 221 255
194 221 255
194 221 255
194 221 255
194 221 255
194 221 255
194 221 255
194 221 255
194 221 255
194 221 255
194 221 255
194 221 255
194 221 255
194 221 255
194 221 255
194 221 255
194 221 255
194 221 255
194 221 255
194 221 255
194 221 255
194 221 255
194 221 255
194 221 255
194 221 255
194 221 255
194 221 255
194 221 255
194 221 255
194 221 255
194 221 255
194 221 255
194 221 255
194 221 255
194 221 255
195 221 255
195 221 255
195 221 255
195 221 255
195 221 255
195 221 255
195 221 255
195 221 255
195 221 255
195 221 255
195 221 255
195 221 255
195 221 255
195 221 255
195 221 255
195 221 255
195 221 255
195 221 255
195 221 255
195 221 255
195 221 255
196 221 255
196 221 255
196 222 255
196 222 255
196 222 255
196 222 255
196 222 255
196 222 255
196 222 255
196 222 255
196 222 255
196 222 255
196 222 255
196 222 255
196 222 255
196 222 255
196 222 255
197 222 255
197 222 255
197 222 255
197 222 255
197 222 255
197 222 255
197 222 255
197 222 255
197 222 255
197 222 255
197 222 255
197 222 255
197 222 255
197 222 255
197 223 255
198 223 255
198 223 255
198 223 255
198 223 255
198 223 255
198 223 255
198 223 255
198 223 255
198 223 255
198 223 255
198 223 255
198 223 255
198 223 255
198 223 255
199 223 255
199 223 255
199 223 255
199 223 255
199 223 255
199 223 255
199 223 255
199 223 255
199 223 255
199 223 255
199 223 255
199 223 255
199 224 255
199 224 255
200 224 255
200 224 255
200 224 255
200 224 255
200 224 255
200 224 255
200 224 255
200 224 255
200 224 255
200 224 255
200 224 255
200 224 255
200 224 255
200 224 255
200 224 255
201 224 255
201 224 255
201 224 255
201 224 255
201 224 255
201 224 255
201 224 255
201 224 255
201 224 255
201 224 255
201 225 255
201 225 255
201 225 255
201 225 255
201 225 255
202 225 255
202 225 255
202 225 255
202 225 255
202 225 255
202 225 255
202 225 255
202 225 255
202 225 255
202 225 255
202 225 255
202 225 255
202 225 255
202 225 255
202 225 255
203 225 255
203 225 255
203 225 255
203 225 255
203 225 255
203 225 255
203 225 255
203 225 255
203 225 255
203 226 255
203 226 255
203 226 255
203 226 255
203 226 255
203 226 255
203 226 255
203 226 255
204 226 255
204 226 255
204 226 255
204 226 255
204 226 255
204 226 255
204 226 255
204 226 255
204 226 255
204 226 255
204 226 255
204 226 255
204 226 255
204 226 255
204 226 255
204 226 255
204 226 255
204 226 255
205 226 255
205 226 255
205 226 255
205 226 255
205 226 255
205 226 255
205 226 255
205 226 255
205 226 255
205 226 255
205 226 255
204 226 255
204 226 255
204 226 255
204 226 255
204 226 255
204 226 255
204 226 255
204 226 255
204 226 255
204 226 255
204 226 255
204 226 255
204 226 255
204 226 255
204 226 255
204 226 255
204 226 255
204 226 255
203 226 255
203 226 255
203 226 255
203 226 255
203 226 255
203 226 255
203 226 255
203 225 255
203 225 255
203 225 255
203 225 255
203 225 255
203 225 255
203 225 255
203 225 255
203 225 255
202 225 255
202 225 255
202 225 255
202 225 255
202 225 255
202 225 255
202 225 255
202 225 255
202 225 255
202 225 255
202 225 255
202 225 255
202 225 255
202 225 255
202 225 255
201 225 255
201 225 255
201 225 255
201 225 255
201 225 255
201 224 255
201 224 255
201 224 255
201 224 255
201 224 255
201 224 255
201 224 255
201 224 255
201 224 255
201 224 255
200 224 255
200 224 255
200 224 255
200 224 255
200 224 255
200 224 255
200 224 255
200 224 255
200 224 255
200 224 255
200 224 255
200 224 255
200 224 255
200 224 255
200 224 255
199 224 255
199 224 255
199 223 255
199 223 255
199 223 255
199 223 255
199 223 255
199 223 255
199 223 255
199 223 255
199 223 255
199 223 255
199 223 255
199 223 255
198 223 255
198 223 255
198 223 255
198 223 255
198 223 255
198 223 255
198 223 255
198 223 255
198 223 255
198 223 255
198 223 255
198 223 255
198 223 255
198 223 255
197 223 255
197 222 255
197 222 255
197 222 255
197 222 255
197 222 255
197 222 255
197 222 255
197 222 255
197 222 255
197 222 255
197 222 255
197 222 255
197 222 255
197 222 255
197 222 255
196 222 255
196 222 255
196 222 255
196 222 255
196 222 255
196 222 255
196 222 255
196 222 255
196 222 255
196 222 255
196 222 255
196 222 255
196 222 255
196 222 255
196 222 255
196 221 255
196 221 255
195 221 255
195 221 255
195 221 255
195 221 255
195 221 255
195 221 255
195 221 255
195 221 255
195 221 255
195 221 255
195 221 255
195 221 255
195 221 255
195 221 255
195 221 255
195 221 255
195 221 255
195 221 255
195 221 255
195 221 255
195 221 255
195 221 255
194 221 255
194 221 255
194 221 255
194 221 255
194 221 255
194 221 255
194 221 255
194 221 255
194 221 255
194 221 255
194 221 255
194 221 255
194 221 255
194 221 255
194 221 255
194 221 255
194 221 255
194 221 255
194 221 255
194 221 255
194 221 255
194 221 255
194 221 255
194 221 255
194 221 255
194 221 255
194 221 255
194 221 255
194 221 255
194 221 255
194 221 255
194 221 255
194 221 255
194 221 255
194 221 255
194 221 255
194 221 255
194 221 255
194 221 255
194 221 255
194 221 255
194 221 255
194 221 255
194 221 255
194 221 255
194 221 255
194 221 255
194 221 255
194 221 255
194 221 255
194 221 255
194 221 255
194 221 255
194 221 255
194 221 255
194 221 255
194 221 255
194 221 255
194 221 255
194 221 255
194 221 255
194 221 255
195 221 255
195 221 255
195 221 255
195 221 255
195 221 255
195 221 255
195 221 255
195 221 255
195 221 255
195 221 255
195 221 255
195 221 255
195 221 255
195 221 255
195 221 255
195 221 255
195 221 255
195 221 255
195 221 255
195 221 255
195 221 255
195 221 255
196 221 255
196 221 255
196 222 255
196 222 255
196 222 255
196 222 255
196 222 255
196 222 255
196 222 255
196 222 255
196 222 255
196 222 255
196 222 255
196 222 255
196 222 255
196 222 255
196 222 255
197 222 255
197 222 255
197 222 255
197 222 255
197 222 255
197 222 255
197 222 255
197 222 255
197 222 255
197 222 255
197 222 255
197 222 255
197 222 255
197 222 255
197 222 255
198 223 255
198 223 255
198 223 255
198 223 255
198 223 255
198 223 255
198 223 255
198 223 255
198 223 255
198 223 255
198 223 255
198 223 255
198 223 255
198 223 255
198 223 255
199 223 255
199 223 255
199 223 255
199 223 255
199 223 255
199 223 255
199 223 255
199 223 255
199 223 255
199 223 255
199 223 255
199 223 255
199 224 255
199 224 255
200 224 255
200 224 255
200 224 255
200 224 255
200 224 255
200 224 255
200 224 255
200 224 255
200 224 255
200 224 255
200 224 255
200 224 255
200 224 255
200 224 255
200 224 255
201 224 255
201 224 255
201 224 255
201 224 255
201 224 255
201 224 255
201 224 255
201 224 255
201 224 255
201 224 255
201 225 255
201 225 255
201 225 255
201 225 255
201 225 255
202 225 255
202 225 255
202 225 255
202 225 255
202 225 255
202 225 255
202 225 255
202 225 255
202 225 255
202 225 255
202 225 255
202 225 255
202 225 255
202 225 255
202 225 255
203 225 255
203 225 255
203 225 255
203 225 255
203 225 255
203 225 255
203 225 255
203 225 255
203 225 255
203 226 255
203 226 255
203 226 255
203 226 255
203 226 255
203 226 255
203 226 255
203 226 255
204 226 255
204 226 255
204 226 255
204 226 255
204 226 255
204 226 255
204 226 255
204 226 255
204 226 255
204 226 255
204 226 255
204 226 255
204 226 255
204 226 255
204 226 255
204 226 255
204 226 255
205 226 255
205 226 255
205 226 255
205 226 255
205 226 255
205 226 255
205 226 255
205 227 255
205 227 255
205 226 255
205 226 255
205 226 255
205 226 255
205 226 255
205 226 255
205 226 255
204 226 255
204 226 255
204 226 255
204 226 255
204 226 255
204 226 255
204 226 255
204 226 255
204 226 255
204 226 255
204 226 255
204 226 255
204 226 255
204 226 255
204 226 255
204 226 255
204 226 255
204 226 255
203 226 255
203 226 255
203 226 255
203 226 255
203 226 255
203 226 255
203 226 255
203 225 255
203 225 255
203 225 255
203 225 255
203 225 255
203 225 255
203 225 255
203 225 255
203 225 255
202 225 255
202 225 255
202 225 255
202 225 255
202 225 255
202 225 255
202 225 255
202 225 255
202 225 255
202 225 255
202 225 255
202 225 255
202 225 255
202 225 255
202 225 255
201 225 255
201 225 255
201 225 255
201 225 255
201 225 255
201 224 255
201 224 255
201 224 255
201 224 255
201 224 255
201 224 255
201 224 255
201 224 255
201 224 255
201 224 255
200 224 255
200 224 255
200 224 255
200 224 255
200 224 255
200 224 255
200 224 255
200 224 255
200 224 255
200 224 255
200 224 255
200 224 255
200 224 255
200 224 255
200 224 255
199 224 255
199 224 255
199 223 255
199 223 255
199 223 255
199 223 255
199 223 255
199 223 255
199 223 255
199 223 255
199 223 255
199 223 255
199 223 255
199 223 255
198 223 255
198 223 255
198 223 255
198 223 255
198 223 255
198 223 255
198 223 255
198 223 255
198 223 255
198 223 255
198 223 255
198 223 255
198 223 255
198 223 255
198 223 255
197 222 255
197 222 255
197 222 255
197 222 255
197 222 255
197 222 255
197 222 255
197 222 255
197 222 255
197 222 255
197 222 255
197 222 255
197 222 255
197 222 255
197 222 255
196 222 255
196 222 255
196 222 255
196 222 255
196 222 255
196 222 255
196 222 255
196 222 255
196 222 255
196 222 255
196 222 255
196 222 255
196 222 255
196 222 255
196 222 255
196 222 255
196 221 255
195 221 255
195 221 255
195 221 255
195 221 255
195 221 255
195 221 255
195 221 255
195 221 255
195 221 255
195 221 255
195 221 255
195 221 255
195 221 255
195 221 255
195 221 255
195 221 255
195 221 255
195 221 255
195 221 255
195 221 255
195 221 255
195 221 255
195 221 255
195 221 255
194 221 255
194 221 255
194 221 255
194 221 255
194 221 255
194 221 255
194 221 255
194 221 255
194 221 255
194 221 255
194 221 255
194 221 255
194 221 255
194 221 255
194 221 255
194 221 255
194 221 255
194 221 255
194 221 255
194 221 255
194 221 255
194 221 255
194 221 255
194 221 255
194 221 255
194 221 255
194 221 255
194 221 255
194 221 255
194 221 255
194 221 255
194 221 255
194 221 255
194 221 255
194 221 255
194 221 255
194 221 255
194 221 255
194 221 255
194 221 255
194 221 255
194 221 255
194 221 255
194 221 255
194 221 255
194 221 255
194 221 255
194 221 255
194 221 255
194 221 255
194 221 255
194 221 255
194 221 255
194 221 255
195 221 255
195 221 255
195 221 255
195 221 255
195 221 255
195 221 255
195 221 255
195 221 255
195 221 255
195 221 255
195 221 255
195 221 255
195 221 255
195 221 255
195 221 255
195 221 255
195 221 255
195 221 255
195 221 255
195 221 255
195 221 255
195 221 255
195 221 255
196 221 255
196 221 255
196 222 255
196 222 255
196 222 255
196 222 255
196 222 255
196 222 255
196 222 255
196 222 255
196 222 255
196 222 255
196 222 255
196 222 255
196 222 255
196 222 255
196 222 255
196 222 255
197 222 255
197 222 255
197 222 255
197 222 255
197 222 255
197 222 255
197 222 255
197 222 255
197 222 255
197 222 255
197 222 255
197 222 255
197 222 255
197 222 255
197 222 255
198 223 255
198 223 255
198 223 255
198 223 255
198 223 255
198 223 255
198 223 255
198 223 255
198 223 255
198 223 255
198 223 255
198 223 255
198 223 255
198 223 255
198 223 255
199 223 255
199 223 255
199 223 255
199 223 255
199 223 255
199 223 255
199 223 255
199 223 255
199 223 255
199 223 255
199 223 255
199 223 255
199 224 255
199 224 255
200 224 255
200 224 255
200 224 255
200 224 255
200 224 255
200 224 255
200 224 255
200 224 255
200 224 255
200 224 255
200 224 255
200 224 255
200 224 255
200 224 255
201 224 255
201 224 255
201 224 255
201 224 255
201 224 255
201 224 255
201 224 255
201 224 255
201 224 255
201 224 255
201 224 255
201 225 255
201 225 255
201 225 255
201 225 255
202 225 255
202 225 255
202 225 255
202 225 255
202 225 255
202 225 255
202 225 255
202 225 255
202 225 255
202 225 255
202 225 255
202 225 255
202 225 255
202 225 255
202 225 255
202 225 255
203 225 255
203 225 255
203 225 255
203 225 255
203 225 255
203 225 255
203 225 255
203 225 255
203 225 255
203 226 255
203 226 255
203 226 255
203 226 255
203 226 255
203 226 255
203 226 255
204 226 255
204 226 255
204 226 255
204 226 255
204 226 255
204 226 255
204 226 255
204 226 255
204 226 255
204 226 255
204 226 255
204 226 255
204 226 255
204 226 255
204 226 255
204 226 255
204 226 255
204 226 255
205 226 255
205 226 255
205 226 255
205 226 255
205 226 255
205 226 255
205 226 255
205 227 255
205 227 255
205 227 255
205 227 255
205 227 255
205 227 255
205 226 255
205 226 255
205 226 255
205 226 255
205 226 255
205 226 255
205 226 255
205 226 255
204 226 255
204 226 255
204 226 255
204 226 255
204 226 255
204 226 255
204 226 255
204 226 255
204 226 255
204 226 255
204 226 255
204 226 255
204 226 255
204 226 255
204 226 255
204 226 255
204 226 255
203 226 255
203 226 255
203 226 255
203 226 255
203 226 255
203 226 255
203 226 255
203 225 255
203 225 255
203 225 255
203 225 255
203 225 255
203 225 255
203 225 255
203 225 255
203 225 255
202 225 255
202 225 255
202 225 255
202 225 255
202 225 255
202 225 255
202 225 255
202 225 255
202 225 255
202 225 255
202 225 255
202 225 255
202 225 255
202 225 255
202 225 255
202 225 255
201 225 255
201 225 255
201 225 255
201 225 255
201 224 255
201 224 255
201 224 255
201 224 255
201 224 255
201 224 255
201 224 255
201 224 255
201 224 255
201 224 255
201 224 255
200 224 255
200 224 255
200 224 255
200 224 255
200 224 255
200 224 255
200 224 255
200 224 255
200 224 255
200 224 255
200 224 255
200 224 255
200 224 255
200 224 255
199 224 255
199 224 255
199 223 255
199 223 255
199 223 255
199 223 255
199 223 255
199 223 255
199 223 255
199 223 255
199 223 255
199 223 255
199 223 255
199 223 255
198 223 255
198 223 255
198 223 255
198 223 255
198 223 255
198 223 255
198 223 255
198 223 255
198 223 255
198 223 255
198 223 255
198 223 255
198 223 255
198 223 255
198 223 255
197 222 255
197 222 255
197 222 255
197 222 255
197 222 255
197 222 255
197 222 255
197 222 255
197 222 255
197 222 255
197 222 255
197 222 255
197 222 255
197 222 255
197 222 255
196 222 255
196 222 255
196 222 255
196 222 255
196 222 255
196 222 255
196 222 255
196 222 255
196 222 255
196 222 255
196 222 255
196 222 255
196 222 255
196 222 255
196 222 255
196 222 255
196 221 255
196 221 255
195 221 255
195 221 255
195 221 255
195 221 255
195 221 255
195 221 255
195 221 255
195 221 255
195 221 255
195 221 255
195 221 255
195 221 255
195 221 255
195 221 255
195 221 255
195 221 255
195 221 255
195 221 255
195 221 255
195 221 255
195 221 255
195 221 255
195 221 255
195 221 255
195 221 255
195 221 255
194 221 255
194 221 255
194 221 255
194 221 255
194 221 255
194 221 255
194 221 255
194 221 255
194 221 255
194 221 255
194 221 255
194 221 255
194 221 255
194 221 255
194 221 255
194 221 255
194 221 255
194 221 255
194 221 255
194 221 255
194 221 255
194 221 255
194 221 255
194 221 255
194 221 255
194 221 255
194 221 255
194 221 255
194 221 255
194 221 255
194 221 255
194 221 255
194 221 255
194 221 255
194 221 255
194 221 255
194 221 255
194 221 255
194 221 255
194 221 255
194 221 255
194 221 255
194 221 255
194 221 255
195 221 255
195 221 255
195 221 255
195 221 255
195 221 255
195 221 255
195 221 255
195 221 255
195 221 255
195 221 255
195 221 255
195 221 255
195 221 255
195 221 255
195 221 255
195 221 255
195 221 255
195 221 255
195 221 255
195 221 255
195 221 255
195 221 255
195 221 255
195 221 255
195 221 255
195 221 255
196 221 255
196 222 255
196 222 255
196 222 255
196 222 255
196 222 255
196 222 255
196 222 255
196 222 255
196 222 255
196 222 255
196 222 255
196 222 255
196 222 255
196 222 255
196 222 255
196 222 255
196 222 255
197 222 255
197 222 255
197 222 255
197 222 255
197 222 255
197 222 255
197 222 255
197 222 255
197 222 255
197 222 255
197 222 255
197 222 255
197 222 255
197 222 255
197 222 255
198 223 255
198 223 255
198 223 255
198 223 255
198 223 255
198 223 255
198 223 255
198 223 255
198 223 255
198 223 255
198 223 255
198 223 255
198 223 255
198 223 255
198 223 255
199 223 255
199 223 255
199 223 255
199 223 255
199 223 255
199 223 255
199 223 255
199 223 255
199 223 255
199 223 255
199 223 255
199 223 255
199 224 255
199 224 255
200 224 255
200 224 255
200 224 255
200 224 255
200 224 255
200 224 255
200 224 255
200 224 255
200 224 255
200 224 255
200 224 255
200 224 255
200 224 255
200 224 255
200 224 255
201 224 255
201 224 255
201 224 255
201 224 255
201 224 255
201 224 255
201 224 255
201 224 255
201 224 255
201 224 255
201 225 255
201 225 255
201 225 255
201 225 255
202 225 255
202 225 255
202 225 255
202 225 255
202 225 255
202 225 255
202 225 255
202 225 255
202 225 255
202 225 255
202 225 255
202 225 255
202 225 255
202 225 255
202 225 255
202 225 255
203 225 255
203 225 255
203 225 255
203 225 255
203 225 255
203 225 255
203 225 255
203 225 255
203 225 255
203 226 255
203 226 255
203 226 255
203 226 255
203 226 255
203 226 255
203 226 255
204 226 255
204 226 255
204 226 255
204 226 255
204 226 255
204 226 255
204 226 255
204 226 255
204 226 255
204 226 255
204 226 255
204 226 255
204 226 255
204 226 255
204 226 255
204 226 255
204 226 255
205 226 255
205 226 255
205 226 255
205 226 255
205 226 255
205 226 255
205 226 255
205 226 255
205 227 255
205 227 255
205 227 255
205 227 255
205 227 255
205 227 255
205 227 255
205 227 255
205 227 255
205 227 255
205 227 255
205 226 255
205 226 255
205 226 255
205 226 255
205 226 255
205 226 255
205 226 255
204 226 255
204 226 255
204 226 255
204 226 255
204 226 255
204 226 255
204 226 255
204 226 255
204 226 255
204 226 255
204 226 255
204 226 255
204 226 255
204 226 255
204 226 255
204 226 255
204 226 255
203 226 255
203 226 255
203 226 255
203 226 255
203 226 255
203 226 255
203 226 255
203 226 255
203 225 255
203 225 255
203 225 255
203 225 255
203 225 255
203 225 255
203 225 255
203 225 255
203 225 255
202 225 255
202 225 255
202 225 255
202 225 255
202 225 255
202 225 255
202 225 255
202 225 255
202 225 255
202 225 255
202 225 255
202 225 255
202 225 255
202 225 255
202 225 255
201 225 255
201 225 255
201 225 255
201 225 255
201 224 255
201 224 255
201 224 255
201 224 255
201 224 255
201 224 255
201 224 255
201 224 255
201 224 255
201 224 255
201 224 255
200 224 255
200 224 255
200 224 255
200 224 255
200 224 255
200 224 255
200 224 255
200 224 255
200 224 255
200 224 255
200 224 255
200 224 255
200 224 255
200 224 255
199 224 255
199 224 255
199 223 255
199 223 255
199 223 255
199 223 255
199 223 255
199 223 255
199 223 255
199 223 255
199 223 255
199 223 255
199 223 255
199 223 255
199 223 255
198 223 255
198 223 255
198 223 255
198 223 255
198 223 255
198 223 255
198 223 255
198 223 255
198 223 255
198 223 255
198 223 255
198 223 255
198 223 255
198 223 255
197 223 255
197 222 255
197 222 255
197 222 255
197 222 255
197 222 255
197 222 255
197 222 255
197 222 255
197 222 255
197 222 255
197 222 255
197 222 255
197 222 255
197 222 255
197 222 255
196 222 255
196 222 255
196 222 255
196 222 255
196 222 255
196 222 255
196 222 255
196 222 255
196 222 255
196 222 255
196 222 255
196 222 255
196 222 255
196 222 255
196 222 255
196 222 255
196 222 255
196 221 255
195 221 255
195 221 255
195 221 255
195 221 255
195 221 255
195 221 255
195 221 255
195 221 255
195 221 255
195 221 255
195 221 255
195 221 255
195 221 255
195 221 255
195 221 255
195 221 255
195 221 255
195 221 255
195 221 255
195 221 255
195 221 255
195 221 255
195 221 255
195 221 255
195 221 255
195 221 255
195 221 255
195 221 255
195 221 255
195 221 255
194 221 255
194 221 255
194 221 255
194 221 255
194 221 255
194 221 255
194 221 255
194 221 255
194 221 255
194 221 255
194 221 255
194 221 255
194 221 255
194 221 255
194 221 255
194 221 255
194 221 255
194 221 255
194 221 255
194 221 255
194 221 255
194 221 255
194 221 255
194 221 255
194 221 255
194 221 255
194 221 255
194 221 255
194 221 255
194 221 255
195 221 255
195 221 255
195 221 255
195 221 255
195 221 255
195 221 255
195 221 255
195 221 255
195 221 255
195 221 255
195 221 255
195 221 255
195 221 255
195 221 255
195 221 255
195 221 255
195 221 255
195 221 255
195 221 255
195 221 255
195 221 255
195 221 255
195 221 255
195 221 255
195 221 255
195 221 255
195 221 255
195 221 255
195 221 255
195 221 255
196 221 255
196 222 255
196 222 255
196 222 255
196 222 255
196 222 255
196 222 255
196 222 255
196 222 255
196 222 255
196 222 255
196 222 255
196 222 255
196 222 255
196 222 255
196 222 255
196 222 255
196 222 255
197 222 255
197 222 255
197 222 255
197 222 255
197 222 255
197 222 255
197 222 255
197 222 255
197 222 255
197 222 255
197 222 255
197 222 255
197 222 255
197 222 255
197 222 255
197 222 255
198 223 255
198 223 255
198 223 255
198 223 255
198 223 255
198 223 255
198 223 255
198 223 255
198 223 255
198 223 255
198 223 255
198 223 255
198 223 255
198 223 255
198 223 255
199 223 255
199 223 255
199 223 255
199 223 255
199 223 255
199 223 255
199 223 255
199 223 255
199 223 255
199 223 255
199 223 255
199 223 255
199 224 255
199 224 255
200 224 255
200 224 255
200 224 255
200 224 255
200 224 255
200 224 255
200 224 255
200 224 255
200 224 255
200 224 255
200 224 255
200 224 255
200 224 255
200 224 255
201 224 255
201 224 255
201 224 255
201 224 255
201 224 255
201 224 255
201 224 255
201 224 255
201 224 255
201 224 255
201 224 255
201 225 255
201 225 255
201 225 255
201 225 255
202 225 255
202 225 255
202 225 255
202 225 255
202 225 255
202 225 255
202 225 255
202 225 255
202 225 255
202 225 255
202 225 255
202 225 255
202 225 255
202 225 255
202 225 255
203 225 255
203 225 255
203 225 255
203 225 255
203 225 255
203 225 255
203 225 255
203 225 255
203 225 255
203 226 255
203 226 255
203 226 255
203 226 255
203 226 255
203 226 255
203 226 255
203 226 255
204 226 255
204 226 255
204 226 255
204 226 255
204 226 255
204 226 255
204 226 255
204 226 255
204 226 255
204 226 255
204 226 255
204 226 255
204 226 255
204 226 255
204 226 255
204 226 255
204 226 255
205 226 255
205 226 255
205 226 255
205 226 255
205 226 255
205 226 255
205 226 255
205 227 255
205 227 255
205 227 255
205 227 255
205 227 255
205 227 255
205 227 255
205 227 255
205 227 255
205 227 255
205 227 255
205 227 255
205 227 255
205 227 255
205 227 255
205 227 255
205 226 255
205 226 255
205 226 255
205 226 255
205 226 255
205 226 255
205 226 255
204 226 255
204 226 255
204 226 255
204 226 255
204 226 255
204 226 255
204 226 255
204 226 255
204 226 255
204 226 255
204 226 255
204 226 255
204 226 255
204 226 255
204 226 255
204 226 255
204 226 255
204 226 255
203 226 255
203 226 255
203 226 255
203 226 255
203 226 255
203 226 255
203 226 255
203 225 255
203 225 255
203 225 255
203 225 255
203 225 255
203 225 255
203 225 255
203 225 255
203 225 255
202 225 255
202 225 255
202 225 255
202 225 255
202 225 255
202 225 255
202 225 255
202 225 255
202 225 255
202 225 255
202 225 255
202 225 255
202 225 255
202 225 255
202 225 255
201 225 255
201 225 255
201 225 255
201 225 255
201 225 255
201 224 255
201 224 255
201 224 255
201 224 255
201 224 255
201 224 255
201 224 255
201 224 255
201 224 255
201 224 255
200 224 255
200 224 255
200 224 255
200 224 255
200 224 255
200 224 255
200 224 255
200 224 255
200 224 255
200 224 255
200 224 255
200 224 255
200 224 255
200 224 255
199 224 255
199 224 255
199 224 255
199 223 255
199 223 255
199 223 255
199 223 255
199 223 255
199 223 255
199 223 255
199 223 255
199 223 255
199 223 255
199 223 255
199 223 255
198 223 255
198 223 255
198 223 255
198 223 255
198 223 255
198 223 255
198 223 255
198 223 255
198 223 255
198 223 255
198 223 255
198 223 255
198 223 255
198 223 255
197 223 255
197 222 255
197 222 255
197 222 255
197 222 255
197 222 255
197 222 255
197 222 255
197 222 255
197 222 255
197 222 255
197 222 255
197 222 255
197 222 255
197 222 255
197 222 255
196 222 255
196 222 255
196 222 255
196 222 255
196 222 255
196 222 255
196 222 255
196 222 255
196 222 255
196 222 255
196 222 255
196 222 255
196 222 255
196 222 255
196 222 255
196 222 255
196 222 255
196 222 255
196 221 255
195 221 255
195 221 255
195 221 255
195 221 255
195 221 255
195 221 255
195 221 255
195 221 255
195 221 255
195 221 255
195 221 255
195 221 255
195 221 255
195 221 255
195 221 255
195 221 255
195 221 255
195 221 255
195 221 255
195 221 255
195 221 255
195 221 255
195 221 255
195 221 255
195 221 255
195 221 255
195 221 255
195 221 255
195 221 255
195 221 255
195 221 255
195 221 255
195 221 255
195 221 255
195 221 255
195 221 255
195 221 255
195 221 255
195 221 255
195 221 255
195 221 255
195 221 255
195 221 255
195 221 255
195 221 255
195 221 255
195 221 255
195 221 255
195 221 255
195 221 255
195 221 255
195 221 255
195 221 255
195 221 255
195 221 255
195 221 255
195 221 255
195 221 255
195 221 255
195 221 255
195 221 255
195 221 255
195 221 255
195 221 255
195 221 255
195 221 255
195 221 255
195 221 255
195 221 255
195 221 255
195 221 255
195 221 255
195 221 255
195 221 255
195 221 255
195 221 255
195 221 255
195 221 255
195 221 255
195 221 255
195 221 255
195 221 255
195 221 255
195 221 255
196 221 255
196 222 255
196 222 255
196 222 255
196 222 255
196 222 255
196 222 255
196 222 255
196 222 255
196 222 255
196 222 255
196 222 255
196 222 255
196 222 255
196 222 255
196 222 255
196 222 255
196 222 255
197 222 255
197 222 255
197 222 255
197 222 255
197 222 255
197 222 255
197 222 255
197 222 255
197 222 255
197 222 255
197 222 255
197 222 255
197 222 255
197 222 255
197 222 255
197 222 255
197 223 255
198 223 255
198 223 255
198 223 255
198 223 255
198 223 255
198 223 255
198 223 255
198 223 255
198 223 255
198 223 255
198 223 255
198 223 255
198 223 255
198 223 255
199 223 255
199 223 255
199 223 255
199 223 255
199 223 255
199 223 255
199 223 255
199 223 255
199 223 255
199 223 255
199 223 255
199 223 255
199 224 255
199 224 255
199 224 255
200 224 255
200 224 255
200 224 255
200 224 255
200 224 255
200 224 255
200 224 255
200 224 255
200 224 255
200 224 255
200 224 255
200 224 255
200 224 255
200 224 255
201 224 255
201 224 255
201 224 255
201 224 255
201 224 255
201 224 255
201 224 255
201 224 255
201 224 255
201 224 255
201 225 255
201 225 255
201 225 255
201 225 255
201 225 255
202 225 255
202 225 255
202 225 255
202 225 255
202 225 255
202 225 255
202 225 255
202 225 255
202 225 255
202 225 255
202 225 255
202 225 255
202 225 255
202 225 255
202 225 255
203 225 255
203 225 255
203 225 255
203 225 255
203 225 255
203 225 255
203 225 255
203 225 255
203 225 255
203 226 255
203 226 255
203 226 255
203 226 255
203 226 255
203 226 255
203 226 255
204 226 255
204 226 255
204 226 255
204 226 255
204 226 255
204 226 255
204 226 255
204 226 255
204 226 255
204 226 255
204 226 255
204 226 255
204 226 255
204 226 255
204 226 255
204 226 255
204 226 255
204 226 255
205 226 255
205 226 255
205 226 255
205 226 255
205 226 255
205 226 255
205 226 255
205 227 255
205 227 255
205 227 255
205 227 255
205 227 255
205 227 255
205 227 255
205 227 255
205 227 255
205 227 255
205 227 255
205 227 255
205 227 255
205 227 255
205 227 255
205 227 255
205 227 255
205 227 255
205 227 255
205 227 255
205 227 255
205 226 255
205 226 255
205 226 255
205 226 255
205 226 255
205 226 255
205 226 255
204 226 255
204 226 255
204 226 255
204 226 255
204 226 255
204 226 255
204 226 255
204 226 255
204 226 255
204 226 255
204 226 255
204 226 255
204 226 255
204 226 255
204 226 255
204 226 255
204 226 255
203 226 255
203 226 255
203 226 255
203 226 255
203 226 255
203 226 255
203 226 255
203 225 255
203 225 255
203 225 255
203 225 255
203 225 255
203 225 255
203 225 255
203 225 255
203 225 255
202 225 255
202 225 255
202 225 255
202 225 255
202 225 255
202 225 255
202 225 255
202 225 255
202 225 255
202 225 255
202 225 255
202 225 255
202 225 255
202 225 255
202 225 255
201 225 255
201 225 255
201 225 255
201 225 255
201 225 255
201 224 255
201 224 255
201 224 255
201 224 255
201 224 255
201 224 255
201 224 255
201 224 255
201 224 255
201 224 255
200 224 255
200 224 255
200 224 255
200 224 255
200 224 255
200 224 255
200 224 255
200 224 255
200 224 255
200 224 255
200 224 255
200 224 255
200 224 255
200 224 255
199 224 255
199 224 255
199 224 255
199 223 255
199 223 255
199 223 255
199 223 255
199 223 255
199 223 255
199 223 255
199 223 255
199 223 255
199 223 255
199 223 255
199 223 255
198 223 255
198 223 255
198 223 255
198 223 255
198 223 255
198 223 255
198 223 255
198 223 255
198 223 255
198 223 255
198 223 255
198 223 255
198 223 255
198 223 255
198 223 255
197 222 255
197 222 255
197 222 255
197 222 255
197 222 255
197 222 255
197 222 255
197 222 255
197 222 255
197 222 255
197 222 255
197 222 255
197 222 255
197 222 255
197 222 255
197 222 255
196 222 255
196 222 255
196 222 255
196 222 255
196 222 255
196 222 255
196 222 255
196 222 255
196 222 255
196 222 255
196 222 255
196 222 255
196 222 255
196 222 255
196 222 255
196 222 255
196 222 255
196 222 255
196 221 255
196 221 255
195 221 255
195 221 255
195 221 255
195 221 255
195 221 255
195 221 255
195 221 255
195 221 255
195 221 255
195 221 255
195 221 255
195 221 255
195 221 255
195 221 255
195 221 255
195 221 255
195 221 255
195 221 255
195 221 255
195 221 255
195 221 255
195 221 255
195 221 255
195 221 255
195 221 255
195 221 255
195 221 255
195 221 255
195 221 255
195 221 255
195 221 255
195 221 255
195 221 255
195 221 255
195 221 255
195 221 255
195 221 255
195 221 255
195 221 255
195 221 255
195 221 255
195 221 255
195 221 255
195 221 255
195 221 255
195 221 255
195 221 255
195 221 255
195 221 255
195 221 255
195 221 255
195 221 255
195 221 255
195 221 255
195 221 255
195 221 255
195 221 255
195 221 255
195 221 255
195 221 255
195 221 255
195 221 255
195 221 255
195 221 255
195 221 255
195 221 255
195 221 255
195 221 255
195 221 255
195 221 255
195 221 255
195 221 255
195 221 255
195 221 255
195 221 255
195 221 255
196 221 255
196 221 255
196 222 255
196 222 255
196 222 255
196 222 255
196 222 255
196 222 255
196 222 255
196 222 255
196 222 255
196 222 255
196 222 255
196 222 255
196 222 255
196 222 255
196 222 255
196 222 255
196 222 255
196 222 255
197 222 255
197 222 255
197 222 255
197 222 255
197 222 255
197 222 255
197 222 255
197 222 255
197 222 255
197 222 255
197 222 255
197 222 255
197 222 255
197 222 255
197 222 255
197 222 255
198 223 255
198 223 255
198 223 255
198 223 255
198 223 255
198 223 255
198 223 255
198 223 255
198 223 255
198 223 255
198 223 255
198 223 255
198 223 255
198 223 255
198 223 255
199 223 255
199 223 255
199 223 255
199 223 255
199 223 255
199 223 255
199 223 255
199 223 255
199 223 255
199 223 255
199 223 255
199 223 255
199 224 255
199 224 255
199 224 255
200 224 255
200 224 255
200 224 255
200 224 255
200 224 255
200 224 255
200 224 255
200 224 255
200 224 255
200 224 255
200 224 255
200 224 255
200 224 255
200 224 255
201 224 255
201 224 255
201 224 255
201 224 255
201 224 255
201 224 255
201 224 255
201 224 255
201 224 255
201 224 255
201 225 255
201 225 255
201 225 255
201 225 255
201 225 255
202 225 255
202 225 255
202 225 255
202 225 255
202 225 255
202 225 255
202 225 255
202 225 255
202 225 255
202 225 255
202 225 255
202 225 255
202 225 255
202 225 255
202 225 255
203 225 255
203 225 255
203 225 255
203 225 255
203 225 255
203 225 255
203 225 255
203 225 255
203 225 255
203 226 255
203 226 255
203 226 255
203 226 255
203 226 255
203 226 255
203 226 255
204 226 255
204 226 255
204 226 255
204 226 255
204 226 255
204 226 255
204 226 255
204 226 255
204 226 255
204 226 255
204 226 255
204 226 255
204 226 255
204 226 255
204 226 255
204 226 255
204 226 255
205 226 255
205 226 255
205 226 255
205 226 255
205 226 255
205 226 255
205 226 255
205 227 255
205 227 255
205 227 255
205 227 255
205 227 255
205 227 255
205 227 255
205 227 255
205 227 255
205 227 255
205 227 255
205 227 255
206 227 255
206 227 255
206 227 255
205 227 255
205 227 255
205 227 255
205 227 255
205 227 255
205 227 255
205 227 255
205 227 255
205 227 255
205 227 255
205 227 255
205 226 255
205 226 255
205 226 255
205 226 255
205 226 255
205 226 255
205 226 255
204 226 255
204 226 255
204 226 255
204 226 255
204 226 255
204 226 255
204 226 255
204 226 255
204 226 255
204 226 255
204 226 255
204 226 255
204 226 255
204 226 255
204 226 255
204 226 255
204 226 255
203 226 255
203 226 255
203 226 255
203 226 255
203 226 255
203 226 255
203 226 255
203 226 255
203 225 255
203 225 255
203 225 255
203 225 255
203 225 255
203 225 255
203 225 255
203 225 255
202 225 255
202 225 255
202 225 255
202 225 255
202 225 255
202 225 255
202 225 255
202 225 255
202 225 255
202 225 255
202 225 255
202 225 255
202 225 255
202 225 255
202 225 255
202 225 255
201 225 255
201 225 255
201 225 255
201 225 255
201 224 255
201 224 255
201 224 255
201 224 255
201 224 255
201 224 255
201 224 255
201 224 255
201 224 255
201 224 255
200 224 255
200 224 255
200 224 255
200 224 255
200 224 255
200 224 255
200 224 255
200 224 255
200 224 255
200 224 255
200 224 255
200 224 255
200 224 255
200 224 255
200 224 255
199 224 255
199 224 255
199 223 255
199 223 255
199 223 255
199 223 255
199 223 255
199 223 255
199 223 255
199 223 255
199 223 255
199 223 255
199 223 255
199 223 255
198 223 255
198 223 255
198 223 255
198 223 255
198 223 255
198 223 255
198 223 255
198 223 255
198 223 255
198 223 255
198 223 255
198 223 255
198 223 255
198 223 255
198 223 255
197 223 255
197 222 255
197 222 255
197 222 255
197 222 255
197 222 255
197 222 255
197 222 255
197 222 255
197 222 255
197 222 255
197 222 255
197 222 255
197 222 255
197 222 255
197 222 255
197 222 255
196 222 255
196 222 255
196 222 255
196 222 255
196 222 255
196 222 255
196 222 255
196 222 255
196 222 255
196 222 255
196 222 255
196 222 255
196 222 255
196 222 255
196 222 255
196 222 255
196 222 255
196 222 255
196 221 255
196 221 255
196 221 255
195 221 255
195 221 255
195 221 255
195 221 255
195 221 255
195 221 255
195 221 255
195 221 255
195 221 255
195 221 255
195 221 255
195 221 255
195 221 255
195 221 255
195 221 255
195 221 255
195 221 255
195 221 255
195 221 255
195 221 255
195 221 255
195 221 255
195 221 255
195 221 255
195 221 255
195 221 255
195 221 255
195 221 255
195 221 255
195 221 255
195 221 255
195 221 255
195 221 255
195 221 255
195 221 255
195 221 255
195 221 255
195 221 255
195 221 255
195 221 255
195 221 255
195 221 255
195 221 255
195 221 255
195 221 255
195 221 255
195 221 255
195 221 255
195 221 255
195 221 255
195 221 255
195 221 255
195 221 255
195 221 255
195 221 255
195 221 255
195 221 255
195 221 255
195 221 255
195 221 255
195 221 255
195 221 255
195 221 255
195 221 255
195 221 255
195 221 255
195 221 255
195 221 255
196 221 255
196 221 255
196 221 255
196 222 255
196 222 255
196 222 255
196 222 255
196 222 255
196 222 255
196 222 255
196 222 255
196 222 255
196 222 255
196 222 255
196 222 255
196 222 255
196 222 255
196 222 255
196 222 255
196 222 255
196 222 255
197 222 255
197 222 255
197 222 255
197 222 255
197 222 255
197 222 255
197 222 255
197 222 255
197 222 255
197 222 255
197 222 255
197 222 255
197 222 255
197 222 255
197 222 255
197 222 255
197 223 255
198 223 255
198 223 255
198 223 255
198 223 255
198 223 255
198 223 255
198 223 255
198 223 255
198 223 255
198 223 255
198 223 255
198 223 255
198 223 255
198 223 255
198 223 255
199 223 255
199 223 255
199 223 255
199 223 255
199 223 255
199 223 255
199 223 255
199 223 255
199 223 255
199 223 255
199 223 255
199 223 255
199 224 255
199 224 255
200 224 255
200 224 255
200 224 255
200 224 255
200 224 255
200 224 255
200 224 255
200 224 255
200 224 255
200 224 255
200 224 255
200 224 255
200 224 255
200 224 255
200 224 255
201 224 255
201 224 255
201 224 255
201 224 255
201 224 255
201 224 255
201 224 255
201 224 255
201 224 255
201 224 255
201 225 255
201 225 255
201 225 255
201 225 255
202 225 255
202 225 255
202 225 255
202 225 255
202 225 255
202 225 255
202 225 255
202 225 255
202 225 255
202 225 255
202 225 255
202 225 255
202 225 255
202 225 255
202 225 255
202 225 255
203 225 255
203 225 255
203 225 255
203 225 255
203 225 255
203 225 255
203 225 255
203 225 255
203 226 255
203 226 255
203 226 255
203 226 255
203 226 255
203 226 255
203 226 255
203 226 255
204 226 255
204 226 255
204 226 255
204 226 255
204 226 255
204 226 255
204 226 255
204 226 255
204 226 255
204 226 255
204 226 255
204 226 255
204 226 255
204 226 255
204 226 255
204 226 255
204 226 255
205 226 255
205 226 255
205 226 255
205 226 255
205 226 255
205 226 255
205 226 255
205 227 255
205 227 255
205 227 255
205 227 255
205 227 255
205 227 255
205 227 255
205 227 255
205 227 255
205 227 255
205 227 255
206 227 255
206 227 255
206 227 255
206 227 255
206 227 255
206 227 255
206 227 255
206 227 255
205 227 255
205 227 255
205 227 255
205 227 255
205 227 255
205 227 255
205 227 255
205 227 255
205 227 255
205 227 255
205 227 255
205 226 255
205 226 255
205 226 255
205 226 255
205 226 255
205 226 255
205 226 255
205 226 255
204 226 255
204 226 255
204 226 255
204 226 255
204 226 255
204 226 255
204 226 255
204 226 255
204 226 255
204 226 255
204 226 255
204 226 255
204 226 255
204 226 255
204 226 255
204 226 255
204 226 255
203 226 255
203 226 255
203 226 255
203 226 255
203 226 255
203 226 255
203 226 255
203 225 255
203 225 255
203 225 255
203 225 255
203 225 255
203 225 255
203 225 255
203 225 255
203 225 255
202 225 255
202 225 255
202 225 255
202 225 255
202 225 255
202 225 255
202 225 255
202 225 255
202 225 255
202 225 255
202 225 255
202 225 255
202 225 255
202 225 255
202 225 255
201 225 255
201 225 255
201 225 255
201 225 255
201 224 255
201 224 255
201 224 255
201 224 255
201 224 255
201 224 255
201 224 255
201 224 255
201 224 255
201 224 255
201 224 255
200 224 255
200 224 255
200 224 255
200 224 255
200 224 255
200 224 255
200 224 255
200 224 255
200 224 255
200 224 255
200 224 255
200 224 255
200 224 255
200 224 255
199 224 255
199 224 255
199 223 255
199 223 255
199 223 255
199 223 255
199 223 255
199 223 255
199 223 255
199 223 255
199 223 255
199 223 255
199 223 255
199 223 255
198 223 255
198 223 255
198 223 255
198 223 255
198 223 255
198 223 255
198 223 255
198 223 255
198 223 255
198 223 255
198 223 255
198 223 255
198 223 255
198 223 255
198 223 255
198 223 255
197 222 255
197 222 255
197 222 255
197 222 255
197 222 255
197 222 255
197 222 255
197 222 255
197 222 255
197 222 255
197 222 255
197 222 255
197 222 255
197 222 255
197 222 255
197 222 255
197 222 255
196 222 255
196 222 255
196 222 255
196 222 255
196 222 255
196 222 255
196 222 255
196 222 255
196 222 255
196 222 255
196 222 255
196 222 255
196 222 255
196 222 255
196 222 255
196 222 255
196 222 255
196 222 255
196 222 255
196 222 255
196 221 255
196 221 255
195 221 255
195 221 255
195 221 255
195 221 255
195 221 255
195 221 255
195 221 255
195 221 255
195 221 255
195 221 255
195 221 255
195 221 255
195 221 255
195 221 255
195 221 255
195 221 255
195 221 255
195 221 255
195 221 255
195 221 255
195 221 255
195 221 255
195 221 255
195 221 255
195 221 255
195 221 255
195 221 255
195 221 255
195 221 255
195 221 255
195 221 255
195 221 255
195 221 255
195 221 255
195 221 255
195 221 255
195 221 255
195 221 255
195 221 255
195 221 255
195 221 255
195 221 255
195 221 255
195 221 255
195 221 255
195 221 255
195 221 255
195 221 255
195 221 255
195 221 255
195 221 255
195 221 255
195 221 255
195 221 255
195 221 255
195 221 255
195 221 255
195 221 255
195 221 255
195 221 255
196 221 255
196 221 255
196 222 255
196 222 255
196 222 255
196 222 255
196 222 255
196 222 255
196 222 255
196 222 255
196 222 255
196 222 255
196 222 255
196 222 255
196 222 255
196 222 255
196 222 255
196 222 255
196 222 255
196 222 255
196 222 255
196 222 255
197 222 255
197 222 255
197 222 255
197 222 255
197 222 255
197 222 255
197 222 255
197 222 255
197 222 255
197 222 255
197 222 255
197 222 255
197 222 255
197 222 255
197 222 255
197 222 255
197 222 255
198 223 255
198 223 255
198 223 255
198 223 255
198 223 255
198 223 255
198 223 255
198 223 255
198 223 255
198 223 255
198 223 255
198 223 255
198 223 255
198 223 255
198 223 255
198 223 255
199 223 255
199 223 255
199 223 255
199 223 255
199 223 255
199 223 255
199 223 255
199 223 255
199 223 255
199 223 255
199 223 255
199 223 255
199 224 255
199 224 255
200 224 255
200 224 255
200 224 255
200 224 255
200 224 255
200 224 255
200 224 255
200 224 255
200 224 255
200 224 255
200 224 255
200 224 255
200 224 255
200 224 255
200 224 255
201 224 255
201 224 255
201 224 255
201 224 255
201 224 255
201 224 255
201 224 255
201 224 255
201 224 255
201 224 255
201 225 255
201 225 255
201 225 255
201 225 255
202 225 255
202 225 255
202 225 255
202 225 255
202 225 255
202 225 255
202 225 255
202 225 255
202 225 255
202 225 255
202 225 255
202 225 255
202 225 255
202 225 255
202 225 255
203 225 255
203 225 255
203 225 255
203 225 255
203 225 255
203 225 255
203 225 255
203 225 255
203 225 255
203 226 255
203 226 255
203 226 255
203 226 255
203 226 255
203 226 255
203 226 255
204 226 255
204 226 255
204 226 255
204 226 255
204 226 255
204 226 255
204 226 255
204 226 255
204 226 255
204 226 255
204 226 255
204 226 255
204 226 255
204 226 255
204 226 255
204 226 255
204 226 255
205 226 255
205 226 255
205 226 255
205 226 255
205 226 255
205 226 255
205 226 255
205 227 255
205 227 255
205 227 255
205 227 255
205 227 255
205 227 255
205 227 255
205 227 255
205 227 255
205 227 255
205 227 255
206 227 255
206 227 255
206 227 255
206 227 255
206 227 255
206 227 255
206 227 255
206 227 255
206 227 255
206 227 255
206 227 255
206 227 255
206 227 255
206 227 255
205 227 255
205 227 255
205 227 255
205 227 255
205 227 255
205 227 255
205 227 255
205 227 255
205 227 255
205 227 255
205 227 255
205 226 255
205 226 255
205 226 255
205 226 255
205 226 255
205 226 255
205 226 255
204 226 255
204 226 255
204 226 255
204 226 255
204 226 255
204 226 255
204 226 255
204 226 255
204 226 255
204 226 255
204 226 255
204 226 255
204 226 255
204 226 255
204 226 255
204 226 255
204 226 255
203 226 255
203 226 255
203 226 255
203 226 255
203 226 255
203 226 255
203 226 255
203 225 255
203 225 255
203 225 255
203 225 255
203 225 255
203 225 255
203 225 255
203 225 255
203 225 255
202 225 255
202 225 255
202 225 255
202 225 255
202 225 255
202 225 255
202 225 255
202 225 255
202 225 255
202 225 255
202 225 255
202 225 255
202 225 255
202 225 255
202 225 255
201 225 255
201 225 255
201 225 255
201 225 255
201 224 255
201 224 255
201 224 255
201 224 255
201 224 255
201 224 255
201 224 255
201 224 255
201 224 255
201 224 255
201 224 255
200 224 255
200 224 255
200 224 255
200 224 255
200 224 255
200 224 255
200 224 255
200 224 255
200 224 255
200 224 255
200 224 255
200 224 255
200 224 255
200 224 255
199 224 255
199 224 255
199 223 255
199 223 255
199 223 255
199 223 255
199 223 255
199 223 255
199 223 255
199 223 255
199 223 255
199 223 255
199 223 255
199 223 255
199 223 255
198 223 255
198 223 255
198 223 255
198 223 255
198 223 255
198 223 255
198 223 255
198 223 255
198 223 255
198 223 255
198 223 255
198 223 255
198 223 255
198 223 255
198 223 255
197 223 255
197 222 255
197 222 255
197 222 255
197 222 255
197 222 255
197 222 255
197 222 255
197 222 255
197 222 255
197 222 255
197 222 255
197 222 255
197 222 255
197 222 255
197 222 255
197 222 255
197 222 255
196 222 255
196 222 255
196 222 255
196 222 255
196 222 255
196 222 255
196 222 255
196 222 255
196 222 255
196 222 255
196 222 255
196 222 255
196 222 255
196 222 255
196 222 255
196 222 255
196 222 255
196 222 255
196 222 255
196 222 255
196 222 255
196 221 255
196 221 255
196 221 255
195 221 255
195 221 255
195 221 255
195 221 255
195 221 255
195 221 255
195 221 255
195 221 255
195 221 255
195 221 255
195 221 255
195 221 255
195 221 255
195 221 255
195 221 255
195 221 255
195 221 255
195 221 255
195 221 255
195 221 255
195 221 255
195 221 255
195 221 255
195 221 255
195 221 255
195 221 255
195 221 255
195 221 255
195 221 255
195 221 255
195 221 255
195 221 255
195 221 255
195 221 255
195 221 255
195 221 255
195 221 255
195 221 255
195 221 255
195 221 255
195 221 255
195 221 255
195 221 255
195 221 255
195 221 255
195 221 255
195 221 255
195 221 255
195 221 255
195 221 255
196 221 255
196 221 255
196 221 255
196 222 255
196 222 255
196 222 255
196 222 255
196 222 255
196 222 255
196 222 255
196 222 255
196 222 255
196 222 255
196 222 255
196 222 255
196 222 255
196 222 255
196 222 255
196 222 255
196 222 255
196 222 255
196 222 255
196 222 255
196 222 255
197 222 255
197 222 255
197 222 255
197 222 255
197 222 255
197 222 255
197 222 255
197 222 255
197 222 255
197 222 255
197 222 255
197 222 255
197 222 255
197 222 255
197 222 255
197 222 255
197 222 255
197 223 255
198 223 255
198 223 255
198 223 255
198 223 255
198 223 255
198 223 255
198 223 255
198 223 255
198 223 255
198 223 255
198 223 255
198 223 255
198 223 255
198 223 255
198 223 255
199 223 255
199 223 255
199 223 255
199 223 255
199 223 255
199 223 255
199 223 255
199 223 255
199 223 255
199 223 255
199 223 255
199 223 255
199 223 255
199 224 255
199 224 255
200 224 255
200 224 255
200 224 255
200 224 255
200 224 255
200 224 255
200 224 255
200 224 255
200 224 255
200 224 255
200 224 255
200 224 255
200 224 255
200 224 255
201 224 255
201 224 255
201 224 255
201 224 255
201 224 255
201 224 255
201 224 255
201 224 255
201 224 255
201 224 255
201 224 255
201 225 255
201 225 255
201 225 255
201 225 255
202 225 255
202 225 255
202 225 255
202 225 255
202 225 255
202 225 255
202 225 255
202 225 255
202 225 255
202 225 255
202 225 255
202 225 255
202 225 255
202 225 255
202 225 255
203 225 255
203 225 255
203 225 255
203 225 255
203 225 255
203 225 255
203 225 255
203 225 255
203 225 255
203 226 255
203 226 255
203 226 255
203 226 255
203 226 255
203 226 255
203 226 255
204 226 255
204 226 255
204 226 255
204 226 255
204 226 255
204 226 255
204 226 255
204 226 255
204 226 255
204 226 255
204 226 255
204 226 255
204 226 255
204 226 255
204 226 255
204 226 255
204 226 255
205 226 255
205 226 255
205 226 255
205 226 255
205 226 255
205 226 255
205 226 255
205 227 255
205 227 255
205 227 255
205 227 255
205 227 255
205 227 255
205 227 255
205 227 255
205 227 255
205 227 255
205 227 255
206 227 255
206 227 255
206 227 255
206 227 255
206 227 255
206 227 255
206 227 255
206 227 255
206 227 255
206 227 255
206 227 255
206 227 255
206 227 255
206 227 255
206 227 255
206 227 255
206 227 255
206 227 255
206 227 255
205 227 255
205 227 255
205 227 255
205 227 255
205 227 255
205 227 255
205 227 255
205 227 255
205 227 255
205 227 255
205 227 255
205 226 255
205 226 255
205 226 255
205 226 255
205 226 255
205 226 255
205 226 255
204 226 255
204 226 255
204 226 255
204 226 255
204 226 255
204 226 255
204 226 255
204 226 255
204 226 255
204 226 255
204 226 255
204 226 255
204 226 255
204 226 255
204 226 255
204 226 255
204 226 255
203 226 255
203 226 255
203 226 255
203 226 255
203 226 255
203 226 255
203 226 255
203 225 255
203 225 255
203 225 255
203 225 255
203 225 255
203 225 255
203 225 255
203 225 255
202 225 255
202 225 255
202 225 255
202 225 255
202 225 255
202 225 255
202 225 255
202 225 255
202 225 255
202 225 255
202 225 255
202 225 255
202 225 255
202 225 255
202 225 255
201 225 255
201 225 255
201 225 255
201 225 255
201 225 255
201 224 255
201 224 255
201 224 255
201 224 255
201 224 255
201 224 255
201 224 255
201 224 255
201 224 255
201 224 255
200 224 255
200 224 255
200 224 255
200 224 255
200 224 255
200 224 255
200 224 255
200 224 255
200 224 255
200 224 255
200 224 255
200 224 255
200 224 255
200 224 255
200 224 255
199 224 255
199 224 255
199 223 255
199 223 255
199 223 255
199 223 255
199 223 255
199 223 255
199 223 255
199 223 255
199 223 255
199 223 255
199 223 255
199 223 255
198 223 255
198 223 255
198 223 255
198 223 255
198 223 255
198 223 255
198 223 255
198 223 255
198 223 255
198 223 255
198 223 255
198 223 255
198 223 255
198 223 255
198 223 255
198 223 255
197 222 255
197 222 255
197 222 255
197 222 255
197 222 255
197 222 255
197 222 255
197 222 255
197 222 255
197 222 255
197 222 255
197 222 255
197 222 255
197 222 255
197 222 255
197 222 255
197 222 255
197 222 255
196 222 255
196 222 255
196 222 255
196 222 255
196 222 255
196 222 255
196 222 255
196 222 255
196 222 255
196 222 255
196 222 255
196 222 255
196 222 255
196 222 255
196 222 255
196 222 255
196 222 255
196 222 255
196 222 255
196 222 255
196 222 255
196 222 255
196 222 255
196 221 255
196 221 255
196 221 255
196 221 255
195 221 255
195 221 255
195 221 255
195 221 255
195 221 255
195 221 255
195 221 255
195 221 255
195 221 255
195 221 255
195 221 255
195 221 255
195 221 255
195 221 255
195 221 255
195 221 255
195 221 255
195 221 255
195 221 255
195 221 255
195 221 255
195 221 255
195 221 255
195 221 255
195 221 255
195 221 255
195 221 255
195 221 255
195 221 255
195 221 255
195 221 255
195 221 255
195 221 255
195 221 255
195 221 255
195 221 255
195 221 255
195 221 255
196 221 255
196 221 255
196 221 255
196 222 255
196 222 255
196 222 255
196 222 255
196 222 255
196 222 255
196 222 255
196 222 255
196 222 255
196 222 255
196 222 255
196 222 255
196 222 255
196 222 255
196 222 255
196 222 255
196 222 255
196 222 255
196 222 255
196 222 255
196 222 255
196 222 255
196 222 255
196 222 255
197 222 255
197 222 255
197 222 255
197 222 255
197 222 255
197 222 255
197 222 255
197 222 255
197 222 255
197 222 255
197 222 255
197 222 255
197 222 255
197 222 255
197 222 255
197 222 255
197 222 255
197 222 255
198 223 255
198 223 255
198 223 255
198 223 255
198 223 255
198 223 255
198 223 255
198 223 255
198 223 255
198 223 255
198 223 255
198 223 255
198 223 255
198 223 255
198 223 255
198 223 255
199 223 255
199 223 255
199 223 255
199 223 255
199 223 255
199 223 255
199 223 255
199 223 255
199 223 255
199 223 255
199 223 255
199 223 255
199 224 255
199 224 255
199 224 255
200 224 255
200 224 255
200 224 255
200 224 255
200 224 255
200 224 255
200 224 255
200 224 255
200 224 255
200 224 255
200 224 255
200 224 255
200 224 255
200 224 255
201 224 255
201 224 255
201 224 255
201 224 255
201 224 255
201 224 255
201 224 255
201 224 255
201 224 255
201 224 255
201 225 255
201 225 255
201 225 255
201 225 255
201 225 255
202 225 255
202 225 255
202 225 255
202 225 255
202 225 255
202 225 255
202 225 255
202 225 255
202 225 255
202 225 255
202 225 255
202 225 255
202 225 255
202 225 255
202 225 255
203 225 255
203 225 255
203 225 255
203 225 255
203 225 255
203 225 255
203 225 255
203 225 255
203 226 255
203 226 255
203 226 255
203 226 255
203 226 255
203 226 255
203 226 255
204 226 255
204 226 255
204 226 255
204 226 255
204 226 255
204 226 255
204 226 255
204 226 255
204 226 255
204 226 255
204 226 255
204 226 255
204 226 255
204 226 255
204 226 255
204 226 255
204 226 255
205 226 255
205 226 255
205 226 255
205 226 255
205 226 255
205 226 255
205 226 255
205 227 255
205 227 255
205 227 255
205 227 255
205 227 255
205 227 255
205 227 255
205 227 255
205 227 255
205 227 255
205 227 255
206 227 255
206 227 255
206 227 255
206 227 255
206 227 255
206 227 255
206 227 255
206 227 255
206 227 255
206 227 255
206 227 255
206 227 255
206 227 255
206 227 255
206 227 255
206 227 255
206 227 255
206 227 255
206 227 255
206 227 255
206 227 255
206 227 255
206 227 255
206 227 255
205 227 255
205 227 255
205 227 255
205 227 255
205 227 255
205 227 255
205 227 255
205 227 255
205 227 255
205 227 255
205 227 255
205 226 255
205 226 255
205 226 255
205 226 255
205 226 255
205 226 255
205 226 255
204 226 255
204 226 255
204 226 255
204 226 255
204 226 255
204 226 255
204 226 255
204 226 255
204 226 255
204 226 255
204 226 255
204 226 255
204 226 255
204 226 255
204 226 255
204 226 255
204 226 255
203 226 255
203 226 255
203 226 255
203 226 255
203 226 255
203 226 255
203 226 255
203 225 255
203 225 255
203 225 255
203 225 255
203 225 255
203 225 255
203 225 255
203 225 255
203 225 255
202 225 255
202 225 255
202 225 255
202 225 255
202 225 255
202 225 255
202 225 255
202 225 255
202 225 255
202 225 255
202 225 255
202 225 255
202 225 255
202 225 255
202 225 255
201 225 255
201 225 255
201 225 255
201 225 255
201 224 255
201 224 255
201 224 255
201 224 255
201 224 255
201 224 255
201 224 255
201 224 255
201 224 255
201 224 255
200 224 255
200 224 255
200 224 255
200 224 255
200 224 255
200 224 255
200 224 255
200 224 255
200 224 255
200 224 255
200 224 255
200 224 255
200 224 255
200 224 255
200 224 255
199 224 255
199 224 255
199 223 255
199 223 255
199 223 255
199 223 255
199 223 255
199 223 255
199 223 255
199 223 255
199 223 255
199 223 255
199 223 255
199 223 255
199 223 255
198 223 255
198 223 255
198 223 255
198 223 255
198 223 255
198 223 255
198 223 255
198 223 255
198 223 255
198 223 255
198 223 255
198 223 255
198 223 255
198 223 255
198 223 255
197 223 255
197 222 255
197 222 255
197 222 255
197 222 255
197 222 255
197 222 255
197 222 255
197 222 255
197 222 255
197 222 255
197 222 255
197 222 255
197 222 255
197 222 255
197 222 255
197 222 255
197 222 255
197 222 255
196 222 255
196 222 255
196 222 255
196 222 255
196 222 255
196 222 255
196 222 255
196 222 255
196 222 255
196 222 255
196 222 255
196 222 255
196 222 255
196 222 255
196 222 255
196 222 255
196 222 255
196 222 255
196 222 255
196 222 255
196 222 255
196 222 255
196 222 255
196 222 255
196 222 255
196 222 255
196 222 255
196 221 255
196 221 255
196 221 255
196 221 255
196 221 255
196 221 255
195 221 255
195 221 255
195 221 255
195 221 255
195 221 255
195 221 255
195 221 255
195 221 255
195 221 255
195 221 255
195 221 255
195 221 255
195 221 255
195 221 255
195 221 255
195 221 255
195 221 255
195 221 255
195 221 255
195 221 255
196 221 255
196 221 255
196 221 255
196 221 255
196 221 255
196 221 255
196 222 255
196 222 255
196 222 255
196 222 255
196 222 255
196 222 255
196 222 255
196 222 255
196 222 255
196 222 255
196 222 255
196 222 255
196 222 255
196 222 255
196 222 255
196 222 255
196 222 255
196 222 255
196 222 255
196 222 255
196 222 255
196 222 255
196 222 255
196 222 255
196 222 255
196 222 255
196 222 255
197 222 255
197 222 255
197 222 255
197 222 255
197 222 255
197 222 255
197 222 255
197 222 255
197 222 255
197 222 255
197 222 255
197 222 255
197 222 255
197 222 255
197 222 255
197 222 255
197 222 255
197 222 255
197 223 255
198 223 255
198 223 255
198 223 255
198 223 255
198 223 255
198 223 255
198 223 255
198 223 255
198 223 255
198 223 255
198 223 255
198 223 255
198 223 255
198 223 255
198 223 255
198 223 255
199 223 255
199 223 255
199 223 255
199 223 255
199 223 255
199 223 255
199 223 255
199 223 255
199 223 255
199 223 255
199 223 255
199 223 255
199 224 255
199 224 255
200 224 255
200 224 255
200 224 255
200 224 255
200 224 255
200 224 255
200 224 255
200 224 255
200 224 255
200 224 255
200 224 255
200 224 255
200 224 255
200 224 255
200 224 255
201 224 255
201 224 255
201 224 255
201 224 255
201 224 255
201 224 255
201 224 255
201 224 255
201 224 255
201 224 255
201 225 255
201 225 255
201 225 255
201 225 255
202 225 255
202 225 255
202 225 255
202 225 255
202 225 255
202 225 255
202 225 255
202 225 255
202 225 255
202 225 255
202 225 255
202 225 255
202 225 255
202 225 255
202 225 255
203 225 255
203 225 255
203 225 255
203 225 255
203 225 255
203 225 255
203 225 255
203 225 255
203 225 255
203 226 255
203 226 255
203 226 255
203 226 255
203 226 255
203 226 255
203 226 255
204 226 255
204 226 255
204 226 255
204 226 255
204 226 255
204 226 255
204 226 255
204 226 255
204 226 255
204 226 255
204 226 255
204 226 255
204 226 255
204 226 255
204 226 255
204 226 255
204 226 255
205 226 255
205 226 255
205 226 255
205 226 255
205 226 255
205 226 255
205 226 255
205 227 255
205 227 255
205 227 255
205 227 255
205 227 255
205 227 255
205 227 255
205 227 255
205 227 255
205 227 255
205 227 255
206 227 255
206 227 255
206 227 255
206 227 255
206 227 255
206 227 255
206 227 255
206 227 255
206 227 255
206 227 255
206 227 255
206 227 255
206 227 255
206 227 255
206 227 255
206 227 255
206 227 255
206 227 255
206 227 255
206 227 255
206 227 255
206 227 255
206 227 255
206 227 255
206 227 255
206 227 255
206 227 255
206 227 255
206 227 255
205 227 255
205 227 255
205 227 255
205 227 255
205 227 255
205 227 255
205 227 255
205 227 255
205 227 255
205 227 255
205 227 255
205 226 255
205 226 255
205 226 255
205 226 255
205 226 255
205 226 255
205 226 255
204 226 255
204 226 255
204 226 255
204 226 255
204 226 255
204 226 255
204 226 255
204 226 255
204 226 255
204 226 255
204 226 255
204 226 255
204 226 255
204 226 255
204 226 255
204 226 255
203 226 255
203 226 255
203 226 255
203 226 255
203 226 255
203 226 255
203 226 255
203 225 255
203 225 255
203 225 255
203 225 255
203 225 255
203 225 255
203 225 255
203 225 255
203 225 255
202 225 255
202 225 255
202 225 255
202 225 255
202 225 255
202 225 255
202 225 255
202 225 255
202 225 255
202 225 255
202 225 255
202 225 255
202 225 255
202 225 255
202 225 255
201 225 255
201 225 255
201 225 255
201 225 255
201 224 255
201 224 255
201 224 255
201 224 255
201 224 255
201 224 255
201 224 255
201 224 255
201 224 255
201 224 255
200 224 255
200 224 255
200 224 255
200 224 255
200 224 255
200 224 255
200 224 255
200 224 255
200 224 255
200 224 255
200 224 255
200 224 255
200 224 255
200 224 255
200 224 255
199 224 255
199 224 255
199 223 255
199 223 255
199 223 255
199 223 255
199 223 255
199 223 255
199 223 255
199 223 255
199 223 255
199 223 255
199 223 255
199 223 255
199 223 255
198 223 255
198 223 255
198 223 255
198 223 255
198 223 255
198 223 255
198 223 255
198 223 255
198 223 255
198 223 255
198 223 255
198 223 255
198 223 255
198 223 255
198 223 255
198 223 255
197 223 255
197 222 255
197 222 255
197 222 255
197 222 255
197 222 255
197 222 255
197 222 255
197 222 255
197 222 255
197 222 255
197 222 255
197 222 255
197 222 255
197 222 255
197 222 255
197 222 255
197 222 255
197 222 255
197 222 255
196 222 255
196 222 255
196 222 255
196 222 255
196 222 255
196 222 255
196 222 255
196 222 255
196 222 255
196 222 255
196 222 255
196 222 255
196 222 255
196 222 255
196 222 255
196 222 255
196 222 255
196 222 255
196 222 255
196 222 255
196 222 255
196 222 255
196 222 255
196 222 255
196 222 255
196 222 255
196 222 255
196 222 255
196 222 255
196 222 255
196 222 255
196 222 255
196 222 255
196 222 255
196 222 255
196 222 255
196 222 255
196 222 255
196 222 255
196 222 255
196 222 255
196 222 255
196 222 255
196 222 255
196 222 255
196 222 255
196 222 255
196 222 255
196 222 255
196 222 255
196 222 255
196 222 255
196 222 255
196 222 255
196 222 255
196 222 255
196 222 255
196 222 255
196 222 255
196 222 255
196 222 255
196 222 255
196 222 255
196 222 255
196 222 255
196 222 255
196 222 255
196 222 255
196 222 255
196 222 255
196 222 255
196 222 255
196 222 255
196 222 255
196 222 255
196 222 255
196 222 255
196 222 255
197 222 255
197 222 255
197 222 255
197 222 255
197 222 255
197 222 255
197 222 255
197 222 255
197 222 255
197 222 255
197 222 255
197 222 255
197 222 255
197 222 255
197 222 255
197 222 255
197 222 255
197 222 255
197 222 255
197 223 255
198 223 255
198 223 255
198 223 255
198 223 255
198 223 255
198 223 255
198 223 255
198 223 255
198 223 255
198 223 255
198 223 255
198 223 255
198 223 255
198 223 255
198 223 255
198 223 255
199 223 255
199 223 255
199 223 255
199 223 255
199 223 255
199 223 255
199 223 255
199 223 255
199 223 255
199 223 255
199 223 255
199 223 255
199 224 255
199 224 255
199 224 255
200 224 255
200 224 255
200 224 255
200 224 255
200 224 255
200 224 255
200 224 255
200 224 255
200 224 255
200 224 255
200 224 255
200 224 255
200 224 255
200 224 255
200 224 255
201 224 255
201 224 255
201 224 255
201 224 255
201 224 255
201 224 255
201 224 255
201 224 255
201 224 255
201 224 255
201 225 255
201 225 255
201 225 255
201 225 255
202 225 255
202 225 255
202 225 255
202 225 255
202 225 255
202 225 255
202 225 255
202 225 255
202 225 255
202 225 255
202 225 255
202 225 255
202 225 255
202 225 255
202 225 255
203 225 255
203 225 255
203 225 255
203 225 255
203 225 255
203 225 255
203 225 255
203 225 255
203 225 255
203 226 255
203 226 255
203 226 255
203 226 255
203 226 255
203 226 255
203 226 255
204 226 255
204 226 255
204 226 255
204 226 255
204 226 255
204 226 255
204 226 255
204 226 255
204 226 255
204 226 255
204 226 255
204 226 255
204 226 255
204 226 255
204 226 255
204 226 255
205 226 255
205 226 255
205 226 255
205 226 255
205 226 255
205 226 255
205 226 255
205 227 255
205 227 255
205 227 255
205 227 255
205 227 255
205 227 255
205 227 255
205 227 255
205 227 255
205 227 255
205 227 255
206 227 255
206 227 255
206 227 255
206 227 255
206 227 255
206 227 255
206 227 255
206 227 255
206 227 255
206 227 255
206 227 255
206 227 255
206 227 255
206 227 255
206 227 255
206 227 255
206 227 255
206 227 255
206 227 255
206 227 255
206 227 255
206 227 255
206 227 255
206 227 255
206 227 255
206 227 255
206 227 255
206 227 255
206 227 255
206 227 255
206 227 255
206 227 255
206 227 255
206 227 255
205 227 255
205 227 255
205 227 255
205 227 255
205 227 255
205 227 255
205 227 255
205 227 255
205 227 255
205 227 255
205 227 255
205 226 255
205 226 255
205 226 255
205 226 255
205 226 255
205 226 255
205 226 255
204 226 255
204 226 255
204 226 255
204 226 255
204 226 255
204 226 255
204 226 255
204 226 255
204 226 255
204 226 255
204 226 255
204 226 255
204 226 255
204 226 255
204 226 255
204 226 255
204 226 255
203 226 255
203 226 255
203 226 255
203 226 255
203 226 255
203 226 255
203 226 255
203 225 255
203 225 255
203 225 255
203 225 255
203 225 255
203 225 255
203 225 255
203 225 255
202 225 255
202 225 255
202 225 255
202 225 255
202 225 255
202 225 255
202 225 255
202 225 255
202 225 255
202 225 255
202 225 255
202 225 255
202 225 255
202 225 255
202 225 255
201 225 255
201 225 255
201 225 255
201 225 255
201 225 255
201 224 255
201 224 255
201 224 255
201 224 255
201 224 255
201 224 255
201 224 255
201 224 255
201 224 255
201 224 255
200 224 255
200 224 255
200 224 255
200 224 255
200 224 255
200 224 255
200 224 255
200 224 255
200 224 255
200 224 255
200 224 255
200 224 255
200 224 255
200 224 255
199 224 255
199 224 255
199 224 255
199 223 255
199 223 255
199 223 255
199 223 255
199 223 255
199 223 255
199 223 255
199 223 255
199 223 255
199 223 255
199 223 255
199 223 255
199 223 255
198 223 255
198 223 255
198 223 255
198 223 255
198 223 255
198 223 255
198 223 255
198 223 255
198 223 255
198 223 255
198 223 255
198 223 255
198 223 255
198 223 255
198 223 255
198 223 255
197 223 255
197 222 255
197 222 255
197 222 255
197 222 255
197 222 255
197 222 255
197 222 255
197 222 255
197 222 255
197 222 255
197 222 255
197 222 255
197 222 255
197 222 255
197 222 255
197 222 255
197 222 255
197 222 255
197 222 255
196 222 255
196 222 255
196 222 255
196 222 255
196 222 255
196 222 255
196 222 255
196 222 255
196 222 255
196 222 255
196 222 255
196 222 255
196 222 255
196 222 255
196 222 255
196 222 255
196 222 255
196 222 255
196 222 255
196 222 255
196 222 255
196 222 255
196 222 255
196 222 255
196 222 255
196 222 255
196 222 255
196 222 255
196 222 255
196 222 255
196 222 255
196 222 255
196 222 255
196 222 255
196 222 255
196 222 255
196 222 255
196 222 255
196 222 255
196 222 255
196 222 255
196 222 255
196 222 255
196 222 255
196 222 255
196 222 255
196 222 255
196 222 255
196 222 255
196 222 255
196 222 255
196 222 255
196 222 255
196 222 255
196 222 255
196 222 255
196 222 255
196 222 255
196 222 255
196 222 255
196 222 255
196 222 255
196 222 255
196 222 255
196 222 255
196 222 255
196 222 255
196 222 255
196 222 255
196 222 255
196 222 255
196 222 255
197 222 255
197 222 255
197 222 255
197 222 255
197 222 255
197 222 255
197 222 255
197 222 255
197 222 255
197 222 255
197 222 255
197 222 255
197 222 255
197 222 255
197 222 255
197 222 255
197 222 255
197 222 255
197 222 255
197 223 255
198 223 255
198 223 255
198 223 255
198 223 255
198 223 255
198 223 255
198 223 255
198 223 255
198 223 255
198 223 255
198 223 255
198 223 255
198 223 255
198 223 255
198 223 255
198 223 255
199 223 255
199 223 255
199 223 255
199 223 255
199 223 255
199 223 255
199 223 255
199 223 255
199 223 255
199 223 255
199 223 255
199 223 255
199 223 255
199 224 255
199 224 255
200 224 255
200 224 255
200 224 255
200 224 255
200 224 255
200 224 255
200 224 255
200 224 255
200 224 255
200 224 255
200 224 255
200 224 255
200 224 255
200 224 255
200 224 255
201 224 255
201 224 255
201 224 255
201 224 255
201 224 255
201 224 255
201 224 255
201 224 255
201 224 255
201 224 255
201 225 255
201 225 255
201 225 255
201 225 255
201 225 255
202 225 255
202 225 255
202 225 255
202 225 255
202 225 255
202 225 255
202 225 255
202 225 255
202 225 255
202 225 255
202 225 255
202 225 255
202 225 255
202 225 255
202 225 255
203 225 255
203 225 255
203 225 255
203 225 255
203 225 255
203 225 255
203 225 255
203 225 255
203 226 255
203 226 255
203 226 255
203 226 255
203 226 255
203 226 255
203 226 255
204 226 255
204 226 255
204 226 255
204 226 255
204 226 255
204 226 255
204 226 255
204 226 255
204 226 255
204 226 255
204 226 255
204 226 255
204 226 255
204 226 255
204 226 255
204 226 255
204 226 255
205 226 255
205 226 255
205 226 255
205 226 255
205 226 255
205 226 255
205 226 255
205 227 255
205 227 255
205 227 255
205 227 255
205 227 255
205 227 255
205 227 255
205 227 255
205 227 255
205 227 255
205 227 255
206 227 255
206 227 255
206 227 255
206 227 255
206 227 255
206 227 255
206 227 255
206 227 255
206 227 255
206 227 255
206 227 255
206 227 255
206 227 255
206 227 255
206 227 255
206 227 255
206 227 255
206 227 255
207 227 255
207 227 255
206 227 255
206 227 255
206 227 255
206 227 255
206 227 255
206 227 255
206 227 255
206 227 255
206 227 255
206 227 255
206 227 255
206 227 255
206 227 255
206 227 255
206 227 255
206 227 255
206 227 255
206 227 255
206 227 255
205 227 255
205 227 255
205 227 255
205 227 255
205 227 255
205 227 255
205 227 255
205 227 255
205 227 255
205 227 255
205 227 255
205 226 255
205 226 255
205 226 255
205 226 255
205 226 255
205 226 255
205 226 255
204 226 255
204 226 255
204 226 255
204 226 255
204 226 255
204 226 255
204 226 255
204 226 255
204 226 255
204 226 255
204 226 255
204 226 255
204 226 255
204 226 255
204 226 255
204 226 255
203 226 255
203 226 255
203 226 255
203 226 255
203 226 255
203 226 255
203 226 255
203 225 255
203 225 255
203 225 255
203 225 255
203 225 255
203 225 255
203 225 255
203 225 255
203 225 255
202 225 255
202 225 255
202 225 255
202 225 255
202 225 255
202 225 255
202 225 255
202 225 255
202 225 255
202 225 255
202 225 255
202 225 255
202 225 255
202 225 255
201 225 255
201 225 255
201 225 255
201 225 255
201 225 255
201 224 255
201 224 255
201 224 255
201 224 255
201 224 255
201 224 255
201 224 255
201 224 255
201 224 255
201 224 255
200 224 255
200 224 255
200 224 255
200 224 255
200 224 255
200 224 255
200 224 255
200 224 255
200 224 255
200 224 255
200 224 255
200 224 255
200 224 255
200 224 255
200 224 255
199 224 255
199 224 255
199 223 255
199 223 255
199 223 255
199 223 255
199 223 255
199 223 255
199 223 255
199 223 255
199 223 255
199 223 255
199 223 255
199 223 255
199 223 255
198 223 255
198 223 255
198 223 255
198 223 255
198 223 255
198 223 255
198 223 255
198 223 255
198 223 255
198 223 255
198 223 255
198 223 255
198 223 255
198 223 255
198 223 255
198 223 255
198 223 255
197 223 255
197 222 255
197 222 255
197 222 255
197 222 255
197 222 255
197 222 255
197 222 255
197 222 255
197 222 255
197 222 255
197 222 255
197 222 255
197 222 255
197 222 255
197 222 255
197 222 255
197 222 255
197 222 255
197 222 255
197 222 255
197 222 255
196 222 255
196 222 255
196 222 255
196 222 255
196 222 255
196 222 255
196 222 255
196 222 255
196 222 255
196 222 255
196 222 255
196 222 255
196 222 255
196 222 255
196 222 255
196 222 255
196 222 255
196 222 255
196 222 255
196 222 255
196 222 255
196 222 255
196 222 255
196 222 255
196 222 255
196 222 255
196 222 255
196 222 255
196 222 255
196 222 255
196 222 255
196 222 255
196 222 255
196 222 255
196 222 255
196 222 255
196 222 255
196 222 255
196 222 255
196 222 255
196 222 255
196 222 255
196 222 255
196 222 255
196 222 255
196 222 255
196 222 255
196 222 255
196 222 255
196 222 255
196 222 255
196 222 255
196 222 255
196 222 255
196 222 255
196 222 255
196 222 255
196 222 255
196 222 255
196 222 255
196 222 255
196 222 255
197 222 255
197 222 255
197 222 255
197 222 255
197 222 255
197 222 255
197 222 255
197 222 255
197 222 255
197 222 255
197 222 255
197 222 255
197 222 255
197 222 255
197 222 255
197 222 255
197 222 255
197 222 255
197 222 255
197 222 255
197 222 255
197 223 255
198 223 255
198 223 255
198 223 255
198 223 255
198 223 255
198 223 255
198 223 255
198 223 255
198 223 255
198 223 255
198 223 255
198 223 255
198 223 255
198 223 255
198 223 255
198 223 255
198 223 255
199 223 255
199 223 255
199 223 255
199 223 255
199 223 255
199 223 255
199 223 255
199 223 255
199 223 255
199 223 255
199 223 255
199 223 255
199 223 255
199 224 255
199 224 255
200 224 255
200 224 255
200 224 255
200 224 255
200 224 255
200 224 255
200 224 255
200 224 255
200 224 255
200 224 255
200 224 255
200 224 255
200 224 255
200 224 255
200 224 255
201 224 255
201 224 255
201 224 255
201 224 255
201 224 255
201 224 255
201 224 255
201 224 255
201 224 255
201 224 255
201 225 255
201 225 255
201 225 255
201 225 255
202 225 255
202 225 255
202 225 255
202 225 255
202 225 255
202 225 255
202 225 255
202 225 255
202 225 255
202 225 255
202 225 255
202 225 255
202 225 255
202 225 255
202 225 255
203 225 255
203 225 255
203 225 255
203 225 255
203 225 255
203 225 255
203 225 255
203 225 255
203 225 255
203 226 255
203 226 255
203 226 255
203 226 255
203 226 255
203 226 255
203 226 255
204 226 255
204 226 255
204 226 255
204 226 255
204 226 255
204 226 255
204 226 255
204 226 255
204 226 255
204 226 255
204 226 255
204 226 255
204 226 255
204 226 255
204 226 255
204 226 255
205 226 255
205 226 255
205 226 255
205 226 255
205 226 255
205 226 255
205 226 255
205 227 255
205 227 255
205 227 255
205 227 255
205 227 255
205 227 255
205 227 255
205 227 255
205 227 255
205 227 255
205 227 255
206 227 255
206 227 255
206 227 255
206 227 255
206 227 255
206 227 255
206 227 255
206 227 255
206 227 255
206 227 255
206 227 255
206 227 255
206 227 255
206 227 255
206 227 255
206 227 255
206 227 255
206 227 255
206 227 255
207 227 255
207 227 255
207 227 255
207 227 255
207 227 255
207 227 255
207 227 255
206 227 255
206 227 255
206 227 255
206 227 255
206 227 255
206 227 255
206 227 255
206 227 255
206 227 255
206 227 255
206 227 255
206 227 255
206 227 255
206 227 255
206 227 255
206 227 255
206 227 255
206 227 255
206 227 255
205 227 255
205 227 255
205 227 255
205 227 255
205 227 255
205 227 255
205 227 255
205 227 255
205 227 255
205 227 255
205 226 255
205 226 255
205 226 255
205 226 255
205 226 255
205 226 255
205 226 255
204 226 255
204 226 255
204 226 255
204 226 255
204 226 255
204 226 255
204 226 255
204 226 255
204 226 255
204 226 255
204 226 255
204 226 255
204 226 255
204 226 255
204 226 255
204 226 255
204 226 255
203 226 255
203 226 255
203 226 255
203 226 255
203 226 255
203 226 255
203 225 255
203 225 255
203 225 255
203 225 255
203 225 255
203 225 255
203 225 255
203 225 255
203 225 255
202 225 255
202 225 255
202 225 255
202 225 255
202 225 255
202 225 255
202 225 255
202 225 255
202 225 255
202 225 255
202 225 255
202 225 255
202 225 255
202 225 255
202 225 255
201 225 255
201 225 255
201 225 255
201 225 255
201 224 255
201 224 255
201 224 255
201 224 255
201 224 255
201 224 255
201 224 255
201 224 255
201 224 255
201 224 255
201 224 255
200 224 255
200 224 255
200 224 255
200 224 255
200 224 255
200 224 255
200 224 255
200 224 255
200 224 255
200 224 255
200 224 255
200 224 255
200 224 255
200 224 255
199 224 255
199 224 255
199 224 255
199 223 255
199 223 255
199 223 255
199 223 255
199 223 255
199 223 255
199 223 255
199 223 255
199 223 255
199 223 255
199 223 255
199 223 255
199 223 255
198 223 255
198 223 255
198 223 255
198 223 255
198 223 255
198 223 255
198 223 255
198 223 255
198 223 255
198 223 255
198 223 255
198 223 255
198 223 255
198 223 255
198 223 255
198 223 255
198 223 255
197 223 255
197 222 255
197 222 255
197 222 255
197 222 255
197 222 255
197 222 255
197 222 255
197 222 255
197 222 255
197 222 255
197 222 255
197 222 255
197 222 255
197 222 255
197 222 255
197 222 255
197 222 255
197 222 255
197 222 255
197 222 255
197 222 255
197 222 255
197 222 255
196 222 255
196 222 255
196 222 255
196 222 255
196 222 255
196 222 255
196 222 255
196 222 255
196 222 255
196 222 255
196 222 255
196 222 255
196 222 255
196 222 255
196 222 255
196 222 255
196 222 255
196 222 255
196 222 255
196 222 255
196 222 255
196 222 255
196 222 255
196 222 255
196 222 255
196 222 255
196 222 255
196 222 255
196 222 255
196 222 255
196 222 255
196 222 255
196 222 255
196 222 255
196 222 255
196 222 255
196 222 255
196 222 255
196 222 255
196 222 255
196 222 255
196 222 255
196 222 255
196 222 255
196 222 255
196 222 255
196 222 255
196 222 255
196 222 255
196 222 255
196 222 255
196 222 255
197 222 255
197 222 255
197 222 255
197 222 255
197 222 255
197 222 255
197 222 255
197 222 255
197 222 255
197 222 255
197 222 255
197 222 255
197 222 255
197 222 255
197 222 255
197 222 255
197 222 255
197 222 255
197 222 255
197 222 255
197 222 255
197 222 255
197 222 255
197 223 255
198 223 255
198 223 255
198 223 255
198 223 255
198 223 255
198 223 255
198 223 255
198 223 255
198 223 255
198 223 255
198 223 255
198 223 255
198 223 255
198 223 255
198 223 255
198 223 255
198 223 255
199 223 255
199 223 255
199 223 255
199 223 255
199 223 255
199 223 255
199 223 255
199 223 255
199 223 255
199 223 255
199 223 255
199 223 255
199 223 255
199 224 255
199 224 255
199 224 255
200 224 255
200 224 255
200 224 255
200 224 255
200 224 255
200 224 255
200 224 255
200 224 255
200 224 255
200 224 255
200 224 255
200 224 255
200 224 255
200 224 255
201 224 255
201 224 255
201 224 255
201 224 255
201 224 255
201 224 255
201 224 255
201 224 255
201 224 255
201 224 255
201 224 255
201 225 255
201 225 255
201 225 255
201 225 255
202 225 255
202 225 255
202 225 255
202 225 255
202 225 255
202 225 255
202 225 255
202 225 255
202 225 255
202 225 255
202 225 255
202 225 255
202 225 255
202 225 255
202 225 255
203 225 255
203 225 255
203 225 255
203 225 255
203 225 255
203 225 255
203 225 255
203 225 255
203 225 255
203 226 255
203 226 255
203 226 255
203 226 255
203 226 255
203 226 255
203 226 255
204 226 255
204 226 255
204 226 255
204 226 255
204 226 255
204 226 255
204 226 255
204 226 255
204 226 255
204 226 255
204 226 255
204 226 255
204 226 255
204 226 255
204 226 255
204 226 255
205 226 255
205 226 255
205 226 255
205 226 255
205 226 255
205 226 255
205 226 255
205 227 255
205 227 255
205 227 255
205 227 255
205 227 255
205 227 255
205 227 255
205 227 255
205 227 255
205 227 255
206 227 255
206 227 255
206 227 255
206 227 255
206 227 255
206 227 255
206 227 255
206 227 255
206 227 255
206 227 255
206 227 255
206 227 255
206 227 255
206 227 255
206 227 255
206 227 255
206 227 255
206 227 255
206 227 255
206 227 255
207 227 255
207 227 255
207 227 255
207 227 255
207 228 255
207 228 255
207 227 255
207 227 255
207 227 255
207 227 255
207 227 255
206 227 255
206 227 255
206 227 255
206 227 255
206 227 255
206 227 255
206 227 255
206 227 255
206 227 255
206 227 255
206 227 255
206 227 255
206 227 255
206 227 255
206 227 255
206 227 255
206 227 255
206 227 255
206 227 255
205 227 255
205 227 255
205 227 255
205 227 255
205 227 255
205 227 255
205 227 255
205 227 255
205 227 255
205 227 255
205 227 255
205 226 255
205 226 255
205 226 255
205 226 255
205 226 255
205 226 255
205 226 255
204 226 255
204 226 255
204 226 255
204 226 255
204 226 255
204 226 255
204 226 255
204 226 255
204 226 255
204 226 255
204 226 255
204 226 255
204 226 255
204 226 255
204 226 255
204 226 255
203 226 255
203 226 255
203 226 255
203 226 255
203 226 255
203 226 255
203 226 255
203 225 255
203 225 255
203 225 255
203 225 255
203 225 255
203 225 255
203 225 255
203 225 255
203 225 255
202 225 255
202 225 255
202 225 255
202 225 255
202 225 255
202 225 255
202 225 255
202 225 255
202 225 255
202 225 255
202 225 255
202 225 255
202 225 255
202 225 255
202 225 255
201 225 255
201 225 255
201 225 255
201 225 255
201 224 255
201 224 255
201 224 255
201 224 255
201 224 255
201 224 255
201 224 255
201 224 255
201 224 255
201 224 255
200 224 255
200 224 255
200 224 255
200 224 255
200 224 255
200 224 255
200 224 255
200 224 255
200 224 255
200 224 255
200 224 255
200 224 255
200 224 255
200 224 255
200 224 255
199 224 255
199 224 255
199 223 255
199 223 255
199 223 255
199 223 255
199 223 255
199 223 255
199 223 255
199 223 255
199 223 255
199 223 255
199 223 255
199 223 255
199 223 255
199 223 255
198 223 255
198 223 255
198 223 255
198 223 255
198 223 255
198 223 255
198 223 255
198 223 255
198 223 255
198 223 255
198 223 255
198 223 255
198 223 255
198 223 255
198 223 255
198 223 255
198 223 255
198 223 255
197 222 255
197 222 255
197 222 255
197 222 255
197 222 255
197 222 255
197 222 255
197 222 255
197 222 255
197 222 255
197 222 255
197 222 255
197 222 255
197 222 255
197 222 255
197 222 255
197 222 255
197 222 255
197 222 255
197 222 255
197 222 255
197 222 255
197 222 255
197 222 255
197 222 255
197 222 255
196 222 255
196 222 255
196 222 255
196 222 255
196 222 255
196 222 255
196 222 255
196 222 255
196 222 255
196 222 255
196 222 255
196 222 255
196 222 255
196 222 255
196 222 255
196 222 255
196 222 255
196 222 255
196 222 255
196 222 255
196 222 255
196 222 255
196 222 255
196 222 255
196 222 255
196 222 255
196 222 255
196 222 255
196 222 255
196 222 255
196 222 255
196 222 255
196 222 255
196 222 255
196 222 255
196 222 255
196 222 255
196 222 255
196 222 255
196 222 255
197 222 255
197 222 255
197 222 255
197 222 255
197 222 255
197 222 255
197 222 255
197 222 255
197 222 255
197 222 255
197 222 255
197 222 255
197 222 255
197 222 255
197 222 255
197 222 255
197 222 255
197 222 255
197 222 255
197 222 255
197 222 255
197 222 255
197 222 255
197 222 255
197 222 255
197 222 255
198 223 255
198 223 255
198 223 255
198 223 255
198 223 255
198 223 255
198 223 255
198 223 255
198 223 255
198 223 255
198 223 255
198 223 255
198 223 255
198 223 255
198 223 255
198 223 255
198 223 255
198 223 255
199 223 255
199 223 255
199 223 255
199 223 255
199 223 255
199 223 255
199 223 255
199 223 255
199 223 255
199 223 255
199 223 255
199 223 255
199 223 255
199 223 255
199 224 255
199 224 255
200 224 255
200 224 255
200 224 255
200 224 255
200 224 255
200 224 255
200 224 255
200 224 255
200 224 255
200 224 255
200 224 255
200 224 255
200 224 255
200 224 255
200 224 255
201 224 255
201 224 255
201 224 255
201 224 255
201 224 255
201 224 255
201 224 255
201 224 255
201 224 255
201 224 255
201 225 255
201 225 255
201 225 255
201 225 255
201 225 255
202 225 255
202 225 255
202 225 255
202 225 255
202 225 255
202 225 255
202 225 255
202 225 255
202 225 255
202 225 255
202 225 255
202 225 255
202 225 255
202 225 255
202 225 255
203 225 255
203 225 255
203 225 255
203 225 255
203 225 255
203 225 255
203 225 255
203 225 255
203 226 255
203 226 255
203 226 255
203 226 255
203 226 255
203 226 255
203 226 255
204 226 255
204 226 255
204 226 255
204 226 255
204 226 255
204 226 255
204 226 255
204 226 255
204 226 255
204 226 255
204 226 255
204 226 255
204 226 255
204 226 255
204 226 255
204 226 255
205 226 255
205 226 255
205 226 255
205 226 255
205 226 255
205 226 255
205 226 255
205 227 255
205 227 255
205 227 255
205 227 255
205 227 255
205 227 255
205 227 255
205 227 255
205 227 255
205 227 255
205 227 255
206 227 255
206 227 255
206 227 255
206 227 255
206 227 255
206 227 255
206 227 255
206 227 255
206 227 255
206 227 255
206 227 255
206 227 255
206 227 255
206 227 255
206 227 255
206 227 255
206 227 255
206 227 255
206 227 255
207 227 255
207 227 255
207 227 255
207 227 255
207 228 255
207 228 255
207 228 255
207 228 255
207 228 255
207 228 255
207 228 255
207 228 255
207 227 255
207 227 255
207 227 255
207 227 255
207 227 255
206 227 255
206 227 255
206 227 255
206 227 255
206 227 255
206 227 255
206 227 255
206 227 255
206 227 255
206 227 255
206 227 255
206 227 255
206 227 255
206 227 255
206 227 255
206 227 255
206 227 255
206 227 255
206 227 255
205 227 255
205 227 255
205 227 255
205 227 255
205 227 255
205 227 255
205 227 255
205 227 255
205 227 255
205 227 255
205 227 255
205 226 255
205 226 255
205 226 255
205 226 255
205 226 255
205 226 255
204 226 255
204 226 255
204 226 255
204 226 255
204 226 255
204 226 255
204 226 255
204 226 255
204 226 255
204 226 255
204 226 255
204 226 255
204 226 255
204 226 255
204 226 255
204 226 255
204 226 255
203 226 255
203 226 255
203 226 255
203 226 255
203 226 255
203 226 255
203 226 255
203 225 255
203 225 255
203 225 255
203 225 255
203 225 255
203 225 255
203 225 255
203 225 255
202 225 255
202 225 255
202 225 255
202 225 255
202 225 255
202 225 255
202 225 255
202 225 255
202 225 255
202 225 255
202 225 255
202 225 255
202 225 255
202 225 255
202 225 255
201 225 255
201 225 255
201 225 255
201 225 255
201 224 255
201 224 255
201 224 255
201 224 255
201 224 255
201 224 255
201 224 255
201 224 255
201 224 255
201 224 255
200 224 255
200 224 255
200 224 255
200 224 255
200 224 255
200 224 255
200 224 255
200 224 255
200 224 255
200 224 255
200 224 255
200 224 255
200 224 255
200 224 255
200 224 255
200 224 255
199 224 255
199 224 255
199 223 255
199 223 255
199 223 255
199 223 255
199 223 255
199 223 255
199 223 255
199 223 255
199 223 255
199 223 255
199 223 255
199 223 255
199 223 255
199 223 255
198 223 255
198 223 255
198 223 255
198 223 255
198 223 255
198 223 255
198 223 255
198 223 255
198 223 255
198 223 255
198 223 255
198 223 255
198 223 255
198 223 255
198 223 255
198 223 255
198 223 255
198 223 255
197 223 255
197 222 255
197 222 255
197 222 255
197 222 255
197 222 255
197 222 255
197 222 255
197 222 255
197 222 255
197 222 255
197 222 255
197 222 255
197 222 255
197 222 255
197 222 255
197 222 255
197 222 255
197 222 255
197 222 255
197 222 255
197 222 255
197 222 255
197 222 255
197 222 255
197 222 255
197 222 255
197 222 255
197 222 255
197 222 255
197 222 255
197 222 255
196 222 255
196 222 255
196 222 255
196 222 255
196 222 255
196 222 255
196 222 255
196 222 255
196 222 255
196 222 255
196 222 255
196 222 255
196 222 255
196 222 255
196 222 255
196 222 255
196 222 255
196 222 255
196 222 255
196 222 255
196 222 255
196 222 255
197 222 255
197 222 255
197 222 255
197 222 255
197 222 255
197 222 255
197 222 255
197 222 255
197 222 255
197 222 255
197 222 255
197 222 255
197 222 255
197 222 255
197 222 255
197 222 255
197 222 255
197 222 255
197 222 255
197 222 255
197 222 255
197 222 255
197 222 255
197 222 255
197 222 255
197 222 255
197 222 255
197 222 255
197 222 255
197 222 255
197 222 255
197 223 255
198 223 255
198 223 255
198 223 255
198 223 255
198 223 255
198 223 255
198 223 255
198 223 255
198 223 255
198 223 255
198 223 255
198 223 255
198 223 255
198 223 255
198 223 255
198 223 255
198 223 255
198 223 255
198 223 255
199 223 255
199 223 255
199 223 255
199 223 255
199 223 255
199 223 255
199 223 255
199 223 255
199 223 255
199 223 255
199 223 255
199 223 255
199 223 255
199 224 255
199 224 255
200 224 255
200 224 255
200 224 255
200 224 255
200 224 255
200 224 255
200 224 255
200 224 255
200 224 255
200 224 255
200 224 255
200 224 255
200 224 255
200 224 255
200 224 255
200 224 255
201 224 255
201 224 255
201 224 255
201 224 255
201 224 255
201 224 255
201 224 255
201 224 255
201 224 255
201 224 255
201 225 255
201 225 255
201 225 255
201 225 255
202 225 255
202 225 255
202 225 255
202 225 255
202 225 255
202 225 255
202 225 255
202 225 255
202 225 255
202 225 255
202 225 255
202 225 255
202 225 255
202 225 255
202 225 255
203 225 255
203 225 255
203 225 255
203 225 255
203 225 255
203 225 255
203 225 255
203 225 255
203 226 255
203 226 255
203 226 255
203 226 255
203 226 255
203 226 255
203 226 255
204 226 255
204 226 255
204 226 255
204 226 255
204 226 255
204 226 255
204 226 255
204 226 255
204 226 255
204 226 255
204 226 255
204 226 255
204 226 255
204 226 255
204 226 255
204 226 255
204 226 255
205 226 255
205 226 255
205 226 255
205 226 255
205 226 255
205 226 255
205 227 255
205 227 255
205 227 255
205 227 255
205 227 255
205 227 255
205 227 255
205 227 255
205 227 255
205 227 255
205 227 255
206 227 255
206 227 255
206 227 255
206 227 255
206 227 255
206 227 255
206 227 255
206 227 255
206 227 255
206 227 255
206 227 255
206 227 255
206 227 255
206 227 255
206 227 255
206 227 255
206 227 255
206 227 255
206 227 255
207 227 255
207 227 255
207 227 255
207 227 255
207 227 255
207 228 255
207 228 255
207 228 255
207 228 255
207 228 255
207 228 255
207 228 255
207 228 255
207 228 255
207 228 255
207 228 255
207 228 255
207 228 255
207 227 255
207 227 255
207 227 255
207 227 255
207 227 255
206 227 255
206 227 255
206 227 255
206 227 255
206 227 255
206 227 255
206 227 255
206 227 255
206 227 255
206 227 255
206 227 255
206 227 255
206 227 255
206 227 255
206 227 255
206 227 255
206 227 255
206 227 255
206 227 255
205 227 255
205 227 255
205 227 255
205 227 255
205 227 255
205 227 255
205 227 255
205 227 255
205 227 255
205 227 255
205 226 255
205 226 255
205 226 255
205 226 255
205 226 255
205 226 255
205 226 255
204 226 255
204 226 255
204 226 255
204 226 255
204 226 255
204 226 255
204 226 255
204 226 255
204 226 255
204 226 255
204 226 255
204 226 255
204 226 255
204 226 255
204 226 255
204 226 255
203 226 255
203 226 255
203 226 255
203 226 255
203 226 255
203 226 255
203 226 255
203 225 255
203 225 255
203 225 255
203 225 255
203 225 255
203 225 255
203 225 255
203 225 255
202 225 255
202 225 255
202 225 255
202 225 255
202 225 255
202 225 255
202 225 255
202 225 255
202 225 255
202 225 255
202 225 255
202 225 255
202 225 255
202 225 255
202 225 255
201 225 255
201 225 255
201 225 255
201 225 255
201 225 255
201 224 255
201 224 255
201 224 255
201 224 255
201 224 255
201 224 255
201 224 255
201 224 255
201 224 255
201 224 255
200 224 255
200 224 255
200 224 255
200 224 255
200 224 255
200 224 255
200 224 255
200 224 255
200 224 255
200 224 255
200 224 255
200 224 255
200 224 255
200 224 255
200 224 255
199 224 255
199 224 255
199 224 255
199 223 255
199 223 255
199 223 255
199 223 255
199 223 255
199 223 255
199 223 255
199 223 255
199 223 255
199 223 255
199 223 255
199 223 255
199 223 255
198 223 255
198 223 255
198 223 255
198 223 255
198 223 255
198 223 255
198 223 255
198 223 255
198 223 255
198 223 255
198 223 255
198 223 255
198 223 255
198 223 255
198 223 255
198 223 255
198 223 255
198 223 255
198 223 255
198 223 255
197 223 255
197 222 255
197 222 255
197 222 255
197 222 255
197 222 255
197 222 255
197 222 255
197 222 255
197 222 255
197 222 255
197 222 255
197 222 255
197 222 255
197 222 255
197 222 255
197 222 255
197 222 255
197 222 255
197 222 255
197 222 255
197 222 255
197 222 255
197 222 255
197 222 255
197 222 255
197 222 255
197 222 255
197 222 255
197 222 255
197 222 255
197 222 255
197 222 255
197 222 255
197 222 255
197 222 255
197 222 255
197 222 255
197 222 255
197 222 255
197 222 255
197 222 255
197 222 255
197 222 255
197 222 255
197 222 255
197 222 255
197 222 255
197 222 255
197 222 255
197 222 255
197 222 255
197 222 255
197 222 255
197 222 255
197 222 255
197 222 255
197 222 255
197 222 255
197 222 255
197 222 255
197 222 255
197 222 255
197 222 255
197 222 255
197 222 255
197 222 255
197 222 255
197 222 255
197 222 255
197 222 255
197 222 255
197 222 255
197 222 255
197 222 255
197 222 255
197 222 255
197 223 255
198 223 255
198 223 255
198 223 255
198 223 255
198 223 255
198 223 255
198 223 255
198 223 255
198 223 255
198 223 255
198 223 255
198 223 255
198 223 255
198 223 255
198 223 255
198 223 255
198 223 255
198 223 255
198 223 255
198 223 255
199 223 255
199 223 255
199 223 255
199 223 255
199 223 255
199 223 255
199 223 255
199 223 255
199 223 255
199 223 255
199 223 255
199 223 255
199 223 255
199 224 255
199 224 255
199 224 255
200 224 255
200 224 255
200 224 255
200 224 255
200 224 255
200 224 255
200 224 255
200 224 255
200 224 255
200 224 255
200 224 255
200 224 255
200 224 255
200 224 255
200 224 255
201 224 255
201 224 255
201 224 255
201 224 255
201 224 255
201 224 255
201 224 255
201 224 255
201 224 255
201 224 255
201 225 255
201 225 255
201 225 255
201 225 255
201 225 255
202 225 255
202 225 255
202 225 255
202 225 255
202 225 255
202 225 255
202 225 255
202 225 255
202 225 255
202 225 255
202 225 255
202 225 255
202 225 255
202 225 255
202 225 255
203 225 255
203 225 255
203 225 255
203 225 255
203 225 255
203 225 255
203 225 255
203 225 255
203 226 255
203 226 255
203 226 255
203 226 255
203 226 255
203 226 255
203 226 255
204 226 255
204 226 255
204 226 255
204 226 255
204 226 255
204 226 255
204 226 255
204 226 255
204 226 255
204 226 255
204 226 255
204 226 255
204 226 255
204 226 255
204 226 255
204 226 255
205 226 255
205 226 255
205 226 255
205 226 255
205 226 255
205 226 255
205 226 255
205 227 255
205 227 255
205 227 255
205 227 255
205 227 255
205 227 255
205 227 255
205 227 255
205 227 255
205 227 255
206 227 255
206 227 255
206 227 255
206 227 255
206 227 255
206 227 255
206 227 255
206 227 255
206 227 255
206 227 255
206 227 255
206 227 255
206 227 255
206 227 255
206 227 255
206 227 255
206 227 255
206 227 255
206 227 255
207 227 255
207 227 255
207 227 255
207 227 255
207 227 255
207 228 255
207 228 255
207 228 255
207 228 255
207 228 255
207 228 255
207 228 255
207 228 255
207 228 255
207 228 255
207 228 255
207 228 255
207 228 255
207 228 255
207 228 255
207 228 255
207 228 255
207 228 255
207 228 255
207 227 255
207 227 255
207 227 255
207 227 255
207 227 255
206 227 255
206 227 255
206 227 255
206 227 255
206 227 255
206 227 255
206 227 255
206 227 255
206 227 255
206 227 255
206 227 255
206 227 255
206 227 255
206 227 255
206 227 255
206 227 255
206 227 255
206 227 255
205 227 255
205 227 255
205 227 255
205 227 255
205 227 255
205 227 255
205 227 255
205 227 255
205 227 255
205 227 255
205 227 255
205 226 255
205 226 255
205 226 255
205 226 255
205 226 255
205 226 255
205 226 255
204 226 255
204 226 255
204 226 255
204 226 255
204 226 255
204 226 255
204 226 255
204 226 255
204 226 255
204 226 255
204 226 255
204 226 255
204 226 255
204 226 255
204 226 255
204 226 255
203 226 255
203 226 255
203 226 255
203 226 255
203 226 255
203 226 255
203 225 255
203 225 255
203 225 255
203 225 255
203 225 255
203 225 255
203 225 255
203 225 255
203 225 255
202 225 255
202 225 255
202 225 255
202 225 255
202 225 255
202 225 255
202 225 255
202 225 255
202 225 255
202 225 255
202 225 255
202 225 255
202 225 255
202 225 255
202 225 255
201 225 255
201 225 255
201 225 255
201 225 255
201 224 255
201 224 255
201 224 255
201 224 255
201 224 255
201 224 255
201 224 255
201 224 255
201 224 255
201 224 255
200 224 255
200 224 255
200 224 255
200 224 255
200 224 255
200 224 255
200 224 255
200 224 255
200 224 255
200 224 255
200 224 255
200 224 255
200 224 255
200 224 255
200 224 255
200 224 255
199 224 255
199 224 255
199 223 255
199 223 255
199 223 255
199 223 255
199 223 255
199 223 255
199 223 255
199 223 255
199 223 255
199 223 255
199 223 255
199 223 255
199 223 255
199 223 255
198 223 255
198 223 255
198 223 255
198 223 255
198 223 255
198 223 255
198 223 255
198 223 255
198 223 255
198 223 255
198 223 255
198 223 255
198 223 255
198 223 255
198 223 255
198 223 255
198 223 255
198 223 255
198 223 255
198 223 255
198 223 255
197 223 255
197 222 255
197 222 255
197 222 255
197 222 255
197 222 255
197 222 255
197 222 255
197 222 255
197 222 255
197 222 255
197 222 255
197 222 255
197 222 255
197 222 255
197 222 255
197 222 255
197 222 255
197 222 255
197 222 255
197 222 255
197 222 255
197 222 255
197 222 255
197 222 255
197 222 255
197 222 255
197 222 255
197 222 255
197 222 255
197 222 255
197 222 255
197 222 255
197 222 255
197 222 255
197 222 255
197 222 255
197 222 255
197 222 255
197 222 255
197 222 255
197 222 255
197 222 255
197 222 255
197 222 255
197 222 255
197 222 255
197 222 255
197 222 255
197 222 255
197 222 255
197 222 255
197 222 255
197 222 255
197 222 255
197 222 255
197 222 255
197 222 255
197 222 255
197 222 255
197 222 255
197 222 255
197 222 255
197 222 255
197 222 255
197 222 255
197 222 255
197 222 255
197 222 255
197 223 255
198 223 255
198 223 255
198 223 255
198 223 255
198 223 255
198 223 255
198 223 255
198 223 255
198 223 255
198 223 255
198 223 255
198 223 255
198 223 255
198 223 255
198 223 255
198 223 255
198 223 255
198 223 255
198 223 255
198 223 255
199 223 255
199 223 255
199 223 255
199 223 255
199 223 255
199 223 255
199 223 255
199 223 255
199 223 255
199 223 255
199 223 255
199 223 255
199 223 255
199 223 255
199 223 255
199 224 255
199 224 255
200 224 255
200 224 255
200 224 255
200 224 255
200 224 255
200 224 255
200 224 255
200 224 255
200 224 255
200 224 255
200 224 255
200 224 255
200 224 255
200 224 255
200 224 255
201 224 255
201 224 255
201 224 255
201 224 255
201 224 255
201 224 255
201 224 255
201 224 255
201 224 255
201 224 255
201 224 255
201 225 255
201 225 255
201 225 255
201 225 255
202 225 255
202 225 255
202 225 255
202 225 255
202 225 255
202 225 255
202 225 255
202 225 255
202 225 255
202 225 255
202 225 255
202 225 255
202 225 255
202 225 255
202 225 255
203 225 255
203 225 255
203 225 255
203 225 255
203 225 255
203 225 255
203 225 255
203 225 255
203 225 255
203 226 255
203 226 255
203 226 255
203 226 255
203 226 255
203 226 255
204 226 255
204 226 255
204 226 255
204 226 255
204 226 255
204 226 255
204 226 255
204 226 255
204 226 255
204 226 255
204 226 255
204 226 255
204 226 255
204 226 255
204 226 255
204 226 255
204 226 255
205 226 255
205 226 255
205 226 255
205 226 255
205 226 255
205 226 255
205 227 255
205 227 255
205 227 255
205 227 255
205 227 255
205 227 255
205 227 255
205 227 255
205 227 255
205 227 255
205 227 255
206 227 255
206 227 255
206 227 255
206 227 255
206 227 255
206 227 255
206 227 255
206 227 255
206 227 255
206 227 255
206 227 255
206 227 255
206 227 255
206 227 255
206 227 255
206 227 255
206 227 255
206 227 255
207 227 255
207 227 255
207 227 255
207 227 255
207 227 255
207 228 255
207 228 255
207 228 255
207 228 255
207 228 255
207 228 255
207 228 255
207 228 255
207 228 255
207 228 255
207 228 255
207 228 255
207 228 255
207 228 255
207 228 255
207 228 255
207 228 255
207 228 255
207 228 255
207 228 255
207 228 255
207 228 255
207 228 255
207 228 255
207 228 255
207 227 255
207 227 255
207 227 255
207 227 255
206 227 255
206 227 255
206 227 255
206 227 255
206 227 255
206 227 255
206 227 255
206 227 255
206 227 255
206 227 255
206 227 255
206 227 255
206 227 255
206 227 255
206 227 255
206 227 255
206 227 255
206 227 255
206 227 255
205 227 255
205 227 255
205 227 255
205 227 255
205 227 255
205 227 255
205 227 255
205 227 255
205 227 255
205 227 255
205 226 255
205 226 255
205 226 255
205 226 255
205 226 255
205 226 255
205 226 255
204 226 255
204 226 255
204 226 255
204 226 255
204 226 255
204 226 255
204 226 255
204 226 255
204 226 255
204 226 255
204 226 255
204 226 255
204 226 255
204 226 255
204 226 255
204 226 255
203 226 255
203 226 255
203 226 255
203 226 255
203 226 255
203 226 255
203 226 255
203 225 255
203 225 255
203 225 255
203 225 255
203 225 255
203 225 255
203 225 255
203 225 255
202 225 255
202 225 255
202 225 255
202 225 255
202 225 255
202 225 255
202 225 255
202 225 255
202 225 255
202 225 255
202 225 255
202 225 255
202 225 255
202 225 255
202 225 255
201 225 255
201 225 255
201 225 255
201 225 255
201 225 255
201 224 255
201 224 255
201 224 255
201 224 255
201 224 255
201 224 255
201 224 255
201 224 255
201 224 255
201 224 255
200 224 255
200 224 255
200 224 255
200 224 255
200 224 255
200 224 255
200 224 255
200 224 255
200 224 255
200 224 255
200 224 255
200 224 255
200 224 255
200 224 255
200 224 255
200 224 255
199 224 255
199 224 255
199 223 255
199 223 255
199 223 255
199 223 255
199 223 255
199 223 255
199 223 255
199 223 255
199 223 255
199 223 255
199 223 255
199 223 255
199 223 255
199 223 255
199 223 255
198 223 255
198 223 255
198 223 255
198 223 255
198 223 255
198 223 255
198 223 255
198 223 255
198 223 255
198 223 255
198 223 255
198 223 255
198 223 255
198 223 255
198 223 255
198 223 255
198 223 255
198 223 255
198 223 255
198 223 255
198 223 255
198 223 255
197 223 255
197 222 255
197 222 255
197 222 255
197 222 255
197 222 255
197 222 255
197 222 255
197 222 255
197 222 255
197 222 255
197 222 255
197 222 255
197 222 255
197 222 255
197 222 255
197 222 255
197 222 255
197 222 255
197 222 255
197 222 255
197 222 255
197 222 255
197 222 255
197 222 255
197 222 255
197 222 255
197 222 255
197 222 255
197 222 255
197 222 255
197 222 255
197 222 255
197 222 255
197 222 255
197 222 255
197 222 255
197 222 255
197 222 255
197 222 255
197 222 255
197 222 255
197 222 255
197 222 255
197 222 255
197 222 255
197 222 255
197 222 255
197 222 255
197 222 255
197 222 255
197 222 255
197 222 255
197 222 255
197 222 255
197 222 255
197 222 255
197 222 255
197 222 255
197 223 255
198 223 255
198 223 255
198 223 255
198 223 255
198 223 255
198 223 255
198 223 255
198 223 255
198 223 255
198 223 255
198 223 255
198 223 255
198 223 255
198 223 255
198 223 255
198 223 255
198 223 255
198 223 255
198 223 255
198 223 255
198 223 255
198 223 255
199 223 255
199 223 255
199 223 255
199 223 255
199 223 255
199 223 255
199 223 255
199 223 255
199 223 255
199 223 255
199 223 255
199 223 255
199 223 255
199 223 255
199 223 255
199 224 255
199 224 255
200 224 255
200 224 255
200 224 255
200 224 255
200 224 255
200 224 255
200 224 255
200 224 255
200 224 255
200 224 255
200 224 255
200 224 255
200 224 255
200 224 255
200 224 255
200 224 255
201 224 255
201 224 255
201 224 255
201 224 255
201 224 255
201 224 255
201 224 255
201 224 255
201 224 255
201 224 255
201 225 255
201 225 255
201 225 255
201 225 255
201 225 255
202 225 255
202 225 255
202 225 255
202 225 255
202 225 255
202 225 255
202 225 255
202 225 255
202 225 255
202 225 255
202 225 255
202 225 255
202 225 255
202 225 255
202 225 255
203 225 255
203 225 255
203 225 255
203 225 255
203 225 255
203 225 255
203 225 255
203 225 255
203 226 255
203 226 255
203 226 255
203 226 255
203 226 255
203 226 255
203 226 255
204 226 255
204 226 255
204 226 255
204 226 255
204 226 255
204 226 255
204 226 255
204 226 255
204 226 255
204 226 255
204 226 255
204 226 255
204 226 255
204 226 255
204 226 255
204 226 255
205 226 255
205 226 255
205 226 255
205 226 255
205 226 255
205 226 255
205 226 255
205 227 255
205 227 255
205 227 255
205 227 255
205 227 255
205 227 255
205 227 255
205 227 255
205 227 255
205 227 255
206 227 255
206 227 255
206 227 255
206 227 255
206 227 255
206 227 255
206 227 255
206 227 255
206 227 255
206 227 255
206 227 255
206 227 255
206 227 255
206 227 255
206 227 255
206 227 255
206 227 255
206 227 255
206 227 255
207 227 255
207 227 255
207 227 255
207 227 255
207 228 255
207 228 255
207 228 255
207 228 255
207 228 255
207 228 255
207 228 255
207 228 255
207 228 255
207 228 255
207 228 255
207 228 255
207 228 255
207 228 255
208 228 255
207 228 255
207 228 255
207 228 255
207 228 255
207 228 255
207 228 255
207 228 255
207 228 255
207 228 255
207 228 255
207 228 255
207 228 255
207 228 255
207 228 255
207 228 255
207 228 255
207 227 255
207 227 255
207 227 255
207 227 255
206 227 255
206 227 255
206 227 255
206 227 255
206 227 255
206 227 255
206 227 255
206 227 255
206 227 255
206 227 255
206 227 255
206 227 255
206 227 255
206 227 255
206 227 255
206 227 255
206 227 255
206 227 255
206 227 255
205 227 255
205 227 255
205 227 255
205 227 255
205 227 255
205 227 255
205 227 255
205 227 255
205 227 255
205 227 255
205 226 255
205 226 255
205 226 255
205 226 255
205 226 255
205 226 255
205 226 255
204 226 255
204 226 255
204 226 255
204 226 255
204 226 255
204 226 255
204 226 255
204 226 255
204 226 255
204 226 255
204 226 255
204 226 255
204 226 255
204 226 255
204 226 255
204 226 255
203 226 255
203 226 255
203 226 255
203 226 255
203 226 255
203 226 255
203 226 255
203 225 255
203 225 255
203 225 255
203 225 255
203 225 255
203 225 255
203 225 255
203 225 255
202 225 255
202 225 255
202 225 255
202 225 255
202 225 255
202 225 255
202 225 255
202 225 255
202 225 255
202 225 255
202 225 255
202 225 255
202 225 255
202 225 255
202 225 255
201 225 255
201 225 255
201 225 255
201 225 255
201 224 255
201 224 255
201 224 255
201 224 255
201 224 255
201 224 255
201 224 255
201 224 255
201 224 255
201 224 255
201 224 255
200 224 255
200 224 255
200 224 255
200 224 255
200 224 255
200 224 255
200 224 255
200 224 255
200 224 255
200 224 255
200 224 255
200 224 255
200 224 255
200 224 255
200 224 255
200 224 255
199 224 255
199 224 255
199 223 255
199 223 255
199 223 255
199 223 255
199 223 255
199 223 255
199 223 255
199 223 255
199 223 255
199 223 255
199 223 255
199 223 255
199 223 255
199 223 255
199 223 255
198 223 255
198 223 255
198 223 255
198 223 255
198 223 255
198 223 255
198 223 255
198 223 255
198 223 255
198 223 255
198 223 255
198 223 255
198 223 255
198 223 255
198 223 255
198 223 255
198 223 255
198 223 255
198 223 255
198 223 255
198 223 255
198 223 255
198 223 255
198 223 255
197 223 255
197 222 255
197 222 255
197 222 255
197 222 255
197 222 255
197 222 255
197 222 255
197 222 255
197 222 255
197 222 255
197 222 255
197 222 255
197 222 255
197 222 255
197 222 255
197 222 255
197 222 255
197 222 255
197 222 255
197 222 255
197 222 255
197 222 255
197 222 255
197 222 255
197 222 255
197 222 255
197 222 255
197 222 255
197 222 255
197 222 255
197 222 255
197 222 255
197 222 255
197 222 255
197 222 255
197 222 255
197 222 255
197 222 255
197 222 255
197 222 255
197 222 255
197 222 255
197 222 255
197 222 255
197 222 255
197 222 255
197 222 255
197 222 255
197 223 255
198 223 255
198 223 255
198 223 255
198 223 255
198 223 255
198 223 255
198 223 255
198 223 255
198 223 255
198 223 255
198 223 255
198 223 255
198 223 255
198 223 255
198 223 255
198 223 255
198 223 255
198 223 255
198 223 255
198 223 255
198 223 255
198 223 255
198 223 255
198 223 255
199 223 255
199 223 255
199 223 255
199 223 255
199 223 255
199 223 255
199 223 255
199 223 255
199 223 255
199 223 255
199 223 255
199 223 255
199 223 255
199 223 255
199 223 255
199 224 255
199 224 255
199 224 255
200 224 255
200 224 255
200 224 255
200 224 255
200 224 255
200 224 255
200 224 255
200 224 255
200 224 255
200 224 255
200 224 255
200 224 255
200 224 255
200 224 255
200 224 255
201 224 255
201 224 255
201 224 255
201 224 255
201 224 255
201 224 255
201 224 255
201 224 255
201 224 255
201 224 255
201 224 255
201 225 255
201 225 255
201 225 255
201 225 255
202 225 255
202 225 255
202 225 255
202 225 255
202 225 255
202 225 255
202 225 255
202 225 255
202 225 255
202 225 255
202 225 255
202 225 255
202 225 255
202 225 255
202 225 255
203 225 255
203 225 255
203 225 255
203 225 255
203 225 255
203 225 255
203 225 255
203 225 255
203 226 255
203 226 255
203 226 255
203 226 255
203 226 255
203 226 255
203 226 255
204 226 255
204 226 255
204 226 255
204 226 255
204 226 255
204 226 255
204 226 255
204 226 255
204 226 255
204 226 255
204 226 255
204 226 255
204 226 255
204 226 255
204 226 255
204 226 255
205 226 255
205 226 255
205 226 255
205 226 255
205 226 255
205 226 255
205 226 255
205 227 255
205 227 255
205 227 255
205 227 255
205 227 255
205 227 255
205 227 255
205 227 255
205 227 255
205 227 255
206 227 255
206 227 255
206 227 255
206 227 255
206 227 255
206 227 255
206 227 255
206 227 255
206 227 255
206 227 255
206 227 255
206 227 255
206 227 255
206 227 255
206 227 255
206 227 255
206 227 255
206 227 255
206 227 255
207 227 255
207 227 255
207 227 255
207 227 255
207 227 255
207 228 255
207 228 255
207 228 255
207 228 255
207 228 255
207 228 255
207 228 255
207 228 255
207 228 255
207 228 255
207 228 255
207 228 255
207 228 255
207 228 255
207 228 255
208 228 255
208 228 255
208 228 255
208 228 255
208 228 255
207 228 255
207 228 255
207 228 255
207 228 255
207 228 255
207 228 255
207 228 255
207 228 255
207 228 255
207 228 255
207 228 255
207 228 255
207 228 255
207 228 255
207 228 255
207 227 255
207 227 255
207 227 255
207 227 255
207 227 255
206 227 255
206 227 255
206 227 255
206 227 255
206 227 255
206 227 255
206 227 255
206 227 255
206 227 255
206 227 255
206 227 255
206 227 255
206 227 255
206 227 255
206 227 255
206 227 255
206 227 255
206 227 255
205 227 255
205 227 255
205 227 255
205 227 255
205 227 255
205 227 255
205 227 255
205 227 255
205 227 255
205 227 255
205 227 255
205 226 255
205 226 255
205 226 255
205 226 255
205 226 255
205 226 255
204 226 255
204 226 255
204 226 255
204 226 255
204 226 255
204 226 255
204 226 255
204 226 255
204 226 255
204 226 255
204 226 255
204 226 255
204 226 255
204 226 255
204 226 255
204 226 255
203 226 255
203 226 255
203 226 255
203 226 255
203 226 255
203 226 255
203 226 255
203 225 255
203 225 255
203 225 255
203 225 255
203 225 255
203 225 255
203 225 255
203 225 255
202 225 255
202 225 255
202 225 255
202 225 255
202 225 255
202 225 255
202 225 255
202 225 255
202 225 255
202 225 255
202 225 255
202 225 255
202 225 255
202 225 255
202 225 255
202 225 255
201 225 255
201 225 255
201 225 255
201 225 255
201 224 255
201 224 255
201 224 255
201 224 255
201 224 255
201 224 255
201 224 255
201 224 255
201 224 255
201 224 255
201 224 255
200 224 255
200 224 255
200 224 255
200 224 255
200 224 255
200 224 255
200 224 255
200 224 255
200 224 255
200 224 255
200 224 255
200 224 255
200 224 255
200 224 255
200 224 255
199 224 255
199 224 255
199 224 255
199 223 255
199 223 255
199 223 255
199 223 255
199 223 255
199 223 255
199 223 255
199 223 255
199 223 255
199 223 255
199 223 255
199 223 255
199 223 255
199 223 255
199 223 255
199 223 255
198 223 255
198 223 255
198 223 255
198 223 255
198 223 255
198 223 255
198 223 255
198 223 255
198 223 255
198 223 255
198 223 255
198 223 255
198 223 255
198 223 255
198 223 255
198 223 255
198 223 255
198 223 255
198 223 255
198 223 255
198 223 255
198 223 255
198 223 255
198 223 255
198 223 255
198 223 255
198 223 255
198 223 255
197 223 255
197 222 255
197 222 255
197 222 255
197 222 255
197 222 255
197 222 255
197 222 255
197 222 255
197 222 255
197 222 255
197 222 255
197 222 255
197 222 255
197 222 255
197 222 255
197 222 255
197 222 255
197 222 255
197 222 255
197 222 255
197 222 255
197 222 255
197 222 255
197 222 255
197 222 255
197 222 255
197 222 255
197 222 255
197 222 255
197 222 255
197 222 255
197 222 255
197 223 255
197 223 255
198 223 255
198 223 255
198 223 255
198 223 255
198 223 255
198 223 255
198 223 255
198 223 255
198 223 255
198 223 255
198 223 255
198 223 255
198 223 255
198 223 255
198 223 255
198 223 255
198 223 255
198 223 255
198 223 255
198 223 255
198 223 255
198 223 255
198 223 255
198 223 255
198 223 255
198 223 255
198 223 255
199 223 255
199 223 255
199 223 255
199 223 255
199 223 255
199 223 255
199 223 255
199 223 255
199 223 255
199 223 255
199 223 255
199 223 255
199 223 255
199 223 255
199 223 255
199 223 255
199 224 255
199 224 255
199 224 255
200 224 255
200 224 255
200 224 255
200 224 255
200 224 255
200 224 255
200 224 255
200 224 255
200 224 255
200 224 255
200 224 255
200 224 255
200 224 255
200 224 255
200 224 255
201 224 255
201 224 255
201 224 255
201 224 255
201 224 255
201 224 255
201 224 255
201 224 255
201 224 255
201 224 255
201 224 255
201 225 255
201 225 255
201 225 255
201 225 255
202 225 255
202 225 255
202 225 255
202 225 255
202 225 255
202 225 255
202 225 255
202 225 255
202 225 255
202 225 255
202 225 255
202 225 255
202 225 255
202 225 255
202 225 255
203 225 255
203 225 255
203 225 255
203 225 255
203 225 255
203 225 255
203 225 255
203 225 255
203 225 255
203 226 255
203 226 255
203 226 255
203 226 255
203 226 255
203 226 255
203 226 255
204 226 255
204 226 255
204 226 255
204 226 255
204 226 255
204 226 255
204 226 255
204 226 255
204 226 255
204 226 255
204 226 255
204 226 255
204 226 255
204 226 255
204 226 255
204 226 255
205 226 255
205 226 255
205 226 255
205 226 255
205 226 255
205 226 255
205 227 255
205 227 255
205 227 255
205 227 255
205 227 255
205 227 255
205 227 255
205 227 255
205 227 255
205 227 255
206 227 255
206 227 255
206 227 255
206 227 255
206 227 255
206 227 255
206 227 255
206 227 255
206 227 255
206 227 255
206 227 255
206 227 255
206 227 255
206 227 255
206 227 255
206 227 255
206 227 255
206 227 255
206 227 255
207 227 255
207 227 255
207 227 255
207 227 255
207 227 255
207 228 255
207 228 255
207 228 255
207 228 255
207 228 255
207 228 255
207 228 255
207 228 255
207 228 255
207 228 255
207 228 255
207 228 255
207 228 255
207 228 255
207 228 255
208 228 255
208 228 255
208 228 255
208 228 255
208 228 255
208 228 255
208 228 255
208 228 255
208 228 255
208 228 255
208 228 255
207 228 255
207 228 255
207 228 255
207 228 255
207 228 255
207 228 255
207 228 255
207 228 255
207 228 255
207 228 255
207 228 255
207 228 255
207 228 255
207 228 255
207 228 255
207 228 255
207 227 255
207 227 255
207 227 255
207 227 255
206 227 255
206 227 255
206 227 255
206 227 255
206 227 255
206 227 255
206 227 255
206 227 255
206 227 255
206 227 255
206 227 255
206 227 255
206 227 255
206 227 255
206 227 255
206 227 255
206 227 255
206 227 255
205 227 255
205 227 255
205 227 255
205 227 255
205 227 255
205 227 255
205 227 255
205 227 255
205 227 255
205 227 255
205 226 255
205 226 255
205 226 255
205 226 255
205 226 255
205 226 255
205 226 255
204 226 255
204 226 255
204 226 255
204 226 255
204 226 255
204 226 255
204 226 255
204 226 255
204 226 255
204 226 255
204 226 255
204 226 255
204 226 255
204 226 255
204 226 255
204 226 255
203 226 255
203 226 255
203 226 255
203 226 255
203 226 255
203 226 255
203 226 255
203 225 255
203 225 255
203 225 255
203 225 255
203 225 255
203 225 255
203 225 255
203 225 255
202 225 255
202 225 255
202 225 255
202 225 255
202 225 255
202 225 255
202 225 255
202 225 255
202 225 255
202 225 255
202 225 255
202 225 255
202 225 255
202 225 255
202 225 255
201 225 255
201 225 255
201 225 255
201 225 255
201 225 255
201 224 255
201 224 255
201 224 255
201 224 255
201 224 255
201 224 255
201 224 255
201 224 255
201 224 255
201 224 255
200 224 255
200 224 255
200 224 255
200 224 255
200 224 255
200 224 255
200 224 255
200 224 255
200 224 255
200 224 255
200 224 255
200 224 255
200 224 255
200 224 255
200 224 255
200 224 255
199 224 255
199 224 255
199 224 255
199 223 255
199 223 255
199 223 255
199 223 255
199 223 255
199 223 255
199 223 255
199 223 255
199 223 255
199 223 255
199 223 255
199 223 255
199 223 255
199 223 255
199 223 255
199 223 255
199 223 255
198 223 255
198 223 255
198 223 255
198 223 255
198 223 255
198 223 255
198 223 255
198 223 255
198 223 255
198 223 255
198 223 255
198 223 255
198 223 255
198 223 255
198 223 255
198 223 255
198 223 255
198 223 255
198 223 255
198 223 255
198 223 255
198 223 255
198 223 255
198 223 255
198 223 255
198 223 255
198 223 255
198 223 255
198 223 255
198 223 255
198 223 255
198 223 255
198 223 255
198 223 255
198 223 255
198 223 255
198 223 255
198 223 255
197 223 255
197 223 255
198 223 255
197 223 255
198 223 255
198 223 255
197 223 255
198 223 255
198 223 255
198 223 255
198 223 255
198 223 255
198 223 255
198 223 255
198 223 255
198 223 255
198 223 255
198 223 255
198 223 255
198 223 255
198 223 255
198 223 255
198 223 255
198 223 255
198 223 255
198 223 255
198 223 255
198 223 255
198 223 255
198 223 255
198 223 255
198 223 255
198 223 255
198 223 255
198 223 255
198 223 255
198 223 255
198 223 255
198 223 255
198 223 255
198 223 255
198 223 255
198 223 255
198 223 255
199 223 255
199 223 255
199 223 255
199 223 255
199 223 255
199 223 255
199 223 255
199 223 255
199 223 255
199 223 255
199 223 255
199 223 255
199 223 255
199 223 255
199 223 255
199 223 255
199 223 255
199 224 255
199 224 255
200 224 255
200 224 255
200 224 255
200 224 255
200 224 255
200 224 255
200 224 255
200 224 255
200 224 255
200 224 255
200 224 255
200 224 255
200 224 255
200 224 255
200 224 255
200 224 255
200 224 255
201 224 255
201 224 255
201 224 255
201 224 255
201 224 255
201 224 255
201 224 255
201 224 255
201 224 255
201 224 255
201 225 255
201 225 255
201 225 255
201 225 255
201 225 255
202 225 255
202 225 255
202 225 255
202 225 255
202 225 255
202 225 255
202 225 255
202 225 255
202 225 255
202 225 255
202 225 255
202 225 255
202 225 255
202 225 255
202 225 255
203 225 255
203 225 255
203 225 255
203 225 255
203 225 255
203 225 255
203 225 255
203 225 255
203 226 255
203 226 255
203 226 255
203 226 255
203 226 255
203 226 255
203 226 255
204 226 255
204 226 255
204 226 255
204 226 255
204 226 255
204 226 255
204 226 255
204 226 255
204 226 255
204 226 255
204 226 255
204 226 255
204 226 255
204 226 255
204 226 255
204 226 255
205 226 255
205 226 255
205 226 255
205 226 255
205 226 255
205 226 255
205 226 255
205 227 255
205 227 255
205 227 255
205 227 255
205 227 255
205 227 255
205 227 255
205 227 255
205 227 255
205 227 255
206 227 255
206 227 255
206 227 255
206 227 255
206 227 255
206 227 255
206 227 255
206 227 255
206 227 255
206 227 255
206 227 255
206 227 255
206 227 255
206 227 255
206 227 255
206 227 255
206 227 255
206 227 255
207 227 255
207 227 255
207 227 255
207 227 255
207 227 255
207 228 255
207 228 255
207 228 255
207 228 255
207 228 255
207 228 255
207 228 255
207 228 255
207 228 255
207 228 255
207 228 255
207 228 255
207 228 255
207 228 255
207 228 255
208 228 255
208 228 255
208 228 255
208 228 255
208 228 255
208 228 255
208 228 255
208 228 255
208 228 255
208 228 255
208 228 255
208 228 255
208 228 255
208 228 255
208 228 255
208 228 255
208 228 255
207 228 255
207 228 255
207 228 255
207 228 255
207 228 255
207 228 255
207 228 255
207 228 255
207 228 255
207 228 255
207 228 255
207 228 255
207 228 255
207 228 255
207 228 255
207 227 255
207 227 255
207 227 255
207 227 255
207 227 255
206 227 255
206 227 255
206 227 255
206 227 255
206 227 255
206 227 255
206 227 255
206 227 255
206 227 255
206 227 255
206 227 255
206 227 255
206 227 255
206 227 255
206 227 255
206 227 255
206 227 255
206 227 255
205 227 255
205 227 255
205 227 255
205 227 255
205 227 255
205 227 255
205 227 255
205 227 255
205 227 255
205 227 255
205 226 255
205 226 255
205 226 255
205 226 255
205 226 255
205 226 255
205 226 255
204 226 255
204 226 255
204 226 255
204 226 255
204 226 255
204 226 255
204 226 255
204 226 255
204 226 255
204 226 255
204 226 255
204 226 255
204 226 255
204 226 255
204 226 255
204 226 255
203 226 255
203 226 255
203 226 255
203 226 255
203 226 255
203 226 255
203 225 255
203 225 255
203 225 255
203 225 255
203 225 255
203 225 255
203 225 255
203 225 255
203 225 255
202 225 255
202 225 255
202 225 255
202 225 255
202 225 255
202 225 255
202 225 255
202 225 255
202 225 255
202 225 255
202 225 255
202 225 255
202 225 255
202 225 255
202 225 255
201 225 255
201 225 255
201 225 255
201 225 255
201 224 255
201 224 255
201 224 255
201 224 255
201 224 255
201 224 255
201 224 255
201 224 255
201 224 255
201 224 255
201 224 255
200 224 255
200 224 255
200 224 255
200 224 255
200 224 255
200 224 255
200 224 255
200 224 255
200 224 255
200 224 255
200 224 255
200 224 255
200 224 255
200 224 255
200 224 255
200 224 255
200 224 255
199 224 255
199 224 255
199 224 255
199 223 255
199 223 255
199 223 255
199 223 255
199 223 255
199 223 255
199 223 255
199 223 255
199 223 255
199 223 255
199 223 255
199 223 255
199 223 255
199 223 255
199 223 255
199 223 255
199 223 255
198 223 255
198 223 255
198 223 255
198 223 255
198 223 255
198 223 255
198 223 255
198 223 255
198 223 255
198 223 255
198 223 255
198 223 255
198 223 255
198 223 255
198 223 255
198 223 255
198 223 255
198 223 255
198 223 255
198 223 255
198 223 255
198 223 255
198 223 255
198 223 255
198 223 255
198 223 255
198 223 255
198 223 255
198 223 255
198 223 255
198 223 255
198 223 255
198 223 255
198 223 255
198 223 255
198 223 255
198 223 255
198 223 255
198 223 255
198 223 255
198 223 255
198 223 255
198 223 255
198 223 255
198 223 255
198 223 255
198 223 255
198 223 255
198 223 255
198 223 255
198 223 255
198 223 255
198 223 255
198 223 255
198 223 255
198 223 255
198 223 255
198 223 255
198 223 255
198 223 255
198 223 255
198 223 255
198 223 255
198 223 255
198 223 255
198 223 255
198 223 255
198 223 255
198 223 255
198 223 255
198 223 255
198 223 255
198 223 255
198 223 255
199 223 255
199 223 255
199 223 255
199 223 255
199 223 255
199 223 255
199 223 255
199 223 255
199 223 255
199 223 255
199 223 255
199 223 255
199 223 255
199 223 255
199 223 255
199 223 255
199 223 255
199 224 255
199 224 255
199 224 255
200 224 255
200 224 255
200 224 255
200 224 255
200 224 255
200 224 255
200 224 255
200 224 255
200 224 255
200 224 255
200 224 255
200 224 255
200 224 255
200 224 255
200 224 255
200 224 255
200 224 255
201 224 255
201 224 255
201 224 255
201 224 255
201 224 255
201 224 255
201 224 255
201 224 255
201 224 255
201 224 255
201 224 255
201 225 255
201 225 255
201 225 255
201 225 255
202 225 255
202 225 255
202 225 255
202 225 255
202 225 255
202 225 255
202 225 255
202 225 255
202 225 255
202 225 255
202 225 255
202 225 255
202 225 255
202 225 255
202 225 255
203 225 255
203 225 255
203 225 255
203 225 255
203 225 255
203 225 255
203 225 255
203 225 255
203 225 255
203 226 255
203 226 255
203 226 255
203 226 255
203 226 255
203 226 255
204 226 255
204 226 255
204 226 255
204 226 255
204 226 255
204 226 255
204 226 255
204 226 255
204 226 255
204 226 255
204 226 255
204 226 255
204 226 255
204 226 255
204 226 255
204 226 255
205 226 255
205 226 255
205 226 255
205 226 255
205 226 255
205 226 255
205 226 255
205 227 255
205 227 255
205 227 255
205 227 255
205 227 255
205 227 255
205 227 255
205 227 255
205 227 255
205 227 255
206 227 255
206 227 255
206 227 255
206 227 255
206 227 255
206 227 255
206 227 255
206 227 255
206 227 255
206 227 255
206 227 255
206 227 255
206 227 255
206 227 255
206 227 255
206 227 255
206 227 255
206 227 255
207 227 255
207 227 255
207 227 255
207 227 255
207 227 255
207 228 255
207 228 255
207 228 255
207 228 255
207 228 255
207 228 255
207 228 255
207 228 255
207 228 255
207 228 255
207 228 255
207 228 255
207 228 255
207 228 255
207 228 255
208 228 255
208 228 255
208 228 255
208 228 255
208 228 255
208 228 255
208 228 255
208 228 255
208 228 255
208 228 255
208 228 255
208 228 255
208 228 255
208 228 255
208 228 255
208 228 255
208 228 255
208 228 255
208 228 255
208 228 255
208 228 255
208 228 255
208 228 255
207 228 255
207 228 255
207 228 255
207 228 255
207 228 255
207 228 255
207 228 255
207 228 255
207 228 255
207 228 255
207 228 255
207 228 255
207 228 255
207 228 255
207 228 255
207 227 255
207 227 255
207 227 255
207 227 255
207 227 255
206 227 255
206 227 255
206 227 255
206 227 255
206 227 255
206 227 255
206 227 255
206 227 255
206 227 255
206 227 255
206 227 255
206 227 255
206 227 255
206 227 255
206 227 255
206 227 255
206 227 255
206 227 255
205 227 255
205 227 255
205 227 255
205 227 255
205 227 255
205 227 255
205 227 255
205 227 255
205 227 255
205 227 255
205 226 255
205 226 255
205 226 255
205 226 255
205 226 255
205 226 255
204 226 255
204 226 255
204 226 255
204 226 255
204 226 255
204 226 255
204 226 255
204 226 255
204 226 255
204 226 255
204 226 255
204 226 255
204 226 255
204 226 255
204 226 255
204 226 255
203 226 255
203 226 255
203 226 255
203 226 255
203 226 255
203 226 255
203 226 255
203 225 255
203 225 255
203 225 255
203 225 255
203 225 255
203 225 255
203 225 255
203 225 255
202 225 255
202 225 255
202 225 255
202 225 255
202 225 255
202 225 255
202 225 255
202 225 255
202 225 255
202 225 255
202 225 255
202 225 255
202 225 255
202 225 255
202 225 255
202 225 255
201 225 255
201 225 255
201 225 255
201 225 255
201 224 255
201 224 255
201 224 255
201 224 255
201 224 255
201 224 255
201 224 255
201 224 255
201 224 255
201 224 255
201 224 255
200 224 255
200 224 255
200 224 255
200 224 255
200 224 255
200 224 255
200 224 255
200 224 255
200 224 255
200 224 255
200 224 255
200 224 255
200 224 255
200 224 255
200 224 255
200 224 255
200 224 255
199 224 255
199 224 255
199 224 255
199 223 255
199 223 255
199 223 255
199 223 255
199 223 255
199 223 255
199 223 255
199 223 255
199 223 255
199 223 255
199 223 255
199 223 255
199 223 255
199 223 255
199 223 255
199 223 255
199 223 255
199 223 255
199 223 255
198 223 255
198 223 255
198 223 255
198 223 255
198 223 255
198 223 255
198 223 255
198 223 255
198 223 255
198 223 255
198 223 255
198 223 255
198 223 255
198 223 255
198 223 255
198 223 255
198 223 255
198 223 255
198 223 255
198 223 255
198 223 255
198 223 255
198 223 255
198 223 255
198 223 255
198 223 255
198 223 255
198 223 255
198 223 255
198 223 255
198 223 255
198 223 255
198 223 255
198 223 255
198 223 255
198 223 255
198 223 255
198 223 255
198 223 255
198 223 255
198 223 255
198 223 255
198 223 255
198 223 255
198 223 255
198 223 255
198 223 255
198 223 255
198 223 255
198 223 255
198 223 255
198 223 255
198 223 255
198 223 255
198 223 255
198 223 255
198 223 255
198 223 255
198 223 255
198 223 255
198 223 255
198 223 255
198 223 255
198 223 255
199 223 255
199 223 255
199 223 255
199 223 255
199 223 255
199 223 255
199 223 255
199 223 255
199 223 255
199 223 255
199 223 255
199 223 255
199 223 255
199 223 255
199 223 255
199 223 255
199 223 255
199 223 255
199 223 255
199 224 255
199 224 255
199 224 255
200 224 255
200 224 255
200 224 255
200 224 255
200 224 255
200 224 255
200 224 255
200 224 255
200 224 255
200 224 255
200 224 255
200 224 255
200 224 255
200 224 255
200 224 255
200 224 255
200 224 255
201 224 255
201 224 255
201 224 255
201 224 255
201 224 255
201 224 255
201 224 255
201 224 255
201 224 255
201 224 255
201 224 255
201 225 255
201 225 255
201 225 255
201 225 255
202 225 255
202 225 255
202 225 255
202 225 255
202 225 255
202 225 255
202 225 255
202 225 255
202 225 255
202 225 255
202 225 255
202 225 255
202 225 255
202 225 255
202 225 255
203 225 255
203 225 255
203 225 255
203 225 255
203 225 255
203 225 255
203 225 255
203 225 255
203 225 255
203 226 255
203 226 255
203 226 255
203 226 255
203 226 255
203 226 255
203 226 255
204 226 255
204 226 255
204 226 255
204 226 255
204 226 255
204 226 255
204 226 255
204 226 255
204 226 255
204 226 255
204 226 255
204 226 255
204 226 255
204 226 255
204 226 255
204 226 255
205 226 255
205 226 255
205 226 255
205 226 255
205 226 255
205 226 255
205 227 255
205 227 255
205 227 255
205 227 255
205 227 255
205 227 255
205 227 255
205 227 255
205 227 255
205 227 255
206 227 255
206 227 255
206 227 255
206 227 255
206 227 255
206 227 255
206 227 255
206 227 255
206 227 255
206 227 255
206 227 255
206 227 255
206 227 255
206 227 255
206 227 255
206 227 255
206 227 255
206 227 255
207 227 255
207 227 255
207 227 255
207 227 255
207 227 255
207 228 255
207 228 255
207 228 255
207 228 255
207 228 255
207 228 255
207 228 255
207 228 255
207 228 255
207 228 255
207 228 255
207 228 255
207 228 255
207 228 255
207 228 255
208 228 255
208 228 255
208 228 255
208 228 255
208 228 255
208 228 255
208 228 255
208 228 255
208 228 255
208 228 255
208 228 255
208 228 255
208 228 255
208 228 255
208 228 255
208 228 255
208 228 255
208 228 255
208 228 255
208 228 255
208 228 255
208 228 255
208 228 255
208 228 255
208 228 255
208 228 255
208 228 255
208 228 255
208 228 255
207 228 255
207 228 255
207 228 255
207 228 255
207 228 255
207 228 255
207 228 255
207 228 255
207 228 255
207 228 255
207 228 255
207 228 255
207 228 255
207 228 255
207 228 255
207 227 255
207 227 255
207 227 255
207 227 255
207 227 255
206 227 255
206 227 255
206 227 255
206 227 255
206 227 255
206 227 255
206 227 255
206 227 255
206 227 255
206 227 255
206 227 255
206 227 255
206 227 255
206 227 255
206 227 255
206 227 255
206 227 255
205 227 255
205 227 255
205 227 255
205 227 255
205 227 255
205 227 255
205 227 255
205 227 255
205 227 255
205 227 255
205 227 255
205 226 255
205 226 255
205 226 255
205 226 255
205 226 255
205 226 255
204 226 255
204 226 255
204 226 255
204 226 255
204 226 255
204 226 255
204 226 255
204 226 255
204 226 255
204 226 255
204 226 255
204 226 255
204 226 255
204 226 255
204 226 255
204 226 255
203 226 255
203 226 255
203 226 255
203 226 255
203 226 255
203 226 255
203 226 255
203 225 255
203 225 255
203 225 255
203 225 255
203 225 255
203 225 255
203 225 255
203 225 255
202 225 255
202 225 255
202 225 255
202 225 255
202 225 255
202 225 255
202 225 255
202 225 255
202 225 255
202 225 255
202 225 255
202 225 255
202 225 255
202 225 255
202 225 255
201 225 255
201 225 255
201 225 255
201 225 255
201 225 255
201 224 255
201 224 255
201 224 255
201 224 255
201 224 255
201 224 255
201 224 255
201 224 255
201 224 255
201 224 255
201 224 255
200 224 255
200 224 255
200 224 255
200 224 255
200 224 255
200 224 255
200 224 255
200 224 255
200 224 255
200 224 255
200 224 255
200 224 255
200 224 255
200 224 255
200 224 255
200 224 255
200 224 255
200 224 255
199 224 255
199 224 255
199 224 255
199 223 255
199 223 255
199 223 255
199 223 255
199 223 255
199 223 255
199 223 255
199 223 255
199 223 255
199 223 255
199 223 255
199 223 255
199 223 255
199 223 255
199 223 255
199 223 255
199 223 255
199 223 255
199 223 255
199 223 255
198 223 255
198 223 255
198 223 255
198 223 255
198 223 255
198 223 255
198 223 255
198 223 255
198 223 255
198 223 255
198 223 255
198 223 255
198 223 255
198 223 255
198 223 255
198 223 255
198 223 255
198 223 255
198 223 255
198 223 255
198 223 255
198 223 255
198 223 255
198 223 255
198 223 255
198 223 255
198 223 255
198 223 255
198 223 255
198 223 255
198 223 255
198 223 255
198 223 255
198 223 255
198 223 255
198 223 255
198 223 255
198 223 255
198 223 255
198 223 255
198 223 255
198 223 255
198 223 255
198 223 255
198 223 255
198 223 255
198 223 255
198 223 255
198 223 255
198 223 255
198 223 255
198 223 255
198 223 255
198 223 255
199 223 255
199 223 255
199 223 255
199 223 255
199 223 255
199 223 255
199 223 255
199 223 255
199 223 255
199 223 255
199 223 255
199 223 255
199 223 255
199 223 255
199 223 255
199 223 255
199 223 255
199 223 255
199 223 255
199 223 255
199 224 255
199 224 255
199 224 255
200 224 255
200 224 255
200 224 255
200 224 255
200 224 255
200 224 255
200 224 255
200 224 255
200 224 255
200 224 255
200 224 255
200 224 255
200 224 255
200 224 255
200 224 255
200 224 255
200 224 255
200 224 255
201 224 255
201 224 255
201 224 255
201 224 255
201 224 255
201 224 255
201 224 255
201 224 255
201 224 255
201 224 255
201 224 255
201 225 255
201 225 255
201 225 255
201 225 255
201 225 255
202 225 255
202 225 255
202 225 255
202 225 255
202 225 255
202 225 255
202 225 255
202 225 255
202 225 255
202 225 255
202 225 255
202 225 255
202 225 255
202 225 255
202 225 255
203 225 255
203 225 255
203 225 255
203 225 255
203 225 255
203 225 255
203 225 255
203 225 255
203 226 255
203 226 255
203 226 255
203 226 255
203 226 255
203 226 255
203 226 255
204 226 255
204 226 255
204 226 255
204 226 255
204 226 255
204 226 255
204 226 255
204 226 255
204 226 255
204 226 255
204 226 255
204 226 255
204 226 255
204 226 255
204 226 255
204 226 255
205 226 255
205 226 255
205 226 255
205 226 255
205 226 255
205 226 255
205 227 255
205 227 255
205 227 255
205 227 255
205 227 255
205 227 255
205 227 255
205 227 255
205 227 255
205 227 255
206 227 255
206 227 255
206 227 255
206 227 255
206 227 255
206 227 255
206 227 255
206 227 255
206 227 255
206 227 255
206 227 255
206 227 255
206 227 255
206 227 255
206 227 255
206 227 255
206 227 255
206 227 255
207 227 255
207 227 255
207 227 255
207 227 255
207 227 255
207 228 255
207 228 255
207 228 255
207 228 255
207 228 255
207 228 255
207 228 255
207 228 255
207 228 255
207 228 255
207 228 255
207 228 255
207 228 255
207 228 255
207 228 255
208 228 255
208 228 255
208 228 255
208 228 255
208 228 255
208 228 255
208 228 255
208 228 255
208 228 255
208 228 255
208 228 255
208 228 255
208 228 255
208 228 255
208 228 255
208 228 255
208 228 255
208 228 255
208 228 255
208 228 255
208 228 255
208 228 255
208 228 255
208 228 255
208 228 255
208 228 255
208 228 255
208 228 255
208 228 255
208 228 255
208 228 255
208 228 255
208 228 255
208 228 255
208 228 255
207 228 255
207 228 255
207 228 255
207 228 255
207 228 255
207 228 255
207 228 255
207 228 255
207 228 255
207 228 255
207 228 255
207 228 255
207 228 255
207 228 255
207 228 255
207 227 255
207 227 255
207 227 255
207 227 255
207 227 255
206 227 255
206 227 255
206 227 255
206 227 255
206 227 255
206 227 255
206 227 255
206 227 255
206 227 255
206 227 255
206 227 255
206 227 255
206 227 255
206 227 255
206 227 255
206 227 255
206 227 255
205 227 255
205 227 255
205 227 255
205 227 255
205 227 255
205 227 255
205 227 255
205 227 255
205 227 255
205 227 255
205 226 255
205 226 255
205 226 255
205 226 255
205 226 255
205 226 255
205 226 255
204 226 255
204 226 255
204 226 255
204 226 255
204 226 255
204 226 255
204 226 255
204 226 255
204 226 255
204 226 255
204 226 255
204 226 255
204 226 255
204 226 255
204 226 255
204 226 255
203 226 255
203 226 255
203 226 255
203 226 255
203 226 255
203 226 255
203 225 255
203 225 255
203 225 255
203 225 255
203 225 255
203 225 255
203 225 255
203 225 255
203 225 255
202 225 255
202 225 255
202 225 255
202 225 255
202 225 255
202 225 255
202 225 255
202 225 255
202 225 255
202 225 255
202 225 255
202 225 255
202 225 255
202 225 255
202 225 255
201 225 255
201 225 255
201 225 255
201 225 255
201 225 255
201 224 255
201 224 255
201 224 255
201 224 255
201 224 255
201 224 255
201 224 255
201 224 255
201 224 255
201 224 255
201 224 255
200 224 255
200 224 255
200 224 255
200 224 255
200 224 255
200 224 255
200 224 255
200 224 255
200 224 255
200 224 255
200 224 255
200 224 255
200 224 255
200 224 255
200 224 255
200 224 255
200 224 255
200 224 255
199 224 255
199 224 255
199 224 255
199 224 255
199 223 255
199 223 255
199 223 255
199 223 255
199 223 255
199 223 255
199 223 255
199 223 255
199 223 255
199 223 255
199 223 255
199 223 255
199 223 255
199 223 255
199 223 255
199 223 255
199 223 255
199 223 255
199 223 255
199 223 255
199 223 255
199 223 255
199 223 255
198 223 255
198 223 255
198 223 255
198 223 255
198 223 255
198 223 255
198 223 255
198 223 255
198 223 255
198 223 255
198 223 255
198 223 255
198 223 255
198 223 255
198 223 255
198 223 255
198 223 255
198 223 255
198 223 255
198 223 255
198 223 255
198 223 255
198 223 255
198 223 255
198 223 255
198 223 255
198 223 255
198 223 255
198 223 255
198 223 255
198 223 255
198 223 255
198 223 255
198 223 255
198 223 255
198 223 255
198 223 255
198 223 255
198 223 255
198 223 255
199 223 255
199 223 255
199 223 255
199 223 255
199 223 255
199 223 255
199 223 255
199 223 255
199 223 255
199 223 255
199 223 255
199 223 255
199 223 255
199 223 255
199 223 255
199 223 255
199 223 255
199 223 255
199 223 255
199 223 255
199 223 255
199 223 255
199 223 255
199 224 255
199 224 255
199 224 255
199 224 255
200 224 255
200 224 255
200 224 255
200 224 255
200 224 255
200 224 255
200 224 255
200 224 255
200 224 255
200 224 255
200 224 255
200 224 255
200 224 255
200 224 255
200 224 255
200 224 255
200 224 255
200 224 255
201 224 255
201 224 255
201 224 255
201 224 255
201 224 255
201 224 255
201 224 255
201 224 255
201 224 255
201 224 255
201 224 255
201 225 255
201 225 255
201 225 255
201 225 255
201 225 255
202 225 255
202 225 255
202 225 255
202 225 255
202 225 255
202 225 255
202 225 255
202 225 255
202 225 255
202 225 255
202 225 255
202 225 255
202 225 255
202 225 255
202 225 255
203 225 255
203 225 255
203 225 255
203 225 255
203 225 255
203 225 255
203 225 255
203 225 255
203 225 255
203 226 255
203 226 255
203 226 255
203 226 255
203 226 255
203 226 255
204 226 255
204 226 255
204 226 255
204 226 255
204 226 255
204 226 255
204 226 255
204 226 255
204 226 255
204 226 255
204 226 255
204 226 255
204 226 255
204 226 255
204 226 255
204 226 255
205 226 255
205 226 255
205 226 255
205 226 255
205 226 255
205 226 255
205 226 255
205 227 255
205 227 255
205 227 255
205 227 255
205 227 255
205 227 255
205 227 255
205 227 255
205 227 255
205 227 255
206 227 255
206 227 255
206 227 255
206 227 255
206 227 255
206 227 255
206 227 255
206 227 255
206 227 255
206 227 255
206 227 255
206 227 255
206 227 255
206 227 255
206 227 255
206 227 255
206 227 255
207 227 255
207 227 255
207 227 255
207 227 255
207 227 255
207 228 255
207 228 255
207 228 255
207 228 255
207 228 255
207 228 255
207 228 255
207 228 255
207 228 255
207 228 255
207 228 255
207 228 255
207 228 255
207 228 255
207 228 255
208 228 255
208 228 255
208 228 255
208 228 255
208 228 255
208 228 255
208 228 255
208 228 255
208 228 255
208 228 255
208 228 255
208 228 255
208 228 255
208 228 255
208 228 255
208 228 255
208 228 255
208 228 255
208 228 255
209 228 255
208 228 255
208 228 255
208 228 255
208 228 255
208 228 255
208 228 255
208 228 255
208 228 255
208 228 255
208 228 255
208 228 255
208 228 255
208 228 255
208 228 255
208 228 255
208 228 255
208 228 255
208 228 255
208 228 255
208 228 255
208 228 255
207 228 255
207 228 255
207 228 255
207 228 255
207 228 255
207 228 255
207 228 255
207 228 255
207 228 255
207 228 255
207 228 255
207 228 255
207 228 255
207 228 255
207 228 255
207 227 255
207 227 255
207 227 255
207 227 255
207 227 255
206 227 255
206 227 255
206 227 255
206 227 255
206 227 255
206 227 255
206 227 255
206 227 255
206 227 255
206 227 255
206 227 255
206 227 255
206 227 255
206 227 255
206 227 255
206 227 255
206 227 255
205 227 255
205 227 255
205 227 255
205 227 255
205 227 255
205 227 255
205 227 255
205 227 255
205 227 255
205 227 255
205 226 255
205 226 255
205 226 255
205 226 255
205 226 255
205 226 255
205 226 255
204 226 255
204 226 255
204 226 255
204 226 255
204 226 255
204 226 255
204 226 255
204 226 255
204 226 255
204 226 255
204 226 255
204 226 255
204 226 255
204 226 255
204 226 255
203 226 255
203 226 255
203 226 255
203 226 255
203 226 255
203 226 255
203 226 255
203 225 255
203 225 255
203 225 255
203 225 255
203 225 255
203 225 255
203 225 255
203 225 255
203 225 255
202 225 255
202 225 255
202 225 255
202 225 255
202 225 255
202 225 255
202 225 255
202 225 255
202 225 255
202 225 255
202 225 255
202 225 255
202 225 255
202 225 255
202 225 255
201 225 255
201 225 255
201 225 255
201 225 255
201 225 255
201 224 255
201 224 255
201 224 255
201 224 255
201 224 255
201 224 255
201 224 255
201 224 255
201 224 255
201 224 255
201 224 255
200 224 255
200 224 255
200 224 255
200 224 255
200 224 255
200 224 255
200 224 255
200 224 255
200 224 255
200 224 255
200 224 255
200 224 255
200 224 255
200 224 255
200 224 255
200 224 255
200 224 255
200 224 255
200 224 255
200 224 255
199 224 255
199 224 255
199 224 255
199 223 255
199 223 255
199 223 255
199 223 255
199 223 255
199 223 255
199 223 255
199 223 255
199 223 255
199 223 255
199 223 255
199 223 255
199 223 255
199 223 255
199 223 255
199 223 255
199 223 255
199 223 255
199 223 255
199 223 255
199 223 255
199 223 255
199 223 255
199 223 255
199 223 255
199 223 255
199 223 255
199 223 255
199 223 255
198 223 255
198 223 255
198 223 255
198 223 255
198 223 255
198 223 255
198 223 255
198 223 255
198 223 255
198 223 255
198 223 255
198 223 255
198 223 255
198 223 255
198 223 255
198 223 255
198 223 255
198 223 255
198 223 255
199 223 255
199 223 255
199 223 255
199 223 255
199 223 255
199 223 255
199 223 255
199 223 255
199 223 255
199 223 255
199 223 255
199 223 255
199 223 255
199 223 255
199 223 255
199 223 255
199 223 255
199 223 255
199 223 255
199 223 255
199 223 255
199 223 255
199 223 255
199 223 255
199 223 255
199 223 255
199 223 255
199 223 255
199 223 255
199 223 255
199 224 255
199 224 255
199 224 255
199 224 255
200 224 255
200 224 255
200 224 255
200 224 255
200 224 255
200 224 255
200 224 255
200 224 255
200 224 255
200 224 255
200 224 255
200 224 255
200 224 255
200 224 255
200 224 255
200 224 255
200 224 255
200 224 255
200 224 255
201 224 255
201 224 255
201 224 255
201 224 255
201 224 255
201 224 255
201 224 255
201 224 255
201 224 255
201 224 255
201 224 255
201 225 255
201 225 255
201 225 255
201 225 255
201 225 255
202 225 255
202 225 255
202 225 255
202 225 255
202 225 255
202 225 255
202 225 255
202 225 255
202 225 255
202 225 255
202 225 255
202 225 255
202 225 255
202 225 255
202 225 255
203 225 255
203 225 255
203 225 255
203 225 255
203 225 255
203 225 255
203 225 255
203 225 255
203 225 255
203 226 255
203 226 255
203 226 255
203 226 255
203 226 255
203 226 255
203 226 255
204 226 255
204 226 255
204 226 255
204 226 255
204 226 255
204 226 255
204 226 255
204 226 255
204 226 255
204 226 255
204 226 255
204 226 255
204 226 255
204 226 255
204 226 255
205 226 255
205 226 255
205 226 255
205 226 255
205 226 255
205 226 255
205 226 255
205 227 255
205 227 255
205 227 255
205 227 255
205 227 255
205 227 255
205 227 255
205 227 255
205 227 255
205 227 255
206 227 255
206 227 255
206 227 255
206 227 255
206 227 255
206 227 255
206 227 255
206 227 255
206 227 255
206 227 255
206 227 255
206 227 255
206 227 255
206 227 255
206 227 255
206 227 255
206 227 255
207 227 255
207 227 255
207 227 255
207 227 255
207 227 255
207 228 255
207 228 255
207 228 255
207 228 255
207 228 255
207 228 255
207 228 255
207 228 255
207 228 255
207 228 255
207 228 255
207 228 255
207 228 255
207 228 255
207 228 255
208 228 255
208 228 255
208 228 255
208 228 255
208 228 255
208 228 255
208 228 255
208 228 255
208 228 255
208 228 255
208 228 255
208 228 255
208 228 255
208 228 255
208 228 255
208 228 255
208 228 255
208 228 255
208 228 255
208 228 255
208 228 255
209 228 255
209 229 255
209 229 255
209 228 255
209 228 255
208 228 255
208 228 255
208 228 255
208 228 255
208 228 255
208 228 255
208 228 255
208 228 255
208 228 255
208 228 255
208 228 255
208 228 255
208 228 255
208 228 255
208 228 255
208 228 255
208 228 255
208 228 255
208 228 255
208 228 255
208 228 255
207 228 255
207 228 255
207 228 255
207 228 255
207 228 255
207 228 255
207 228 255
207 228 255
207 228 255
207 228 255
207 228 255
207 228 255
207 228 255
207 228 255
207 228 255
207 227 255
207 227 255
207 227 255
207 227 255
207 227 255
206 227 255
206 227 255
206 227 255
206 227 255
206 227 255
206 227 255
206 227 255
206 227 255
206 227 255
206 227 255
206 227 255
206 227 255
206 227 255
206 227 255
206 227 255
206 227 255
206 227 255
205 227 255
205 227 255
205 227 255
205 227 255
205 227 255
205 227 255
205 227 255
205 227 255
205 227 255
205 227 255
205 226 255
205 226 255
205 226 255
205 226 255
205 226 255
205 226 255
205 226 255
204 226 255
204 226 255
204 226 255
204 226 255
204 226 255
204 226 255
204 226 255
204 226 255
204 226 255
204 226 255
204 226 255
204 226 255
204 226 255
204 226 255
204 226 255
203 226 255
203 226 255
203 226 255
203 226 255
203 226 255
203 226 255
203 226 255
203 225 255
203 225 255
203 225 255
203 225 255
203 225 255
203 225 255
203 225 255
203 225 255
203 225 255
202 225 255
202 225 255
202 225 255
202 225 255
202 225 255
202 225 255
202 225 255
202 225 255
202 225 255
202 225 255
202 225 255
202 225 255
202 225 255
202 225 255
202 225 255
201 225 255
201 225 255
201 225 255
201 225 255
201 225 255
201 224 255
201 224 255
201 224 255
201 224 255
201 224 255
201 224 255
201 224 255
201 224 255
201 224 255
201 224 255
201 224 255
201 224 255
200 224 255
200 224 255
200 224 255
200 224 255
200 224 255
200 224 255
200 224 255
200 224 255
200 224 255
200 224 255
200 224 255
200 224 255
200 224 255
200 224 255
200 224 255
200 224 255
200 224 255
200 224 255
200 224 255
200 224 255
199 224 255
199 224 255
199 224 255
199 224 255
199 223 255
199 223 255
199 223 255
199 223 255
199 223 255
199 223 255
199 223 255
199 223 255
199 223 255
199 223 255
199 223 255
199 223 255
199 223 255
199 223 255
199 223 255
199 223 255
199 223 255
199 223 255
199 223 255
199 223 255
199 223 255
199 223 255
199 223 255
199 223 255
199 223 255
199 223 255
199 223 255
199 223 255
199 223 255
199 223 255
199 223 255
199 223 255
199 223 255
199 223 255
199 223 255
199 223 255
199 223 255
199 223 255
199 223 255
199 223 255
199 223 255
199 223 255
199 223 255
199 223 255
199 223 255
199 223 255
199 223 255
199 223 255
199 223 255
199 223 255
199 223 255
199 223 255
199 223 255
199 223 255
199 223 255
199 223 255
199 223 255
199 223 255
199 223 255
199 223 255
199 223 255
199 223 255
199 223 255
199 223 255
199 223 255
199 223 255
199 223 255
199 223 255
199 224 255
199 224 255
199 224 255
199 224 255
200 224 255
200 224 255
200 224 255
200 224 255
200 224 255
200 224 255
200 224 255
200 224 255
200 224 255
200 224 255
200 224 255
200 224 255
200 224 255
200 224 255
200 224 255
200 224 255
200 224 255
200 224 255
200 224 255
200 224 255
201 224 255
201 224 255
201 224 255
201 224 255
201 224 255
201 224 255
201 224 255
201 224 255
201 224 255
201 224 255
201 224 255
201 224 255
201 225 255
201 225 255
201 225 255
201 225 255
201 225 255
202 225 255
202 225 255
202 225 255
202 225 255
202 225 255
202 225 255
202 225 255
202 225 255
202 225 255
202 225 255
202 225 255
202 225 255
202 225 255
202 225 255
202 225 255
203 225 255
203 225 255
203 225 255
203 225 255
203 225 255
203 225 255
203 225 255
203 225 255
203 225 255
203 226 255
203 226 255
203 226 255
203 226 255
203 226 255
203 226 255
203 226 255
204 226 255
204 226 255
204 226 255
204 226 255
204 226 255
204 226 255
204 226 255
204 226 255
204 226 255
204 226 255
204 226 255
204 226 255
204 226 255
204 226 255
204 226 255
204 226 255
205 226 255
205 226 255
205 226 255
205 226 255
205 226 255
205 226 255
205 227 255
205 227 255
205 227 255
205 227 255
205 227 255
205 227 255
205 227 255
205 227 255
205 227 255
205 227 255
206 227 255
206 227 255
206 227 255
206 227 255
206 227 255
206 227 255
206 227 255
206 227 255
206 227 255
206 227 255
206 227 255
206 227 255
206 227 255
206 227 255
206 227 255
206 227 255
206 227 255
207 227 255
207 227 255
207 227 255
207 227 255
207 227 255
207 228 255
207 228 255
207 228 255
207 228 255
207 228 255
207 228 255
207 228 255
207 228 255
207 228 255
207 228 255
207 228 255
207 228 255
207 228 255
207 228 255
207 228 255
208 228 255
208 228 255
208 228 255
208 228 255
208 228 255
208 228 255
208 228 255
208 228 255
208 228 255
208 228 255
208 228 255
208 228 255
208 228 255
208 228 255
208 228 255
208 228 255
208 228 255
208 228 255
208 228 255
208 228 255
208 228 255
209 228 255
209 228 255
209 229 255
209 229 255
209 229 255
209 229 255
209 229 255
209 229 255
209 229 255
209 229 255
209 228 255
208 228 255
208 228 255
208 228 255
208 228 255
208 228 255
208 228 255
208 228 255
208 228 255
208 228 255
208 228 255
208 228 255
208 228 255
208 228 255
208 228 255
208 228 255
208 228 255
208 228 255
208 228 255
208 228 255
208 228 255
208 228 255
207 228 255
207 228 255
207 228 255
207 228 255
207 228 255
207 228 255
207 228 255
207 228 255
207 228 255
207 228 255
207 228 255
207 228 255
207 228 255
207 228 255
207 228 255
207 227 255
207 227 255
207 227 255
207 227 255
206 227 255
206 227 255
206 227 255
206 227 255
206 227 255
206 227 255
206 227 255
206 227 255
206 227 255
206 227 255
206 227 255
206 227 255
206 227 255
206 227 255
206 227 255
206 227 255
206 227 255
206 227 255
205 227 255
205 227 255
205 227 255
205 227 255
205 227 255
205 227 255
205 227 255
205 227 255
205 227 255
205 227 255
205 226 255
205 226 255
205 226 255
205 226 255
205 226 255
205 226 255
204 226 255
204 226 255
204 226 255
204 226 255
204 226 255
204 226 255
204 226 255
204 226 255
204 226 255
204 226 255
204 226 255
204 226 255
204 226 255
204 226 255
204 226 255
204 226 255
203 226 255
203 226 255
203 226 255
203 226 255
203 226 255
203 226 255
203 226 255
203 225 255
203 225 255
203 225 255
203 225 255
203 225 255
203 225 255
203 225 255
203 225 255
203 225 255
202 225 255
202 225 255
202 225 255
202 225 255
202 225 255
202 225 255
202 225 255
202 225 255
202 225 255
202 225 255
202 225 255
202 225 255
202 225 255
202 225 255
202 225 255
201 225 255
201 225 255
201 225 255
201 225 255
201 225 255
201 224 255
201 224 255
201 224 255
201 224 255
201 224 255
201 224 255
201 224 255
201 224 255
201 224 255
201 224 255
201 224 255
201 224 255
200 224 255
200 224 255
200 224 255
200 224 255
200 224 255
200 224 255
200 224 255
200 224 255
200 224 255
200 224 255
200 224 255
200 224 255
200 224 255
200 224 255
200 224 255
200 224 255
200 224 255
200 224 255
200 224 255
200 224 255
200 224 255
200 224 255
199 224 255
199 224 255
199 224 255
199 224 255
199 223 255
199 223 255
199 223 255
199 223 255
199 223 255
199 223 255
199 223 255
199 223 255
199 223 255
199 223 255
199 223 255
199 223 255
199 223 255
199 223 255
199 223 255
199 223 255
199 223 255
199 223 255
199 223 255
199 223 255
199 223 255
199 223 255
199 223 255
199 223 255
199 223 255
199 223 255
199 223 255
199 223 255
199 223 255
199 223 255
199 223 255
199 223 255
199 223 255
199 223 255
199 223 255
199 223 255
199 223 255
199 223 255
199 223 255
199 223 255
199 223 255
199 223 255
199 223 255
199 223 255
199 223 255
199 223 255
199 223 255
199 223 255
199 223 255
199 223 255
199 223 255
199 223 255
199 223 255
199 223 255
199 223 255
199 223 255
199 223 255
199 223 255
199 224 255
199 224 255
199 224 255
199 224 255
200 224 255
200 224 255
200 224 255
200 224 255
200 224 255
200 224 255
200 224 255
200 224 255
200 224 255
200 224 255
200 224 255
200 224 255
200 224 255
200 224 255
200 224 255
200 224 255
200 224 255
200 224 255
200 224 255
200 224 255
200 224 255
200 224 255
201 224 255
201 224 255
201 224 255
201 224 255
201 224 255
201 224 255
201 224 255
201 224 255
201 224 255
201 224 255
201 224 255
201 224 255
201 225 255
201 225 255
201 225 255
201 225 255
201 225 255
202 225 255
202 225 255
202 225 255
202 225 255
202 225 255
202 225 255
202 225 255
202 225 255
202 225 255
202 225 255
202 225 255
202 225 255
202 225 255
202 225 255
202 225 255
202 225 255
203 225 255
203 225 255
203 225 255
203 225 255
203 225 255
203 225 255
203 225 255
203 225 255
203 226 255
203 226 255
203 226 255
203 226 255
203 226 255
203 226 255
203 226 255
204 226 255
204 226 255
204 226 255
204 226 255
204 226 255
204 226 255
204 226 255
204 226 255
204 226 255
204 226 255
204 226 255
204 226 255
204 226 255
204 226 255
204 226 255
204 226 255
205 226 255
205 226 255
205 226 255
205 226 255
205 226 255
205 226 255
205 227 255
205 227 255
205 227 255
205 227 255
205 227 255
205 227 255
205 227 255
205 227 255
205 227 255
205 227 255
206 227 255
206 227 255
206 227 255
206 227 255
206 227 255
206 227 255
206 227 255
206 227 255
206 227 255
206 227 255
206 227 255
206 227 255
206 227 255
206 227 255
206 227 255
206 227 255
206 227 255
207 227 255
207 227 255
207 227 255
207 227 255
207 227 255
207 228 255
207 228 255
207 228 255
207 228 255
207 228 255
207 228 255
207 228 255
207 228 255
207 228 255
207 228 255
207 228 255
207 228 255
207 228 255
207 228 255
207 228 255
208 228 255
208 228 255
208 228 255
208 228 255
208 228 255
208 228 255
208 228 255
208 228 255
208 228 255
208 228 255
208 228 255
208 228 255
208 228 255
208 228 255
208 228 255
208 228 255
208 228 255
208 228 255
208 228 255
208 228 255
208 228 255
209 228 255
209 229 255
209 229 255
209 229 255
209 229 255
209 229 255
209 229 255
209 229 255
209 229 255
209 229 255
209 229 255
209 229 255
209 229 255
209 229 255
209 229 255
209 229 255
209 228 255
209 228 255
208 228 255
208 228 255
208 228 255
208 228 255
208 228 255
208 228 255
208 228 255
208 228 255
208 228 255
208 228 255
208 228 255
208 228 255
208 228 255
208 228 255
208 228 255
208 228 255
208 228 255
208 228 255
208 228 255
208 228 255
208 228 255
207 228 255
207 228 255
207 228 255
207 228 255
207 228 255
207 228 255
207 228 255
207 228 255
207 228 255
207 228 255
207 228 255
207 228 255
207 228 255
207 228 255
207 227 255
207 227 255
207 227 255
207 227 255
206 227 255
206 227 255
206 227 255
206 227 255
206 227 255
206 227 255
206 227 255
206 227 255
206 227 255
206 227 255
206 227 255
206 227 255
206 227 255
206 227 255
206 227 255
206 227 255
206 227 255
206 227 255
205 227 255
205 227 255
205 227 255
205 227 255
205 227 255
205 227 255
205 227 255
205 227 255
205 227 255
205 227 255
205 226 255
205 226 255
205 226 255
205 226 255
205 226 255
205 226 255
204 226 255
204 226 255
204 226 255
204 226 255
204 226 255
204 226 255
204 226 255
204 226 255
204 226 255
204 226 255
204 226 255
204 226 255
204 226 255
204 226 255
204 226 255
204 226 255
203 226 255
203 226 255
203 226 255
203 226 255
203 226 255
203 226 255
203 226 255
203 225 255
203 225 255
203 225 255
203 225 255
203 225 255
203 225 255
203 225 255
203 225 255
202 225 255
202 225 255
202 225 255
202 225 255
202 225 255
202 225 255
202 225 255
202 225 255
202 225 255
202 225 255
202 225 255
202 225 255
202 225 255
202 225 255
202 225 255
202 225 255
201 225 255
201 225 255
201 225 255
201 225 255
201 225 255
201 224 255
201 224 255
201 224 255
201 224 255
201 224 255
201 224 255
201 224 255
201 224 255
201 224 255
201 224 255
201 224 255
201 224 255
201 224 255
200 224 255
200 224 255
200 224 255
200 224 255
200 224 255
200 224 255
200 224 255
200 224 255
200 224 255
200 224 255
200 224 255
200 224 255
200 224 255
200 224 255
200 224 255
200 224 255
200 224 255
200 224 255
200 224 255
200 224 255
200 224 255
200 224 255
200 224 255
199 224 255
199 224 255
199 224 255
199 224 255
199 224 255
199 224 255
199 223 255
199 223 255
199 223 255
199 223 255
199 223 255
199 223 255
199 223 255
199 223 255
199 223 255
199 223 255
199 223 255
199 223 255
199 223 255
199 223 255
199 223 255
199 223 255
199 223 255
199 223 255
199 223 255
199 223 255
199 223 255
199 223 255
199 223 255
199 223 255
199 223 255
199 223 255
199 223 255
199 223 255
199 223 255
199 223 255
199 223 255
199 223 255
199 223 255
199 223 255
199 223 255
199 223 255
199 223 255
199 223 255
199 223 255
199 223 255
199 223 255
199 223 255
199 223 255
199 223 255
199 224 255
199 224 255
199 224 255
199 224 255
199 224 255
200 224 255
200 224 255
200 224 255
200 224 255
200 224 255
200 224 255
200 224 255
200 224 255
200 224 255
200 224 255
200 224 255
200 224 255
200 224 255
200 224 255
200 224 255
200 224 255
200 224 255
200 224 255
200 224 255
200 224 255
200 224 255
200 224 255
200 224 255
200 224 255
201 224 255
201 224 255
201 224 255
201 224 255
201 224 255
201 224 255
201 224 255
201 224 255
201 224 255
201 224 255
201 224 255
201 224 255
201 225 255
201 225 255
201 225 255
201 225 255
201 225 255
202 225 255
202 225 255
202 225 255
202 225 255
202 225 255
202 225 255
202 225 255
202 225 255
202 225 255
202 225 255
202 225 255
202 225 255
202 225 255
202 225 255
202 225 255
202 225 255
202 225 255
203 225 255
203 225 255
203 225 255
203 225 255
203 225 255
203 225 255
203 225 255
203 225 255
203 226 255
203 226 255
203 226 255
203 226 255
203 226 255
203 226 255
203 226 255
204 226 255
204 226 255
204 226 255
204 226 255
204 226 255
204 226 255
204 226 255
204 226 255
204 226 255
204 226 255
204 226 255
204 226 255
204 226 255
204 226 255
204 226 255
204 226 255
205 226 255
205 226 255
205 226 255
205 226 255
205 226 255
205 226 255
205 227 255
205 227 255
205 227 255
205 227 255
205 227 255
205 227 255
205 227 255
205 227 255
205 227 255
205 227 255
206 227 255
206 227 255
206 227 255
206 227 255
206 227 255
206 227 255
206 227 255
206 227 255
206 227 255
206 227 255
206 227 255
206 227 255
206 227 255
206 227 255
206 227 255
206 227 255
206 227 255
206 227 255
207 227 255
207 227 255
207 227 255
207 227 255
207 228 255
207 228 255
207 228 255
207 228 255
207 228 255
207 228 255
207 228 255
207 228 255
207 228 255
207 228 255
207 228 255
207 228 255
207 228 255
207 228 255
208 228 255
208 228 255
208 228 255
208 228 255
208 228 255
208 228 255
208 228 255
208 228 255
208 228 255
208 228 255
208 228 255
208 228 255
208 228 255
208 228 255
208 228 255
208 228 255
208 228 255
208 228 255
208 228 255
208 228 255
208 228 255
209 228 255
209 228 255
209 229 255
209 229 255
209 229 255
209 229 255
209 229 255
209 229 255
209 229 255
209 229 255
209 229 255
209 229 255
209 229 255
209 229 255
209 229 255
209 229 255
209 229 255
209 229 255
209 229 255
209 229 255
209 229 255
209 229 255
209 229 255
209 228 255
209 228 255
208 228 255
208 228 255
208 228 255
208 228 255
208 228 255
208 228 255
208 228 255
208 228 255
208 228 255
208 228 255
208 228 255
208 228 255
208 228 255
208 228 255
208 228 255
208 228 255
208 228 255
208 228 255
208 228 255
208 228 255
208 228 255
207 228 255
207 228 255
207 228 255
207 228 255
207 228 255
207 228 255
207 228 255
207 228 255
207 228 255
207 228 255
207 228 255
207 228 255
207 228 255
207 228 255
207 227 255
207 227 255
207 227 255
207 227 255
207 227 255
206 227 255
206 227 255
206 227 255
206 227 255
206 227 255
206 227 255
206 227 255
206 227 255
206 227 255
206 227 255
206 227 255
206 227 255
206 227 255
206 227 255
206 227 255
206 227 255
206 227 255
205 227 255
205 227 255
205 227 255
205 227 255
205 227 255
205 227 255
205 227 255
205 227 255
205 227 255
205 227 255
205 226 255
205 226 255
205 226 255
205 226 255
205 226 255
205 226 255
204 226 255
204 226 255
204 226 255
204 226 255
204 226 255
204 226 255
204 226 255
204 226 255
204 226 255
204 226 255
204 226 255
204 226 255
204 226 255
204 226 255
204 226 255
204 226 255
203 226 255
203 226 255
203 226 255
203 226 255
203 226 255
203 226 255
203 226 255
203 225 255
203 225 255
203 225 255
203 225 255
203 225 255
203 225 255
203 225 255
203 225 255
202 225 255
202 225 255
202 225 255
202 225 255
202 225 255
202 225 255
202 225 255
202 225 255
202 225 255
202 225 255
202 225 255
202 225 255
202 225 255
202 225 255
202 225 255
202 225 255
202 225 255
201 225 255
201 225 255
201 225 255
201 225 255
201 225 255
201 224 255
201 224 255
201 224 255
201 224 255
201 224 255
201 224 255
201 224 255
201 224 255
201 224 255
201 224 255
201 224 255
201 224 255
201 224 255
200 224 255
200 224 255
200 224 255
200 224 255
200 224 255
200 224 255
200 224 255
200 224 255
200 224 255
200 224 255
200 224 255
200 224 255
200 224 255
200 224 255
200 224 255
200 224 255
200 224 255
200 224 255
200 224 255
200 224 255
200 224 255
200 224 255
200 224 255
200 224 255
200 224 255
200 224 255
200 224 255
199 224 255
199 224 255
199 224 255
199 224 255
199 224 255
199 224 255
199 224 255
199 224 255
199 223 255
199 223 255
199 223 255
199 223 255
199 223 255
199 223 255
199 223 255
199 223 255
199 223 255
199 223 255
199 223 255
199 223 255
199 223 255
199 223 255
199 223 255
199 223 255
199 223 255
199 223 255
199 223 255
199 223 255
199 223 255
199 223 255
199 223 255
199 223 255
199 224 255
199 224 255
199 224 255
199 224 255
199 224 255
199 224 255
199 224 255
199 224 255
200 224 255
200 224 255
200 224 255
200 224 255
200 224 255
200 224 255
200 224 255
200 224 255
200 224 255
200 224 255
200 224 255
200 224 255
200 224 255
200 224 255
200 224 255
200 224 255
200 224 255
200 224 255
200 224 255
200 224 255
200 224 255
200 224 255
200 224 255
200 224 255
200 224 255
200 224 255
200 224 255
201 224 255
201 224 255
201 224 255
201 224 255
201 224 255
201 224 255
201 224 255
201 224 255
201 224 255
201 224 255
201 224 255
201 224 255
201 224 255
201 225 255
201 225 255
201 225 255
201 225 255
201 225 255
202 225 255
202 225 255
202 225 255
202 225 255
202 225 255
202 225 255
202 225 255
202 225 255
202 225 255
202 225 255
202 225 255
202 225 255
202 225 255
202 225 255
202 225 255
202 225 255
202 225 255
203 225 255
203 225 255
203 225 255
203 225 255
203 225 255
203 225 255
203 225 255
203 225 255
203 226 255
203 226 255
203 226 255
203 226 255
203 226 255
203 226 255
203 226 255
204 226 255
204 226 255
204 226 255
204 226 255
204 226 255
204 226 255
204 226 255
204 226 255
204 226 255
204 226 255
204 226 255
204 226 255
204 226 255
204 226 255
204 226 255
204 226 255
205 226 255
205 226 255
205 226 255
205 226 255
205 226 255
205 226 255
205 227 255
205 227 255
205 227 255
205 227 255
205 227 255
205 227 255
205 227 255
205 227 255
205 227 255
205 227 255
206 227 255
206 227 255
206 227 255
206 227 255
206 227 255
206 227 255
206 227 255
206 227 255
206 227 255
206 227 255
206 227 255
206 227 255
206 227 255
206 227 255
206 227 255
206 227 255
206 227 255
207 227 255
207 227 255
207 227 255
207 227 255
207 227 255
207 228 255
207 228 255
207 228 255
207 228 255
207 228 255
207 228 255
207 228 255
207 228 255
207 228 255
207 228 255
207 228 255
207 228 255
207 228 255
207 228 255
208 228 255
208 228 255
208 228 255
208 228 255
208 228 255
208 228 255
208 228 255
208 228 255
208 228 255
208 228 255
208 228 255
208 228 255
208 228 255
208 228 255
208 228 255
208 228 255
208 228 255
208 228 255
208 228 255
208 228 255
208 228 255
209 228 255
209 228 255
209 229 255
209 229 255
209 229 255
209 229 255
209 229 255
209 229 255
209 229 255
209 229 255
209 229 255
209 229 255
209 229 255
209 229 255
209 229 255
209 229 255
209 229 255
209 229 255
209 229 255
209 229 255
209 229 255
209 229 255
209 229 255
209 229 255
209 229 255
209 229 255
209 229 255
209 229 255
209 229 255
209 229 255
209 228 255
208 228 255
208 228 255
208 228 255
208 228 255
208 228 255
208 228 255
208 228 255
208 228 255
208 228 255
208 228 255
208 228 255
208 228 255
208 228 255
208 228 255
208 228 255
208 228 255
208 228 255
208 228 255
208 228 255
208 228 255
208 228 255
207 228 255
207 228 255
207 228 255
207 228 255
207 228 255
207 228 255
207 228 255
207 228 255
207 228 255
207 228 255
207 228 255
207 228 255
207 228 255
207 228 255
207 227 255
207 227 255
207 227 255
207 227 255
206 227 255
206 227 255
206 227 255
206 227 255
206 227 255
206 227 255
206 227 255
206 227 255
206 227 255
206 227 255
206 227 255
206 227 255
206 227 255
206 227 255
206 227 255
206 227 255
206 227 255
206 227 255
205 227 255
205 227 255
205 227 255
205 227 255
205 227 255
205 227 255
205 227 255
205 227 255
205 227 255
205 227 255
205 226 255
205 226 255
205 226 255
205 226 255
205 226 255
205 226 255
204 226 255
204 226 255
204 226 255
204 226 255
204 226 255
204 226 255
204 226 255
204 226 255
204 226 255
204 226 255
204 226 255
204 226 255
204 226 255
204 226 255
204 226 255
204 226 255
203 226 255
203 226 255
203 226 255
203 226 255
203 226 255
203 226 255
203 226 255
203 225 255
203 225 255
203 225 255
203 225 255
203 225 255
203 225 255
203 225 255
203 225 255
203 225 255
202 225 255
202 225 255
202 225 255
202 225 255
202 225 255
202 225 255
202 225 255
202 225 255
202 225 255
202 225 255
202 225 255
202 225 255
202 225 255
202 225 255
202 225 255
202 225 255
201 225 255
201 225 255
201 225 255
201 225 255
201 225 255
201 225 255
201 224 255
201 224 255
201 224 255
201 224 255
201 224 255
201 224 255
201 224 255
201 224 255
201 224 255
201 224 255
201 224 255
201 224 255
201 224 255
200 224 255
200 224 255
200 224 255
200 224 255
200 224 255
200 224 255
200 224 255
200 224 255
200 224 255
200 224 255
200 224 255
200 224 255
200 224 255
200 224 255
200 224 255
200 224 255
200 224 255
200 224 255
200 224 255
200 224 255
200 224 255
200 224 255
200 224 255
200 224 255
200 224 255
200 224 255
200 224 255
200 224 255
200 224 255
200 224 255
200 224 255
200 224 255
200 224 255
200 224 255
199 224 255
199 224 255
199 224 255
199 224 255
199 224 255
199 224 255
199 224 255
199 224 255
199 224 255
199 224 255
199 224 255
199 224 255
199 224 255
199 224 255
199 224 255
199 224 255
199 224 255
199 224 255
200 224 255
200 224 255
200 224 255
200 224 255
200 224 255
200 224 255
200 224 255
200 224 255
200 224 255
200 224 255
200 224 255
200 224 255
200 224 255
200 224 255
200 224 255
200 224 255
200 224 255
200 224 255
200 224 255
200 224 255
200 224 255
200 224 255
200 224 255
200 224 255
200 224 255
200 224 255
200 224 255
200 224 255
200 224 255
200 224 255
200 224 255
200 224 255
200 224 255
200 224 255
201 224 255
201 224 255
201 224 255
201 224 255
201 224 255
201 224 255
201 224 255
201 224 255
201 224 255
201 224 255
201 224 255
201 224 255
201 224 255
201 224 255
201 225 255
201 225 255
201 225 255
201 225 255
201 225 255
202 225 255
202 225 255
202 225 255
202 225 255
202 225 255
202 225 255
202 225 255
202 225 255
202 225 255
202 225 255
202 225 255
202 225 255
202 225 255
202 225 255
202 225 255
202 225 255
203 225 255
203 225 255
203 225 255
203 225 255
203 225 255
203 225 255
203 225 255
203 225 255
203 225 255
203 226 255
203 226 255
203 226 255
203 226 255
203 226 255
203 226 255
203 226 255
204 226 255
204 226 255
204 226 255
204 226 255
204 226 255
204 226 255
204 226 255
204 226 255
204 226 255
204 226 255
204 226 255
204 226 255
204 226 255
204 226 255
204 226 255
204 226 255
205 226 255
205 226 255
205 226 255
205 226 255
205 226 255
205 226 255
205 227 255
205 227 255
205 227 255
205 227 255
205 227 255
205 227 255
205 227 255
205 227 255
205 227 255
205 227 255
206 227 255
206 227 255
206 227 255
206 227 255
206 227 255
206 227 255
206 227 255
206 227 255
206 227 255
206 227 255
206 227 255
206 227 255
206 227 255
206 227 255
206 227 255
206 227 255
206 227 255
206 227 255
207 227 255
207 227 255
207 227 255
207 227 255
207 228 255
207 228 255
207 228 255
207 228 255
207 228 255
207 228 255
207 228 255
207 228 255
207 228 255
207 228 255
207 228 255
207 228 255
207 228 255
207 228 255
208 228 255
208 228 255
208 228 255
208 228 255
208 228 255
208 228 255
208 228 255
208 228 255
208 228 255
208 228 255
208 228 255
208 228 255
208 228 255
208 228 255
208 228 255
208 228 255
208 228 255
208 228 255
208 228 255
208 228 255
208 228 255
209 228 255
209 229 255
209 229 255
209 229 255
209 229 255
209 229 255
209 229 255
209 229 255
209 229 255
209 229 255
209 229 255
209 229 255
209 229 255
209 229 255
209 229 255
209 229 255
209 229 255
209 229 255
209 229 255
209 229 255
209 229 255
209 229 255
209 229 255
209 229 255
209 229 255
209 229 255
209 229 255
209 229 255
209 229 255
209 229 255
209 229 255
209 229 255
209 229 255
209 229 255
209 229 255
209 229 255
209 228 255
209 228 255
208 228 255
208 228 255
208 228 255
208 228 255
208 228 255
208 228 255
208 228 255
208 228 255
208 228 255
208 228 255
208 228 255
208 228 255
208 228 255
208 228 255
208 228 255
208 228 255
208 228 255
208 228 255
208 228 255
208 228 255
207 228 255
207 228 255
207 228 255
207 228 255
207 228 255
207 228 255
207 228 255
207 228 255
207 228 255
207 228 255
207 228 255
207 228 255
207 228 255
207 228 255
207 227 255
207 227 255
207 227 255
207 227 255
207 227 255
206 227 255
206 227 255
206 227 255
206 227 255
206 227 255
206 227 255
206 227 255
206 227 255
206 227 255
206 227 255
206 227 255
206 227 255
206 227 255
206 227 255
206 227 255
206 227 255
206 227 255
205 227 255
205 227 255
205 227 255
205 227 255
205 227 255
205 227 255
205 227 255
205 227 255
205 227 255
205 227 255
205 226 255
205 226 255
205 226 255
205 226 255
205 226 255
205 226 255
204 226 255
204 226 255
204 226 255
204 226 255
204 226 255
204 226 255
204 226 255
204 226 255
204 226 255
204 226 255
204 226 255
204 226 255
204 226 255
204 226 255
204 226 255
204 226 255
203 226 255
203 226 255
203 226 255
203 226 255
203 226 255
203 226 255
203 226 255
203 225 255
203 225 255
203 225 255
203 225 255
203 225 255
203 225 255
203 225 255
203 225 255
203 225 255
202 225 255
202 225 255
202 225 255
202 225 255
202 225 255
202 225 255
202 225 255
202 225 255
202 225 255
202 225 255
202 225 255
202 225 255
202 225 255
202 225 255
202 225 255
202 225 255
202 225 255
201 225 255
201 225 255
201 225 255
201 225 255
201 225 255
201 224 255
201 224 255
201 224 255
201 224 255
201 224 255
201 224 255
201 224 255
201 224 255
201 224 255
201 224 255
201 224 255
201 224 255
201 224 255
201 224 255
201 224 255
200 224 255
200 224 255
200 224 255
200 224 255
200 224 255
200 224 255
200 224 255
200 224 255
200 224 255
200 224 255
200 224 255
200 224 255
200 224 255
200 224 255
200 224 255
200 224 255
200 224 255
200 224 255
200 224 255
200 224 255
200 224 255
200 224 255
200 224 255
200 224 255
200 224 255
200 224 255
200 224 255
200 224 255
200 224 255
200 224 255
200 224 255
200 224 255
200 224 255
200 224 255
200 224 255
200 224 255
200 224 255
200 224 255
200 224 255
200 224 255
200 224 255
200 224 255
200 224 255
200 224 255
200 224 255
200 224 255
200 224 255
200 224 255
200 224 255
200 224 255
200 224 255
200 224 255
200 224 255
200 224 255
200 224 255
200 224 255
200 224 255
200 224 255
200 224 255
200 224 255
200 224 255
200 224 255
200 224 255
200 224 255
200 224 255
200 224 255
200 224 255
200 224 255
200 224 255
200 224 255
200 224 255
200 224 255
200 224 255
200 224 255
200 224 255
200 224 255
201 224 255
201 224 255
201 224 255
201 224 255
201 224 255
201 224 255
201 224 255
201 224 255
201 224 255
201 224 255
201 224 255
201 224 255
201 224 255
201 224 255
201 224 255
201 225 255
201 225 255
201 225 255
201 225 255
201 225 255
202 225 255
202 225 255
202 225 255
202 225 255
202 225 255
202 225 255
202 225 255
202 225 255
202 225 255
202 225 255
202 225 255
202 225 255
202 225 255
202 225 255
202 225 255
202 225 255
202 225 255
203 225 255
203 225 255
203 225 255
203 225 255
203 225 255
203 225 255
203 225 255
203 225 255
203 225 255
203 226 255
203 226 255
203 226 255
203 226 255
203 226 255
203 226 255
203 226 255
204 226 255
204 226 255
204 226 255
204 226 255
204 226 255
204 226 255
204 226 255
204 226 255
204 226 255
204 226 255
204 226 255
204 226 255
204 226 255
204 226 255
204 226 255
204 226 255
205 226 255
205 226 255
205 226 255
205 226 255
205 226 255
205 226 255
205 226 255
205 227 255
205 227 255
205 227 255
205 227 255
205 227 255
205 227 255
205 227 255
205 227 255
205 227 255
206 227 255
206 227 255
206 227 255
206 227 255
206 227 255
206 227 255
206 227 255
206 227 255
206 227 255
206 227 255
206 227 255
206 227 255
206 227 255
206 227 255
206 227 255
206 227 255
206 227 255
206 227 255
207 227 255
207 227 255
207 227 255
207 227 255
207 228 255
207 228 255
207 228 255
207 228 255
207 228 255
207 228 255
207 228 255
207 228 255
207 228 255
207 228 255
207 228 255
207 228 255
207 228 255
207 228 255
208 228 255
208 228 255
208 228 255
208 228 255
208 228 255
208 228 255
208 228 255
208 228 255
208 228 255
208 228 255
208 228 255
208 228 255
208 228 255
208 228 255
208 228 255
208 228 255
208 228 255
208 228 255
208 228 255
208 228 255
209 228 255
209 228 255
209 229 255
209 229 255
209 229 255
209 229 255
209 229 255
209 229 255
209 229 255
209 229 255
209 229 255
209 229 255
209 229 255
209 229 255
209 229 255
209 229 255
209 229 255
209 229 255
209 229 255
209 229 255
209 229 255
210 229 255
209 229 255
209 229 255
209 229 255
209 229 255
209 229 255
209 229 255
209 229 255
209 229 255
209 229 255
209 229 255
209 229 255
209 229 255
209 229 255
209 229 255
209 229 255
209 229 255
209 229 255
209 229 255
209 229 255
209 229 255
209 229 255
209 229 255
209 228 255
208 228 255
208 228 255
208 228 255
208 228 255
208 228 255
208 228 255
208 228 255
208 228 255
208 228 255
208 228 255
208 228 255
208 228 255
208 228 255
208 228 255
208 228 255
208 228 255
208 228 255
208 228 255
208 228 255
208 228 255
207 228 255
207 228 255
207 228 255
207 228 255
207 228 255
207 228 255
207 228 255
207 228 255
207 228 255
207 228 255
207 228 255
207 228 255
207 228 255
207 228 255
207 227 255
207 227 255
207 227 255
207 227 255
207 227 255
206 227 255
206 227 255
206 227 255
206 227 255
206 227 255
206 227 255
206 227 255
206 227 255
206 227 255
206 227 255
206 227 255
206 227 255
206 227 255
206 227 255
206 227 255
206 227 255
206 227 255
205 227 255
205 227 255
205 227 255
205 227 255
205 227 255
205 227 255
205 227 255
205 227 255
205 227 255
205 227 255
205 226 255
205 226 255
205 226 255
205 226 255
205 226 255
205 226 255
204 226 255
204 226 255
204 226 255
204 226 255
204 226 255
204 226 255
204 226 255
204 226 255
204 226 255
204 226 255
204 226 255
204 226 255
204 226 255
204 226 255
204 226 255
204 226 255
203 226 255
203 226 255
203 226 255
203 226 255
203 226 255
203 226 255
203 226 255
203 225 255
203 225 255
203 225 255
203 225 255
203 225 255
203 225 255
203 225 255
203 225 255
203 225 255
202 225 255
202 225 255
202 225 255
202 225 255
202 225 255
202 225 255
202 225 255
202 225 255
202 225 255
202 225 255
202 225 255
202 225 255
202 225 255
202 225 255
202 225 255
202 225 255
202 225 255
202 225 255
201 225 255
201 225 255
201 225 255
201 225 255
201 225 255
201 224 255
201 224 255
201 224 255
201 224 255
201 224 255
201 224 255
201 224 255
201 224 255
201 224 255
201 224 255
201 224 255
201 224 255
201 224 255
201 224 255
201 224 255
201 224 255
200 224 255
200 224 255
200 224 255
200 224 255
200 224 255
200 224 255
200 224 255
200 224 255
200 224 255
200 224 255
200 224 255
200 224 255
200 224 255
200 224 255
200 224 255
200 224 255
200 224 255
200 224 255
200 224 255
200 224 255
200 224 255
200 224 255
200 224 255
200 224 255
200 224 255
200 224 255
200 224 255
200 224 255
200 224 255
200 224 255
200 224 255
200 224 255
200 224 255
200 224 255
200 224 255
200 224 255
200 224 255
200 224 255
200 224 255
200 224 255
200 224 255
200 224 255
200 224 255
200 224 255
200 224 255
200 224 255
200 224 255
200 224 255
200 224 255
200 224 255
200 224 255
200 224 255
200 224 255
200 224 255
200 224 255
200 224 255
200 224 255
200 224 255
200 224 255
200 224 255
200 224 255
200 224 255
200 224 255
200 224 255
200 224 255
201 224 255
201 224 255
201 224 255
201 224 255
201 224 255
201 224 255
201 224 255
201 224 255
201 224 255
201 224 255
201 224 255
201 224 255
201 224 255
201 224 255
201 224 255
201 224 255
201 224 255
201 225 255
201 225 255
201 225 255
201 225 255
201 225 255
202 225 255
202 225 255
202 225 255
202 225 255
202 225 255
202 225 255
202 225 255
202 225 255
202 225 255
202 225 255
202 225 255
202 225 255
202 225 255
202 225 255
202 225 255
202 225 255
202 225 255
202 225 255
203 225 255
203 225 255
203 225 255
203 225 255
203 225 255
203 225 255
203 225 255
203 225 255
203 225 255
203 226 255
203 226 255
203 226 255
203 226 255
203 226 255
203 226 255
203 226 255
204 226 255
204 226 255
204 226 255
204 226 255
204 226 255
204 226 255
204 226 255
204 226 255
204 226 255
204 226 255
204 226 255
204 226 255
204 226 255
204 226 255
204 226 255
204 226 255
205 226 255
205 226 255
205 226 255
205 226 255
205 226 255
205 226 255
205 227 255
205 227 255
205 227 255
205 227 255
205 227 255
205 227 255
205 227 255
205 227 255
205 227 255
205 227 255
206 227 255
206 227 255
206 227 255
206 227 255
206 227 255
206 227 255
206 227 255
206 227 255
206 227 255
206 227 255
206 227 255
206 227 255
206 227 255
206 227 255
206 227 255
206 227 255
206 227 255
207 227 255
207 227 255
207 227 255
207 227 255
207 227 255
207 228 255
207 228 255
207 228 255
207 228 255
207 228 255
207 228 255
207 228 255
207 228 255
207 228 255
207 228 255
207 228 255
207 228 255
207 228 255
207 228 255
208 228 255
208 228 255
208 228 255
208 228 255
208 228 255
208 228 255
208 228 255
208 228 255
208 228 255
208 228 255
208 228 255
208 228 255
208 228 255
208 228 255
208 228 255
208 228 255
208 228 255
208 228 255
208 228 255
208 228 255
209 228 255
209 228 255
209 229 255
209 229 255
209 229 255
209 229 255
209 229 255
209 229 255
209 229 255
209 229 255
209 229 255
209 229 255
209 229 255
209 229 255
209 229 255
209 229 255
209 229 255
209 229 255
209 229 255
209 229 255
209 229 255
209 229 255
209 229 255
210 229 255
210 229 255
210 229 255
210 229 255
210 229 255
210 229 255
209 229 255
209 229 255
209 229 255
209 229 255
209 229 255
209 229 255
209 229 255
209 229 255
209 229 255
209 229 255
209 229 255
209 229 255
209 229 255
209 229 255
209 229 255
209 229 255
209 229 255
209 229 255
209 229 255
209 229 255
209 229 255
209 228 255
208 228 255
208 228 255
208 228 255
208 228 255
208 228 255
208 228 255
208 228 255
208 228 255
208 228 255
208 228 255
208 228 255
208 228 255
208 228 255
208 228 255
208 228 255
208 228 255
208 228 255
208 228 255
208 228 255
208 228 255
207 228 255
207 228 255
207 228 255
207 228 255
207 228 255
207 228 255
207 228 255
207 228 255
207 228 255
207 228 255
207 228 255
207 228 255
207 228 255
207 228 255
207 227 255
207 227 255
207 227 255
207 227 255
207 227 255
206 227 255
206 227 255
206 227 255
206 227 255
206 227 255
206 227 255
206 227 255
206 227 255
206 227 255
206 227 255
206 227 255
206 227 255
206 227 255
206 227 255
206 227 255
206 227 255
206 227 255
205 227 255
205 227 255
205 227 255
205 227 255
205 227 255
205 227 255
205 227 255
205 227 255
205 227 255
205 227 255
205 226 255
205 226 255
205 226 255
205 226 255
205 226 255
205 226 255
204 226 255
204 226 255
204 226 255
204 226 255
204 226 255
204 226 255
204 226 255
204 226 255
204 226 255
204 226 255
204 226 255
204 226 255
204 226 255
204 226 255
204 226 255
204 226 255
203 226 255
203 226 255
203 226 255
203 226 255
203 226 255
203 226 255
203 226 255
203 225 255
203 225 255
203 225 255
203 225 255
203 225 255
203 225 255
203 225 255
203 225 255
203 225 255
203 225 255
202 225 255
202 225 255
202 225 255
202 225 255
202 225 255
202 225 255
202 225 255
202 225 255
202 225 255
202 225 255
202 225 255
202 225 255
202 225 255
202 225 255
202 225 255
202 225 255
202 225 255
201 225 255
201 225 255
201 225 255
201 225 255
201 225 255
201 225 255
201 225 255
201 224 255
201 224 255
201 224 255
201 224 255
201 224 255
201 224 255
201 224 255
201 224 255
201 224 255
201 224 255
201 224 255
201 224 255
201 224 255
201 224 255
201 224 255
201 224 255
201 224 255
200 224 255
200 224 255
200 224 255
200 224 255
200 224 255
200 224 255
200 224 255
200 224 255
200 224 255
200 224 255
200 224 255
200 224 255
200 224 255
200 224 255
200 224 255
200 224 255
200 224 255
200 224 255
200 224 255
200 224 255
200 224 255
200 224 255
200 224 255
200 224 255
200 224 255
200 224 255
200 224 255
200 224 255
200 224 255
200 224 255
200 224 255
200 224 255
200 224 255
200 224 255
200 224 255
200 224 255
200 224 255
200 224 255
200 224 255
200 224 255
200 224 255
200 224 255
200 224 255
200 224 255
200 224 255
200 224 255
200 224 255
200 224 255
200 224 255
200 224 255
200 224 255
200 224 255
200 224 255
200 224 255
201 224 255
201 224 255
201 224 255
201 224 255
201 224 255
201 224 255
201 224 255
201 224 255
201 224 255
201 224 255
201 224 255
201 224 255
201 224 255
201 224 255
201 224 255
201 224 255
201 224 255
201 225 255
201 225 255
201 225 255
201 225 255
201 225 255
201 225 255
201 225 255
202 225 255
202 225 255
202 225 255
202 225 255
202 225 255
202 225 255
202 225 255
202 225 255
202 225 255
202 225 255
202 225 255
202 225 255
202 225 255
202 225 255
202 225 255
202 225 255
202 225 255
203 225 255
203 225 255
203 225 255
203 225 255
203 225 255
203 225 255
203 225 255
203 225 255
203 225 255
203 225 255
203 226 255
203 226 255
203 226 255
203 226 255
203 226 255
203 226 255
203 226 255
204 226 255
204 226 255
204 226 255
204 226 255
204 226 255
204 226 255
204 226 255
204 226 255
204 226 255
204 226 255
204 226 255
204 226 255
204 226 255
204 226 255
204 226 255
204 226 255
205 226 255
205 226 255
205 226 255
205 226 255
205 226 255
205 226 255
205 227 255
205 227 255
205 227 255
205 227 255
205 227 255
205 227 255
205 227 255
205 227 255
205 227 255
205 227 255
206 227 255
206 227 255
206 227 255
206 227 255
206 227 255
206 227 255
206 227 255
206 227 255
206 227 255
206 227 255
206 227 255
206 227 255
206 227 255
206 227 255
206 227 255
206 227 255
206 227 255
207 227 255
207 227 255
207 227 255
207 227 255
207 228 255
207 228 255
207 228 255
207 228 255
207 228 255
207 228 255
207 228 255
207 228 255
207 228 255
207 228 255
207 228 255
207 228 255
207 228 255
207 228 255
207 228 255
208 228 255
208 228 255
208 228 255
208 228 255
208 228 255
208 228 255
208 228 255
208 228 255
208 228 255
208 228 255
208 228 255
208 228 255
208 228 255
208 228 255
208 228 255
208 228 255
208 228 255
208 228 255
208 228 255
208 228 255
209 228 255
209 229 255
209 229 255
209 229 255
209 229 255
209 229 255
209 229 255
209 229 255
209 229 255
209 229 255
209 229 255
209 229 255
209 229 255
209 229 255
209 229 255
209 229 255
209 229 255
209 229 255
209 229 255
209 229 255
209 229 255
209 229 255
210 229 255
210 229 255
210 229 255
210 229 255
210 229 255
210 229 255
210 229 255
210 229 255
210 229 255
210 229 255
210 229 255
210 229 255
210 229 255
210 229 255
209 229 255
209 229 255
209 229 255
209 229 255
209 229 255
209 229 255
209 229 255
209 229 255
209 229 255
209 229 255
209 229 255
209 229 255
209 229 255
209 229 255
209 229 255
209 229 255
209 229 255
209 229 255
209 229 255
209 229 255
209 228 255
209 228 255
208 228 255
208 228 255
208 228 255
208 228 255
208 228 255
208 228 255
208 228 255
208 228 255
208 228 255
208 228 255
208 228 255
208 228 255
208 228 255
208 228 255
208 228 255
208 228 255
208 228 255
208 228 255
208 228 255
208 228 255
207 228 255
207 228 255
207 228 255
207 228 255
207 228 255
207 228 255
207 228 255
207 228 255
207 228 255
207 228 255
207 228 255
207 228 255
207 228 255
207 228 255
207 227 255
207 227 255
207 227 255
207 227 255
206 227 255
206 227 255
206 227 255
206 227 255
206 227 255
206 227 255
206 227 255
206 227 255
206 227 255
206 227 255
206 227 255
206 227 255
206 227 255
206 227 255
206 227 255
206 227 255
206 227 255
205 227 255
205 227 255
205 227 255
205 227 255
205 227 255
205 227 255
205 227 255
205 227 255
205 227 255
205 227 255
205 226 255
205 226 255
205 226 255
205 226 255
205 226 255
205 226 255
204 226 255
204 226 255
204 226 255
204 226 255
204 226 255
204 226 255
204 226 255
204 226 255
204 226 255
204 226 255
204 226 255
204 226 255
204 226 255
204 226 255
204 226 255
204 226 255
203 226 255
203 226 255
203 226 255
203 226 255
203 226 255
203 226 255
203 226 255
203 226 255
203 225 255
203 225 255
203 225 255
203 225 255
203 225 255
203 225 255
203 225 255
203 225 255
203 225 255
202 225 255
202 225 255
202 225 255
202 225 255
202 225 255
202 225 255
202 225 255
202 225 255
202 225 255
202 225 255
202 225 255
202 225 255
202 225 255
202 225 255
202 225 255
202 225 255
202 225 255
202 225 255
202 225 255
201 225 255
201 225 255
201 225 255
201 225 255
201 225 255
201 225 255
201 224 255
201 224 255
201 224 255
201 224 255
201 224 255
201 224 255
201 224 255
201 224 255
201 224 255
201 224 255
201 224 255
201 224 255
201 224 255
201 224 255
201 224 255
201 224 255
201 224 255
201 224 255
201 224 255
201 224 255
201 224 255
201 224 255
200 224 255
200 224 255
200 224 255
200 224 255
200 224 255
200 224 255
200 224 255
200 224 255
200 224 255
200 224 255
200 224 255
200 224 255
200 224 255
200 224 255
200 224 255
200 224 255
200 224 255
200 224 255
200 224 255
200 224 255
200 224 255
200 224 255
200 224 255
200 224 255
200 224 255
200 224 255
200 224 255
200 224 255
200 224 255
200 224 255
200 224 255
200 224 255
200 224 255
200 224 255
200 224 255
200 224 255
200 224 255
201 224 255
201 224 255
201 224 255
201 224 255
201 224 255
201 224 255
201 224 255
201 224 255
201 224 255
201 224 255
201 224 255
201 224 255
201 224 255
201 224 255
201 224 255
201 224 255
201 224 255
201 224 255
201 224 255
201 224 255
201 224 255
201 225 255
201 225 255
201 225 255
201 225 255
201 225 255
201 225 255
202 225 255
202 225 255
202 225 255
202 225 255
202 225 255
202 225 255
202 225 255
202 225 255
202 225 255
202 225 255
202 225 255
202 225 255
202 225 255
202 225 255
202 225 255
202 225 255
202 225 255
202 225 255
202 225 255
203 225 255
203 225 255
203 225 255
203 225 255
203 225 255
203 225 255
203 225 255
203 225 255
203 225 255
203 226 255
203 226 255
203 226 255
203 226 255
203 226 255
203 226 255
203 226 255
203 226 255
204 226 255
204 226 255
204 226 255
204 226 255
204 226 255
204 226 255
204 226 255
204 226 255
204 226 255
204 226 255
204 226 255
204 226 255
204 226 255
204 226 255
204 226 255
204 226 255
205 226 255
205 226 255
205 226 255
205 226 255
205 226 255
205 226 255
205 227 255
205 227 255
205 227 255
205 227 255
205 227 255
205 227 255
205 227 255
205 227 255
205 227 255
205 227 255
206 227 255
206 227 255
206 227 255
206 227 255
206 227 255
206 227 255
206 227 255
206 227 255
206 227 255
206 227 255
206 227 255
206 227 255
206 227 255
206 227 255
206 227 255
206 227 255
206 227 255
207 227 255
207 227 255
207 227 255
207 227 255
207 228 255
207 228 255
207 228 255
207 228 255
207 228 255
207 228 255
207 228 255
207 228 255
207 228 255
207 228 255
207 228 255
207 228 255
207 228 255
207 228 255
208 228 255
208 228 255
208 228 255
208 228 255
208 228 255
208 228 255
208 228 255
208 228 255
208 228 255
208 228 255
208 228 255
208 228 255
208 228 255
208 228 255
208 228 255
208 228 255
208 228 255
208 228 255
208 228 255
208 228 255
209 228 255
209 228 255
209 229 255
209 229 255
209 229 255
209 229 255
209 229 255
209 229 255
209 229 255
209 229 255
209 229 255
209 229 255
209 229 255
209 229 255
209 229 255
209 229 255
209 229 255
209 229 255
209 229 255
209 229 255
209 229 255
209 229 255
210 229 255
210 229 255
210 229 255
210 229 255
210 229 255
210 229 255
210 229 255
210 229 255
210 229 255
210 229 255
210 229 255
210 229 255
210 229 255
210 229 255
210 229 255
210 229 255
210 229 255
210 229 255
210 229 255
210 229 255
210 229 255
209 229 255
209 229 255
209 229 255
209 229 255
209 229 255
209 229 255
209 229 255
209 229 255
209 229 255
209 229 255
209 229 255
209 229 255
209 229 255
209 229 255
209 229 255
209 229 255
209 229 255
209 229 255
209 229 255
209 229 255
209 229 255
209 228 255
208 228 255
208 228 255
208 228 255
208 228 255
208 228 255
208 228 255
208 228 255
208 228 255
208 228 255
208 228 255
208 228 255
208 228 255
208 228 255
208 228 255
208 228 255
208 228 255
208 228 255
208 228 255
208 228 255
208 228 255
207 228 255
207 228 255
207 228 255
207 228 255
207 228 255
207 228 255
207 228 255
207 228 255
207 228 255
207 228 255
207 228 255
207 228 255
207 228 255
207 228 255
207 227 255
207 227 255
207 227 255
207 227 255
206 227 255
206 227 255
206 227 255
206 227 255
206 227 255
206 227 255
206 227 255
206 227 255
206 227 255
206 227 255
206 227 255
206 227 255
206 227 255
206 227 255
206 227 255
206 227 255
206 227 255
205 227 255
205 227 255
205 227 255
205 227 255
205 227 255
205 227 255
205 227 255
205 227 255
205 227 255
205 227 255
205 226 255
205 226 255
205 226 255
205 226 255
205 226 255
205 226 255
204 226 255
204 226 255
204 226 255
204 226 255
204 226 255
204 226 255
204 226 255
204 226 255
204 226 255
204 226 255
204 226 255
204 226 255
204 226 255
204 226 255
204 226 255
204 226 255
204 226 255
203 226 255
203 226 255
203 226 255
203 226 255
203 226 255
203 226 255
203 226 255
203 225 255
203 225 255
203 225 255
203 225 255
203 225 255
203 225 255
203 225 255
203 225 255
203 225 255
203 225 255
202 225 255
202 225 255
202 225 255
202 225 255
202 225 255
202 225 255
202 225 255
202 225 255
202 225 255
202 225 255
202 225 255
202 225 255
202 225 255
202 225 255
202 225 255
202 225 255
202 225 255
202 225 255
202 225 255
201 225 255
201 225 255
201 225 255
201 225 255
201 225 255
201 225 255
201 225 255
201 225 255
201 224 255
201 224 255
201 224 255
201 224 255
201 224 255
201 224 255
201 224 255
201 224 255
201 224 255
201 224 255
201 224 255
201 224 255
201 224 255
201 224 255
201 224 255
201 224 255
201 224 255
201 224 255
201 224 255
201 224 255
201 224 255
201 224 255
201 224 255
201 224 255
201 224 255
201 224 255
201 224 255
201 224 255
201 224 255
201 224 255
201 224 255
201 224 255
201 224 255
201 224 255
201 224 255
201 224 255
201 224 255
201 224 255
201 224 255
201 224 255
201 224 255
201 224 255
201 224 255
201 224 255
201 224 255
201 224 255
201 224 255
201 224 255
201 224 255
201 224 255
201 224 255
201 224 255
201 224 255
201 224 255
201 224 255
201 224 255
201 224 255
201 224 255
201 224 255
201 224 255
201 224 255
201 224 255
201 224 255
201 224 255
201 224 255
201 224 255
201 224 255
201 224 255
201 225 255
201 225 255
201 225 255
201 225 255
201 225 255
201 225 255
201 225 255
202 225 255
202 225 255
202 225 255
202 225 255
202 225 255
202 225 255
202 225 255
202 225 255
202 225 255
202 225 255
202 225 255
202 225 255
202 225 255
202 225 255
202 225 255
202 225 255
202 225 255
202 225 255
202 225 255
202 225 255
203 225 255
203 225 255
203 225 255
203 225 255
203 225 255
203 225 255
203 225 255
203 225 255
203 225 255
203 225 255
203 226 255
203 226 255
203 226 255
203 226 255
203 226 255
203 226 255
203 226 255
204 226 255
204 226 255
204 226 255
204 226 255
204 226 255
204 226 255
204 226 255
204 226 255
204 226 255
204 226 255
204 226 255
204 226 255
204 226 255
204 226 255
204 226 255
204 226 255
204 226 255
205 226 255
205 226 255
205 226 255
205 226 255
205 226 255
205 226 255
205 227 255
205 227 255
205 227 255
205 227 255
205 227 255
205 227 255
205 227 255
205 227 255
205 227 255
205 227 255
206 227 255
206 227 255
206 227 255
206 227 255
206 227 255
206 227 255
206 227 255
206 227 255
206 227 255
206 227 255
206 227 255
206 227 255
206 227 255
206 227 255
206 227 255
206 227 255
206 227 255
207 227 255
207 227 255
207 227 255
207 227 255
207 228 255
207 228 255
207 228 255
207 228 255
207 228 255
207 228 255
207 228 255
207 228 255
207 228 255
207 228 255
207 228 255
207 228 255
207 228 255
207 228 255
208 228 255
208 228 255
208 228 255
208 228 255
208 228 255
208 228 255
208 228 255
208 228 255
208 228 255
208 228 255
208 228 255
208 228 255
208 228 255
208 228 255
208 228 255
208 228 255
208 228 255
208 228 255
208 228 255
208 228 255
209 228 255
209 229 255
209 229 255
209 229 255
209 229 255
209 229 255
209 229 255
209 229 255
209 229 255
209 229 255
209 229 255
209 229 255
209 229 255
209 229 255
209 229 255
209 229 255
209 229 255
209 229 255
209 229 255
209 229 255
209 229 255
209 229 255
210 229 255
210 229 255
210 229 255
210 229 255
210 229 255
210 229 255
210 229 255
210 229 255
210 229 255
210 229 255
210 229 255
210 229 255
210 229 255
210 229 255
210 229 255
210 229 255
210 229 255
210 229 255
210 229 255
210 229 255
210 229 255
210 229 255
210 229 255
210 229 255
210 229 255
210 229 255
210 229 255
210 229 255
209 229 255
209 229 255
209 229 255
209 229 255
209 229 255
209 229 255
209 229 255
209 229 255
209 229 255
209 229 255
209 229 255
209 229 255
209 229 255
209 229 255
209 229 255
209 229 255
209 229 255
209 229 255
209 229 255
209 229 255
209 228 255
209 228 255
208 228 255
208 228 255
208 228 255
208 228 255
208 228 255
208 228 255
208 228 255
208 228 255
208 228 255
208 228 255
208 228 255
208 228 255
208 228 255
208 228 255
208 228 255
208 228 255
208 228 255
208 228 255
208 228 255
207 228 255
207 228 255
207 228 255
207 228 255
207 228 255
207 228 255
207 228 255
207 228 255
207 228 255
207 228 255
207 228 255
207 228 255
207 228 255
207 228 255
207 227 255
207 227 255
207 227 255
207 227 255
206 227 255
206 227 255
206 227 255
206 227 255
206 227 255
206 227 255
206 227 255
206 227 255
206 227 255
206 227 255
206 227 255
206 227 255
206 227 255
206 227 255
206 227 255
206 227 255
206 227 255
205 227 255
205 227 255
205 227 255
205 227 255
205 227 255
205 227 255
205 227 255
205 227 255
205 227 255
205 227 255
205 226 255
205 226 255
205 226 255
205 226 255
205 226 255
205 226 255
205 226 255
204 226 255
204 226 255
204 226 255
204 226 255
204 226 255
204 226 255
204 226 255
204 226 255
204 226 255
204 226 255
204 226 255
204 226 255
204 226 255
204 226 255
204 226 255
204 226 255
203 226 255
203 226 255
203 226 255
203 226 255
203 226 255
203 226 255
203 226 255
203 226 255
203 225 255
203 225 255
203 225 255
203 225 255
203 225 255
203 225 255
203 225 255
203 225 255
203 225 255
203 225 255
202 225 255
202 225 255
202 225 255
202 225 255
202 225 255
202 225 255
202 225 255
202 225 255
202 225 255
202 225 255
202 225 255
202 225 255
202 225 255
202 225 255
202 225 255
202 225 255
202 225 255
202 225 255
202 225 255
202 225 255
202 225 255
201 225 255
201 225 255
201 225 255
201 225 255
201 225 255
201 225 255
201 225 255
201 225 255
201 224 255
201 224 255
201 224 255
201 224 255
201 224 255
201 224 255
201 224 255
201 224 255
201 224 255
201 224 255
201 224 255
201 224 255
201 224 255
201 224 255
201 224 255
201 224 255
201 224 255
201 224 255
201 224 255
201 224 255
201 224 255
201 224 255
201 224 255
201 224 255
201 224 255
201 224 255
201 224 255
201 224 255
201 224 255
201 224 255
201 224 255
201 224 255
201 224 255
201 224 255
201 224 255
201 224 255
201 224 255
201 224 255
201 224 255
201 224 255
201 224 255
201 224 255
201 224 255
201 224 255
201 224 255
201 224 255
201 224 255
201 224 255
201 224 255
201 224 255
201 224 255
201 224 255
201 224 255
201 224 255
201 224 255
201 224 255
201 225 255
201 225 255
201 225 255
201 225 255
201 225 255
201 225 255
201 225 255
201 225 255
201 225 255
202 225 255
202 225 255
202 225 255
202 225 255
202 225 255
202 225 255
202 225 255
202 225 255
202 225 255
202 225 255
202 225 255
202 225 255
202 225 255
202 225 255
202 225 255
202 225 255
202 225 255
202 225 255
202 225 255
202 225 255
203 225 255
203 225 255
203 225 255
203 225 255
203 225 255
203 225 255
203 225 255
203 225 255
203 225 255
203 225 255
203 226 255
203 226 255
203 226 255
203 226 255
203 226 255
203 226 255
203 226 255
203 226 255
204 226 255
204 226 255
204 226 255
204 226 255
204 226 255
204 226 255
204 226 255
204 226 255
204 226 255
204 226 255
204 226 255
204 226 255
204 226 255
204 226 255
204 226 255
204 226 255
205 226 255
205 226 255
205 226 255
205 226 255
205 226 255
205 226 255
205 226 255
205 227 255
205 227 255
205 227 255
205 227 255
205 227 255
205 227 255
205 227 255
205 227 255
205 227 255
206 227 255
206 227 255
206 227 255
206 227 255
206 227 255
206 227 255
206 227 255
206 227 255
206 227 255
206 227 255
206 227 255
206 227 255
206 227 255
206 227 255
206 227 255
206 227 255
206 227 255
206 227 255
207 227 255
207 227 255
207 227 255
207 227 255
207 228 255
207 228 255
207 228 255
207 228 255
207 228 255
207 228 255
207 228 255
207 228 255
207 228 255
207 228 255
207 228 255
207 228 255
207 228 255
207 228 255
208 228 255
208 228 255
208 228 255
208 228 255
208 228 255
208 228 255
208 228 255
208 228 255
208 228 255
208 228 255
208 228 255
208 228 255
208 228 255
208 228 255
208 228 255
208 228 255
208 228 255
208 228 255
208 228 255
209 228 255
209 228 255
209 229 255
209 229 255
209 229 255
209 229 255
209 229 255
209 229 255
209 229 255
209 229 255
209 229 255
209 229 255
209 229 255
209 229 255
209 229 255
209 229 255
209 229 255
209 229 255
209 229 255
209 229 255
209 229 255
209 229 255
210 229 255
210 229 255
210 229 255
210 229 255
210 229 255
210 229 255
210 229 255
210 229 255
210 229 255
210 229 255
210 229 255
210 229 255
210 229 255
210 229 255
210 229 255
210 229 255
210 229 255
210 229 255
210 229 255
210 229 255
210 229 255
210 229 255
210 229 255
210 229 255
210 229 255
210 229 255
210 229 255
210 229 255
210 229 255
210 229 255
210 229 255
210 229 255
210 229 255
210 229 255
210 229 255
209 229 255
209 229 255
209 229 255
209 229 255
209 229 255
209 229 255
209 229 255
209 229 255
209 229 255
209 229 255
209 229 255
209 229 255
209 229 255
209 229 255
209 229 255
209 229 255
209 229 255
209 229 255
209 229 255
209 229 255
209 229 255
209 228 255
208 228 255
208 228 255
208 228 255
208 228 255
208 228 255
208 228 255
208 228 255
208 228 255
208 228 255
208 228 255
208 228 255
208 228 255
208 228 255
208 228 255
208 228 255
208 228 255
208 228 255
208 228 255
208 228 255
208 228 255
207 228 255
207 228 255
207 228 255
207 228 255
207 228 255
207 228 255
207 228 255
207 228 255
207 228 255
207 228 255
207 228 255
207 228 255
207 228 255
207 227 255
207 227 255
207 227 255
207 227 255
207 227 255
206 227 255
206 227 255
206 227 255
206 227 255
206 227 255
206 227 255
206 227 255
206 227 255
206 227 255
206 227 255
206 227 255
206 227 255
206 227 255
206 227 255
206 227 255
206 227 255
206 227 255
205 227 255
205 227 255
205 227 255
205 227 255
205 227 255
205 227 255
205 227 255
205 227 255
205 227 255
205 226 255
205 226 255
205 226 255
205 226 255
205 226 255
205 226 255
205 226 255
204 226 255
204 226 255
204 226 255
204 226 255
204 226 255
204 226 255
204 226 255
204 226 255
204 226 255
204 226 255
204 226 255
204 226 255
204 226 255
204 226 255
204 226 255
204 226 255
204 226 255
203 226 255
203 226 255
203 226 255
203 226 255
203 226 255
203 226 255
203 226 255
203 225 255
203 225 255
203 225 255
203 225 255
203 225 255
203 225 255
203 225 255
203 225 255
203 225 255
203 225 255
203 225 255
202 225 255
202 225 255
202 225 255
202 225 255
202 225 255
202 225 255
202 225 255
202 225 255
202 225 255
202 225 255
202 225 255
202 225 255
202 225 255
202 225 255
202 225 255
202 225 255
202 225 255
202 225 255
202 225 255
202 225 255
202 225 255
202 225 255
202 225 255
201 225 255
201 225 255
201 225 255
201 225 255
201 225 255
201 225 255
201 225 255
201 225 255
201 225 255
201 225 255
201 224 255
201 224 255
201 224 255
201 224 255
201 224 255
201 224 255
201 224 255
201 224 255
201 224 255
201 224 255
201 224 255
201 224 255
201 224 255
201 224 255
201 224 255
201 224 255
201 224 255
201 224 255
201 224 255
201 224 255
201 224 255
201 224 255
201 224 255
201 224 255
201 224 255
201 224 255
201 224 255
201 224 255
201 224 255
201 224 255
201 224 255
201 224 255
201 224 255
201 224 255
201 224 255
201 224 255
201 224 255
201 224 255
201 224 255
201 224 255
201 225 255
201 225 255
201 225 255
201 225 255
201 225 255
201 225 255
201 225 255
201 225 255
201 225 255
201 225 255
202 225 255
202 225 255
202 225 255
202 225 255
202 225 255
202 225 255
202 225 255
202 225 255
202 225 255
202 225 255
202 225 255
202 225 255
202 225 255
202 225 255
202 225 255
202 225 255
202 225 255
202 225 255
202 225 255
202 225 255
202 225 255
202 225 255
202 225 255
203 225 255
203 225 255
203 225 255
203 225 255
203 225 255
203 225 255
203 225 255
203 225 255
203 225 255
203 225 255
203 226 255
203 226 255
203 226 255
203 226 255
203 226 255
203 226 255
203 226 255
203 226 255
204 226 255
204 226 255
204 226 255
204 226 255
204 226 255
204 226 255
204 226 255
204 226 255
204 226 255
204 226 255
204 226 255
204 226 255
204 226 255
204 226 255
204 226 255
204 226 255
204 226 255
205 226 255
205 226 255
205 226 255
205 226 255
205 226 255
205 226 255
205 226 255
205 227 255
205 227 255
205 227 255
205 227 255
205 227 255
205 227 255
205 227 255
205 227 255
205 227 255
206 227 255
206 227 255
206 227 255
206 227 255
206 227 255
206 227 255
206 227 255
206 227 255
206 227 255
206 227 255
206 227 255
206 227 255
206 227 255
206 227 255
206 227 255
206 227 255
206 227 255
207 227 255
207 227 255
207 227 255
207 227 255
207 227 255
207 228 255
207 228 255
207 228 255
207 228 255
207 228 255
207 228 255
207 228 255
207 228 255
207 228 255
207 228 255
207 228 255
207 228 255
207 228 255
208 228 255
208 228 255
208 228 255
208 228 255
208 228 255
208 228 255
208 228 255
208 228 255
208 228 255
208 228 255
208 228 255
208 228 255
208 228 255
208 228 255
208 228 255
208 228 255
208 228 255
208 228 255
208 228 255
208 228 255
209 228 255
209 229 255
209 229 255
209 229 255
209 229 255
209 229 255
209 229 255
209 229 255
209 229 255
209 229 255
209 229 255
209 229 255
209 229 255
209 229 255
209 229 255
209 229 255
209 229 255
209 229 255
209 229 255
209 229 255
209 229 255
209 229 255
210 229 255
210 229 255
210 229 255
210 229 255
210 229 255
210 229 255
210 229 255
210 229 255
210 229 255
210 229 255
210 229 255
210 229 255
210 229 255
210 229 255
210 229 255
210 229 255
210 229 255
210 229 255
210 229 255
210 230 255
210 229 255
210 229 255
210 229 255
210 229 255
210 229 255
210 229 255
210 229 255
210 229 255
210 229 255
210 229 255
210 229 255
210 229 255
210 229 255
210 229 255
210 229 255
210 229 255
210 229 255
210 229 255
210 229 255
210 229 255
210 229 255
210 229 255
209 229 255
209 229 255
209 229 255
209 229 255
209 229 255
209 229 255
209 229 255
209 229 255
209 229 255
209 229 255
209 229 255
209 229 255
209 229 255
209 229 255
209 229 255
209 229 255
209 229 255
209 229 255
209 229 255
209 229 255
209 228 255
209 228 255
208 228 255
208 228 255
208 228 255
208 228 255
208 228 255
208 228 255
208 228 255
208 228 255
208 228 255
208 228 255
208 228 255
208 228 255
208 228 255
208 228 255
208 228 255
208 228 255
208 228 255
208 228 255
208 228 255
207 228 255
207 228 255
207 228 255
207 228 255
207 228 255
207 228 255
207 228 255
207 228 255
207 228 255
207 228 255
207 228 255
207 228 255
207 228 255
207 228 255
207 227 255
207 227 255
207 227 255
207 227 255
206 227 255
206 227 255
206 227 255
206 227 255
206 227 255
206 227 255
206 227 255
206 227 255
206 227 255
206 227 255
206 227 255
206 227 255
206 227 255
206 227 255
206 227 255
206 227 255
206 227 255
205 227 255
205 227 255
205 227 255
205 227 255
205 227 255
205 227 255
205 227 255
205 227 255
205 227 255
205 227 255
205 226 255
205 226 255
205 226 255
205 226 255
205 226 255
205 226 255
204 226 255
204 226 255
204 226 255
204 226 255
204 226 255
204 226 255
204 226 255
204 226 255
204 226 255
204 226 255
204 226 255
204 226 255
204 226 255
204 226 255
204 226 255
204 226 255
204 226 255
203 226 255
203 226 255
203 226 255
203 226 255
203 226 255
203 226 255
203 226 255
203 226 255
203 225 255
203 225 255
203 225 255
203 225 255
203 225 255
203 225 255
203 225 255
203 225 255
203 225 255
203 225 255
203 225 255
202 225 255
202 225 255
202 225 255
202 225 255
202 225 255
202 225 255
202 225 255
202 225 255
202 225 255
202 225 255
202 225 255
202 225 255
202 225 255
202 225 255
202 225 255
202 225 255
202 225 255
202 225 255
202 225 255
202 225 255
202 225 255
202 225 255
202 225 255
202 225 255
202 225 255
202 225 255
201 225 255
201 225 255
201 225 255
201 225 255
201 225 255
201 225 255
201 225 255
201 225 255
201 225 255
201 225 255
201 225 255
201 225 255
201 225 255
201 225 255
201 225 255
201 225 255
201 225 255
201 224 255
201 224 255
201 224 255
201 224 255
201 224 255
201 224 255
201 224 255
201 224 255
201 224 255
201 224 255
201 224 255
201 224 255
201 225 255
201 225 255
201 225 255
201 225 255
201 225 255
201 225 255
201 225 255
201 225 255
201 225 255
201 225 255
201 225 255
201 225 255
201 225 255
201 225 255
201 225 255
201 225 255
201 225 255
202 225 255
202 225 255
202 225 255
202 225 255
202 225 255
202 225 255
202 225 255
202 225 255
202 225 255
202 225 255
202 225 255
202 225 255
202 225 255
202 225 255
202 225 255
202 225 255
202 225 255
202 225 255
202 225 255
202 225 255
202 225 255
202 225 255
202 225 255
202 225 255
202 225 255
202 225 255
203 225 255
203 225 255
203 225 255
203 225 255
203 225 255
203 225 255
203 225 255
203 225 255
203 225 255
203 225 255
203 225 255
203 226 255
203 226 255
203 226 255
203 226 255
203 226 255
203 226 255
203 226 255
203 226 255
204 226 255
204 226 255
204 226 255
204 226 255
204 226 255
204 226 255
204 226 255
204 226 255
204 226 255
204 226 255
204 226 255
204 226 255
204 226 255
204 226 255
204 226 255
204 226 255
204 226 255
205 226 255
205 226 255
205 226 255
205 226 255
205 226 255
205 226 255
205 227 255
205 227 255
205 227 255
205 227 255
205 227 255
205 227 255
205 227 255
205 227 255
205 227 255
205 227 255
206 227 255
206 227 255
206 227 255
206 227 255
206 227 255
206 227 255
206 227 255
206 227 255
206 227 255
206 227 255
206 227 255
206 227 255
206 227 255
206 227 255
206 227 255
206 227 255
206 227 255
207 227 255
207 227 255
207 227 255
207 227 255
207 228 255
207 228 255
207 228 255
207 228 255
207 228 255
207 228 255
207 228 255
207 228 255
207 228 255
207 228 255
207 228 255
207 228 255
207 228 255
207 228 255
208 228 255
208 228 255
208 228 255
208 228 255
208 228 255
208 228 255
208 228 255
208 228 255
208 228 255
208 228 255
208 228 255
208 228 255
208 228 255
208 228 255
208 228 255
208 228 255
208 228 255
208 228 255
208 228 255
208 228 255
209 228 255
209 229 255
209 229 255
209 229 255
209 229 255
209 229 255
209 229 255
209 229 255
209 229 255
209 229 255
209 229 255
209 229 255
209 229 255
209 229 255
209 229 255
209 229 255
209 229 255
209 229 255
209 229 255
209 229 255
209 229 255
210 229 255
210 229 255
210 229 255
210 229 255
210 229 255
210 229 255
210 229 255
210 229 255
210 229 255
210 229 255
210 229 255
210 229 255
210 229 255
210 229 255
210 229 255
210 229 255
210 229 255
210 229 255
210 229 255
210 229 255
210 229 255
210 229 255
210 230 255
211 230 255
211 230 255
210 230 255
210 230 255
210 230 255
210 229 255
210 229 255
210 229 255
210 229 255
210 229 255
210 229 255
210 229 255
210 229 255
210 229 255
210 229 255
210 229 255
210 229 255
210 229 255
210 229 255
210 229 255
210 229 255
210 229 255
210 229 255
210 229 255
210 229 255
210 229 255
210 229 255
209 229 255
209 229 255
209 229 255
209 229 255
209 229 255
209 229 255
209 229 255
209 229 255
209 229 255
209 229 255
209 229 255
209 229 255
209 229 255
209 229 255
209 229 255
209 229 255
209 229 255
209 229 255
209 229 255
209 229 255
209 228 255
208 228 255
208 228 255
208 228 255
208 228 255
208 228 255
208 228 255
208 228 255
208 228 255
208 228 255
208 228 255
208 228 255
208 228 255
208 228 255
208 228 255
208 228 255
208 228 255
208 228 255
208 228 255
208 228 255
207 228 255
207 228 255
207 228 255
207 228 255
207 228 255
207 228 255
207 228 255
207 228 255
207 228 255
207 228 255
207 228 255
207 228 255
207 228 255
207 228 255
207 227 255
207 227 255
207 227 255
207 227 255
206 227 255
206 227 255
206 227 255
206 227 255
206 227 255
206 227 255
206 227 255
206 227 255
206 227 255
206 227 255
206 227 255
206 227 255
206 227 255
206 227 255
206 227 255
206 227 255
206 227 255
205 227 255
205 227 255
205 227 255
205 227 255
205 227 255
205 227 255
205 227 255
205 227 255
205 227 255
205 227 255
205 226 255
205 226 255
205 226 255
205 226 255
205 226 255
205 226 255
205 226 255
204 226 255
204 226 255
204 226 255
204 226 255
204 226 255
204 226 255
204 226 255
204 226 255
204 226 255
204 226 255
204 226 255
204 226 255
204 226 255
204 226 255
204 226 255
204 226 255
204 226 255
203 226 255
203 226 255
203 226 255
203 226 255
203 226 255
203 226 255
203 226 255
203 226 255
203 225 255
203 225 255
203 225 255
203 225 255
203 225 255
203 225 255
203 225 255
203 225 255
203 225 255
203 225 255
203 225 255
203 225 255
202 225 255
202 225 255
202 225 255
202 225 255
202 225 255
202 225 255
202 225 255
202 225 255
202 225 255
202 225 255
202 225 255
202 225 255
202 225 255
202 225 255
202 225 255
202 225 255
202 225 255
202 225 255
202 225 255
202 225 255
202 225 255
202 225 255
202 225 255
202 225 255
202 225 255
202 225 255
202 225 255
202 225 255
202 225 255
202 225 255
202 225 255
201 225 255
201 225 255
201 225 255
201 225 255
201 225 255
201 225 255
201 225 255
201 225 255
201 225 255
201 225 255
201 225 255
201 225 255
201 225 255
201 225 255
201 225 255
201 225 255
201 225 255
201 225 255
201 225 255
201 225 255
201 225 255
201 225 255
201 225 255
201 225 255
201 225 255
201 225 255
202 225 255
202 225 255
202 225 255
202 225 255
202 225 255
202 225 255
202 225 255
202 225 255
202 225 255
202 225 255
202 225 255
202 225 255
202 225 255
202 225 255
202 225 255
202 225 255
202 225 255
202 225 255
202 225 255
202 225 255
202 225 255
202 225 255
202 225 255
202 225 255
202 225 255
202 225 255
202 225 255
202 225 255
202 225 255
202 225 255
202 225 255
203 225 255
203 225 255
203 225 255
203 225 255
203 225 255
203 225 255
203 225 255
203 225 255
203 225 255
203 225 255
203 225 255
203 225 255
203 226 255
203 226 255
203 226 255
203 226 255
203 226 255
203 226 255
203 226 255
203 226 255
204 226 255
204 226 255
204 226 255
204 226 255
204 226 255
204 226 255
204 226 255
204 226 255
204 226 255
204 226 255
204 226 255
204 226 255
204 226 255
204 226 255
204 226 255
204 226 255
204 226 255
205 226 255
205 226 255
205 226 255
205 226 255
205 226 255
205 226 255
205 226 255
205 227 255
205 227 255
205 227 255
205 227 255
205 227 255
205 227 255
205 227 255
205 227 255
205 227 255
205 227 255
206 227 255
206 227 255
206 227 255
206 227 255
206 227 255
206 227 255
206 227 255
206 227 255
206 227 255
206 227 255
206 227 255
206 227 255
206 227 255
206 227 255
206 227 255
206 227 255
206 227 255
207 227 255
207 227 255
207 227 255
207 227 255
207 228 255
207 228 255
207 228 255
207 228 255
207 228 255
207 228 255
207 228 255
207 228 255
207 228 255
207 228 255
207 228 255
207 228 255
207 228 255
207 228 255
208 228 255
208 228 255
208 228 255
208 228 255
208 228 255
208 228 255
208 228 255
208 228 255
208 228 255
208 228 255
208 228 255
208 228 255
208 228 255
208 228 255
208 228 255
208 228 255
208 228 255
208 228 255
208 228 255
209 228 255
209 228 255
209 229 255
209 229 255
209 229 255
209 229 255
209 229 255
209 229 255
209 229 255
209 229 255
209 229 255
209 229 255
209 229 255
209 229 255
209 229 255
209 229 255
209 229 255
209 229 255
209 229 255
209 229 255
209 229 255
210 229 255
210 229 255
210 229 255
210 229 255
210 229 255
210 229 255
210 229 255
210 229 255
210 229 255
210 229 255
210 229 255
210 229 255
210 229 255
210 229 255
210 229 255
210 229 255
210 229 255
210 229 255
210 229 255
210 229 255
210 229 255
210 229 255
210 230 255
210 230 255
210 230 255
211 230 255
211 230 255
211 230 255
211 230 255
211 230 255
211 230 255
211 230 255
211 230 255
210 230 255
210 230 255
210 230 255
210 229 255
210 229 255
210 229 255
210 229 255
210 229 255
210 229 255
210 229 255
210 229 255
210 229 255
210 229 255
210 229 255
210 229 255
210 229 255
210 229 255
210 229 255
210 229 255
210 229 255
210 229 255
210 229 255
210 229 255
210 229 255
209 229 255
209 229 255
209 229 255
209 229 255
209 229 255
209 229 255
209 229 255
209 229 255
209 229 255
209 229 255
209 229 255
209 229 255
209 229 255
209 229 255
209 229 255
209 229 255
209 229 255
209 229 255
209 229 255
209 229 255
209 228 255
209 228 255
208 228 255
208 228 255
208 228 255
208 228 255
208 228 255
208 228 255
208 228 255
208 228 255
208 228 255
208 228 255
208 228 255
208 228 255
208 228 255
208 228 255
208 228 255
208 228 255
208 228 255
208 228 255
208 228 255
207 228 255
207 228 255
207 228 255
207 228 255
207 228 255
207 228 255
207 228 255
207 228 255
207 228 255
207 228 255
207 228 255
207 228 255
207 228 255
207 228 255
207 227 255
207 227 255
207 227 255
207 227 255
206 227 255
206 227 255
206 227 255
206 227 255
206 227 255
206 227 255
206 227 255
206 227 255
206 227 255
206 227 255
206 227 255
206 227 255
206 227 255
206 227 255
206 227 255
206 227 255
206 227 255
205 227 255
205 227 255
205 227 255
205 227 255
205 227 255
205 227 255
205 227 255
205 227 255
205 227 255
205 227 255
205 226 255
205 226 255
205 226 255
205 226 255
205 226 255
205 226 255
205 226 255
204 226 255
204 226 255
204 226 255
204 226 255
204 226 255
204 226 255
204 226 255
204 226 255
204 226 255
204 226 255
204 226 255
204 226 255
204 226 255
204 226 255
204 226 255
204 226 255
204 226 255
203 226 255
203 226 255
203 226 255
203 226 255
203 226 255
203 226 255
203 226 255
203 226 255
203 226 255
203 225 255
203 225 255
203 225 255
203 225 255
203 225 255
203 225 255
203 225 255
203 225 255
203 225 255
203 225 255
203 225 255
203 225 255
202 225 255
202 225 255
202 225 255
202 225 255
202 225 255
202 225 255
202 225 255
202 225 255
202 225 255
202 225 255
202 225 255
202 225 255
202 225 255
202 225 255
202 225 255
202 225 255
202 225 255
202 225 255
202 225 255
202 225 255
202 225 255
202 225 255
202 225 255
202 225 255
202 225 255
202 225 255
202 225 255
202 225 255
202 225 255
202 225 255
202 225 255
202 225 255
202 225 255
202 225 255
202 225 255
202 225 255
202 225 255
202 225 255
202 225 255
202 225 255
202 225 255
202 225 255
202 225 255
202 225 255
202 225 255
202 225 255
202 225 255
202 225 255
202 225 255
202 225 255
202 225 255
202 225 255
202 225 255
202 225 255
202 225 255
202 225 255
202 225 255
202 225 255
202 225 255
202 225 255
202 225 255
202 225 255
202 225 255
202 225 255
202 225 255
202 225 255
202 225 255
202 225 255
202 225 255
202 225 255
202 225 255
202 225 255
202 225 255
202 225 255
202 225 255
202 225 255
202 225 255
202 225 255
203 225 255
203 225 255
203 225 255
203 225 255
203 225 255
203 225 255
203 225 255
203 225 255
203 225 255
203 225 255
203 225 255
203 225 255
203 226 255
203 226 255
203 226 255
203 226 255
203 226 255
203 226 255
203 226 255
203 226 255
203 226 255
204 226 255
204 226 255
204 226 255
204 226 255
204 226 255
204 226 255
204 226 255
204 226 255
204 226 255
204 226 255
204 226 255
204 226 255
204 226 255
204 226 255
204 226 255
204 226 255
204 226 255
205 226 255
205 226 255
205 226 255
205 226 255
205 226 255
205 226 255
205 226 255
205 227 255
205 227 255
205 227 255
205 227 255
205 227 255
205 227 255
205 227 255
205 227 255
205 227 255
205 227 255
206 227 255
206 227 255
206 227 255
206 227 255
206 227 255
206 227 255
206 227 255
206 227 255
206 227 255
206 227 255
206 227 255
206 227 255
206 227 255
206 227 255
206 227 255
206 227 255
206 227 255
207 227 255
207 227 255
207 227 255
207 227 255
207 227 255
207 228 255
207 228 255
207 228 255
207 228 255
207 228 255
207 228 255
207 228 255
207 228 255
207 228 255
207 228 255
207 228 255
207 228 255
207 228 255
208 228 255
208 228 255
208 228 255
208 228 255
208 228 255
208 228 255
208 228 255
208 228 255
208 228 255
208 228 255
208 228 255
208 228 255
208 228 255
208 228 255
208 228 255
208 228 255
208 228 255
208 228 255
208 228 255
208 228 255
209 228 255
209 229 255
209 229 255
209 229 255
209 229 255
209 229 255
209 229 255
209 229 255
209 229 255
209 229 255
209 229 255
209 229 255
209 229 255
209 229 255
209 229 255
209 229 255
209 229 255
209 229 255
209 229 255
209 229 255
209 229 255
210 229 255
210 229 255
210 229 255
210 229 255
210 229 255
210 229 255
210 229 255
210 229 255
210 229 255
210 229 255
210 229 255
210 229 255
210 229 255
210 229 255
210 229 255
210 229 255
210 229 255
210 229 255
210 229 255
210 229 255
210 229 255
210 230 255
210 230 255
210 230 255
211 230 255
211 230 255
211 230 255
211 230 255
211 230 255
211 230 255
211 230 255
211 230 255
211 230 255
211 230 255
211 230 255
211 230 255
211 230 255
211 230 255
211 230 255
211 230 255
210 230 255
210 230 255
210 230 255
210 229 255
210 229 255
210 229 255
210 229 255
210 229 255
210 229 255
210 229 255
210 229 255
210 229 255
210 229 255
210 229 255
210 229 255
210 229 255
210 229 255
210 229 255
210 229 255
210 229 255
210 229 255
210 229 255
210 229 255
210 229 255
209 229 255
209 229 255
209 229 255
209 229 255
209 229 255
209 229 255
209 229 255
208 228 255
208 228 255
208 228 255
208 228 255
207 228 255
207 228 255
207 228 255
207 228 255
207 228 255
207 227 255
207 228 255
206 227 255
207 227 255
207 227 255
207 228 255
207 228 255
207 228 255
208 228 255
208 228 255
208 228 255
208 228 255
208 228 255
208 228 255
208 228 255
208 228 255
208 228 255
208 228 255
208 228 255
208 228 255
208 228 255
208 228 255
208 228 255
208 228 255
207 228 255
207 228 255
207 228 255
207 228 255
207 228 255
207 228 255
207 228 255
207 228 255
207 228 255
207 228 255
207 228 255
207 228 255
207 228 255
207 228 255
207 227 255
207 227 255
207 227 255
207 227 255
206 227 255
206 227 255
206 227 255
206 227 255
206 227 255
206 227 255
206 227 255
206 227 255
206 227 255
206 227 255
206 227 255
206 227 255
206 227 255
206 227 255
206 227 255
206 227 255
206 227 255
205 227 255
205 227 255
205 227 255
205 227 255
205 227 255
205 227 255
205 227 255
205 227 255
205 227 255
205 227 255
205 226 255
205 226 255
205 226 255
205 226 255
205 226 255
205 226 255
205 226 255
204 226 255
204 226 255
204 226 255
204 226 255
204 226 255
204 226 255
204 226 255
204 226 255
204 226 255
204 226 255
204 226 255
204 226 255
204 226 255
204 226 255
204 226 255
204 226 255
204 226 255
204 226 255
203 226 255
203 226 255
203 226 255
203 226 255
203 226 255
203 226 255
203 226 255
203 226 255
203 226 255
203 225 255
203 225 255
203 225 255
203 225 255
203 225 255
203 225 255
203 225 255
203 225 255
203 225 255
203 225 255
203 225 255
203 225 255
203 225 255
203 225 255
202 225 255
202 225 255
202 225 255
202 225 255
202 225 255
202 225 255
202 225 255
202 225 255
202 225 255
202 225 255
202 225 255
202 225 255
202 225 255
202 225 255
202 225 255
202 225 255
202 225 255
202 225 255
202 225 255
202 225 255
202 225 255
202 225 255
202 225 255
202 225 255
202 225 255
202 225 255
202 225 255
202 225 255
202 225 255
202 225 255
202 225 255
202 225 255
202 225 255
202 225 255
202 225 255
202 225 255
202 225 255
202 225 255
202 225 255
202 225 255
202 225 255
202 225 255
202 225 255
202 225 255
202 225 255
202 225 255
202 225 255
202 225 255
202 225 255
202 225 255
202 225 255
202 225 255
202 225 255
202 225 255
202 225 255
202 225 255
202 225 255
202 225 255
202 225 255
202 225 255
202 225 255
202 225 255
202 225 255
202 225 255
202 225 255
202 225 255
203 225 255
203 225 255
203 225 255
203 225 255
203 225 255
203 225 255
203 225 255
203 225 255
203 225 255
203 225 255
203 225 255
203 225 255
203 225 255
203 226 255
203 226 255
203 226 255
203 226 255
203 226 255
203 226 255
203 226 255
203 226 255
203 226 255
203 226 255
204 226 255
204 226 255
204 226 255
204 226 255
204 226 255
204 226 255
204 226 255
204 226 255
204 226 255
204 226 255
204 226 255
204 226 255
204 226 255
204 226 255
204 226 255
204 226 255
204 226 255
204 226 255
205 226 255
205 226 255
205 226 255
205 226 255
205 226 255
205 226 255
205 226 255
205 227 255
205 227 255
205 227 255
205 227 255
205 227 255
205 227 255
205 227 255
205 227 255
205 227 255
205 227 255
206 227 255
206 227 255
206 227 255
206 227 255
206 227 255
206 227 255
206 227 255
206 227 255
206 227 255
206 227 255
206 227 255
206 227 255
206 227 255
206 227 255
206 227 255
206 227 255
206 227 255
207 227 255
207 227 255
207 227 255
207 227 255
207 228 255
207 228 255
207 228 255
207 228 255
207 228 255
207 228 255
207 228 255
207 228 255
207 228 255
207 228 255
207 228 255
207 228 255
207 228 255
207 228 255
208 228 255
208 228 255
208 228 255
208 228 255
208 228 255
208 228 255
208 228 255
208 228 255
208 228 255
208 228 255
208 228 255
208 228 255
208 228 255
207 226 251
206 224 247
205 223 244
203 219 236
203 220 237
204 220 237
201 217 231
202 218 234
200 214 225
202 217 232
199 213 223
202 218 234
198 211 218
202 218 233
203 218 233
203 220 237
205 221 238
202 217 231
204 221 240
207 226 249
207 226 249
208 226 248
209 229 255
209 229 255
209 229 255
209 229 255
209 229 255
210 229 255
210 229 255
210 229 255
210 229 255
210 229 255
210 229 255
210 229 255
210 229 255
210 229 255
210 229 255
210 229 255
210 229 255
210 229 255
210 229 255
210 229 255
210 229 255
210 229 255
210 229 255
210 229 255
210 229 255
210 229 255
210 230 255
210 230 255
210 230 255
211 230 255
211 230 255
211 230 255
211 230 255
211 230 255
211 230 255
211 230 255
211 230 255
211 230 255
211 230 255
211 230 255
211 230 255
211 230 255
211 230 255
211 230 255
211 230 255
211 230 255
211 230 255
211 230 255
211 230 255
211 230 255
211 230 255
211 230 255
211 230 255
210 230 255
210 230 255
210 230 255
210 229 255
210 229 255
210 229 255
210 229 255
210 229 255
210 229 255
210 229 255
210 229 255
210 229 255
210 229 255
210 229 255
210 229 255
210 229 255
209 229 255
209 229 255
208 228 255
207 228 255
207 228 255
206 227 255
205 227 255
204 226 255
204 226 255
203 225 255
202 225 255
202 225 255
202 225 255
201 224 255
201 224 255
200 224 255
200 224 255
200 224 255
200 224 255
200 224 255
200 224 255
199 223 255
199 223 255
199 223 255
199 223 255
199 223 255
200 224 255
200 224 255
200 224 255
200 224 255
201 224 255
201 224 255
202 225 255
202 225 255
203 225 255
205 226 255
205 226 255
206 227 255
207 228 255
207 228 255
208 228 255
208 228 255
208 228 255
208 228 255
208 228 255
208 228 255
208 228 255
208 228 255
207 228 255
207 228 255
207 228 255
207 228 255
207 228 255
207 228 255
207 228 255
207 228 255
207 228 255
207 228 255
207 228 255
207 228 255
207 228 255
207 227 255
207 227 255
207 227 255
207 227 255
207 227 255
206 227 255
206 227 255
206 227 255
206 227 255
206 227 255
206 227 255
206 227 255
206 227 255
206 227 255
206 227 255
206 227 255
206 227 255
206 227 255
206 227 255
206 227 255
206 227 255
206 227 255
205 227 255
205 227 255
205 227 255
205 227 255
205 227 255
205 227 255
205 227 255
205 227 255
205 227 255
205 227 255
205 226 255
205 226 255
205 226 255
205 226 255
205 226 255
205 226 255
205 226 255
204 226 255
204 226 255
204 226 255
204 226 255
204 226 255
204 226 255
204 226 255
204 226 255
204 226 255
204 226 255
204 226 255
204 226 255
204 226 255
204 226 255
204 226 255
204 226 255
204 226 255
204 226 255
204 226 255
203 226 255
203 226 255
203 226 255
203 226 255
203 226 255
203 226 255
203 226 255
203 226 255
203 226 255
203 226 255
203 225 255
203 225 255
203 225 255
203 225 255
203 225 255
203 225 255
203 225 255
203 225 255
203 225 255
203 225 255
203 225 255
203 225 255
203 225 255
203 225 255
203 225 255
202 225 255
202 225 255
202 225 255
202 225 255
202 225 255
202 225 255
202 225 255
202 225 255
202 225 255
202 225 255
202 225 255
202 225 255
202 225 255
202 225 255
202 225 255
202 225 255
202 225 255
202 225 255
202 225 255
202 225 255
202 225 255
202 225 255
202 225 255
202 225 255
202 225 255
202 225 255
202 225 255
202 225 255
202 225 255
202 225 255
202 225 255
202 225 255
202 225 255
202 225 255
202 225 255
202 225 255
202 225 255
202 225 255
202 225 255
202 225 255
202 225 255
202 225 255
202 225 255
202 225 255
202 225 255
202 225 255
202 225 255
202 225 255
202 225 255
202 225 255
202 225 255
202 225 255
203 225 255
203 225 255
203 225 255
203 225 255
203 225 255
203 225 255
203 225 255
203 225 255
203 225 255
203 225 255
203 225 255
203 225 255
203 225 255
203 225 255
203 225 255
203 225 255
203 226 255
203 226 255
203 226 255
203 226 255
203 226 255
203 226 255
203 226 255
203 226 255
203 226 255
204 226 255
204 226 255
204 226 255
204 226 255
204 226 255
204 226 255
204 226 255
204 226 255
204 226 255
204 226 255
204 226 255
204 226 255
204 226 255
204 226 255
204 226 255
204 226 255
204 226 255
204 226 255
204 226 255
205 226 255
205 226 255
205 226 255
205 226 255
205 226 255
205 226 255
205 226 255
205 227 255
205 227 255
205 227 255
205 227 255
205 227 255
205 227 255
205 227 255
205 227 255
205 227 255
205 227 255
206 227 255
206 227 255
206 227 255
206 227 255
206 227 255
206 227 255
206 227 255
206 227 255
206 227 255
206 227 255
206 227 255
206 227 255
206 227 255
206 227 255
206 227 255
206 227 255
206 227 255
206 227 255
207 227 255
207 227 255
207 227 255
207 227 255
207 228 255
207 228 255
207 228 255
207 228 255
207 228 255
207 228 255
207 228 255
207 228 255
207 228 255
207 228 255
207 228 255
207 228 255
207 228 255
208 228 255
208 228 255
208 228 255
208 228 255
208 228 255
208 228 255
208 228 255
207 226 251
205 224 246
201 216 230
203 219 235
198 212 221
196 209 216
194 205 206
193 203 200
192 201 196
190 199 192
193 203 202
192 200 194
193 203 199
189 197 187
189 197 186
189 196 183
188 196 184
189 197 186
189 196 183
190 198 188
189 197 185
188 195 182
190 198 188
190 199 192
193 203 199
190 198 187
190 197 186
193 201 195
191 200 192
190 197 184
189 198 189
192 200 191
194 202 195
192 200 191
196 207 208
195 206 205
198 209 212
197 209 213
200 214 223
203 218 233
206 223 243
209 228 252
210 229 255
210 229 255
210 229 255
210 229 255
210 229 255
210 229 255
210 229 255
210 229 255
210 229 255
210 229 255
210 229 255
210 229 255
210 230 255
210 230 255
210 230 255
211 230 255
211 230 255
211 230 255
211 230 255
211 230 255
211 230 255
211 230 255
211 230 255
211 230 255
211 230 255
211 230 255
211 230 255
211 230 255
211 230 255
211 230 255
211 230 255
211 230 255
211 230 255
211 230 255
211 230 255
211 230 255
211 230 255
211 230 255
211 230 255
211 230 255
211 230 255
211 230 255
211 230 255
211 230 255
211 230 255
211 230 255
211 230 255
210 230 255
210 230 255
210 230 255
210 229 255
210 229 255
210 229 255
209 229 255
208 228 255
207 228 255
207 228 255
205 227 255
204 226 255
203 226 255
203 225 255
202 225 255
201 225 255
201 224 255
200 224 255
200 224 255
199 223 255
199 223 255
199 223 255
198 223 255
198 223 255
198 223 255
197 222 255
197 222 255
197 222 255
196 222 255
196 222 255
196 222 255
196 222 255
196 222 255
196 222 255
196 222 255
196 221 255
195 221 255
195 221 255
195 221 255
195 221 255
195 221 255
195 221 255
196 222 255
196 222 255
196 222 255
196 222 255
196 222 255
197 222 255
197 222 255
198 223 255
198 223 255
199 223 255
200 224 255
202 225 255
202 225 255
205 226 255
206 227 255
206 227 255
207 228 255
208 228 255
208 228 255
208 228 255
208 228 255
207 228 255
207 228 255
207 228 255
207 228 255
207 228 255
207 228 255
207 228 255
207 228 255
207 228 255
207 228 255
207 228 255
207 228 255
207 228 255
207 228 255
207 227 255
207 227 255
207 227 255
207 227 255
206 227 255
206 227 255
206 227 255
206 227 255
206 227 255
206 227 255
206 227 255
206 227 255
206 227 255
206 227 255
206 227 255
206 227 255
206 227 255
206 227 255
206 227 255
206 227 255
206 227 255
205 227 255
205 227 255
205 227 255
205 227 255
205 227 255
205 227 255
205 227 255
205 227 255
205 227 255
205 227 255
205 227 255
205 226 255
205 226 255
205 226 255
205 226 255
205 226 255
205 226 255
205 226 255
204 226 255
204 226 255
204 226 255
204 226 255
204 226 255
204 226 255
204 226 255
204 226 255
204 226 255
204 226 255
204 226 255
204 226 255
204 226 255
204 226 255
204 226 255
204 226 255
204 226 255
204 226 255
204 226 255
204 226 255
203 226 255
203 226 255
203 226 255
203 226 255
203 226 255
203 226 255
203 226 255
203 226 255
203 226 255
203 226 255
203 225 255
203 225 255
203 225 255
203 225 255
203 225 255
203 225 255
203 225 255
203 225 255
203 225 255
203 225 255
203 225 255
203 225 255
203 225 255
203 225 255
203 225 255
203 225 255
203 225 255
203 225 255
203 225 255
203 225 255
203 225 255
202 225 255
202 225 255
202 225 255
202 225 255
202 225 255
202 225 255
202 225 255
202 225 255
202 225 255
202 225 255
202 225 255
202 225 255
202 225 255
202 225 255
202 225 255
202 225 255
202 225 255
202 225 255
202 225 255
202 225 255
202 225 255
202 225 255
202 225 255
202 225 255
202 225 255
202 225 255
202 225 255
202 225 255
202 225 255
202 225 255
202 225 255
203 225 255
203 225 255
203 225 255
203 225 255
203 225 255
203 225 255
203 225 255
203 225 255
203 225 255
203 225 255
203 225 255
203 225 255
203 225 255
203 225 255
203 225 255
203 225 255
203 225 255
203 225 255
203 225 255
203 225 255
203 226 255
203 226 255
203 226 255
203 226 255
203 226 255
203 226 255
203 226 255
203 226 255
203 226 255
203 226 255
204 226 255
204 226 255
204 226 255
204 226 255
204 226 255
204 226 255
204 226 255
204 226 255
204 226 255
204 226 255
204 226 255
204 226 255
204 226 255
204 226 255
204 226 255
204 226 255
204 226 255
204 226 255
204 226 255
204 226 255
205 226 255
205 226 255
205 226 255
205 226 255
205 226 255
205 226 255
205 226 255
205 227 255
205 227 255
205 227 255
205 227 255
205 227 255
205 227 255
205 227 255
205 227 255
205 227 255
205 227 255
205 227 255
206 227 255
206 227 255
206 227 255
206 227 255
206 227 255
206 227 255
206 227 255
206 227 255
206 227 255
206 227 255
206 227 255
206 227 255
206 227 255
206 227 255
206 227 255
206 227 255
206 227 255
207 227 255
207 227 255
207 227 255
207 227 255
207 228 255
207 228 255
207 228 255
207 228 255
207 228 255
207 228 255
207 228 255
207 228 255
207 228 255
207 228 255
207 228 255
207 228 255
207 228 255
207 228 255
208 228 255
208 228 255
208 228 255
208 228 255
207 226 251
204 221 241
203 221 240
198 213 223
195 207 209
194 205 204
192 202 199
193 204 203
188 196 186
188 196 186
187 194 180
191 200 194
188 196 184
190 199 192
188 195 183
187 195 184
188 196 184
188 195 181
188 195 183
187 194 181
185 191 172
185 192 175
189 197 188
186 193 178
186 193 177
188 194 180
190 199 190
185 190 169
187 193 176
188 195 181
189 196 184
185 190 169
192 201 193
190 197 187
187 193 175
188 194 179
188 195 181
190 197 184
192 199 190
189 194 178
191 199 189
190 196 183
190 197 186
193 200 189
190 196 181
190 196 181
192 200 191
192 198 188
197 207 208
195 205 203
200 212 220
202 217 229
206 222 240
209 227 251
210 229 255
210 229 255
210 230 255
210 230 255
210 230 255
211 230 255
211 230 255
211 230 255
211 230 255
211 230 255
211 230 255
211 230 255
211 230 255
211 230 255
211 230 255
211 230 255
211 230 255
211 230 255
211 230 255
211 230 255
211 230 255
211 230 255
211 230 255
211 230 255
211 230 255
211 230 255
211 230 255
211 230 255
211 230 255
211 230 255
211 230 255
211 230 255
211 230 255
211 230 255
211 230 255
211 230 255
211 230 255
211 230 255
211 230 255
211 230 255
211 230 255
210 230 255
210 229 255
209 229 255
208 228 255
207 227 255
205 226 255
204 226 255
203 225 255
202 225 255
202 225 255
201 224 255
200 224 255
200 224 255
199 223 255
199 223 255
198 223 255
198 223 255
198 223 255
197 222 255
197 222 255
196 222 255
196 222 255
196 222 255
196 221 255
195 221 255
195 221 255
195 221 255
194 221 255
194 221 255
194 221 255
194 220 255
194 220 255
193 220 255
193 220 255
193 220 255
193 220 255
193 220 255
193 220 255
193 220 255
193 220 255
193 220 255
193 220 255
193 220 255
193 220 255
193 220 255
193 220 255
193 220 255
193 220 255
193 220 255
194 220 255
194 221 255
194 221 255
195 221 255
195 221 255
196 222 255
196 222 255
197 222 255
198 223 255
199 223 255
201 225 255
203 225 255
205 226 255
206 227 255
207 228 255
208 228 255
208 228 255
208 228 255
207 228 255
207 228 255
207 228 255
207 228 255
207 228 255
207 228 255
207 228 255
207 228 255
207 228 255
207 228 255
207 228 255
207 228 255
207 228 255
207 227 255
207 227 255
207 227 255
207 227 255
207 227 255
206 227 255
206 227 255
206 227 255
206 227 255
206 227 255
206 227 255
206 227 255
206 227 255
206 227 255
206 227 255
206 227 255
206 227 255
206 227 255
206 227 255
206 227 255
206 227 255
206 227 255
205 227 255
205 227 255
205 227 255
205 227 255
205 227 255
205 227 255
205 227 255
205 227 255
205 227 255
205 227 255
205 227 255
205 226 255
205 226 255
205 226 255
205 226 255
205 226 255
205 226 255
205 226 255
204 226 255
204 226 255
204 226 255
204 226 255
204 226 255
204 226 255
204 226 255
204 226 255
204 226 255
204 226 255
204 226 255
204 226 255
204 226 255
204 226 255
204 226 255
204 226 255
204 226 255
204 226 255
204 226 255
204 226 255
204 226 255
203 226 255
203 226 255
203 226 255
203 226 255
203 226 255
203 226 255
203 226 255
203 226 255
203 226 255
203 226 255
203 226 255
203 226 255
203 225 255
203 225 255
203 225 255
203 225 255
203 225 255
203 225 255
203 225 255
203 225 255
203 225 255
203 225 255
203 225 255
203 225 255
203 225 255
203 225 255
203 225 255
203 225 255
203 225 255
203 225 255
203 225 255
203 225 255
203 225 255
203 225 255
203 225 255
203 225 255
203 225 255
203 225 255
203 225 255
203 225 255
203 225 255
203 225 255
203 225 255
203 225 255
203 225 255
203 225 255
203 225 255
203 225 255
203 225 255
203 225 255
203 225 255
203 225 255
203 225 255
203 225 255
203 225 255
203 225 255
203 225 255
203 225 255
203 225 255
203 225 255
203 225 255
203 225 255
203 225 255
203 225 255
203 225 255
203 225 255
203 225 255
203 225 255
203 225 255
203 225 255
203 226 255
203 226 255
203 226 255
203 226 255
203 226 255
203 226 255
203 226 255
203 226 255
203 226 255
203 226 255
203 226 255
203 226 255
204 226 255
204 226 255
204 226 255
204 226 255
204 226 255
204 226 255
204 226 255
204 226 255
204 226 255
204 226 255
204 226 255
204 226 255
204 226 255
204 226 255
204 226 255
204 226 255
204 226 255
204 226 255
204 226 255
204 226 255
204 226 255
205 226 255
205 226 255
205 226 255
205 226 255
205 226 255
205 226 255
205 226 255
205 227 255
205 227 255
205 227 255
205 227 255
205 227 255
205 227 255
205 227 255
205 227 255
205 227 255
205 227 255
205 227 255
206 227 255
206 227 255
206 227 255
206 227 255
206 227 255
206 227 255
206 227 255
206 227 255
206 227 255
206 227 255
206 227 255
206 227 255
206 227 255
206 227 255
206 227 255
206 227 255
206 227 255
207 227 255
207 227 255
207 227 255
207 227 255
207 228 255
207 228 255
207 228 255
207 228 255
207 228 255
207 228 255
207 228 255
207 228 255
207 228 255
207 228 255
207 228 255
207 228 255
207 228 255
207 228 255
208 228 255
208 228 255
208 228 255
206 225 250
203 220 240
202 218 234
193 202 199
188 196 184
191 199 191
187 194 181
185 192 175
188 197 187
189 198 191
186 194 180
187 194 181
187 193 178
186 194 180
189 199 192
190 198 190
189 197 188
189 197 187
189 197 186
185 191 171
189 196 184
188 195 183
188 195 181
189 197 187
190 198 188
187 194 180
188 195 183
188 195 181
186 192 175
190 199 190
189 198 188
188 195 183
187 194 178
188 195 182
191 199 191
192 200 192
185 192 174
183 189 167
187 193 177
186 191 169
190 196 183
189 195 181
190 198 187
192 201 195
192 200 192
190 195 177
191 198 187
189 196 183
187 192 172
191 198 185
191 198 188
193 200 191
192 200 191
190 197 184
191 197 184
192 199 188
192 198 184
195 204 200
191 199 190
197 208 208
198 209 210
204 219 233
202 216 226
208 225 246
211 230 255
211 230 255
211 230 255
211 230 255
211 230 255
211 230 255
211 230 255
211 230 255
211 230 255
211 230 255
211 230 255
211 230 255
211 230 255
211 230 255
211 230 255
211 230 255
211 230 255
211 230 255
211 230 255
211 230 255
211 230 255
211 230 255
211 230 255
211 230 255
211 230 255
211 230 255
211 230 255
211 230 255
211 230 255
211 230 255
211 230 255
211 230 255
211 230 255
210 229 255
209 229 255
207 228 255
206 227 255
204 226 255
204 226 255
203 225 255
202 225 255
201 225 255
201 224 255
200 224 255
199 224 255
199 223 255
199 223 255
198 223 255
198 223 255
197 222 255
197 222 255
196 222 255
196 222 255
196 222 255
195 221 255
195 221 255
195 221 255
194 221 255
194 221 255
194 221 255
193 220 255
193 220 255
193 220 255
193 220 255
192 220 255
192 220 255
192 220 255
192 219 255
192 219 255
191 219 255
191 219 255
191 219 255
191 219 255
191 219 255
191 219 255
191 219 255
191 219 255
191 219 255
190 219 255
190 219 255
190 219 255
190 219 255
191 219 255
191 219 255
191 219 255
191 219 255
191 219 255
191 219 255
192 219 255
192 220 255
192 220 255
193 220 255
193 220 255
193 220 255
194 221 255
195 221 255
195 221 255
196 222 255
198 223 255
199 223 255
201 224 255
204 226 255
206 227 255
207 228 255
208 228 255
208 228 255
207 228 255
207 228 255
207 228 255
207 228 255
207 228 255
207 228 255
207 228 255
207 228 255
207 228 255
207 228 255
207 228 255
207 228 255
207 228 255
207 228 255
207 227 255
207 227 255
207 227 255
207 227 255
206 227 255
206 227 255
206 227 255
206 227 255
206 227 255
206 227 255
206 227 255
206 227 255
206 227 255
206 227 255
206 227 255
206 227 255
206 227 255
206 227 255
206 227 255
206 227 255
206 227 255
206 227 255
205 227 255
205 227 255
205 227 255
205 227 255
205 227 255
205 227 255
205 227 255
205 227 255
205 227 255
205 227 255
205 227 255
205 226 255
205 226 255
205 226 255
205 226 255
205 226 255
205 226 255
205 226 255
205 226 255
204 226 255
204 226 255
204 226 255
204 226 255
204 226 255
204 226 255
204 226 255
204 226 255
204 226 255
204 226 255
204 226 255
204 226 255
204 226 255
204 226 255
204 226 255
204 226 255
204 226 255
204 226 255
204 226 255
204 226 255
204 226 255
204 226 255
203 226 255
203 226 255
203 226 255
203 226 255
203 226 255
203 226 255
203 226 255
203 226 255
203 226 255
203 226 255
203 226 255
203 226 255
203 226 255
203 226 255
203 226 255
203 225 255
203 225 255
203 225 255
203 225 255
203 225 255
203 225 255
203 225 255
203 225 255
203 225 255
203 225 255
203 225 255
203 225 255
203 225 255
203 225 255
203 225 255
203 225 255
203 225 255
203 225 255
203 225 255
203 225 255
203 225 255
203 225 255
203 225 255
203 225 255
203 225 255
203 225 255
203 225 255
203 225 255
203 225 255
203 225 255
203 225 255
203 225 255
203 225 255
203 225 255
203 225 255
203 225 255
203 225 255
203 225 255
203 225 255
203 225 255
203 226 255
203 226 255
203 226 255
203 226 255
203 226 255
203 226 255
203 226 255
203 226 255
203 226 255
203 226 255
203 226 255
203 226 255
203 226 255
203 226 255
203 226 255
204 226 255
204 226 255
204 226 255
204 226 255
204 226 255
204 226 255
204 226 255
204 226 255
204 226 255
204 226 255
204 226 255
204 226 255
204 226 255
204 226 255
204 226 255
204 226 255
204 226 255
204 226 255
204 226 255
204 226 255
204 226 255
204 226 255
204 226 255
205 226 255
205 226 255
205 226 255
205 226 255
205 226 255
205 226 255
205 226 255
205 227 255
205 227 255
205 227 255
205 227 255
205 227 255
205 227 255
205 227 255
205 227 255
205 227 255
205 227 255
205 227 255
206 227 255
206 227 255
206 227 255
206 227 255
206 227 255
206 227 255
206 227 255
206 227 255
206 227 255
206 227 255
206 227 255
206 227 255
206 227 255
206 227 255
206 227 255
206 227 255
206 227 255
206 227 255
207 227 255
207 227 255
207 227 255
207 227 255
207 228 255
207 228 255
207 228 255
207 228 255
207 228 255
207 228 255
207 228 255
207 228 255
207 228 255
207 228 255
207 228 255
207 228 255
207 228 255
207 228 255
208 228 255
208 228 255
206 225 249
204 222 242
198 212 220
190 200 194
191 200 194
191 201 196
186 193 177
189 197 188
189 198 191
186 192 175
186 192 175
187 195 184
188 197 187
185 191 174
188 196 186
186 193 177
188 197 187
186 194 180
185 191 172
186 194 181
185 192 175
185 190 168
183 190 171
187 195 183
189 196 184
187 194 178
184 189 168
186 192 175
190 200 194
185 190 169
185 191 174
190 199 191
185 190 167
189 197 186
189 195 179
187 192 174
192 201 195
186 193 178
189 196 182
187 193 177
184 190 170
189 197 186
188 196 184
188 194 180
188 194 179
187 192 172
190 197 185
185 189 166
185 188 163
185 188 163
186 191 170
190 196 183
190 197 183
191 199 191
190 197 185
188 194 177
192 200 192
193 199 189
187 192 173
190 196 182
190 197 186
191 199 189
190 196 182
190 197 184
194 203 197
194 203 197
190 196 182
193 197 182
196 206 203
197 206 203
204 219 233
208 225 245
211 230 255
211 230 255
211 230 255
211 230 255
211 230 255
211 230 255
211 230 255
211 230 255
211 230 255
211 230 255
211 230 255
211 230 255
211 230 255
211 230 255
212 230 255
212 230 255
212 230 255
212 230 255
211 230 255
211 230 255
211 230 255
211 230 255
211 230 255
211 230 255
211 230 255
210 229 255
209 229 255
207 228 255
206 227 255
205 226 255
204 226 255
203 225 255
202 225 255
201 225 255
201 224 255
200 224 255
200 224 255
199 223 255
199 223 255
198 223 255
198 223 255
197 222 255
197 222 255
196 222 255
196 222 255
196 222 255
195 221 255
195 221 255
195 221 255
194 221 255
194 221 255
193 220 255
193 220 255
193 220 255
193 220 255
192 220 255
192 220 255
192 219 255
191 219 255
191 219 255
191 219 255
191 219 255
190 219 255
190 219 255
190 219 255
190 219 255
190 218 255
190 218 255
189 218 255
189 218 255
189 218 255
189 218 255
189 218 255
189 218 255
189 218 255
189 218 255
189 218 255
189 218 255
189 218 255
189 218 255
189 218 255
189 218 255
189 218 255
189 218 255
189 218 255
189 218 255
190 218 255
190 218 255
190 219 255
190 219 255
191 219 255
191 219 255
192 219 255
192 220 255
193 220 255
194 221 255
195 221 255
196 222 255
197 222 255
198 223 255
201 224 255
204 226 255
206 227 255
207 228 255
208 228 255
208 228 255
207 228 255
207 228 255
207 228 255
207 228 255
207 228 255
207 228 255
207 228 255
207 228 255
207 228 255
207 228 255
207 228 255
207 228 255
207 228 255
207 228 255
207 227 255
207 227 255
207 227 255
207 227 255
206 227 255
206 227 255
206 227 255
206 227 255
206 227 255
206 227 255
206 227 255
206 227 255
206 227 255
206 227 255
206 227 255
206 227 255
206 227 255
206 227 255
206 227 255
206 227 255
206 227 255
206 227 255
205 227 255
205 227 255
205 227 255
205 227 255
205 227 255
205 227 255
205 227 255
205 227 255
205 227 255
205 227 255
205 227 255
205 226 255
205 226 255
205 226 255
205 226 255
205 226 255
205 226 255
205 226 255
205 226 255
204 226 255
204 226 255
204 226 255
204 226 255
204 226 255
204 226 255
204 226 255
204 226 255
204 226 255
204 226 255
204 226 255
204 226 255
204 226 255
204 226 255
204 226 255
204 226 255
204 226 255
204 226 255
204 226 255
204 226 255
204 226 255
204 226 255
204 226 255
204 226 255
204 226 255
204 226 255
203 226 255
203 226 255
203 226 255
203 226 255
203 226 255
203 226 255
203 226 255
203 226 255
203 226 255
203 226 255
203 226 255
203 226 255
203 226 255
203 226 255
203 226 255
203 226 255
203 226 255
203 226 255
203 226 255
203 226 255
203 226 255
203 226 255
203 226 255
203 226 255
203 226 255
203 226 255
203 226 255
203 226 255
203 226 255
203 226 255
203 226 255
203 226 255
203 226 255
203 226 255
203 226 255
203 226 255
203 226 255
203 226 255
203 226 255
203 226 255
203 226 255
203 226 255
203 226 255
203 226 255
203 226 255
203 226 255
203 226 255
203 226 255
203 226 255
203 226 255
203 226 255
203 226 255
203 226 255
203 226 255
204 226 255
204 226 255
204 226 255
204 226 255
204 226 255
204 226 255
204 226 255
204 226 255
204 226 255
204 226 255
204 226 255
204 226 255
204 226 255
204 226 255
204 226 255
204 226 255
204 226 255
204 226 255
204 226 255
204 226 255
204 226 255
204 226 255
204 226 255
204 226 255
204 226 255
204 226 255
205 226 255
205 226 255
205 226 255
205 226 255
205 226 255
205 226 255
205 226 255
205 226 255
205 227 255
205 227 255
205 227 255
205 227 255
205 227 255
205 227 255
205 227 255
205 227 255
205 227 255
205 227 255
205 227 255
206 227 255
206 227 255
206 227 255
206 227 255
206 227 255
206 227 255
206 227 255
206 227 255
206 227 255
206 227 255
206 227 255
206 227 255
206 227 255
206 227 255
206 227 255
206 227 255
206 227 255
206 227 255
207 227 255
207 227 255
207 227 255
207 227 255
207 228 255
207 228 255
207 228 255
207 228 255
207 228 255
207 228 255
207 228 255
207 228 255
207 228 255
207 228 255
207 228 255
207 228 255
207 228 255
207 228 255
208 228 255
208 228 255
206 226 250
201 218 234
193 203 202
189 196 184
186 194 181
192 202 198
190 199 192
186 194 183
187 195 184
185 192 177
186 192 174
186 193 178
187 195 183
186 193 178
185 191 172
184 190 171
189 199 191
189 198 191
186 192 175
188 195 183
188 196 186
185 193 178
185 192 177
184 190 169
188 197 187
188 197 187
187 194 180
183 189 169
183 189 169
188 195 180
184 188 163
190 198 188
186 192 175
188 195 181
185 191 173
186 192 175
187 194 178
185 193 177
188 195 179
185 189 166
188 195 182
183 187 160
187 194 178
187 193 177
186 190 169
187 192 172
184 186 157
188 192 172
187 194 178
186 192 175
184 189 168
187 193 175
190 197 186
186 191 170
186 190 169
189 196 184
188 193 175
186 191 170
188 193 175
192 200 191
185 188 163
189 195 179
191 198 187
189 195 180
191 198 188
189 196 183
192 199 188
190 196 181
190 195 178
192 199 188
192 198 186
194 201 192
195 203 197
191 198 187
192 198 186
193 199 187
196 205 201
198 209 210
204 218 230
210 228 250
211 230 255
211 230 255
211 230 255
211 230 255
211 230 255
211 230 255
212 230 255
212 230 255
212 230 255
212 230 255
212 230 255
212 230 255
212 230 255
212 230 255
212 230 255
212 230 255
212 230 255
211 230 255
210 229 255
209 229 255
207 227 255
206 227 255
204 226 255
204 226 255
203 225 255
202 225 255
202 225 255
201 224 255
200 224 255
200 224 255
199 223 255
199 223 255
198 223 255
198 223 255
197 222 255
197 222 255
196 222 255
196 222 255
196 221 255
195 221 255
195 221 255
194 221 255
194 221 255
194 220 255
193 220 255
193 220 255
193 220 255
192 220 255
192 220 255
192 220 255
192 219 255
191 219 255
191 219 255
191 219 255
190 219 255
190 219 255
190 218 255
190 218 255
189 218 255
189 218 255
189 218 255
189 218 255
189 218 255
188 218 255
188 218 255
188 218 255
188 218 255
188 217 255
188 217 255
188 217 255
187 217 255
187 217 255
187 217 255
187 217 255
187 217 255
187 217 255
187 217 255
187 217 255
187 217 255
187 217 255
187 217 255
187 217 255
188 217 255
188 217 255
188 218 255
188 218 255
188 218 255
189 218 255
189 218 255
189 218 255
190 219 255
190 219 255
191 219 255
192 219 255
192 220 255
193 220 255
194 221 255
196 222 255
197 222 255
199 223 255
201 225 255
205 227 255
207 228 255
208 228 255
208 228 255
208 228 255
207 228 255
207 228 255
207 228 255
207 228 255
207 228 255
207 228 255
207 228 255
207 228 255
207 228 255
207 228 255
207 228 255
207 228 255
207 228 255
207 228 255
207 227 255
207 227 255
207 227 255
207 227 255
206 227 255
206 227 255
206 227 255
206 227 255
206 227 255
206 227 255
206 227 255
206 227 255
206 227 255
206 227 255
206 227 255
206 227 255
206 227 255
206 227 255
206 227 255
206 227 255
206 227 255
206 227 255
205 227 255
205 227 255
205 227 255
205 227 255
205 227 255
205 227 255
205 227 255
205 227 255
205 227 255
205 227 255
205 227 255
205 227 255
205 226 255
205 226 255
205 226 255
205 226 255
205 226 255
205 226 255
205 226 255
205 226 255
204 226 255
204 226 255
204 226 255
204 226 255
204 226 255
204 226 255
204 226 255
204 226 255
204 226 255
204 226 255
204 226 255
204 226 255
204 226 255
204 226 255
204 226 255
204 226 255
204 226 255
204 226 255
204 226 255
204 226 255
204 226 255
204 226 255
204 226 255
204 226 255
204 226 255
204 226 255
204 226 255
204 226 255
204 226 255
204 226 255
204 226 255
203 226 255
203 226 255
203 226 255
203 226 255
203 226 255
203 226 255
203 226 255
203 226 255
203 226 255
203 226 255
203 226 255
203 226 255
203 226 255
203 226 255
203 226 255
203 226 255
203 226 255
203 226 255
203 226 255
203 226 255
203 226 255
203 226 255
203 226 255
203 226 255
203 226 255
203 226 255
203 226 255
203 226 255
203 226 255
203 226 255
203 226 255
203 226 255
203 226 255
203 226 255
203 226 255
204 226 255
204 226 255
204 226 255
204 226 255
204 226 255
204 226 255
204 226 255
204 226 255
204 226 255
204 226 255
204 226 255
204 226 255
204 226 255
204 226 255
204 226 255
204 226 255
204 226 255
204 226 255
204 226 255
204 226 255
204 226 255
204 226 255
204 226 255
204 226 255
204 226 255
204 226 255
204 226 255
204 226 255
204 226 255
204 226 255
205 226 255
205 226 255
205 226 255
205 226 255
205 226 255
205 226 255
205 226 255
205 226 255
205 227 255
205 227 255
205 227 255
205 227 255
205 227 255
205 227 255
205 227 255
205 227 255
205 227 255
205 227 255
205 227 255
205 227 255
206 227 255
206 227 255
206 227 255
206 227 255
206 227 255
206 227 255
206 227 255
206 227 255
206 227 255
206 227 255
206 227 255
206 227 255
206 227 255
206 227 255
206 227 255
206 227 255
206 227 255
206 227 255
207 227 255
207 227 255
207 227 255
207 227 255
207 228 255
207 228 255
207 228 255
207 228 255
207 228 255
207 228 255
207 228 255
207 228 255
207 228 255
207 228 255
207 228 255
207 228 255
207 228 255
207 228 255
208 228 255
208 228 255
208 228 255
204 223 245
200 215 227
197 210 217
187 195 183
191 200 195
191 201 196
191 200 195
185 192 175
185 192 175
185 192 177
191 201 196
185 193 178
188 196 186
185 192 175
185 193 180
183 189 168
186 193 178
182 188 166
185 191 172
185 192 175
185 191 171
184 191 172
179 184 155
186 193 177
186 194 180
185 192 175
186 192 175
182 187 163
186 193 177
185 190 169
187 194 178
187 194 180
184 190 171
181 185 158
188 194 178
185 190 171
184 190 170
187 192 174
184 190 171
187 193 177
187 192 174
188 193 176
186 193 175
187 195 181
184 188 165
185 192 174
183 187 161
187 193 177
186 192 173
185 191 171
187 192 172
186 192 172
187 193 175
189 197 187
187 190 168
186 191 169
187 193 177
190 197 184
187 193 175
187 194 177
189 194 177
185 190 167
189 194 177
188 194 176
191 198 185
189 194 178
190 196 182
188 193 175
189 195 178
187 193 174
190 196 181
190 197 183
187 192 172
189 195 178
188 192 170
189 194 177
192 199 188
191 198 187
192 199 188
188 194 177
190 196 181
194 203 197
194 199 186
196 206 205
206 220 235
210 227 249
212 230 255
212 230 255
212 230 255
212 230 255
212 230 255
212 230 255
212 230 255
212 230 255
212 230 255
212 230 255
212 230 255
211 230 255
210 229 255
208 228 255
207 227 255
206 227 255
205 226 255
204 226 255
203 226 255
202 225 255
202 225 255
201 224 255
200 224 255
200 224 255
199 223 255
199 223 255
198 223 255
198 223 255
197 222 255
197 222 255
197 222 255
196 222 255
196 222 255
195 221 255
195 221 255
195 221 255
194 221 255
194 221 255
193 220 255
193 220 255
193 220 255
192 220 255
192 220 255
192 220 255
191 219 255
191 219 255
191 219 255
191 219 255
190 219 255
190 219 255
190 218 255
189 218 255
189 218 255
189 218 255
189 218 255
189 218 255
188 218 255
188 218 255
188 217 255
188 217 255
188 217 255
187 217 255
187 217 255
187 217 255
187 217 255
187 217 255
186 217 255
186 217 255
186 217 255
186 217 255
186 217 255
186 217 255
186 217 255
186 216 255
186 216 255
186 216 255
186 216 255
186 216 255
186 217 255
186 217 255
186 217 255
186 217 255
186 217 255
187 217 255
187 217 255
187 217 255
187 217 255
188 217 255
188 218 255
188 218 255
189 218 255
189 218 255
190 219 255
191 219 255
191 219 255
192 220 255
193 220 255
195 221 255
196 222 255
198 223 255
201 225 255
204 226 255
207 228 255
208 228 255
208 228 255
208 228 255
208 228 255
207 228 255
207 228 255
207 228 255
207 228 255
207 228 255
207 228 255
207 228 255
207 228 255
207 228 255
207 228 255
207 228 255
207 228 255
207 228 255
207 228 255
207 227 255
207 227 255
207 227 255
207 227 255
206 227 255
206 227 255
206 227 255
206 227 255
206 227 255
206 227 255
206 227 255
206 227 255
206 227 255
206 227 255
206 227 255
206 227 255
206 227 255
206 227 255
206 227 255
206 227 255
206 227 255
206 227 255
206 227 255
205 227 255
205 227 255
205 227 255
205 227 255
205 227 255
205 227 255
205 227 255
205 227 255
205 227 255
205 227 255
205 227 255
205 227 255
205 226 255
205 226 255
205 226 255
205 226 255
205 226 255
205 226 255
205 226 255
205 226 255
205 226 255
204 226 255
204 226 255
204 226 255
204 226 255
204 226 255
204 226 255
204 226 255
204 226 255
204 226 255
204 226 255
204 226 255
204 226 255
204 226 255
204 226 255
204 226 255
204 226 255
204 226 255
204 226 255
204 226 255
204 226 255
204 226 255
204 226 255
204 226 255
204 226 255
204 226 255
204 226 255
204 226 255
204 226 255
204 226 255
204 226 255
204 226 255
204 226 255
204 226 255
204 226 255
204 226 255
204 226 255
204 226 255
204 226 255
204 226 255
204 226 255
204 226 255
204 226 255
204 226 255
204 226 255
204 226 255
204 226 255
204 226 255
204 226 255
204 226 255
204 226 255
204 226 255
204 226 255
204 226 255
204 226 255
204 226 255
204 226 255
204 226 255
204 226 255
204 226 255
204 226 255
204 226 255
204 226 255
204 226 255
204 226 255
204 226 255
204 226 255
204 226 255
204 226 255
204 226 255
204 226 255
204 226 255
204 226 255
204 226 255
204 226 255
204 226 255
204 226 255
204 226 255
204 226 255
204 226 255
204 226 255
204 226 255
204 226 255
204 226 255
204 226 255
205 226 255
205 226 255
205 226 255
205 226 255
205 226 255
205 226 255
205 226 255
205 226 255
205 226 255
205 227 255
205 227 255
205 227 255
205 227 255
205 227 255
205 227 255
205 227 255
205 227 255
205 227 255
205 227 255
205 227 255
205 227 255
206 227 255
206 227 255
206 227 255
206 227 255
206 227 255
206 227 255
206 227 255
206 227 255
206 227 255
206 227 255
206 227 255
206 227 255
206 227 255
206 227 255
206 227 255
206 227 255
206 227 255
206 227 255
206 227 255
207 227 255
207 227 255
207 227 255
207 227 255
207 228 255
207 228 255
207 228 255
207 228 255
207 228 255
207 228 255
207 228 255
207 228 255
207 228 255
207 228 255
207 228 255
207 228 255
207 228 255
207 228 255
208 228 255
208 228 255
208 228 255
208 228 255
206 225 248
199 215 228
190 199 192
190 199 191
191 200 194
184 191 174
186 193 177
187 196 187
184 190 172
188 196 184
188 196 186
185 192 177
187 195 183
184 191 174
184 190 172
183 190 171
187 195 183
182 187 163
187 195 183
184 192 175
184 192 175
185 192 175
185 193 178
186 194 180
181 186 160
184 190 169
184 189 166
183 189 168
186 192 175
184 190 171
185 192 175
183 188 166
181 184 155
181 186 160
184 189 166
187 194 178
182 185 155
188 195 181
188 196 184
189 196 183
186 192 174
181 185 158
185 192 174
185 189 166
181 186 159
184 189 167
184 187 160
185 191 171
185 192 174
184 190 169
186 190 167
185 190 170
186 192 173
188 195 181
189 196 182
189 196 183
190 197 186
189 194 178
186 191 169
188 194 176
185 190 168
185 187 159
185 187 158
187 193 176
188 195 181
188 193 174
183 187 159
188 193 172
191 198 185
189 195 180
188 190 166
189 195 179
189 194 175
192 198 187
188 194 178
186 189 164
186 190 166
190 195 179
189 196 182
187 191 170
192 199 189
191 197 183
193 200 190
190 194 175
191 197 184
193 199 187
188 193 173
193 201 192
195 201 191
192 199 188
203 215 223
208 223 239
212 230 255
212 230 255
212 230 255
212 230 255
212 230 255
212 230 255
210 229 255
209 229 255
207 228 255
206 227 255
205 227 255
204 226 255
203 226 255
203 225 255
202 225 255
201 225 255
201 224 255
200 224 255
200 224 255
199 223 255
199 223 255
198 223 255
198 223 255
197 222 255
197 222 255
196 222 255
196 222 255
196 222 255
195 221 255
195 221 255
194 221 255
194 221 255
194 221 255
193 220 255
193 220 255
193 220 255
192 220 255
192 220 255
192 219 255
191 219 255
191 219 255
191 219 255
190 219 255
190 219 255
190 219 255
190 218 255
189 218 255
189 218 255
189 218 255
189 218 255
188 218 255
188 218 255
188 217 255
188 217 255
187 217 255
187 217 255
187 217 255
187 217 255
187 217 255
186 217 255
186 217 255
186 217 255
186 216 255
186 216 255
186 216 255
185 216 255
185 216 255
185 216 255
185 216 255
185 216 255
185 216 255
185 216 255
185 216 255
185 216 255
185 216 255
185 216 255
185 216 255
185 216 255
185 216 255
185 216 255
185 216 255
185 216 255
185 216 255
186 216 255
186 216 255
186 217 255
186 217 255
187 217 255
187 217 255
188 217 255
188 218 255
189 218 255
189 218 255
190 219 255
191 219 255
192 219 255
193 220 255
194 221 255
196 222 255
198 223 255
201 224 255
205 226 255
207 228 255
208 228 255
208 228 255
208 228 255
208 228 255
208 228 255
207 228 255
207 228 255
207 228 255
207 228 255
207 228 255
207 228 255
207 228 255
207 228 255
207 228 255
207 228 255
207 228 255
207 228 255
207 228 255
207 228 255
207 227 255
207 227 255
207 227 255
207 227 255
206 227 255
206 227 255
206 227 255
206 227 255
206 227 255
206 227 255
206 227 255
206 227 255
206 227 255
206 227 255
206 227 255
206 227 255
206 227 255
206 227 255
206 227 255
206 227 255
206 227 255
206 227 255
206 227 255
205 227 255
205 227 255
205 227 255
205 227 255
205 227 255
205 227 255
205 227 255
205 227 255
205 227 255
205 227 255
205 227 255
205 227 255
205 227 255
205 226 255
205 226 255
205 226 255
205 226 255
205 226 255
205 226 255
205 226 255
205 226 255
205 226 255
205 226 255
204 226 255
204 226 255
204 226 255
204 226 255
204 226 255
204 226 255
204 226 255
204 226 255
204 226 255
204 226 255
204 226 255
204 226 255
204 226 255
204 226 255
204 226 255
204 226 255
204 226 255
204 226 255
204 226 255
204 226 255
204 226 255
204 226 255
204 226 255
204 226 255
204 226 255
204 226 255
204 226 255
204 226 255
204 226 255
204 226 255
204 226 255
204 226 255
204 226 255
204 226 255
204 226 255
204 226 255
204 226 255
204 226 255
204 226 255
204 226 255
204 226 255
204 226 255
204 226 255
204 226 255
204 226 255
204 226 255
204 226 255
204 226 255
204 226 255
204 226 255
204 226 255
204 226 255
204 226 255
204 226 255
204 226 255
204 226 255
204 226 255
204 226 255
204 226 255
204 226 255
204 226 255
204 226 255
204 226 255
204 226 255
204 226 255
204 226 255
204 226 255
204 226 255
204 226 255
204 226 255
204 226 255
205 226 255
205 226 255
205 226 255
205 226 255
205 226 255
205 226 255
205 226 255
205 226 255
205 226 255
205 226 255
205 226 255
205 227 255
205 227 255
205 227 255
205 227 255
205 227 255
205 227 255
205 227 255
205 227 255
205 227 255
205 227 255
205 227 255
205 227 255
205 227 255
206 227 255
206 227 255
206 227 255
206 227 255
206 227 255
206 227 255
206 227 255
206 227 255
206 227 255
206 227 255
206 227 255
206 227 255
206 227 255
206 227 255
206 227 255
206 227 255
206 227 255
206 227 255
206 227 255
207 227 255
207 227 255
207 227 255
207 227 255
207 228 255
207 228 255
207 228 255
207 228 255
207 228 255
207 228 255
207 228 255
207 228 255
207 228 255
207 228 255
207 228 255
207 228 255
207 228 255
207 228 255
208 228 255
208 228 255
208 228 255
208 228 255
208 228 255
205 223 245
197 211 219
193 204 204
187 195 183
187 195 183
187 194 181
186 194 180
184 191 174
187 195 183
186 192 175
182 188 166
190 200 195
183 189 169
187 195 183
183 189 168
185 192 175
185 192 175
183 188 165
185 192 175
184 192 177
185 191 172
183 189 169
182 186 160
184 190 169
183 188 165
180 184 156
186 193 177
185 191 174
184 190 171
184 191 174
183 187 163
181 186 161
184 190 169
184 188 165
187 194 180
185 189 168
184 190 171
181 185 156
184 189 168
181 185 158
183 187 163
183 186 160
184 189 168
186 191 172
185 191 172
186 191 172
187 193 177
187 192 174
185 191 170
183 187 162
185 190 167
186 192 172
187 192 172
186 191 170
187 191 169
182 185 155
185 188 163
185 189 164
188 193 173
185 189 164
186 190 169
184 187 161
187 192 174
188 195 180
190 194 175
183 187 162
185 188 161
188 194 176
189 196 181
191 198 185
190 196 180
190 195 178
191 198 186
187 191 168
184 187 160
191 197 183
188 195 179
191 197 183
191 199 189
190 195 176
192 200 191
189 193 172
193 201 194
189 194 177
188 193 173
189 194 178
189 193 173
189 194 174
187 191 169
195 202 194
195 202 192
190 195 178
194 202 194
192 199 188
194 201 190
196 203 194
202 216 227
210 227 249
212 230 255
210 229 255
208 228 255
207 227 255
205 227 255
205 226 255
204 226 255
203 226 255
202 225 255
202 225 255
201 225 255
201 224 255
200 224 255
200 224 255
199 223 255
199 223 255
198 223 255
198 223 255
197 222 255
197 222 255
196 222 255
196 222 255
196 222 255
195 221 255
195 221 255
195 221 255
194 221 255
194 221 255
193 220 255
193 220 255
193 220 255
192 220 255
192 220 255
192 220 255
191 219 255
191 219 255
191 219 255
191 219 255
190 219 255
190 219 255
190 218 255
189 218 255
189 218 255
189 218 255
189 218 255
188 218 255
188 218 255
188 217 255
188 217 255
187 217 255
187 217 255
187 217 255
187 217 255
186 217 255
186 217 255
186 216 255
186 216 255
186 216 255
185 216 255
185 216 255
185 216 255
185 216 255
185 216 255
185 216 255
185 216 255
184 216 255
184 216 255
184 216 255
184 216 255
184 215 255
184 215 255
184 215 255
184 215 255
184 215 255
184 215 255
184 215 255
184 215 255
184 216 255
184 216 255
184 216 255
184 216 255
185 216 255
185 216 255
185 216 255
185 216 255
186 216 255
186 216 255
186 217 255
187 217 255
187 217 255
188 217 255
188 218 255
189 218 255
190 218 255
191 219 255
192 219 255
193 220 255
194 221 255
196 222 255
198 223 255
202 225 255
206 227 255
208 228 255
208 228 255
208 228 255
208 228 255
208 228 255
208 228 255
208 228 255
207 228 255
207 228 255
207 228 255
207 228 255
207 228 255
207 228 255
207 228 255
207 228 255
207 228 255
207 228 255
207 228 255
207 228 255
207 228 255
207 228 255
207 227 255
207 227 255
207 227 255
207 227 255
206 227 255
206 227 255
206 227 255
206 227 255
206 227 255
206 227 255
206 227 255
206 227 255
206 227 255
206 227 255
206 227 255
206 227 255
206 227 255
206 227 255
206 227 255
206 227 255
206 227 255
206 227 255
206 227 255
206 227 255
205 227 255
205 227 255
205 227 255
205 227 255
205 227 255
205 227 255
205 227 255
205 227 255
205 227 255
205 227 255
205 227 255
205 227 255
205 227 255
205 227 255
205 227 255
205 226 255
205 226 255
205 226 255
205 226 255
205 226 255
205 226 255
205 226 255
205 226 255
205 226 255
205 226 255
205 226 255
204 226 255
204 226 255
204 226 255
204 226 255
204 226 255
204 226 255
204 226 255
204 226 255
204 226 255
204 226 255
204 226 255
204 226 255
204 226 255
204 226 255
204 226 255
204 226 255
204 226 255
204 226 255
204 226 255
204 226 255
204 226 255
204 226 255
204 226 255
204 226 255
204 226 255
204 226 255
204 226 255
204 226 255
204 226 255
204 226 255
204 226 255
204 226 255
204 226 255
204 226 255
204 226 255
204 226 255
204 226 255
204 226 255
204 226 255
204 226 255
204 226 255
204 226 255
204 226 255
204 226 255
204 226 255
204 226 255
204 226 255
204 226 255
204 226 255
204 226 255
204 226 255
204 226 255
204 226 255
204 226 255
204 226 255
204 226 255
205 226 255
205 226 255
205 226 255
205 226 255
205 226 255
205 226 255
205 226 255
205 226 255
205 226 255
205 226 255
205 226 255
205 226 255
205 227 255
205 227 255
205 227 255
205 227 255
205 227 255
205 227 255
205 227 255
205 227 255
205 227 255
205 227 255
205 227 255
205 227 255
205 227 255
205 227 255
206 227 255
206 227 255
206 227 255
206 227 255
206 227 255
206 227 255
206 227 255
206 227 255
206 227 255
206 227 255
206 227 255
206 227 255
206 227 255
206 227 255
206 227 255
206 227 255
206 227 255
206 227 255
206 227 255
207 227 255
207 227 255
207 227 255
207 227 255
207 227 255
207 228 255
207 228 255
207 228 255
207 228 255
207 228 255
207 228 255
207 228 255
207 228 255
207 228 255
207 228 255
207 228 255
207 228 255
207 228 255
207 228 255
208 228 255
208 228 255
208 228 255
208 228 255
208 228 255
208 228 255
207 227 252
203 220 237
191 201 198
189 198 190
189 198 190
188 196 184
188 197 187
184 191 172
186 194 181
186 192 175
188 197 187
183 188 166
185 192 177
186 194 180
185 191 172
185 193 178
181 185 160
183 187 163
183 188 165
180 185 158
183 189 169
182 188 168
184 190 171
187 194 178
181 185 156
181 186 161
185 191 172
182 186 160
185 192 177
180 185 158
183 189 168
183 187 161
181 184 155
182 187 161
186 193 177
186 193 178
182 188 165
179 184 156
183 189 168
182 186 161
185 190 168
182 185 158
179 182 150
182 186 159
181 185 156
185 190 169
181 185 158
181 184 155
183 188 166
179 181 146
183 187 161
182 187 161
186 191 170
184 188 162
186 192 174
183 188 163
182 185 156
186 190 169
183 188 165
183 186 157
187 193 176
188 193 175
189 196 184
184 188 162
190 197 185
184 185 152
187 191 169
184 189 165
187 191 170
186 191 170
188 193 175
187 190 166
183 185 154
185 187 159
184 185 153
186 189 162
189 195 179
184 188 164
188 193 173
188 192 170
191 197 184
187 193 176
188 192 172
192 199 186
189 193 174
189 192 170
190 194 175
188 192 170
191 198 186
188 193 175
188 193 172
192 198 186
192 198 185
189 194 174
188 193 172
191 195 178
193 201 193
191 196 178
193 199 185
195 203 197
190 195 176
198 206 203
206 227 255
205 227 255
205 226 255
204 226 255
203 226 255
202 225 255
202 225 255
201 225 255
201 224 255
200 224 255
200 224 255
199 224 255
199 223 255
198 223 255
198 223 255
198 223 255
197 222 255
197 222 255
196 222 255
196 222 255
195 221 255
195 221 255
195 221 255
194 221 255
194 221 255
194 220 255
193 220 255
193 220 255
193 220 255
192 220 255
192 220 255
192 219 255
191 219 255
191 219 255
191 219 255
190 219 255
190 219 255
190 218 255
189 218 255
189 218 255
189 218 255
189 218 255
188 218 255
188 218 255
188 217 255
188 217 255
187 217 255
187 217 255
187 217 255
187 217 255
186 217 255
186 217 255
186 216 255
186 216 255
186 216 255
185 216 255
185 216 255
185 216 255
185 216 255
185 216 255
184 216 255
184 216 255
184 216 255
184 215 255
184 215 255
184 215 255
184 215 255
183 215 255
183 215 255
183 215 255
183 215 255
183 215 255
183 215 255
183 215 255
183 215 255
183 215 255
183 215 255
183 215 255
183 215 255
183 215 255
184 215 255
184 215 255
184 215 255
184 215 255
184 216 255
184 216 255
185 216 255
185 216 255
185 216 255
186 216 255
186 217 255
187 217 255
187 217 255
188 218 255
189 218 255
190 218 255
191 219 255
192 219 255
193 220 255
195 221 255
197 222 255
200 224 255
204 226 255
207 228 255
208 228 255
208 228 255
208 228 255
208 228 255
208 228 255
208 228 255
208 228 255
208 228 255
207 228 255
207 228 255
207 228 255
207 228 255
207 228 255
207 228 255
207 228 255
207 228 255
207 228 255
207 228 255
207 228 255
207 228 255
207 228 255
207 228 255
207 228 255
207 227 255
207 227 255
207 227 255
207 227 255
206 227 255
206 227 255
206 227 255
206 227 255
206 227 255
206 227 255
206 227 255
206 227 255
206 227 255
206 227 255
206 227 255
206 227 255
206 227 255
206 227 255
206 227 255
206 227 255
206 227 255
206 227 255
206 227 255
206 227 255
206 227 255
205 227 255
205 227 255
205 227 255
205 227 255
205 227 255
205 227 255
205 227 255
205 227 255
205 227 255
205 227 255
205 227 255
205 227 255
205 227 255
205 227 255
205 227 255
205 227 255
205 226 255
205 226 255
205 226 255
205 226 255
205 226 255
205 226 255
205 226 255
205 226 255
205 226 255
205 226 255
205 226 255
205 226 255
205 226 255
205 226 255
205 226 255
204 226 255
204 226 255
204 226 255
204 226 255
204 226 255
204 226 255
204 226 255
204 226 255
204 226 255
204 226 255
204 226 255
204 226 255
204 226 255
204 226 255
204 226 255
204 226 255
204 226 255
204 226 255
204 226 255
204 226 255
204 226 255
204 226 255
204 226 255
204 226 255
204 226 255
204 226 255
204 226 255
204 226 255
204 226 255
204 226 255
204 226 255
204 226 255
204 226 255
204 226 255
205 226 255
205 226 255
205 226 255
205 226 255
205 226 255
205 226 255
205 226 255
205 226 255
205 226 255
205 226 255
205 226 255
205 226 255
205 226 255
205 226 255
205 226 255
205 226 255
205 227 255
205 227 255
205 227 255
205 227 255
205 227 255
205 227 255
205 227 255
205 227 255
205 227 255
205 227 255
205 227 255
205 227 255
205 227 255
205 227 255
205 227 255
206 227 255
206 227 255
206 227 255
206 227 255
206 227 255
206 227 255
206 227 255
206 227 255
206 227 255
206 227 255
206 227 255
206 227 255
206 227 255
206 227 255
206 227 255
206 227 255
206 227 255
206 227 255
206 227 255
206 227 255
206 227 255
207 227 255
207 227 255
207 227 255
207 227 255
207 227 255
207 228 255
207 228 255
207 228 255
207 228 255
207 228 255
207 228 255
207 228 255
207 228 255
207 228 255
207 228 255
207 228 255
207 228 255
207 228 255
207 228 255
208 228 255
208 228 255
208 228 255
208 228 255
208 228 255
208 228 255
208 228 255
208 228 255
206 224 247
198 212 221
191 200 192
187 194 180
188 196 186
187 195 184
188 195 183
187 195 181
184 191 175
187 196 186
187 195 181
183 188 166
185 192 175
181 187 163
185 193 178
180 185 161
184 189 168
187 195 183
183 189 169
185 192 177
183 189 168
181 184 155
180 184 155
186 194 181
183 188 166
185 192 175
181 185 156
185 191 174
185 193 177
182 188 165
184 190 171
184 190 171
185 191 174
181 186 161
182 186 160
180 184 153
183 189 168
184 188 163
188 195 183
184 190 171
184 190 170
181 185 158
182 187 163
184 189 166
185 191 170
183 187 160
180 183 151
182 185 156
185 190 169
187 193 175
185 190 168
184 190 169
182 184 152
185 188 163
184 188 163
183 187 162
184 187 159
183 185 152
183 185 153
182 186 160
183 187 161
184 189 165
184 187 157
185 190 168
183 186 157
186 190 165
187 189 162
187 192 172
188 194 176
188 192 170
185 189 165
188 193 174
185 188 161
185 188 162
187 193 174
188 193 173
190 196 181
184 186 156
186 191 169
186 190 166
188 193 173
189 195 180
185 188 161
193 200 189
189 195 180
189 194 174
189 194 175
189 192 168
190 195 176
186 189 162
189 194 176
189 192 169
187 191 168
191 197 184
192 196 179
192 198 183
190 196 181
192 198 184
190 194 173
192 199 186
191 197 183
191 198 184
192 196 178
195 202 193
205 226 255
204 226 255
203 226 255
203 225 255
202 225 255
202 225 255
201 224 255
200 224 255
200 224 255
200 224 255
199 223 255
199 223 255
198 223 255
198 223 255
197 222 255
197 222 255
197 222 255
196 222 255
196 222 255
195 221 255
195 221 255
195 221 255
194 221 255
194 221 255
194 220 255
193 220 255
193 220 255
193 220 255
192 220 255
192 220 255
192 219 255
191 219 255
191 219 255
191 219 255
190 219 255
190 219 255
190 218 255
189 218 255
189 218 255
189 218 255
189 218 255
188 218 255
188 218 255
188 217 255
188 217 255
187 217 255
187 217 255
187 217 255
187 217 255
186 217 255
186 217 255
186 216 255
186 216 255
185 216 255
185 216 255
185 216 255
185 216 255
185 216 255
184 216 255
184 216 255
184 215 255
184 215 255
184 215 255
184 215 255
183 215 255
183 215 255
183 215 255
183 215 255
183 215 255
183 215 255
183 215 255
183 215 255
183 215 255
183 215 255
183 215 255
182 215 255
182 215 255
182 215 255
183 215 255
183 215 255
183 215 255
183 215 255
183 215 255
183 215 255
183 215 255
183 215 255
184 215 255
184 215 255
184 215 255
184 216 255
185 216 255
185 216 255
186 216 255
186 217 255
187 217 255
187 217 255
188 218 255
189 218 255
190 219 255
191 219 255
192 220 255
194 221 255
196 222 255
198 223 255
203 225 255
207 227 255
208 228 255
208 228 255
208 228 255
208 228 255
208 228 255
208 228 255
208 228 255
208 228 255
208 228 255
208 228 255
208 228 255
207 228 255
207 228 255
207 228 255
207 228 255
207 228 255
207 228 255
207 228 255
207 228 255
207 228 255
207 228 255
207 228 255
207 228 255
207 228 255
207 228 255
207 227 255
207 227 255
207 227 255
207 227 255
207 227 255
206 227 255
206 227 255
206 227 255
206 227 255
206 227 255
206 227 255
206 227 255
206 227 255
206 227 255
206 227 255
206 227 255
206 227 255
206 227 255
206 227 255
206 227 255
206 227 255
206 227 255
206 227 255
206 227 255
206 227 255
206 227 255
206 227 255
205 227 255
205 227 255
205 227 255
205 227 255
205 227 255
205 227 255
205 227 255
205 227 255
205 227 255
205 227 255
205 227 255
205 227 255
205 227 255
205 227 255
205 227 255
205 227 255
205 227 255
205 227 255
205 226 255
205 226 255
205 226 255
205 226 255
205 226 255
205 226 255
205 226 255
205 226 255
205 226 255
205 226 255
205 226 255
205 226 255
205 226 255
205 226 255
205 226 255
205 226 255
205 226 255
205 226 255
205 226 255
205 226 255
205 226 255
205 226 255
205 226 255
205 226 255
205 226 255
205 226 255
205 226 255
205 226 255
205 226 255
205 226 255
205 226 255
205 226 255
205 226 255
205 226 255
205 226 255
205 226 255
205 226 255
205 226 255
205 226 255
205 226 255
205 226 255
205 226 255
205 226 255
205 226 255
205 226 255
205 226 255
205 226 255
205 226 255
205 227 255
205 227 255
205 227 255
205 227 255
205 227 255
205 227 255
205 227 255
205 227 255
205 227 255
205 227 255
205 227 255
205 227 255
205 227 255
205 227 255
205 227 255
205 227 255
205 227 255
205 227 255
206 227 255
206 227 255
206 227 255
206 227 255
206 227 255
206 227 255
206 227 255
206 227 255
206 227 255
206 227 255
206 227 255
206 227 255
206 227 255
206 227 255
206 227 255
206 227 255
206 227 255
206 227 255
206 227 255
206 227 255
206 227 255
206 227 255
207 227 255
207 227 255
207 227 255
207 227 255
207 227 255
207 228 255
207 228 255
207 228 255
207 228 255
207 228 255
207 228 255
207 228 255
207 228 255
207 228 255
207 228 255
207 228 255
207 228 255
207 228 255
207 228 255
207 228 255
208 228 255
208 228 255
208 228 255
208 228 255
208 228 255
208 228 255
208 228 255
208 228 255
208 228 255
208 228 254
198 213 224
194 205 206
188 197 187
185 192 177
188 197 187
188 196 184
185 193 180
188 196 184
185 192 175
187 195 183
184 190 171
181 186 160
183 190 171
182 187 165
181 186 163
183 189 169
181 186 161
184 190 172
183 189 168
182 188 166
183 189 168
181 186 161
182 188 168
181 186 161
185 189 168
185 190 171
187 194 180
181 186 160
184 190 171
182 186 160
182 186 161
183 187 161
182 188 165
182 187 161
182 186 161
182 187 163
182 187 161
183 186 160
183 189 169
184 189 168
184 189 168
184 189 165
183 187 163
183 186 158
183 187 163
183 187 162
181 183 148
180 184 154
184 188 163
186 190 167
183 188 163
183 187 161
182 185 156
185 189 166
182 186 158
185 189 166
184 188 164
185 188 161
184 187 160
185 187 159
180 182 148
182 184 151
184 188 161
184 188 161
182 185 155
185 188 163
182 184 152
185 190 167
187 190 167
186 189 164
185 189 164
187 189 163
185 190 167
185 191 170
184 187 159
184 189 165
185 188 161
185 190 167
183 186 155
185 187 159
185 189 165
185 188 163
188 191 168
187 191 170
190 196 180
189 194 175
188 192 172
189 195 179
191 196 181
189 194 174
191 197 182
191 196 179
186 190 164
187 192 172
190 196 179
187 190 165
186 190 165
188 192 169
193 200 190
189 194 174
190 194 176
194 200 189
194 202 193
189 193 170
190 193 172
190 195 175
203 226 255
203 225 255
202 225 255
202 225 255
201 225 255
201 224 255
200 224 255
200 224 255
199 224 255
199 223 255
199 223 255
198 223 255
198 223 255
197 222 255
197 222 255
196 222 255
196 222 255
196 222 255
195 221 255
195 221 255
195 221 255
194 221 255
194 221 255
194 220 255
193 220 255
193 220 255
193 220 255
192 220 255
192 220 255
192 219 255
191 219 255
191 219 255
191 219 255
190 219 255
190 219 255
190 218 255
190 218 255
189 218 255
189 218 255
189 218 255
188 218 255
188 218 255
188 217 255
188 217 255
187 217 255
187 217 255
187 217 255
187 217 255
186 217 255
186 217 255
186 216 255
186 216 255
185 216 255
185 216 255
185 216 255
185 216 255
185 216 255
184 216 255
184 216 255
184 215 255
184 215 255
184 215 255
183 215 255
183 215 255
183 215 255
183 215 255
183 215 255
183 215 255
183 215 255
182 215 255
182 215 255
182 215 255
182 215 255
182 214 255
182 214 255
182 214 255
182 214 255
182 214 255
182 214 255
182 214 255
182 214 255
182 214 255
182 214 255
182 215 255
182 215 255
182 215 255
183 215 255
183 215 255
183 215 255
183 215 255
184 215 255
184 215 255
184 216 255
185 216 255
185 216 255
186 216 255
186 217 255
187 217 255
188 217 255
188 218 255
190 218 255
191 219 255
192 220 255
193 220 255
195 221 255
198 223 255
202 225 255
206 227 255
208 228 255
208 228 255
208 228 255
208 228 255
208 228 255
208 228 255
208 228 255
208 228 255
208 228 255
208 228 255
208 228 255
208 228 255
208 228 255
207 228 255
207 228 255
207 228 255
207 228 255
207 228 255
207 228 255
207 228 255
207 228 255
207 228 255
207 228 255
207 228 255
207 228 255
207 228 255
207 228 255
207 228 255
207 227 255
207 227 255
207 227 255
207 227 255
207 227 255
206 227 255
206 227 255
206 227 255
206 227 255
206 227 255
206 227 255
206 227 255
206 227 255
206 227 255
206 227 255
206 227 255
206 227 255
206 227 255
206 227 255
206 227 255
206 227 255
206 227 255
206 227 255
206 227 255
206 227 255
206 227 255
206 227 255
206 227 255
206 227 255
205 227 255
205 227 255
205 227 255
205 227 255
205 227 255
205 227 255
205 227 255
205 227 255
205 227 255
205 227 255
205 227 255
205 227 255
205 227 255
205 227 255
205 227 255
205 227 255
205 227 255
205 227 255
205 227 255
205 227 255
205 227 255
205 227 255
205 227 255
205 227 255
205 227 255
205 227 255
205 226 255
205 226 255
205 226 255
205 226 255
205 226 255
205 226 255
205 226 255
205 226 255
205 226 255
205 226 255
205 226 255
205 226 255
205 226 255
205 226 255
205 226 255
205 226 255
205 226 255
205 226 255
205 227 255
205 227 255
205 227 255
205 227 255
205 227 255
205 227 255
205 227 255
205 227 255
205 227 255
205 227 255
205 227 255
205 227 255
205 227 255
205 227 255
205 227 255
205 227 255
205 227 255
205 227 255
205 227 255
205 227 255
205 227 255
205 227 255
205 227 255
205 227 255
205 227 255
205 227 255
205 227 255
206 227 255
206 227 255
206 227 255
206 227 255
206 227 255
206 227 255
206 227 255
206 227 255
206 227 255
206 227 255
206 227 255
206 227 255
206 227 255
206 227 255
206 227 255
206 227 255
206 227 255
206 227 255
206 227 255
206 227 255
206 227 255
206 227 255
206 227 255
207 227 255
207 227 255
207 227 255
207 227 255
207 227 255
207 228 255
207 228 255
207 228 255
207 228 255
207 228 255
207 228 255
207 228 255
207 228 255
207 228 255
207 228 255
207 228 255
207 228 255
207 228 255
207 228 255
207 228 255
208 228 255
208 228 255
208 228 255
208 228 255
208 228 255
208 228 255
208 228 255
208 228 255
208 228 255
208 228 255
208 228 255
208 228 255
207 227 252
200 215 227
195 207 208
186 192 174
187 196 187
190 198 190
187 194 180
183 190 172
187 195 183
186 194 181
186 194 180
180 185 161
185 191 174
184 190 171
184 191 174
184 190 171
185 192 175
183 189 168
183 188 166
181 186 160
183 189 168
180 184 156
183 188 166
180 184 155
181 185 156
182 186 161
179 184 156
180 185 158
184 190 171
179 182 148
180 182 150
182 187 165
183 189 168
182 187 163
180 183 151
186 193 175
183 187 160
177 179 141
182 186 160
183 185 155
182 188 165
183 188 166
183 186 160
184 188 163
184 188 165
183 187 161
184 190 170
181 185 155
184 188 165
182 185 156
188 193 176
183 188 163
183 187 161
183 187 160
185 189 166
184 188 164
186 191 169
185 189 166
184 188 161
183 186 157
185 189 167
184 187 161
186 193 175
184 189 166
185 190 167
184 187 161
184 186 155
182 185 156
186 189 165
186 190 168
186 192 172
182 185 156
186 190 167
188 191 167
186 189 164
184 186 154
186 191 170
183 186 159
186 188 160
184 187 160
189 194 174
187 192 173
185 189 164
188 191 166
183 186 158
186 190 167
186 190 165
189 195 177
186 188 160
190 196 181
189 194 174
188 192 170
183 186 157
191 198 187
186 190 168
187 191 170
192 196 177
190 194 175
190 194 175
188 192 171
188 193 174
190 194 175
192 200 189
192 196 178
190 194 172
190 195 178
191 196 179
191 196 181
189 195 177
203 225 255
202 225 255
202 225 255
201 224 255
201 224 255
200 224 255
200 224 255
199 223 255
199 223 255
198 223 255
198 223 255
198 223 255
197 222 255
197 222 255
197 222 255
196 222 255
196 222 255
195 221 255
195 221 255
195 221 255
194 221 255
194 221 255
194 221 255
193 220 255
193 220 255
193 220 255
192 220 255
192 220 255
192 219 255
191 219 255
191 219 255
191 219 255
191 219 255
190 219 255
190 219 255
190 218 255
189 218 255
189 218 255
189 218 255
189 218 255
188 218 255
188 218 255
188 217 255
187 217 255
187 217 255
187 217 255
187 217 255
186 217 255
186 217 255
186 216 255
186 216 255
186 216 255
185 216 255
185 216 255
185 216 255
185 216 255
184 216 255
184 216 255
184 215 255
184 215 255
184 215 255
183 215 255
183 215 255
183 215 255
183 215 255
183 215 255
183 215 255
182 215 255
182 215 255
182 215 255
182 214 255
182 214 255
182 214 255
182 214 255
182 214 255
182 214 255
182 214 255
182 214 255
182 214 255
181 214 255
181 214 255
182 214 255
182 214 255
182 214 255
182 214 255
182 214 255
182 214 255
182 214 255
182 215 255
182 215 255
183 215 255
183 215 255
183 215 255
184 215 255
184 215 255
184 216 255
185 216 255
185 216 255
186 216 255
187 217 255
187 217 255
188 218 255
189 218 255
190 219 255
191 219 255
193 220 255
195 221 255
197 222 255
201 224 255
206 227 255
208 228 255
208 228 255
208 228 255
208 228 255
208 228 255
208 228 255
208 228 255
208 228 255
208 228 255
208 228 255
208 228 255
208 228 255
208 228 255
208 228 255
208 228 255
207 228 255
207 228 255
207 228 255
207 228 255
207 228 255
207 228 255
207 228 255
207 228 255
207 228 255
207 228 255
207 228 255
207 228 255
207 228 255
207 228 255
207 228 255
207 228 255
207 227 255
207 227 255
207 227 255
207 227 255
207 227 255
206 227 255
206 227 255
206 227 255
206 227 255
206 227 255
206 227 255
206 227 255
206 227 255
206 227 255
206 227 255
206 227 255
206 227 255
206 227 255
206 227 255
206 227 255
206 227 255
206 227 255
206 227 255
206 227 255
206 227 255
206 227 255
206 227 255
206 227 255
206 227 255
206 227 255
206 227 255
206 227 255
205 227 255
205 227 255
205 227 255
205 227 255
205 227 255
205 227 255
205 227 255
205 227 255
205 227 255
205 227 255
205 227 255
205 227 255
205 227 255
205 227 255
205 227 255
205 227 255
205 227 255
205 227 255
205 227 255
205 227 255
205 227 255
205 227 255
205 227 255
205 227 255
203 225 254
203 225 254
196 217 248
198 219 250
202 224 254
204 226 255
205 227 255
205 227 255
205 227 255
205 227 255
205 227 255
205 227 255
205 227 255
205 227 255
205 227 255
205 227 255
205 227 255
205 227 255
205 227 255
205 227 255
205 227 255
205 227 255
205 227 255
205 227 255
205 227 255
205 227 255
205 227 255
205 227 255
205 227 255
205 227 255
206 227 255
206 227 255
206 227 255
206 227 255
206 227 255
206 227 255
206 227 255
206 227 255
206 227 255
206 227 255
206 227 255
206 227 255
206 227 255
206 227 255
206 227 255
206 227 255
206 227 255
206 227 255
206 227 255
206 227 255
206 227 255
206 227 255
206 227 255
206 227 255
206 227 255
206 227 255
206 227 255
207 227 255
207 227 255
207 227 255
207 227 255
207 227 255
207 228 255
207 228 255
207 228 255
207 228 255
207 228 255
207 228 255
207 228 255
207 228 255
207 228 255
207 228 255
207 228 255
207 228 255
207 228 255
207 228 255
207 228 255
207 228 255
208 228 255
208 228 255
208 228 255
208 228 255
208 228 255
208 228 255
208 228 255
208 228 255
208 228 255
208 228 255
208 228 255
208 228 255
208 228 255
208 228 255
208 227 252
200 215 227
190 197 187
188 196 184
189 196 184
183 188 165
185 193 178
187 193 177
189 198 191
184 190 169
183 190 172
184 191 174
183 189 169
183 188 165
184 189 169
184 190 171
183 188 166
182 187 165
182 186 161
183 190 172
180 184 156
181 187 165
181 186 161
182 188 165
181 186 160
183 188 165
183 189 169
178 181 146
180 185 158
184 189 168
182 186 161
181 185 156
180 183 153
182 187 161
181 185 156
182 185 156
183 186 160
181 184 155
181 185 158
182 185 156
183 186 158
179 181 148
180 182 148
181 185 158
185 192 177
181 183 151
180 182 146
181 184 153
182 185 156
183 187 163
179 181 144
184 189 168
182 186 160
178 179 140
184 189 166
184 185 154
183 187 161
183 186 158
182 186 158
184 187 159
185 189 166
182 184 154
183 185 155
186 192 173
184 186 156
184 187 158
183 186 158
179 179 140
183 186 156
187 192 171
183 185 153
183 184 149
184 187 159
185 187 158
185 190 168
183 186 158
187 189 162
188 192 170
184 187 158
185 189 164
187 191 170
185 189 165
187 191 167
182 185 157
187 192 171
186 189 164
185 187 156
187 190 165
185 188 159
186 190 165
185 187 157
191 196 181
189 193 172
193 198 183
186 188 158
189 193 172
187 190 163
189 191 167
189 193 172
190 196 179
188 192 169
189 192 171
189 194 174
189 193 172
189 192 169
188 192 170
194 201 192
191 196 179
191 196 177
189 194 176
194 200 189
202 225 255
202 225 255
201 224 255
201 224 255
200 224 255
200 224 255
199 224 255
199 223 255
199 223 255
198 223 255
198 223 255
197 222 255
197 222 255
197 222 255
196 222 255
196 222 255
196 222 255
195 221 255
195 221 255
195 221 255
194 221 255
194 221 255
194 220 255
193 220 255
193 220 255
193 220 255
192 220 255
192 220 255
192 219 255
191 219 255
191 219 255
191 219 255
190 219 255
190 219 255
190 219 255
190 218 255
189 218 255
189 218 255
189 218 255
189 218 255
188 218 255
188 217 255
188 217 255
187 217 255
187 217 255
187 217 255
187 217 255
186 217 255
186 217 255
186 216 255
186 216 255
185 216 255
185 216 255
185 216 255
185 216 255
185 216 255
184 216 255
184 216 255
184 215 255
184 215 255
184 215 255
183 215 255
183 215 255
183 215 255
183 215 255
183 215 255
182 215 255
182 215 255
182 215 255
182 214 255
182 214 255
182 214 255
182 214 255
182 214 255
181 214 255
181 214 255
181 214 255
181 214 255
181 214 255
181 214 255
181 214 255
181 214 255
181 214 255
181 214 255
181 214 255
181 214 255
181 214 255
181 214 255
182 214 255
182 214 255
182 214 255
182 215 255
182 215 255
183 215 255
183 215 255
183 215 255
184 215 255
184 215 255
185 216 255
185 216 255
186 216 255
186 217 255
187 217 255
188 217 255
189 218 255
190 219 255
191 219 255
193 220 255
195 221 255
197 222 255
201 225 255
206 227 255
208 228 255
208 228 255
208 228 255
208 228 255
208 228 255
208 228 255
208 228 255
208 228 255
208 228 255
208 228 255
208 228 255
208 228 255
208 228 255
208 228 255
208 228 255
208 228 255
208 228 255
208 228 255
207 228 255
207 228 255
207 228 255
207 228 255
207 228 255
207 228 255
207 228 255
207 228 255
207 228 255
207 228 255
207 228 255
207 228 255
207 228 255
207 228 255
207 228 255
207 228 255
207 227 255
207 227 255
207 227 255
207 227 255
207 227 255
207 227 255
206 227 255
206 227 255
206 227 255
206 227 255
206 227 255
206 227 255
206 227 255
206 227 255
206 227 255
206 227 255
206 227 255
206 227 255
206 227 255
206 227 255
206 227 255
206 227 255
206 227 255
206 227 255
206 227 255
206 227 255
206 227 255
206 227 255
206 227 255
206 227 255
206 227 255
206 227 255
206 227 255
206 227 255
206 227 255
206 227 255
206 227 255
206 227 255
206 227 255
205 227 255
205 227 255
205 227 255
205 227 255
205 227 255
189 211 244
164 186 227
149 173 217
137 161 211
110 137 199
109 136 197
78 111 184
62 99 175
61 98 176
62 98 175
62 99 176
61 98 175
62 99 175
71 105 182
98 127 193
130 155 208
141 165 215
158 181 225
168 191 231
183 205 240
205 226 255
205 227 255
205 227 255
205 227 255
206 227 255
206 227 255
206 227 255
206 227 255
206 227 255
206 227 255
206 227 255
206 227 255
206 227 255
206 227 255
206 227 255
206 227 255
206 227 255
206 227 255
206 227 255
206 227 255
206 227 255
206 227 255
206 227 255
206 227 255
206 227 255
206 227 255
206 227 255
206 227 255
206 227 255
206 227 255
206 227 255
206 227 255
206 227 255
206 227 255
206 227 255
206 227 255
206 227 255
206 227 255
206 227 255
207 227 255
207 227 255
207 227 255
207 227 255
207 227 255
207 228 255
207 228 255
207 228 255
207 228 255
207 228 255
207 228 255
207 228 255
207 228 255
207 228 255
207 228 255
207 228 255
207 228 255
207 228 255
207 228 255
207 228 255
207 228 255
208 228 255
208 228 255
208 228 255
208 228 255
208 228 255
208 228 255
208 228 255
208 228 255
208 228 255
208 228 255
208 228 255
208 228 255
208 228 255
208 228 255
208 228 255
208 228 255
208 228 255
207 226 251
201 216 228
188 197 187
188 196 186
189 199 191
189 197 187
188 197 187
186 194 182
184 190 169
184 190 171
185 190 171
181 186 161
187 194 181
184 191 177
185 191 174
184 191 175
184 192 178
181 187 166
181 185 156
177 180 146
184 192 175
182 188 169
183 188 166
182 187 163
183 188 166
180 184 156
180 184 156
184 190 169
181 186 163
181 184 155
182 186 160
182 188 165
184 189 166
184 190 171
183 188 165
177 180 144
183 187 161
181 185 156
182 184 151
182 186 160
181 184 155
179 181 146
182 185 155
183 187 163
183 186 158
180 182 146
183 186 160
183 185 154
182 184 153
183 185 155
185 187 158
183 188 164
180 182 148
184 187 158
182 185 155
179 180 142
183 187 161
180 181 144
181 183 151
185 188 163
182 187 163
184 185 153
184 188 161
184 187 160
185 189 164
183 186 157
183 186 158
185 187 160
183 186 157
186 188 161
182 184 152
182 184 152
186 189 163
187 192 172
186 189 165
181 183 148
186 190 168
181 183 151
184 185 154
184 185 152
185 189 165
185 187 156
187 190 164
186 189 163
183 186 158
187 187 154
185 188 161
188 191 168
189 193 172
188 191 167
186 189 163
185 188 161
188 189 160
189 194 174
185 188 159
189 193 171
188 192 169
191 196 180
185 187 155
190 196 181
190 193 170
186 189 164
186 189 160
189 194 176
194 200 188
188 192 169
188 191 166
193 198 185
190 193 172
191 196 181
190 193 171
189 195 177
192 199 186
202 225 255
201 224 255
201 224 255
200 224 255
200 224 255
199 224 255
199 223 255
199 223 255
198 223 255
198 223 255
198 223 255
197 222 255
197 222 255
196 222 255
196 222 255
196 222 255
195 221 255
195 221 255
195 221 255
194 221 255
194 221 255
194 221 255
193 220 255
193 220 255
193 220 255
193 220 255
192 220 255
192 220 255
192 219 255
191 219 255
191 219 255
191 219 255
190 219 255
190 219 255
190 219 255
190 218 255
189 218 255
189 218 255
189 218 255
189 218 255
188 218 255
188 218 255
188 217 255
187 217 255
187 217 255
187 217 255
187 217 255
186 217 255
186 217 255
186 216 255
186 216 255
185 216 255
185 216 255
185 216 255
185 216 255
185 216 255
184 216 255
184 216 255
184 215 255
184 215 255
184 215 255
183 215 255
183 215 255
183 215 255
183 215 255
183 215 255
182 215 255
182 215 255
182 214 255
182 214 255
182 214 255
182 214 255
182 214 255
181 214 255
181 214 255
181 214 255
181 214 255
181 214 255
181 214 255
181 214 255
181 214 255
181 214 255
181 214 255
181 214 255
181 214 255
181 214 255
181 214 255
181 214 255
181 214 255
181 214 255
181 214 255
182 214 255
182 214 255
182 214 255
182 215 255
182 215 255
183 215 255
183 215 255
184 215 255
184 215 255
184 216 255
185 216 255
186 216 255
186 217 255
187 217 255
188 218 255
189 218 255
190 219 255
191 219 255
193 220 255
195 221 255
198 223 255
202 225 255
207 228 255
208 228 255
208 228 255
208 228 255
208 228 255
208 228 255
208 228 255
208 228 255
208 228 255
208 228 255
208 228 255
208 228 255
208 228 255
208 228 255
208 228 255
208 228 255
208 228 255
208 228 255
208 228 255
208 228 255
208 228 255
208 228 255
207 228 255
207 228 255
207 228 255
207 228 255
207 228 255
207 228 255
207 228 255
207 228 255
207 228 255
207 228 255
207 228 255
207 228 255
207 228 255
207 228 255
207 228 255
207 228 255
207 228 255
207 227 255
207 227 255
207 227 255
207 227 255
207 227 255
207 227 255
206 227 255
206 227 255
206 227 255
206 227 255
206 227 255
206 227 255
206 227 255
206 227 255
206 227 255
206 227 255
206 227 255
206 227 255
206 227 255
206 227 255
206 227 255
206 227 255
206 227 255
206 227 255
206 227 255
206 227 255
206 227 255
206 227 255
206 227 255
206 227 255
206 227 255
206 227 255
206 227 255
202 223 253
178 200 237
149 173 220
121 146 203
68 103 181
63 99 176
61 98 172
62 99 175
62 99 175
63 100 179
62 99 178
62 99 176
62 98 171
62 99 173
61 98 171
63 99 178
63 99 174
62 98 174
62 99 176
62 99 175
62 99 176
63 99 172
62 99 176
62 99 176
63 100 179
70 105 180
122 148 202
149 172 219
176 198 236
204 225 254
206 227 255
206 227 255
206 227 255
206 227 255
206 227 255
206 227 255
206 227 255
206 227 255
206 227 255
206 227 255
206 227 255
206 227 255
206 227 255
206 227 255
206 227 255
206 227 255
206 227 255
206 227 255
206 227 255
206 227 255
206 227 255
206 227 255
206 227 255
206 227 255
206 227 255
206 227 255
206 227 255
207 227 255
207 227 255
207 227 255
207 227 255
207 227 255
207 227 255
207 228 255
207 228 255
207 228 255
207 228 255
207 228 255
207 228 255
207 228 255
207 228 255
207 228 255
207 228 255
207 228 255
207 228 255
207 228 255
207 228 255
207 228 255
207 228 255
207 228 255
208 228 255
208 228 255
208 228 255
208 228 255
208 228 255
208 228 255
208 228 255
208 228 255
208 228 255
208 228 255
208 228 255
208 228 255
208 228 255
208 228 255
208 228 255
208 228 255
208 228 255
208 228 255
208 228 255
208 228 255
208 228 254
203 220 237
194 204 203
191 200 192
189 198 188
188 198 192
183 188 167
183 190 171
184 191 175
186 194 182
186 193 177
182 188 169
183 190 172
185 192 174
181 187 164
179 182 151
182 186 161
184 191 172
182 188 166
183 188 166
184 191 174
181 186 160
183 187 163
181 185 158
183 189 168
180 183 155
182 187 164
180 184 156
180 183 151
181 185 156
181 186 160
181 183 151
179 181 144
181 185 156
180 184 156
179 183 153
181 184 155
181 183 151
184 189 166
182 186 160
180 183 151
182 185 155
182 185 156
181 184 153
179 181 148
182 185 156
180 184 153
186 191 169
178 178 135
182 185 155
184 188 163
182 186 158
183 185 153
180 182 148
182 185 156
181 182 146
182 184 153
185 187 158
184 186 156
180 183 151
182 184 151
182 184 153
184 188 163
183 185 155
184 189 165
182 184 151
185 188 161
182 185 155
184 186 157
183 184 151
186 188 159
184 188 164
186 190 167
181 184 153
183 187 159
184 186 156
179 181 144
184 186 156
184 185 154
184 187 159
184 186 157
185 189 165
184 186 155
183 183 146
187 192 173
184 188 162
184 187 156
185 188 159
184 186 157
187 192 170
188 190 165
189 194 175
186 188 161
184 186 155
187 190 165
188 191 167
187 191 167
189 193 174
188 192 171
186 187 155
185 187 157
188 192 170
193 197 181
186 189 161
184 186 153
186 189 164
187 188 158
184 186 154
188 192 170
189 192 170
189 194 174
187 190 165
188 191 168
189 193 172
190 193 171
201 224 255
201 224 255
200 224 255
200 224 255
200 224 255
199 223 255
199 223 255
198 223 255
198 223 255
198 223 255
197 222 255
197 222 255
197 222 255
196 222 255
196 222 255
196 222 255
195 221 255
195 221 255
195 221 255
194 221 255
194 221 255
194 221 255
193 220 255
193 220 255
193 220 255
193 220 255
192 220 255
192 220 255
192 219 255
191 219 255
191 219 255
191 219 255
191 219 255
190 219 255
190 219 255
190 218 255
189 218 255
189 218 255
189 218 255
189 218 255
188 218 255
188 218 255
188 217 255
188 217 255
187 217 255
187 217 255
187 217 255
187 217 255
186 217 255
186 217 255
186 216 255
186 216 255
185 216 255
185 216 255
185 216 255
185 216 255
184 216 255
184 216 255
184 215 255
184 215 255
184 215 255
183 215 255
183 215 255
183 215 255
183 215 255
183 215 255
182 215 255
182 215 255
182 215 255
182 214 255
182 214 255
182 214 255
182 214 255
181 214 255
181 214 255
181 214 255
181 214 255
181 214 255
181 214 255
181 214 255
181 214 255
181 214 255
181 214 255
181 214 255
181 214 255
181 214 255
181 214 255
181 214 255
181 214 255
181 214 255
181 214 255
181 214 255
181 214 255
181 214 255
182 214 255
182 214 255
182 214 255
182 215 255
183 215 255
183 215 255
183 215 255
184 215 255
184 216 255
185 216 255
186 216 255
186 217 255
187 217 255
188 218 255
189 218 255
190 219 255
192 219 255
193 220 255
195 221 255
198 223 255
203 225 255
207 228 255
209 229 255
209 229 255
209 228 255
209 228 255
208 228 255
208 228 255
208 228 255
208 228 255
208 228 255
208 228 255
208 228 255
208 228 255
208 228 255
208 228 255
208 228 255
208 228 255
208 228 255
208 228 255
208 228 255
208 228 255
208 228 255
208 228 255
208 228 255
208 228 255
208 228 255
207 228 255
207 228 255
207 228 255
207 228 255
207 228 255
207 228 255
207 228 255
207 228 255
207 228 255
207 228 255
207 228 255
207 228 255
207 228 255
207 228 255
207 228 255
207 228 255
207 228 255
207 228 255
207 227 255
207 227 255
207 227 255
207 227 255
207 227 255
207 227 255
207 227 255
206 227 255
206 227 255
206 227 255
206 227 255
206 227 255
206 227 255
206 227 255
206 227 255
206 227 255
206 227 255
206 227 255
206 227 255
206 227 255
206 227 255
206 227 255
206 227 255
204 225 254
163 186 226
127 152 207
70 105 183
62 99 176
62 99 174
62 99 177
63 99 176
62 98 173
62 99 174
62 99 172
62 98 172
62 98 171
63 99 174
63 99 173
62 99 171
62 99 175
63 99 174
62 99 170
62 99 174
62 98 174
62 99 176
62 99 174
62 98 171
62 99 176
61 98 167
62 99 175
62 99 170
63 100 177
62 99 179
62 99 176
61 98 174
86 117 185
116 142 199
176 198 235
197 219 249
206 227 255
206 227 255
206 227 255
206 227 255
206 227 255
206 227 255
206 227 255
206 227 255
206 227 255
206 227 255
206 227 255
206 227 255
206 227 255
206 227 255
206 227 255
206 227 255
207 227 255
207 227 255
207 227 255
207 227 255
207 227 255
207 227 255
207 227 255
207 228 255
207 228 255
207 228 255
207 228 255
207 228 255
207 228 255
207 228 255
207 228 255
207 228 255
207 228 255
207 228 255
207 228 255
207 228 255
207 228 255
207 228 255
207 228 255
207 228 255
207 228 255
208 228 255
208 228 255
208 228 255
208 228 255
208 228 255
208 228 255
208 228 255
208 228 255
208 228 255
208 228 255
208 228 255
208 228 255
208 228 255
208 228 255
208 228 255
208 228 255
208 228 255
208 228 255
208 228 255
208 228 255
208 228 255
209 228 255
209 228 255
209 229 255
209 229 255
202 218 234
193 205 204
191 199 190
188 195 182
187 194 178
188 195 181
184 189 168
186 192 175
183 190 174
182 187 163
182 188 165
184 188 163
184 191 172
183 190 174
182 185 155
181 186 164
182 188 165
180 185 161
186 191 172
183 187 164
179 182 151
184 191 172
180 186 163
184 189 166
183 188 166
180 184 153
178 180 144
179 183 151
183 187 163
180 183 151
181 184 156
182 185 156
184 188 165
181 183 150
179 181 144
185 189 166
180 182 150
182 185 156
179 181 146
182 185 156
180 184 156
181 182 148
180 184 155
178 179 141
185 188 163
182 185 156
181 183 151
180 185 156
183 185 155
179 181 144
181 181 144
178 180 142
179 180 140
185 189 166
182 187 161
183 186 158
180 181 144
181 183 150
178 179 140
185 189 165
183 185 155
184 186 157
183 187 159
183 185 155
182 182 144
182 183 149
182 183 151
184 186 156
184 186 156
186 188 159
181 182 144
185 188 163
183 185 152
182 184 150
184 185 153
184 186 154
184 186 154
184 185 151
184 187 158
180 183 150
184 184 149
187 191 170
187 191 169
184 184 150
185 187 158
186 188 160
191 194 173
186 189 163
185 186 154
187 190 165
186 186 154
183 185 154
187 190 165
186 186 153
186 187 157
187 189 162
186 188 160
187 190 164
187 190 163
190 196 180
191 194 172
188 192 169
187 191 169
186 189 163
192 198 184
188 191 168
188 189 161
188 191 167
189 191 167
188 191 167
189 191 167
189 192 169
191 197 182
188 192 168
190 194 174
189 193 171
201 224 255
201 224 255
200 224 255
200 224 255
199 224 255
199 223 255
199 223 255
198 223 255
198 223 255
198 223 255
197 222 255
197 222 255
197 222 255
196 222 255
196 222 255
196 222 255
195 221 255
195 221 255
195 221 255
194 221 255
194 221 255
194 221 255
194 220 255
193 220 255
193 220 255
193 220 255
192 220 255
192 220 255
192 219 255
191 219 255
191 219 255
191 219 255
191 219 255
190 219 255
190 219 255
190 218 255
190 218 255
189 218 255
189 218 255
189 218 255
188 218 255
188 218 255
188 218 255
188 217 255
187 217 255
187 217 255
187 217 255
187 217 255
186 217 255
186 217 255
186 216 255
186 216 255
185 216 255
185 216 255
185 216 255
185 216 255
185 216 255
184 216 255
184 216 255
184 215 255
184 215 255
184 215 255
183 215 255
183 215 255
183 215 255
183 215 255
183 215 255
182 215 255
182 215 255
182 214 255
182 214 255
182 214 255
182 214 255
181 214 255
181 214 255
181 214 255
181 214 255
181 214 255
181 214 255
181 214 255
181 214 255
181 214 255
181 214 255
181 214 255
181 214 255
181 214 255
181 214 255
181 214 255
181 214 255
181 214 255
181 214 255
181 214 255
181 214 255
181 214 255
181 214 255
181 214 255
182 214 255
182 214 255
182 214 255
182 215 255
183 215 255
183 215 255
184 215 255
184 215 255
185 216 255
185 216 255
186 216 255
187 217 255
187 217 255
188 218 255
189 218 255
191 219 255
192 220 255
194 221 255
196 222 255
199 223 255
204 226 255
208 228 255
209 229 255
209 229 255
209 229 255
209 229 255
209 229 255
209 228 255
208 228 255
208 228 255
208 228 255
208 228 255
208 228 255
208 228 255
208 228 255
208 228 255
208 228 255
208 228 255
208 228 255
208 228 255
208 228 255
208 228 255
208 228 255
208 228 255
208 228 255
208 228 255
208 228 255
208 228 255
208 228 255
208 228 255
207 228 255
207 228 255
207 228 255
207 228 255
207 228 255
207 228 255
207 228 255
207 228 255
207 228 255
207 228 255
207 228 255
207 228 255
207 228 255
207 228 255
207 228 255
207 228 255
207 228 255
207 228 255
207 228 255
207 228 255
207 228 255
207 227 255
207 227 255
207 227 255
207 227 255
207 227 255
207 227 255
207 227 255
207 227 255
206 227 255
206 227 255
206 227 255
206 227 255
206 227 255
181 203 238
136 160 211
76 109 181
62 99 178
62 99 174
62 99 177
62 99 174
62 99 176
61 98 170
62 99 175
62 99 171
62 99 175
62 99 172
62 99 177
62 99 172
63 99 173
62 99 173
62 98 168
61 98 172
63 99 170
63 99 177
62 99 174
62 99 171
62 99 174
62 99 177
62 98 172
62 98 170
62 98 170
63 99 178
62 99 176
62 98 172
63 99 173
62 99 173
62 99 171
62 99 177
62 99 173
61 98 173
73 107 180
138 161 211
184 205 240
206 227 255
206 227 255
206 227 255
206 227 255
206 227 255
207 227 255
207 227 255
207 227 255
207 227 255
207 227 255
207 227 255
207 227 255
207 227 255
207 228 255
207 228 255
207 228 255
207 228 255
207 228 255
207 228 255
207 228 255
207 228 255
207 228 255
207 228 255
207 228 255
207 228 255
207 228 255
207 228 255
207 228 255
207 228 255
207 228 255
207 228 255
207 228 255
207 228 255
207 228 255
208 228 255
208 228 255
208 228 255
208 228 255
208 228 255
208 228 255
208 228 255
208 228 255
208 228 255
208 228 255
208 228 255
208 228 255
208 228 255
208 228 255
208 228 255
208 228 255
208 228 255
208 228 255
208 228 255
208 228 255
208 228 255
208 228 255
209 228 255
209 229 255
209 229 255
209 229 255
209 229 255
209 229 255
207 226 249
196 208 213
191 199 190
190 198 187
187 194 178
189 197 188
186 193 178
184 191 174
187 195 184
183 189 168
185 191 172
181 187 167
182 188 169
183 189 168
183 189 168
182 189 172
179 183 154
183 188 166
180 184 156
182 186 160
179 183 155
183 190 172
179 183 155
180 184 158
180 183 151
179 183 153
181 185 158
176 176 134
183 187 161
181 185 160
178 181 149
179 183 155
180 183 150
179 181 148
181 184 153
179 182 148
183 187 163
178 181 148
182 186 160
181 183 148
184 187 161
185 189 166
181 181 144
178 179 141
178 179 141
180 183 153
184 187 160
181 183 151
180 181 144
181 184 155
181 184 151
184 185 153
183 185 153
182 183 150
178 179 138
184 189 166
181 183 149
183 184 151
185 187 157
183 187 161
185 187 159
183 185 152
181 181 141
186 190 168
181 185 155
183 183 148
182 183 148
182 183 149
185 186 154
185 187 158
183 185 153
184 186 156
182 183 149
183 183 144
181 183 149
182 184 149
186 188 159
185 188 159
185 187 157
186 188 161
187 190 164
185 187 156
184 186 155
178 179 137
183 184 150
185 187 158
189 193 171
187 188 157
185 188 161
188 191 167
189 194 176
184 184 148
184 185 151
186 190 164
189 192 168
186 189 161
187 189 160
187 190 167
187 189 160
191 194 172
186 188 159
183 184 147
186 190 165
190 195 176
189 192 167
189 192 169
186 187 154
188 190 164
189 194 175
192 194 172
189 193 171
188 192 169
191 195 176
190 194 175
191 193 170
187 191 167
188 194 176
186 188 161
201 224 255
200 224 255
200 224 255
200 224 255
199 223 255
199 223 255
199 223 255
198 223 255
198 223 255
198 223 255
197 222 255
197 222 255
197 222 255
196 222 255
196 222 255
196 222 255
195 221 255
195 221 255
195 221 255
194 221 255
194 221 255
194 221 255
194 220 255
193 220 255
193 220 255
193 220 255
192 220 255
192 220 255
192 220 255
192 219 255
191 219 255
191 219 255
191 219 255
191 219 255
190 219 255
190 219 255
190 218 255
189 218 255
189 218 255
189 218 255
189 218 255
188 218 255
188 218 255
188 217 255
188 217 255
187 217 255
187 217 255
187 217 255
187 217 255
186 217 255
186 217 255
186 216 255
186 216 255
185 216 255
185 216 255
185 216 255
185 216 255
185 216 255
184 216 255
184 216 255
184 215 255
184 215 255
184 215 255
183 215 255
183 215 255
183 215 255
183 215 255
183 215 255
182 215 255
182 215 255
182 214 255
182 214 255
182 214 255
182 214 255
181 214 255
181 214 255
181 214 255
181 214 255
181 214 255
181 214 255
181 214 255
181 214 255
181 214 255
181 214 255
181 214 255
181 214 255
181 214 255
181 214 255
181 214 255
181 214 255
181 214 255
181 214 255
181 214 255
181 214 255
181 214 255
181 214 255
181 214 255
181 214 255
182 214 255
182 214 255
182 215 255
183 215 255
183 215 255
183 215 255
184 215 255
184 216 255
185 216 255
185 216 255
186 217 255
187 217 255
188 217 255
189 218 255
190 219 255
191 219 255
193 220 255
195 221 255
197 222 255
201 224 255
206 227 255
209 229 255
209 229 255
209 229 255
209 229 255
209 229 255
209 229 255
209 229 255
209 229 255
209 229 255
209 229 255
209 228 255
208 228 255
208 228 255
208 228 255
208 228 255
208 228 255
208 228 255
208 228 255
208 228 255
208 228 255
208 228 255
208 228 255
208 228 255
208 228 255
208 228 255
208 228 255
208 228 255
208 228 255
208 228 255
208 228 255
208 228 255
208 228 255
208 228 255
208 228 255
207 228 255
207 228 255
207 228 255
207 228 255
207 228 255
207 228 255
207 228 255
207 228 255
207 228 255
207 228 255
207 228 255
207 228 255
207 228 255
207 228 255
207 228 255
207 228 255
207 228 255
207 228 255
207 228 255
207 228 255
207 228 255
207 228 255
207 228 255
207 227 255
204 225 254
168 190 230
108 135 191
62 99 172
61 98 173
63 99 177
62 99 174
62 98 173
62 98 173
62 99 176
61 98 171
63 99 173
62 98 169
62 98 171
62 99 175
62 99 173
62 98 169
62 98 170
63 99 176
63 99 173
62 98 167
62 99 173
62 99 175
61 98 171
62 99 176
62 99 174
62 99 173
63 99 170
62 99 170
62 99 174
62 98 169
62 98 168
62 99 176
62 99 171
62 98 169
62 99 172
62 98 174
62 98 170
61 98 171
61 98 171
62 99 172
61 98 172
62 99 174
106 133 193
163 185 226
206 227 255
207 228 255
207 228 255
207 228 255
207 228 255
207 228 255
207 228 255
207 228 255
207 228 255
207 228 255
207 228 255
207 228 255
207 228 255
207 228 255
207 228 255
207 228 255
207 228 255
207 228 255
207 228 255
207 228 255
207 228 255
207 228 255
207 228 255
207 228 255
207 228 255
208 228 255
208 228 255
208 228 255
208 228 255
208 228 255
208 228 255
208 228 255
208 228 255
208 228 255
208 228 255
208 228 255
208 228 255
208 228 255
208 228 255
208 228 255
208 228 255
208 228 255
208 228 255
208 228 255
208 228 255
208 228 255
208 228 255
208 228 255
209 228 255
209 228 255
209 229 255
209 229 255
209 229 255
209 229 255
209 229 255
209 229 255
209 229 255
209 229 255
209 228 254
199 212 221
193 203 199
188 195 182
188 196 186
187 193 177
186 193 177
188 195 180
185 192 176
182 189 173
181 185 160
180 186 164
182 188 166
183 189 173
187 194 180
180 185 159
182 188 166
178 180 147
183 188 166
179 184 158
180 185 164
182 188 169
181 185 158
182 187 164
180 185 161
179 183 151
182 188 167
179 182 153
184 189 166
180 184 154
180 183 153
180 183 154
177 179 141
179 182 150
180 183 151
181 185 156
181 184 153
179 180 144
181 184 155
182 183 150
182 185 156
182 185 156
184 186 155
181 183 151
181 181 142
182 183 148
185 189 165
180 181 146
181 184 153
182 185 156
182 182 146
181 182 148
181 184 151
183 185 154
184 187 158
182 182 144
180 181 142
185 188 163
181 181 142
183 184 151
181 182 144
185 189 166
185 189 166
178 179 139
179 180 144
183 185 154
186 190 166
182 183 148
181 181 140
184 186 155
183 184 152
184 187 159
182 184 151
183 184 151
185 187 157
184 185 151
186 188 160
182 182 145
185 185 151
185 187 156
187 191 169
185 187 159
184 185 153
186 189 165
185 186 154
182 184 151
187 188 158
187 189 160
185 185 150
184 185 154
183 184 149
183 187 159
186 189 161
187 190 164
187 187 155
185 186 155
182 182 143
182 182 145
186 190 167
186 187 156
186 188 161
185 187 156
186 188 161
186 189 163
182 183 147
187 189 160
188 190 165
185 186 153
190 193 170
188 191 165
186 189 163
186 188 159
188 192 169
190 195 177
191 194 174
188 193 172
189 192 171
190 194 174
191 194 173
192 195 175
201 224 255
200 224 255
200 224 255
200 224 255
199 223 255
199 223 255
199 223 255
198 223 255
198 223 255
198 223 255
197 222 255
197 222 255
197 222 255
196 222 255
196 222 255
196 222 255
195 221 255
195 221 255
195 221 255
195 221 255
194 221 255
194 221 255
194 221 255
193 220 255
193 220 255
193 220 255
193 220 255
192 220 255
192 220 255
192 220 255
192 219 255
191 219 255
191 219 255
191 219 255
190 219 255
190 219 255
190 219 255
190 218 255
189 218 255
189 218 255
189 218 255
189 218 255
188 218 255
188 218 255
188 217 255
188 217 255
187 217 255
187 217 255
187 217 255
187 217 255
186 217 255
186 217 255
186 216 255
186 216 255
186 216 255
185 216 255
185 216 255
185 216 255
185 216 255
184 216 255
184 216 255
184 215 255
184 215 255
184 215 255
183 215 255
183 215 255
183 215 255
183 215 255
183 215 255
182 215 255
182 215 255
182 214 255
182 214 255
182 214 255
182 214 255
182 214 255
181 214 255
181 214 255
181 214 255
181 214 255
181 214 255
181 214 255
181 214 255
181 214 255
181 214 255
181 214 255
181 214 255
181 214 255
181 214 255
181 214 255
181 214 255
181 214 255
181 214 255
181 214 255
181 214 255
181 214 255
181 214 255
181 214 255
181 214 255
182 214 255
182 214 255
182 214 255
182 215 255
183 215 255
183 215 255
184 215 255
184 215 255
185 216 255
185 216 255
186 216 255
187 217 255
187 217 255
188 218 255
189 218 255
191 219 255
192 220 255
194 221 255
196 222 255
199 223 255
204 226 255
208 228 255
209 229 255
209 229 255
209 229 255
209 229 255
209 229 255
209 229 255
209 229 255
209 229 255
209 229 255
209 229 255
209 229 255
209 229 255
209 229 255
209 228 255
208 228 255
208 228 255
208 228 255
208 228 255
208 228 255
208 228 255
208 228 255
208 228 255
208 228 255
208 228 255
208 228 255
208 228 255
208 228 255
208 228 255
208 228 255
208 228 255
208 228 255
208 228 255
208 228 255
208 228 255
208 228 255
208 228 255
208 228 255
208 228 255
208 228 255
207 228 255
207 228 255
207 228 255
207 228 255
207 228 255
207 228 255
207 228 255
207 228 255
207 228 255
207 228 255
207 228 255
207 228 255
207 228 255
207 228 255
207 228 255
205 226 254
170 192 231
98 127 189
62 98 173
62 99 172
63 99 174
63 99 174
62 99 171
62 99 176
62 99 169
62 99 173
61 98 171
62 99 170
62 99 170
62 98 173
62 99 173
62 99 172
62 98 168
62 98 168
62 99 171
62 99 174
63 100 174
62 99 174
63 99 172
63 99 171
62 98 169
62 98 171
62 99 173
62 99 170
62 99 171
62 99 170
62 99 169
62 99 175
62 99 172
62 98 172
63 99 174
62 99 175
62 99 174
62 99 168
62 99 173
61 98 171
61 98 172
62 99 174
61 98 172
62 98 171
62 98 174
62 99 175
97 125 186
170 191 229
206 227 255
207 228 255
207 228 255
207 228 255
207 228 255
207 228 255
207 228 255
207 228 255
207 228 255
207 228 255
207 228 255
207 228 255
207 228 255
207 228 255
207 228 255
207 228 255
207 228 255
208 228 255
208 228 255
208 228 255
208 228 255
208 228 255
208 228 255
208 228 255
208 228 255
208 228 255
208 228 255
208 228 255
208 228 255
208 228 255
208 228 255
208 228 255
208 228 255
208 228 255
208 228 255
208 228 255
208 228 255
208 228 255
208 228 255
208 228 255
208 228 255
209 228 255
209 228 255
209 229 255
209 229 255
209 229 255
209 229 255
209 229 255
209 229 255
209 229 255
209 229 255
209 229 255
209 229 255
209 229 255
209 229 255
207 224 244
197 207 208
191 198 187
191 199 191
189 197 187
186 194 184
185 192 177
182 187 166
186 192 174
184 190 172
184 188 163
186 191 174
184 191 176
183 189 168
182 186 158
176 180 154
180 183 153
177 180 149
183 187 161
176 177 138
181 185 158
175 178 147
185 191 172
180 184 156
179 183 156
179 184 155
178 181 148
177 180 146
180 181 144
180 183 153
179 182 149
178 180 146
180 182 148
182 185 156
180 183 150
179 182 148
179 181 146
181 183 150
179 182 149
182 185 155
181 182 146
180 182 148
183 186 158
183 186 156
179 180 142
182 185 156
181 183 150
180 183 151
180 181 144
180 181 144
182 183 149
181 183 151
181 184 153
182 183 148
182 184 152
182 185 155
182 184 151
182 183 149
180 180 139
182 182 146
184 187 158
182 183 148
182 182 145
183 185 152
181 180 137
181 181 140
181 183 147
182 181 140
185 185 153
183 185 152
185 186 154
181 181 141
185 188 161
181 181 141
185 186 156
181 181 144
181 181 141
181 183 148
184 186 156
188 190 164
185 189 165
184 184 147
183 185 152
184 188 164
183 182 143
190 193 171
181 182 147
183 185 152
185 186 156
184 184 148
180 179 137
182 183 146
183 183 148
184 185 151
185 188 159
185 188 158
187 190 165
184 185 150
184 186 154
188 191 168
189 191 167
184 185 151
184 187 159
185 187 156
183 183 144
189 193 170
187 188 159
182 183 148
191 193 167
186 187 157
187 188 158
188 191 166
189 193 170
186 189 163
190 195 177
192 195 175
187 191 169
187 191 168
189 192 170
187 190 164
193 198 182
201 224 255
200 224 255
200 224 255
200 224 255
199 223 255
199 223 255
199 223 255
198 223 255
198 223 255
198 223 255
197 222 255
197 222 255
197 222 255
197 222 255
196 222 255
196 222 255
196 222 255
195 221 255
195 221 255
195 221 255
194 221 255
194 221 255
194 221 255
194 220 255
193 220 255
193 220 255
193 220 255
193 220 255
192 220 255
192 220 255
192 219 255
192 219 255
191 219 255
191 219 255
191 219 255
190 219 255
190 219 255
190 219 255
190 218 255
189 218 255
189 218 255
189 218 255
189 218 255
188 218 255
188 218 255
188 217 255
188 217 255
187 217 255
187 217 255
187 217 255
187 217 255
187 217 255
186 217 255
186 217 255
186 216 255
186 216 255
185 216 255
185 216 255
185 216 255
185 216 255
184 216 255
184 216 255
184 215 255
184 215 255
184 215 255
183 215 255
183 215 255
183 215 255
183 215 255
183 215 255
183 215 255
182 215 255
182 215 255
182 214 255
182 214 255
182 214 255
181 214 255
181 214 255
181 214 255
181 214 255
181 214 255
181 214 255
181 214 255
181 214 255
181 214 255
181 214 255
181 214 255
181 214 255
181 214 255
181 214 255
181 214 255
181 214 255
181 214 255
181 214 255
181 214 255
181 214 255
181 214 255
181 214 255
181 214 255
181 214 255
182 214 255
182 214 255
182 214 255
182 215 255
183 215 255
183 215 255
183 215 255
184 215 255
184 216 255
185 216 255
186 216 255
186 217 255
187 217 255
188 217 255
189 218 255
190 219 255
191 219 255
193 220 255
195 221 255
197 222 255
200 224 255
206 227 255
209 229 255
209 229 255
209 229 255
209 229 255
209 229 255
209 229 255
209 229 255
209 229 255
209 229 255
209 229 255
209 229 255
209 229 255
209 229 255
209 229 255
209 229 255
209 229 255
209 229 255
209 228 255
209 228 255
208 228 255
208 228 255
208 228 255
208 228 255
208 228 255
208 228 255
208 228 255
208 228 255
208 228 255
208 228 255
208 228 255
208 228 255
208 228 255
208 228 255
208 228 255
208 228 255
208 228 255
208 228 255
208 228 255
208 228 255
208 228 255
208 228 255
208 228 255
208 228 255
208 228 255
208 228 255
208 228 255
207 228 255
207 228 255
207 228 255
207 228 255
207 228 255
207 228 255
179 200 235
100 129 194
61 98 166
62 98 169
62 99 172
62 99 174
62 98 171
62 98 174
63 99 172
62 99 170
61 98 169
62 99 175
62 99 172
62 99 170
62 99 170
62 98 167
62 98 170
62 98 167
62 99 170
61 98 168
62 98 170
62 98 168
62 99 173
62 99 168
62 98 163
62 99 173
62 99 173
62 99 173
62 98 167
62 98 165
62 98 166
62 98 169
62 98 170
62 98 167
63 99 174
62 98 166
62 99 173
63 99 171
62 99 173
62 99 170
62 98 168
63 99 173
61 98 170
62 99 172
63 99 176
62 99 170
62 99 171
62 98 174
62 99 177
62 99 172
106 133 194
179 200 237
207 228 255
207 228 255
207 228 255
207 228 255
207 228 255
208 228 255
208 228 255
208 228 255
208 228 255
208 228 255
208 228 255
208 228 255
208 228 255
208 228 255
208 228 255
208 228 255
208 228 255
208 228 255
208 228 255
208 228 255
208 228 255
208 228 255
208 228 255
208 228 255
208 228 255
208 228 255
208 228 255
208 228 255
208 228 255
208 228 255
208 228 255
208 228 255
208 228 255
209 228 255
209 228 255
209 229 255
209 229 255
209 229 255
209 229 255
209 229 255
209 229 255
209 229 255
209 229 255
209 229 255
209 229 255
209 229 255
209 229 255
209 229 255
209 229 255
209 229 255
209 229 255
209 229 255
201 215 226
190 199 192
191 198 187
186 193 180
184 192 178
186 193 180
184 190 172
186 192 176
179 185 166
184 191 175
186 193 177
181 186 164
181 187 167
179 184 158
182 186 159
185 192 175
182 186 161
177 180 147
185 192 176
179 181 149
182 186 160
180 183 155
180 184 155
182 188 166
181 185 158
181 186 161
180 182 148
181 184 153
176 178 144
179 183 154
179 182 151
180 182 148
181 186 164
180 180 141
181 186 163
181 182 148
176 178 139
183 184 151
182 184 153
179 183 151
182 184 153
179 181 144
181 182 146
181 185 158
180 182 146
180 181 144
179 180 141
177 178 135
182 183 147
182 184 150
183 186 158
180 181 143
181 182 146
181 182 144
183 185 153
181 182 146
178 179 138
183 185 152
180 180 140
180 181 144
181 183 150
181 182 144
184 185 153
180 180 139
182 183 149
186 188 161
183 185 152
183 184 149
181 181 143
180 179 136
183 183 146
183 185 153
181 181 141
184 186 154
180 180 141
182 183 146
184 184 147
182 183 146
182 183 146
185 184 147
181 183 147
183 184 150
184 185 154
186 189 161
182 183 147
184 186 154
183 186 157
184 184 147
185 187 156
184 186 155
183 185 153
185 186 154
187 189 162
181 181 141
187 189 160
190 192 167
186 189 161
184 185 151
185 186 152
185 186 153
186 190 164
187 187 156
182 183 146
187 188 158
183 184 149
188 191 166
191 195 177
185 186 155
190 196 178
186 189 163
189 191 164
187 189 160
191 194 175
188 189 159
186 189 160
189 192 169
192 196 178
186 189 162
185 184 148
189 192 169
190 195 176
190 191 164
201 224 255
200 224 255
200 224 255
200 224 255
199 224 255
199 223 255
199 223 255
198 223 255
198 223 255
198 223 255
198 223 255
197 222 255
197 222 255
197 222 255
196 222 255
196 222 255
196 222 255
196 221 255
195 221 255
195 221 255
195 221 255
194 221 255
194 221 255
194 221 255
194 220 255
193 220 255
193 220 255
193 220 255
193 220 255
192 220 255
192 220 255
192 220 255
192 219 255
191 219 255
191 219 255
191 219 255
191 219 255
190 219 255
190 219 255
190 218 255
190 218 255
189 218 255
189 218 255
189 218 255
189 218 255
188 218 255
188 218 255
188 217 255
188 217 255
187 217 255
187 217 255
187 217 255
186 217 255
186 217 255
186 216 255
186 216 255
186 216 255
186 216 255
186 216 255
185 216 255
185 216 255
185 216 255
185 216 255
185 216 255
185 216 255
185 216 255
185 216 255
184 216 255
184 216 255
184 216 255
184 215 255
184 215 255
184 215 255
184 215 255
183 215 255
183 215 255
183 215 255
183 215 255
182 215 255
182 214 255
182 214 255
182 214 255
181 214 255
181 214 255
181 214 255
181 214 255
181 214 255
181 214 255
181 214 255
181 214 255
181 214 255
181 214 255
181 214 255
181 214 255
181 214 255
181 214 255
181 214 255
181 214 255
181 214 255
181 214 255
182 214 255
182 214 255
182 214 255
182 215 255
182 215 255
183 215 255
183 215 255
183 215 255
184 215 255
184 216 255
185 216 255
185 216 255
186 217 255
187 217 255
188 217 255
189 218 255
190 218 255
191 219 255
192 220 255
194 221 255
196 222 255
199 224 255
204 226 255
209 229 255
209 229 255
209 229 255
209 229 255
209 229 255
209 229 255
209 229 255
209 229 255
209 229 255
209 229 255
209 229 255
209 229 255
209 229 255
209 229 255
209 229 255
209 229 255
209 229 255
209 229 255
209 229 255
209 229 255
209 229 255
209 229 255
209 229 255
209 228 255
209 228 255
208 228 255
208 228 255
208 228 255
208 228 255
208 228 255
208 228 255
208 228 255
208 228 255
208 228 255
208 228 255
208 228 255
208 228 255
208 228 255
208 228 255
208 228 255
208 228 255
208 228 255
208 228 255
208 228 255
208 228 255
208 228 255
208 228 255
208 228 255
208 228 255
195 216 246
133 157 206
62 99 179
62 98 171
61 98 165
62 99 173
62 98 167
62 98 169
63 99 172
61 98 167
62 98 169
62 99 167
62 98 169
62 99 168
63 99 169
62 98 166
62 99 170
62 98 162
62 98 166
62 98 168
61 98 165
62 99 166
62 99 168
62 98 170
62 99 170
62 99 169
62 98 163
62 98 167
63 99 170
61 98 162
62 98 169
62 99 172
62 98 168
62 98 164
62 99 169
62 99 169
62 98 170
62 99 169
62 98 170
62 99 172
62 98 172
61 98 164
62 98 166
62 98 170
62 98 167
62 99 171
63 99 173
61 98 171
62 98 170
62 98 174
62 99 172
62 98 172
62 98 172
61 97 169
128 152 203
189 210 242
208 228 255
208 228 255
208 228 255
208 228 255
208 228 255
208 228 255
208 228 255
208 228 255
208 228 255
208 228 255
208 228 255
208 228 255
208 228 255
208 228 255
208 228 255
208 228 255
208 228 255
208 228 255
208 228 255
208 228 255
208 228 255
208 228 255
208 228 255
208 228 255
209 228 255
209 228 255
209 228 255
209 229 255
209 229 255
209 229 255
209 229 255
209 229 255
209 229 255
209 229 255
209 229 255
209 229 255
209 229 255
209 229 255
209 229 255
209 229 255
209 229 255
209 229 255
209 229 255
209 229 255
209 229 255
209 229 255
209 229 255
209 229 255
207 225 248
192 202 197
188 195 184
187 195 182
188 195 181
184 191 174
185 192 175
184 191 175
183 191 179
180 184 158
181 187 166
182 188 166
181 186 164
185 192 176
181 186 166
179 183 153
178 182 157
179 182 151
178 181 149
181 186 164
180 183 154
179 184 158
181 184 158
180 184 158
181 186 160
183 187 161
184 188 163
176 179 150
180 183 151
179 181 148
182 184 154
181 184 155
180 183 153
179 182 153
178 180 145
183 186 158
180 181 146
180 182 146
178 179 140
181 184 154
181 183 149
181 185 155
179 180 142
183 184 151
177 177 133
183 184 151
181 183 150
179 179 140
184 186 156
180 181 146
187 191 168
179 180 141
180 182 148
182 183 150
181 182 146
181 181 142
180 181 144
181 183 149
182 185 154
181 181 143
180 180 141
182 183 146
183 184 151
180 181 145
182 184 153
181 182 145
184 185 151
183 183 146
179 178 132
180 179 136
182 181 141
178 177 132
179 181 144
180 180 141
183 182 143
184 185 153
182 184 150
182 183 147
185 185 151
183 184 148
182 180 136
183 184 151
183 184 147
183 183 146
184 184 148
182 181 142
184 185 151
183 185 155
182 184 152
187 187 155
185 187 158
185 186 154
183 183 146
184 185 153
187 187 153
184 185 151
185 187 157
184 185 151
186 186 153
185 185 151
184 186 156
182 183 145
181 181 139
184 184 148
186 188 159
184 185 151
188 189 162
185 187 157
183 185 151
184 186 156
189 191 165
185 188 162
187 189 161
188 192 170
188 191 166
187 189 159
188 192 170
190 193 170
191 197 181
194 198 182
188 190 164
190 193 170
187 188 157
192 195 176
201 224 255
200 224 255
200 224 255
200 224 255
199 224 255
199 223 255
199 223 255
199 223 255
198 223 255
198 223 255
198 223 255
197 222 255
197 222 255
197 222 255
197 222 255
196 222 255
196 222 255
196 222 255
196 221 255
195 221 255
195 221 255
195 221 255
194 221 255
194 221 255
194 221 255
194 220 255
193 220 255
193 220 255
193 220 255
193 220 255
192 220 255
192 220 255
192 220 255
192 219 255
191 219 255
191 219 255
191 219 255
191 219 255
190 219 255
190 219 255
190 219 255
190 218 255
189 218 255
189 218 255
189 218 255
189 218 255
188 218 255
188 218 255
188 217 255
188 217 255
187 217 255
187 217 255
187 217 255
187 217 255
187 217 255
187 217 255
187 217 255
187 217 255
187 217 255
187 217 255
187 217 255
187 217 255
187 217 255
187 217 255
186 217 255
186 217 255
186 217 255
186 216 255
186 216 255
186 216 255
186 216 255
185 216 255
185 216 255
185 216 255
185 216 255
185 216 255
185 216 255
184 216 255
184 216 255
184 215 255
184 215 255
183 215 255
183 215 255
183 215 255
183 215 255
182 215 255
182 214 255
182 214 255
181 214 255
181 214 255
181 214 255
181 214 255
181 214 255
181 214 255
181 214 255
181 214 255
181 214 255
181 214 255
181 214 255
181 214 255
182 214 255
182 214 255
182 214 255
182 214 255
182 215 255
183 215 255
183 215 255
183 215 255
184 215 255
184 215 255
184 216 255
185 216 255
185 216 255
186 217 255
187 217 255
188 217 255
189 218 255
190 218 255
191 219 255
192 220 255
194 220 255
196 222 255
198 223 255
202 225 255
208 228 255
210 229 255
210 229 255
210 229 255
210 229 255
210 229 255
209 229 255
209 229 255
209 229 255
209 229 255
209 229 255
209 229 255
209 229 255
209 229 255
209 229 255
209 229 255
209 229 255
209 229 255
209 229 255
209 229 255
209 229 255
209 229 255
209 229 255
209 229 255
209 229 255
209 229 255
209 229 255
209 229 255
209 228 255
209 228 255
209 228 255
208 228 255
208 228 255
208 228 255
208 228 255
208 228 255
208 228 255
208 228 255
208 228 255
208 228 255
208 228 255
208 228 255
208 228 255
208 228 255
208 228 255
208 228 255
206 226 254
161 183 222
68 103 174
61 98 171
61 98 170
62 98 171
61 98 166
62 99 172
62 99 170
63 99 175
62 98 167
62 99 170
62 98 164
62 99 169
62 99 169
62 98 170
62 99 164
62 99 167
62 98 169
61 98 166
63 99 170
62 99 171
61 98 167
63 99 169
63 99 168
62 98 169
62 99 167
62 98 167
62 98 171
62 99 170
62 98 166
62 99 168
62 98 163
62 98 167
62 98 169
62 98 168
61 98 168
62 98 162
63 99 168
62 99 171
62 99 168
62 98 167
62 98 158
62 98 172
62 99 170
63 99 169
62 99 170
62 98 168
62 99 170
62 98 170
61 97 163
62 98 170
61 98 167
61 97 168
62 98 169
61 97 167
62 98 174
65 100 172
158 180 220
207 227 255
208 228 255
208 228 255
208 228 255
208 228 255
208 228 255
208 228 255
208 228 255
208 228 255
208 228 255
208 228 255
208 228 255
208 228 255
208 228 255
208 228 255
208 228 255
208 228 255
209 228 255
209 228 255
209 229 255
209 229 255
209 229 255
209 229 255
209 229 255
209 229 255
209 229 255
209 229 255
209 229 255
209 229 255
209 229 255
209 229 255
209 229 255
209 229 255
209 229 255
209 229 255
209 229 255
209 229 255
209 229 255
209 229 255
209 229 255
209 229 255
210 229 255
210 229 255
210 229 255
210 229 255
210 229 255
203 218 233
195 207 209
188 196 187
186 194 186
187 194 181
182 188 172
185 191 177
183 189 168
185 191 175
181 185 158
182 187 165
178 181 150
179 183 159
182 187 161
180 183 157
180 186 162
177 183 161
176 179 152
178 180 145
179 182 152
180 183 154
180 184 155
177 182 157
181 183 153
177 181 153
180 185 160
181 185 159
178 180 142
180 181 144
179 182 151
177 177 134
177 178 139
181 183 150
182 184 153
183 188 166
180 182 149
180 181 144
179 179 139
180 181 146
179 180 144
178 180 142
181 183 150
180 182 149
179 179 140
183 185 153
180 182 146
181 182 146
179 180 141
185 186 154
181 181 141
182 183 149
178 180 142
182 185 154
181 182 147
181 182 146
178 178 136
184 185 153
183 185 156
181 182 147
182 183 148
187 190 163
184 185 153
180 179 135
182 182 144
183 183 146
182 182 144
185 187 157
182 182 145
179 177 128
184 185 150
179 177 131
180 182 146
181 182 143
184 183 143
179 179 135
182 183 146
182 182 145
183 184 148
181 183 147
183 184 149
188 190 163
183 183 145
183 184 149
183 184 148
184 185 154
185 186 154
183 183 145
183 182 143
182 182 143
182 182 142
186 188 161
181 182 144
185 186 153
184 187 158
187 190 164
186 189 163
184 185 152
186 185 151
183 184 151
183 184 149
186 189 163
183 184 148
187 189 160
187 188 158
188 188 156
185 187 156
186 188 159
184 184 148
187 189 161
187 189 161
185 185 150
184 186 155
186 190 165
187 189 162
185 185 151
186 188 158
187 189 160
187 189 161
188 191 164
187 188 157
184 186 154
192 196 177
187 189 160
188 190 163
190 194 174
201 224 255
201 224 255
200 224 255
200 224 255
200 224 255
199 224 255
199 223 255
199 223 255
199 223 255
198 223 255
198 223 255
198 223 255
197 222 255
197 222 255
197 222 255
197 222 255
196 222 255
196 222 255
196 222 255
196 221 255
195 221 255
195 221 255
195 221 255
194 221 255
194 221 255
194 221 255
194 221 255
193 220 255
193 220 255
193 220 255
193 220 255
192 220 255
192 220 255
192 220 255
192 219 255
191 219 255
191 219 255
191 219 255
191 219 255
191 219 255
190 219 255
190 219 255
190 218 255
189 218 255
189 218 255
189 218 255
189 218 255
189 218 255
189 218 255
189 218 255
189 218 255
189 218 255
189 218 255
189 218 255
188 218 255
189 218 255
188 218 255
188 218 255
188 218 255
188 218 255
188 218 255
188 218 255
188 217 255
188 217 255
188 217 255
188 217 255
188 217 255
187 217 255
187 217 255
187 217 255
187 217 255
187 217 255
187 217 255
187 217 255
186 217 255
186 217 255
186 217 255
186 216 255
186 216 255
185 216 255
185 216 255
185 216 255
185 216 255
184 216 255
184 216 255
184 215 255
184 215 255
183 215 255
183 215 255
183 215 255
182 215 255
182 214 255
182 214 255
181 214 255
181 214 255
181 214 255
181 214 255
181 214 255
181 214 255
182 214 255
182 214 255
182 214 255
182 214 255
182 214 255
182 215 255
182 215 255
183 215 255
183 215 255
183 215 255
184 215 255
184 215 255
185 216 255
185 216 255
186 216 255
186 217 255
187 217 255
188 217 255
189 218 255
190 218 255
191 219 255
192 220 255
193 220 255
195 221 255
197 222 255
200 224 255
207 228 255
210 229 255
210 229 255
210 229 255
210 229 255
210 229 255
210 229 255
210 229 255
210 229 255
210 229 255
210 229 255
209 229 255
209 229 255
209 229 255
209 229 255
209 229 255
209 229 255
209 229 255
209 229 255
209 229 255
209 229 255
209 229 255
209 229 255
209 229 255
209 229 255
209 229 255
209 229 255
209 229 255
209 229 255
209 229 255
209 229 255
209 229 255
209 229 255
209 229 255
209 229 255
209 228 255
209 228 255
208 228 255
208 228 255
208 228 255
208 228 255
208 228 255
208 228 255
208 228 255
199 219 248
107 134 193
62 98 167
63 99 171
62 99 174
62 99 171
61 98 169
62 98 167
62 99 168
62 98 169
62 98 165
62 98 164
62 99 171
63 100 171
61 98 168
62 99 171
62 99 169
62 99 170
63 99 170
62 98 165
62 99 168
63 99 168
62 99 170
62 99 167
62 98 164
63 99 175
62 98 164
62 98 164
63 99 167
62 98 167
62 99 166
61 97 157
62 99 168
62 99 169
62 99 168
61 98 165
61 98 168
62 99 169
62 98 161
62 98 165
62 99 166
63 99 171
62 98 162
63 99 167
62 98 161
61 97 163
62 98 170
61 97 159
62 99 169
63 98 165
62 98 166
61 97 161
61 98 167
63 100 173
62 98 174
62 98 167
63 99 170
61 97 170
62 98 169
62 98 170
120 144 196
198 219 248
208 228 255
208 228 255
208 228 255
208 228 255
208 228 255
208 228 255
209 228 255
209 228 255
209 228 255
209 229 255
209 229 255
209 229 255
209 229 255
209 229 255
209 229 255
209 229 255
209 229 255
209 229 255
209 229 255
209 229 255
209 229 255
209 229 255
209 229 255
209 229 255
209 229 255
209 229 255
209 229 255
209 229 255
209 229 255
209 229 255
209 229 255
209 229 255
209 229 255
209 229 255
210 229 255
210 229 255
210 229 255
210 229 255
210 229 255
210 229 255
210 229 255
210 229 255
209 228 252
195 207 211
189 197 185
187 193 178
183 191 178
188 196 186
182 188 170
177 183 164
175 179 150
182 189 172
183 188 163
179 183 158
176 183 164
178 183 160
181 187 171
181 185 161
177 181 149
181 184 159
175 178 148
183 188 168
179 183 157
183 187 164
179 184 158
173 174 137
180 182 149
177 179 149
179 181 148
178 181 146
179 181 151
178 181 152
177 180 148
183 187 162
175 177 137
179 181 148
179 179 140
176 177 138
181 184 151
180 184 155
181 182 149
180 182 151
178 179 140
180 181 142
181 182 146
181 183 149
178 178 136
182 182 144
180 181 145
180 178 135
180 178 133
178 179 139
179 179 139
181 181 144
180 180 140
184 186 158
181 180 137
181 181 142
182 183 148
180 180 139
180 180 141
180 179 135
179 179 139
179 179 136
180 178 134
184 184 149
181 180 139
182 182 145
181 182 145
180 180 138
181 182 145
180 182 146
183 184 150
183 183 144
181 180 136
181 180 138
181 183 149
183 182 143
183 183 143
184 186 156
182 182 145
178 177 131
181 183 147
182 183 147
184 184 148
183 182 142
183 183 145
183 182 142
185 184 147
184 187 158
182 182 141
187 187 156
185 186 153
182 182 144
182 184 150
184 184 148
182 183 149
186 186 151
185 187 157
183 183 145
182 181 139
187 190 165
182 183 145
182 182 142
182 182 142
183 184 148
182 181 141
186 190 164
187 190 164
187 189 161
189 191 163
187 189 159
189 193 172
186 188 158
185 185 151
186 186 152
184 186 156
184 184 148
185 186 151
190 191 165
185 186 152
186 186 150
188 191 166
187 189 162
187 189 160
188 189 158
190 192 168
188 191 165
187 191 168
201 224 255
201 224 255
200 224 255
200 224 255
200 224 255
200 224 255
199 223 255
199 223 255
199 223 255
198 223 255
198 223 255
198 223 255
198 223 255
197 222 255
197 222 255
197 222 255
197 222 255
196 222 255
196 222 255
196 222 255
196 222 255
195 221 255
195 221 255
195 221 255
195 221 255
194 221 255
194 221 255
194 221 255
194 220 255
193 220 255
193 220 255
193 220 255
193 220 255
192 220 255
192 220 255
192 220 255
192 219 255
191 219 255
191 219 255
191 219 255
191 219 255
190 219 255
190 219 255
190 219 255
190 219 255
190 219 255
190 219 255
190 219 255
190 219 255
190 219 255
190 219 255
190 219 255
190 219 255
190 218 255
190 218 255
190 218 255
190 218 255
190 218 255
190 218 255
190 218 255
189 218 255
189 218 255
189 218 255
189 218 255
189 218 255
189 218 255
189 218 255
189 218 255
189 218 255
189 218 255
188 218 255
188 218 255
188 218 255
188 217 255
188 217 255
188 217 255
188 217 255
187 217 255
187 217 255
187 217 255
187 217 255
186 217 255
186 217 255
186 216 255
186 216 255
185 216 255
185 216 255
185 216 255
185 216 255
184 216 255
184 215 255
184 215 255
183 215 255
183 215 255
183 215 255
182 215 255
182 214 255
182 214 255
182 214 255
182 214 255
182 214 255
182 214 255
182 214 255
182 215 255
182 215 255
183 215 255
183 215 255
183 215 255
183 215 255
184 215 255
184 215 255
184 216 255
185 216 255
185 216 255
186 216 255
186 217 255
187 217 255
188 217 255
189 218 255
189 218 255
191 219 255
192 219 255
193 220 255
195 221 255
197 222 255
200 224 255
205 226 255
210 229 255
210 229 255
210 229 255
210 229 255
210 229 255
210 229 255
210 229 255
210 229 255
210 229 255
210 229 255
210 229 255
210 229 255
210 229 255
210 229 255
210 229 255
209 229 255
209 229 255
209 229 255
209 229 255
209 229 255
209 229 255
209 229 255
209 229 255
209 229 255
209 229 255
209 229 255
209 229 255
209 229 255
209 229 255
209 229 255
209 229 255
209 229 255
209 229 255
209 229 255
209 229 255
209 229 255
209 229 255
209 229 255
209 229 255
209 229 255
209 229 255
182 203 238
74 107 179
62 99 174
61 98 168
62 98 168
63 99 172
62 99 168
61 98 169
62 99 173
61 97 159
63 99 170
62 98 165
63 99 169
62 98 168
62 99 169
62 99 169
62 98 164
63 99 166
63 99 169
62 99 169
62 98 163
61 98 163
62 99 168
62 99 168
61 98 169
62 98 163
61 98 162
63 99 174
62 97 162
61 98 164
62 98 160
61 98 164
63 99 170
63 99 169
62 98 159
62 99 171
62 98 162
61 98 165
62 98 167
62 98 163
62 98 166
63 99 171
62 98 168
63 99 172
63 99 168
62 99 167
62 98 164
63 99 172
61 98 170
62 98 170
62 98 165
63 99 173
62 98 166
62 98 170
61 98 167
62 98 170
62 98 163
63 99 169
61 97 165
62 98 171
62 97 166
62 98 173
83 113 179
176 196 232
209 229 255
209 229 255
209 229 255
209 229 255
209 229 255
209 229 255
209 229 255
209 229 255
209 229 255
209 229 255
209 229 255
209 229 255
209 229 255
209 229 255
209 229 255
209 229 255
209 229 255
209 229 255
209 229 255
209 229 255
209 229 255
209 229 255
209 229 255
209 229 255
209 229 255
209 229 255
210 229 255
210 229 255
210 229 255
210 229 255
210 229 255
210 229 255
210 229 255
210 229 255
210 229 255
210 229 255
210 229 255
210 229 255
210 229 255
210 229 255
209 227 250
193 202 196
187 195 183
189 197 186
187 194 179
184 191 176
185 191 173
184 190 173
183 190 174
183 190 176
181 185 162
176 182 161
179 184 162
175 178 151
178 181 154
180 183 156
175 179 151
180 185 159
178 180 148
174 177 148
176 180 152
179 182 153
181 185 159
176 179 151
178 181 152
181 187 167
178 180 145
177 179 143
178 181 149
177 180 146
179 181 147
181 182 146
179 181 146
181 184 153
177 178 142
181 184 153
178 180 145
179 180 144
177 179 142
182 184 153
181 183 149
179 179 139
180 182 146
180 178 133
179 178 136
175 175 130
177 176 132
181 183 148
183 184 149
180 180 139
180 179 138
179 180 140
181 181 144
181 181 144
177 177 133
180 179 137
181 181 143
179 180 140
182 182 144
180 180 138
181 180 136
183 180 136
184 184 149
180 180 141
179 178 131
180 180 139
181 182 144
181 180 138
181 182 144
179 178 134
180 179 135
183 183 147
180 180 139
180 180 138
182 182 142
181 181 141
180 181 141
182 181 141
182 184 151
181 180 138
183 184 150
182 181 141
183 185 151
184 185 153
184 186 156
185 186 151
184 185 151
182 182 143
183 185 152
182 182 143
184 185 150
184 184 147
181 181 139
186 187 155
188 191 165
182 180 138
184 188 160
184 185 150
181 181 139
183 183 145
183 183 148
186 187 155
183 182 143
185 186 154
183 182 142
185 186 154
184 185 151
182 183 148
186 186 153
183 181 138
187 189 161
190 193 170
184 185 149
188 190 161
187 190 163
193 198 181
186 187 156
183 186 154
190 194 172
186 186 152
185 188 160
186 188 156
186 190 163
188 190 165
190 193 172
184 186 154
189 192 167
183 185 151
201 224 255
201 224 255
201 224 255
200 224 255
200 224 255
200 224 255
200 224 255
199 223 255
199 223 255
199 223 255
198 223 255
198 223 255
198 223 255
198 223 255
197 222 255
197 222 255
197 222 255
197 222 255
196 222 255
196 222 255
196 222 255
196 222 255
195 221 255
195 221 255
195 221 255
195 221 255
195 221 255
194 221 255
194 221 255
194 221 255
194 220 255
193 220 255
193 220 255
193 220 255
193 220 255
192 220 255
192 220 255
192 219 255
191 219 255
191 219 255
191 219 255
191 219 255
191 219 255
191 219 255
191 219 255
191 219 255
191 219 255
191 219 255
191 219 255
191 219 255
191 219 255
191 219 255
191 219 255
191 219 255
191 219 255
191 219 255
191 219 255
191 219 255
191 219 255
191 219 255
191 219 255
191 219 255
191 219 255
190 219 255
190 219 255
190 219 255
190 219 255
190 219 255
190 219 255
190 218 255
190 218 255
190 218 255
190 218 255
189 218 255
189 218 255
189 218 255
189 218 255
189 218 255
188 218 255
188 218 255
188 218 255
188 217 255
188 217 255
188 217 255
187 217 255
187 217 255
187 217 255
187 217 255
186 217 255
186 216 255
186 216 255
185 216 255
185 216 255
185 216 255
184 216 255
184 215 255
183 215 255
183 215 255
183 215 255
182 215 255
182 214 255
182 214 255
182 215 255
182 215 255
183 215 255
183 215 255
183 215 255
183 215 255
183 215 255
184 215 255
184 215 255
184 216 255
185 216 255
185 216 255
185 216 255
186 216 255
187 217 255
187 217 255
188 217 255
189 218 255
190 218 255
191 219 255
192 220 255
193 220 255
195 221 255
197 222 255
200 224 255
204 226 255
209 229 255
210 229 255
210 229 255
210 229 255
210 229 255
210 229 255
210 229 255
210 229 255
210 229 255
210 229 255
210 229 255
210 229 255
210 229 255
210 229 255
210 229 255
210 229 255
210 229 255
210 229 255
210 229 255
210 229 255
210 229 255
209 229 255
209 229 255
209 229 255
209 229 255
209 229 255
209 229 255
209 229 255
209 229 255
209 229 255
209 229 255
209 229 255
209 229 255
209 229 255
209 229 255
209 229 255
209 229 255
209 229 255
209 229 255
149 171 216
62 98 170
62 99 171
62 99 170
62 99 172
62 98 171
62 98 165
62 99 172
63 99 166
62 98 164
61 98 165
61 98 168
62 98 163
62 98 163
62 99 172
62 98 164
62 99 174
62 98 163
63 99 174
63 100 172
62 99 168
62 99 169
61 97 162
61 97 161
63 99 166
62 98 167
62 98 161
63 99 164
63 99 166
62 98 166
62 99 167
62 98 152
62 98 163
62 98 166
61 97 161
63 99 166
63 99 168
62 98 161
63 99 166
62 98 163
62 98 163
62 99 170
62 99 165
63 98 161
61 98 163
62 98 170
62 98 167
62 98 167
63 99 175
63 99 173
61 98 168
62 98 169
62 98 164
62 98 166
62 98 163
62 97 165
62 97 163
61 98 168
62 97 163
62 98 167
61 98 165
61 97 165
61 97 169
62 98 171
62 98 173
140 163 207
208 228 255
209 229 255
209 229 255
209 229 255
209 229 255
209 229 255
209 229 255
209 229 255
209 229 255
209 229 255
209 229 255
209 229 255
209 229 255
209 229 255
209 229 255
209 229 255
209 229 255
209 229 255
210 229 255
210 229 255
210 229 255
210 229 255
210 229 255
210 229 255
210 229 255
210 229 255
210 229 255
210 229 255
210 229 255
210 229 255
210 229 255
210 229 255
210 229 255
210 229 255
210 229 255
210 229 255
210 229 255
210 229 255
206 223 243
190 198 187
186 193 179
186 192 174
185 190 170
186 194 185
177 183 165
181 184 157
183 187 164
182 189 171
177 182 158
179 183 157
180 183 154
184 190 173
174 178 151
178 183 158
177 180 144
177 181 156
176 180 153
174 176 141
179 184 162
177 179 148
177 179 147
178 183 160
175 177 145
179 181 149
181 182 149
176 180 151
179 182 152
178 181 152
178 180 147
177 178 142
179 181 149
177 179 145
179 181 146
179 179 140
176 176 138
180 181 147
176 179 146
178 178 137
182 184 151
182 183 148
179 180 145
179 180 142
180 181 144
182 182 146
181 181 144
181 181 141
181 180 137
180 179 136
181 181 145
180 180 144
179 178 133
183 184 150
182 181 141
180 180 139
179 179 138
178 176 126
179 177 130
182 180 137
180 180 140
181 182 144
181 179 134
180 181 141
182 182 142
182 183 148
184 183 145
182 181 138
181 180 139
181 181 141
183 183 145
184 183 144
183 184 148
181 180 139
184 184 151
183 183 147
179 178 132
179 180 140
181 181 140
185 185 152
182 182 146
181 180 139
184 184 149
185 185 149
184 184 150
181 182 145
184 183 143
185 187 155
182 182 145
182 182 142
184 184 146
183 185 151
182 182 142
185 185 150
182 182 144
182 181 140
185 187 157
183 187 158
183 182 141
185 185 150
188 187 152
185 185 151
181 182 145
181 182 146
184 185 152
182 181 139
187 189 158
183 186 155
185 187 156
185 184 146
184 183 143
181 181 139
184 184 147
186 187 157
183 184 150
188 188 158
183 183 143
184 183 144
185 186 154
187 189 161
189 190 161
185 186 151
187 188 157
189 190 160
188 191 166
188 190 161
188 191 166
188 189 160
191 194 172
201 225 255
201 224 255
201 224 255
201 224 255
200 224 255
200 224 255
200 224 255
200 224 255
199 223 255
199 223 255
199 223 255
199 223 255
198 223 255
198 223 255
198 223 255
198 223 255
197 222 255
197 222 255
197 222 255
197 222 255
196 222 255
196 222 255
196 222 255
196 222 255
195 221 255
195 221 255
195 221 255
195 221 255
194 221 255
194 221 255
194 221 255
194 221 255
194 220 255
193 220 255
193 220 255
193 220 255
193 220 255
193 220 255
193 220 255
193 220 255
192 220 255
193 220 255
193 220 255
192 220 255
193 220 255
193 220 255
193 220 255
192 220 255
192 220 255
192 220 255
192 220 255
192 220 255
192 220 255
192 220 255
192 220 255
192 220 255
192 220 255
192 220 255
192 220 255
192 220 255
192 220 255
192 220 255
192 219 255
192 219 255
192 219 255
192 219 255
191 219 255
191 219 255
191 219 255
191 219 255
191 219 255
191 219 255
191 219 255
191 219 255
190 219 255
190 219 255
190 219 255
190 219 255
190 218 255
190 218 255
189 218 255
189 218 255
189 218 255
189 218 255
189 218 255
188 218 255
188 218 255
188 218 255
188 217 255
187 217 255
187 217 255
187 217 255
187 217 255
186 217 255
186 216 255
186 216 255
185 216 255
185 216 255
184 216 255
184 215 255
183 215 255
183 215 255
183 215 255
183 215 255
183 215 255
183 215 255
183 215 255
183 215 255
184 215 255
184 215 255
184 215 255
184 216 255
185 216 255
185 216 255
185 216 255
186 216 255
186 217 255
187 217 255
187 217 255
188 218 255
189 218 255
190 218 255
191 219 255
192 220 255
193 220 255
195 221 255
197 222 255
199 223 255
203 225 255
209 229 255
210 230 255
210 230 255
210 230 255
210 229 255
210 229 255
210 229 255
210 229 255
210 229 255
210 229 255
210 229 255
210 229 255
210 229 255
210 229 255
210 229 255
210 229 255
210 229 255
210 229 255
210 229 255
210 229 255
210 229 255
210 229 255
210 229 255
210 229 255
210 229 255
210 229 255
210 229 255
210 229 255
209 229 255
209 229 255
209 229 255
209 229 255
209 229 255
209 229 255
209 229 255
209 229 255
204 224 252
127 151 201
62 99 169
62 99 174
62 99 172
62 99 173
62 99 173
63 99 170
62 98 169
62 98 164
62 98 163
61 98 166
63 99 172
62 98 166
62 98 165
61 98 162
61 98 166
61 97 165
62 98 165
62 98 164
62 98 159
62 99 169
61 97 165
62 99 165
62 98 161
61 97 160
61 97 158
61 97 157
62 99 173
62 98 163
62 98 161
61 98 165
63 99 163
62 98 167
62 98 166
62 98 167
62 98 161
61 98 163
62 98 163
62 99 171
63 100 170
62 98 164
62 98 164
62 99 164
62 98 169
63 99 166
62 98 165
62 98 165
62 99 168
62 98 165
62 98 167
62 98 163
63 99 170
62 98 164
63 99 170
62 98 167
63 99 171
61 97 162
61 97 156
62 98 162
62 98 168
62 98 169
61 96 153
61 97 164
61 98 169
61 96 158
62 97 170
61 96 164
132 156 204
204 224 252
209 229 255
209 229 255
209 229 255
209 229 255
209 229 255
209 229 255
209 229 255
209 229 255
210 229 255
210 229 255
210 229 255
210 229 255
210 229 255
210 229 255
210 229 255
210 229 255
210 229 255
210 229 255
210 229 255
210 229 255
210 229 255
210 229 255
210 229 255
210 229 255
210 229 255
210 229 255
210 229 255
210 229 255
210 229 255
210 229 255
210 229 255
210 229 255
210 230 255
210 230 255
210 230 255
202 216 227
192 201 193
188 195 185
191 198 188
181 187 171
183 188 172
185 191 175
178 183 161
180 186 169
177 182 162
175 179 154
178 184 161
181 188 174
175 178 145
178 182 158
178 185 166
179 183 157
174 178 154
175 179 150
176 181 154
181 186 163
179 184 160
175 178 147
175 178 146
180 185 161
173 176 143
183 188 167
177 178 141
180 181 146
172 174 140
182 185 156
176 176 137
178 179 141
179 179 140
175 176 139
181 183 152
177 178 139
176 176 133
178 179 142
178 177 133
176 176 134
181 181 142
180 178 136
179 181 147
176 176 134
178 179 139
180 180 141
182 182 143
177 176 129
184 186 154
181 179 135
184 186 154
182 181 142
177 176 133
180 179 138
181 178 129
178 177 133
181 179 133
181 181 142
180 179 138
183 184 149
183 181 140
182 180 136
181 182 144
182 181 138
180 179 136
184 185 152
183 182 143
180 178 131
180 179 134
183 183 148
181 182 144
180 179 136
181 180 135
181 178 130
184 184 147
184 184 147
181 181 141
180 177 127
183 182 142
181 181 141
181 181 139
183 185 151
181 179 135
181 182 146
181 180 135
183 183 145
180 179 137
181 180 134
187 189 163
185 186 151
183 182 141
181 180 135
181 181 142
185 184 147
187 187 153
182 182 141
184 184 147
185 188 160
184 186 153
182 182 143
181 180 137
187 187 154
184 183 142
184 185 151
184 185 154
185 186 151
183 184 147
182 182 143
183 183 147
185 185 150
186 187 154
188 190 161
184 184 146
182 183 146
185 186 151
187 189 160
183 181 139
186 188 157
190 192 166
182 182 142
182 182 142
186 188 159
188 188 156
189 191 164
186 186 153
187 188 156
186 188 159
183 185 150
188 191 165
202 225 255
201 225 255
201 224 255
201 224 255
201 224 255
200 224 255
200 224 255
200 224 255
200 224 255
199 224 255
199 223 255
199 223 255
199 223 255
198 223 255
198 223 255
198 223 255
198 223 255
197 222 255
197 222 255
197 222 255
197 222 255
197 222 255
196 222 255
196 222 255
196 222 255
196 222 255
195 221 255
195 221 255
195 221 255
195 221 255
194 221 255
194 221 255
194 221 255
194 220 255
194 220 255
194 220 255
194 220 255
194 220 255
194 220 255
194 220 255
194 220 255
194 220 255
194 220 255
194 220 255
194 220 255
194 220 255
194 220 255
194 220 255
194 220 255
194 220 255
193 220 255
193 220 255
194 220 255
193 220 255
193 220 255
193 220 255
193 220 255
193 220 255
193 220 255
193 220 255
193 220 255
193 220 255
193 220 255
193 220 255
193 220 255
193 220 255
193 220 255
192 220 255
192 220 255
192 220 255
192 220 255
192 220 255
192 220 255
192 219 255
192 219 255
192 219 255
191 219 255
191 219 255
191 219 255
191 219 255
191 219 255
191 219 255
190 219 255
190 219 255
190 219 255
190 218 255
190 218 255
189 218 255
189 218 255
189 218 255
189 218 255
188 218 255
188 218 255
188 217 255
187 217 255
187 217 255
187 217 255
186 217 255
186 217 255
186 216 255
185 216 255
185 216 255
184 216 255
184 215 255
183 215 255
183 215 255
183 215 255
184 215 255
184 215 255
184 215 255
184 216 255
184 216 255
185 216 255
185 216 255
185 216 255
186 216 255
186 217 255
187 217 255
187 217 255
188 217 255
188 218 255
189 218 255
190 219 255
191 219 255
192 220 255
193 220 255
195 221 255
197 222 255
199 224 255
202 225 255
208 228 255
211 230 255
211 230 255
211 230 255
211 230 255
211 230 255
211 230 255
210 230 255
210 230 255
210 230 255
210 229 255
210 229 255
210 229 255
210 229 255
210 229 255
210 229 255
210 229 255
210 229 255
210 229 255
210 229 255
210 229 255
210 229 255
210 229 255
210 229 255
210 229 255
210 229 255
210 229 255
210 229 255
210 229 255
210 229 255
210 229 255
210 229 255
210 229 255
210 229 255
201 221 250
110 136 191
61 98 167
61 98 170
62 99 173
62 98 166
62 98 161
61 98 164
62 98 167
62 99 169
62 99 167
63 99 166
62 98 163
62 98 162
62 98 161
61 98 167
61 97 158
62 99 168
62 98 166
63 99 172
60 97 160
62 98 163
62 98 165
61 98 160
63 99 169
62 98 164
62 98 166
62 98 158
61 97 163
62 98 163
62 98 164
61 97 157
62 98 163
62 97 156
62 98 165
61 97 156
62 98 160
62 98 160
61 97 161
61 98 163
62 98 161
62 98 157
63 99 163
61 97 159
63 100 170
62 98 164
61 97 154
62 98 165
62 97 161
63 99 167
62 99 169
62 98 168
61 97 160
62 98 163
62 98 169
62 98 168
62 98 163
62 97 161
62 97 161
61 96 163
62 97 161
62 98 164
62 97 165
61 96 157
62 98 168
62 99 172
61 97 165
62 97 167
62 98 167
62 98 171
113 138 192
205 224 251
210 229 255
210 229 255
210 229 255
210 229 255
210 229 255
210 229 255
210 229 255
210 229 255
210 229 255
210 229 255
210 229 255
210 229 255
210 229 255
210 229 255
210 229 255
210 229 255
210 229 255
210 229 255
210 229 255
210 229 255
210 229 255
210 229 255
210 229 255
210 229 255
210 230 255
210 230 255
210 230 255
211 230 255
211 230 255
211 230 255
211 230 255
211 230 255
211 230 255
204 219 235
192 202 197
191 198 188
186 193 180
180 186 169
183 189 174
183 188 172
185 193 182
177 182 158
184 190 175
178 183 159
176 181 158
177 183 166
177 182 162
176 180 153
167 172 146
174 178 151
174 178 155
175 178 149
178 180 147
180 184 157
176 179 145
177 179 147
178 180 150
175 178 146
177 179 145
175 176 134
180 182 151
182 184 153
176 180 151
180 183 154
178 180 147
176 177 138
177 178 142
175 177 141
181 181 144
177 177 136
180 181 147
178 179 145
177 176 132
177 176 129
182 181 141
178 178 138
177 175 126
180 180 145
177 179 139
180 180 142
178 178 136
180 178 133
180 181 146
178 178 135
179 179 139
177 175 125
180 179 138
180 180 142
182 182 144
180 181 144
182 181 141
181 180 138
182 181 142
181 181 142
182 180 138
181 179 135
179 178 133
180 179 135
181 182 144
177 175 126
180 177 128
181 181 141
183 180 136
180 178 133
181 180 137
182 181 138
182 184 150
182 180 138
178 175 122
183 183 147
177 176 129
180 177 130
183 181 140
180 176 125
184 183 145
182 181 140
181 179 133
183 182 142
182 181 139
182 180 136
183 184 149
185 185 149
182 180 135
184 183 145
182 179 132
182 182 142
182 182 141
184 184 147
186 185 150
182 182 143
184 184 147
184 184 147
179 179 134
180 178 131
187 188 156
184 184 147
187 188 158
183 182 143
181 181 139
186 186 154
181 180 137
187 189 158
186 185 148
183 181 136
184 182 139
187 188 155
180 179 134
189 190 159
184 185 150
180 179 133
179 179 137
185 185 149
181 180 136
184 184 148
187 186 151
188 189 159
187 189 159
186 186 151
183 184 146
187 187 153
187 189 159
185 186 152
186 187 157
189 192 167
202 225 255
202 225 255
201 225 255
201 224 255
201 224 255
201 224 255
200 224 255
200 224 255
200 224 255
200 224 255
199 224 255
199 223 255
199 223 255
199 223 255
199 223 255
198 223 255
198 223 255
198 223 255
198 223 255
197 222 255
197 222 255
197 222 255
197 222 255
197 222 255
196 222 255
196 222 255
196 222 255
196 221 255
195 221 255
195 221 255
195 221 255
195 221 255
195 221 255
195 221 255
195 221 255
195 221 255
195 221 255
195 221 255
195 221 255
195 221 255
195 221 255
195 221 255
195 221 255
195 221 255
195 221 255
195 221 255
195 221 255
195 221 255
195 221 255
195 221 255
195 221 255
195 221 255
195 221 255
194 221 255
194 221 255
194 221 255
194 221 255
194 221 255
194 221 255
194 221 255
194 221 255
194 221 255
194 221 255
194 221 255
194 221 255
194 221 255
194 220 255
194 220 255
193 220 255
193 220 255
193 220 255
193 220 255
193 220 255
193 220 255
193 220 255
193 220 255
193 220 255
192 220 255
192 220 255
192 220 255
192 220 255
192 220 255
192 219 255
191 219 255
191 219 255
191 219 255
191 219 255
191 219 255
190 219 255
190 219 255
190 219 255
190 218 255
190 218 255
189 218 255
189 218 255
189 218 255
188 218 255
188 218 255
188 217 255
187 217 255
187 217 255
187 217 255
186 216 255
186 216 255
185 216 255
185 216 255
184 215 255
184 215 255
184 215 255
184 216 255
184 216 255
185 216 255
185 216 255
185 216 255
186 216 255
186 216 255
186 217 255
187 217 255
187 217 255
188 217 255
188 218 255
189 218 255
190 218 255
190 219 255
191 219 255
192 220 255
194 221 255
195 221 255
197 222 255
199 223 255
203 225 255
209 228 255
211 230 255
211 230 255
211 230 255
211 230 255
211 230 255
211 230 255
211 230 255
211 230 255
211 230 255
211 230 255
211 230 255
211 230 255
210 230 255
210 230 255
210 230 255
210 230 255
210 229 255
210 229 255
210 229 255
210 229 255
210 229 255
210 229 255
210 229 255
210 229 255
210 229 255
210 229 255
210 229 255
210 229 255
210 229 255
210 229 255
210 229 255
201 221 249
101 128 183
63 100 175
62 99 173
63 99 175
62 99 171
62 98 162
63 99 175
61 98 161
62 98 164
61 98 165
62 98 162
63 99 164
62 98 163
62 99 170
62 98 160
62 98 168
62 99 168
63 99 167
62 98 166
62 99 167
63 99 168
62 98 165
62 98 158
62 98 165
61 98 164
62 98 162
61 97 155
62 99 166
62 99 169
62 98 163
62 98 163
62 97 156
62 99 170
62 98 159
62 98 166
61 97 154
62 98 161
62 98 161
62 98 166
61 98 159
62 98 162
62 97 159
62 99 167
61 97 156
62 98 165
62 98 163
62 98 164
63 98 166
62 98 165
62 98 163
61 97 164
63 99 168
62 98 164
62 98 169
61 97 159
62 97 163
63 99 168
61 97 164
61 97 164
62 97 157
62 97 162
62 98 169
61 97 162
62 97 163
62 98 169
62 97 165
62 97 167
61 97 169
62 97 167
61 97 165
62 97 168
102 128 182
202 222 250
210 229 255
210 229 255
210 229 255
210 229 255
210 229 255
210 229 255
210 229 255
210 229 255
210 229 255
210 229 255
210 229 255
210 229 255
210 229 255
210 229 255
210 229 255
210 229 255
210 230 255
210 230 255
210 230 255
211 230 255
211 230 255
211 230 255
211 230 255
211 230 255
211 230 255
211 230 255
211 230 255
211 230 255
211 230 255
211 230 255
211 230 255
201 214 222
184 188 169
188 194 179
189 198 191
184 191 178
185 190 172
187 194 181
178 184 167
181 185 164
169 175 158
178 183 161
175 181 160
174 180 159
175 179 154
172 175 146
183 189 174
175 180 155
179 183 154
168 169 135
176 181 159
180 186 165
176 179 151
175 177 145
179 182 154
179 181 147
172 173 133
180 183 153
177 177 138
171 171 128
176 177 138
177 178 140
174 175 140
178 180 149
177 177 138
178 180 146
177 177 140
180 181 144
180 180 141
175 175 133
180 179 139
180 180 142
177 176 134
176 175 130
179 179 140
180 181 145
180 178 134
179 179 142
180 181 145
182 183 147
181 180 140
181 182 145
177 175 126
183 182 144
179 177 129
182 182 145
180 178 130
181 180 139
179 178 134
180 180 139
179 178 133
181 182 144
182 181 141
181 180 138
178 177 132
179 176 123
177 175 124
180 177 128
178 175 125
182 182 142
180 179 134
181 181 142
179 177 131
180 178 131
183 182 142
185 184 147
177 175 121
182 180 137
180 178 130
183 183 144
180 178 132
181 179 133
182 180 136
182 182 142
177 177 132
183 182 139
182 180 136
181 179 134
180 178 129
182 180 136
181 179 136
183 183 144
183 182 142
180 178 133
183 182 139
184 184 148
182 181 141
182 183 147
183 182 143
185 184 144
184 184 148
187 186 151
185 184 146
182 181 139
180 179 136
182 179 130
184 183 142
185 184 147
190 191 163
186 187 156
187 188 158
185 184 145
183 185 149
186 186 151
180 180 138
185 188 159
184 184 149
185 185 151
186 188 156
185 186 154
184 185 151
188 189 160
187 187 153
184 185 151
183 183 145
185 185 147
185 184 144
186 185 148
184 184 147
182 184 147
188 189 159
189 192 169
186 186 151
202 225 255
202 225 255
202 225 255
201 225 255
201 225 255
201 224 255
201 224 255
201 224 255
200 224 255
200 224 255
200 224 255
200 224 255
199 224 255
199 223 255
199 223 255
199 223 255
199 223 255
198 223 255
198 223 255
198 223 255
198 223 255
197 222 255
197 222 255
197 222 255
197 222 255
197 222 255
196 222 255
196 222 255
196 222 255
196 221 255
196 221 255
196 221 255
196 222 255
196 222 255
196 222 255
196 222 255
196 222 255
196 222 255
196 222 255
196 222 255
196 222 255
196 222 255
196 222 255
196 222 255
196 222 255
196 222 255
196 222 255
196 222 255
196 222 255
196 222 255
196 222 255
196 221 255
196 221 255
196 221 255
196 221 255
195 221 255
195 221 255
195 221 255
195 221 255
195 221 255
195 221 255
195 221 255
195 221 255
195 221 255
195 221 255
195 221 255
195 221 255
195 221 255
194 221 255
194 221 255
194 221 255
194 221 255
194 221 255
194 221 255
194 221 255
194 221 255
194 220 255
194 220 255
193 220 255
193 220 255
193 220 255
193 220 255
193 220 255
193 220 255
192 220 255
192 220 255
192 220 255
192 220 255
192 219 255
192 219 255
191 219 255
191 219 255
191 219 255
191 219 255
190 219 255
190 219 255
190 218 255
189 218 255
189 218 255
189 218 255
189 218 255
188 218 255
188 217 255
187 217 255
187 217 255
186 217 255
186 216 255
186 216 255
185 216 255
185 216 255
185 216 255
185 216 255
185 216 255
185 216 255
186 216 255
186 217 255
186 217 255
187 217 255
187 217 255
188 217 255
188 218 255
189 218 255
189 218 255
190 219 255
191 219 255
192 220 255
193 220 255
194 221 255
196 222 255
197 222 255
199 224 255
203 225 255
208 228 255
211 230 255
211 230 255
211 230 255
211 230 255
211 230 255
211 230 255
211 230 255
211 230 255
211 230 255
211 230 255
211 230 255
211 230 255
211 230 255
211 230 255
211 230 255
211 230 255
211 230 255
211 230 255
211 230 255
211 230 255
210 230 255
210 230 255
210 230 255
210 229 255
210 229 255
210 229 255
210 229 255
210 229 255
210 229 255
201 221 249
101 128 184
62 99 169
62 99 174
62 98 167
62 99 165
62 98 160
62 98 165
63 100 172
61 97 162
62 98 166
62 98 161
62 98 163
62 98 159
62 98 161
63 99 168
62 98 160
63 99 165
63 99 168
62 98 158
62 98 163
63 99 162
62 98 158
63 99 167
61 96 155
63 99 164
62 98 163
61 97 161
62 98 166
62 99 167
62 98 166
61 98 161
62 98 163
62 97 156
62 97 159
62 98 163
63 99 163
61 98 165
62 98 163
62 98 161
62 98 164
62 98 161
62 98 163
62 98 161
62 98 154
62 98 163
62 98 161
62 98 164
62 98 165
63 99 165
62 98 164
62 98 158
62 97 160
62 98 162
62 98 166
62 98 163
62 98 165
63 99 166
62 98 163
62 98 166
62 98 165
62 98 164
60 96 154
62 98 166
61 97 160
61 97 159
61 97 164
62 97 163
63 99 168
62 97 160
61 96 161
61 97 164
61 96 161
61 96 161
105 131 182
200 220 248
210 229 255
210 229 255
210 229 255
210 229 255
210 229 255
210 229 255
210 230 255
210 230 255
210 230 255
210 230 255
211 230 255
211 230 255
211 230 255
211 230 255
211 230 255
211 230 255
211 230 255
211 230 255
211 230 255
211 230 255
211 230 255
211 230 255
211 230 255
211 230 255
211 230 255
211 230 255
211 230 255
211 230 255
211 230 255
197 208 210
188 194 180
187 193 180
185 190 175
187 196 188
185 190 172
180 186 169
175 181 161
184 191 179
176 181 162
173 179 162
173 178 158
170 174 147
171 175 148
180 183 155
170 174 148
173 175 144
178 182 158
171 175 147
170 173 146
175 177 144
178 181 152
173 176 146
174 176 141
177 179 143
178 178 142
170 172 139
176 178 145
173 174 137
174 175 137
179 182 149
175 177 145
176 176 136
180 181 147
174 175 140
175 175 135
177 177 134
178 179 146
176 175 129
179 179 140
179 179 142
176 174 127
176 176 137
178 178 138
179 179 140
178 176 128
180 178 135
180 180 140
177 177 134
178 176 130
182 181 142
179 176 124
181 179 136
181 180 138
180 179 137
180 178 131
181 180 141
178 175 125
179 176 128
179 178 136
180 179 136
180 178 129
177 176 129
182 182 141
180 178 134
183 180 134
180 178 134
181 180 138
180 178 129
182 179 132
183 183 145
182 181 141
182 179 133
182 182 143
181 179 133
177 174 119
179 178 135
181 180 137
182 180 135
178 176 126
182 180 135
180 178 132
182 179 132
184 183 145
182 180 134
183 184 149
179 178 132
183 182 142
182 183 148
183 181 139
181 179 135
183 180 134
181 178 131
185 186 151
184 183 143
180 177 128
183 181 138
182 180 134
180 180 139
185 187 155
186 185 148
186 186 151
180 178 131
183 182 142
183 182 141
185 185 149
185 184 146
186 184 145
186 187 154
183 183 144
183 180 134
182 182 144
185 188 159
184 184 148
183 181 136
181 178 130
185 183 143
191 192 167
187 188 157
186 186 150
184 185 149
181 178 129
186 186 152
191 194 173
190 191 164
183 182 142
184 186 154
187 187 154
184 184 147
188 188 158
184 184 147
187 190 161
187 188 156
203 225 255
202 225 255
202 225 255
202 225 255
202 225 255
201 225 255
201 224 255
201 224 255
201 224 255
201 224 255
200 224 255
200 224 255
200 224 255
200 224 255
199 224 255
199 223 255
199 223 255
199 223 255
199 223 255
198 223 255
198 223 255
198 223 255
198 223 255
197 222 255
197 222 255
197 222 255
197 222 255
197 222 255
196 222 255
196 222 255
197 222 255
197 222 255
197 222 255
197 222 255
197 222 255
197 222 255
197 222 255
197 222 255
197 222 255
197 222 255
197 222 255
197 222 255
197 222 255
197 222 255
197 222 255
197 222 255
197 222 255
197 222 255
197 222 255
197 222 255
197 222 255
197 222 255
197 222 255
197 222 255
196 222 255
196 222 255
196 222 255
196 222 255
196 222 255
196 222 255
196 222 255
196 222 255
196 222 255
196 222 255
196 222 255
196 222 255
196 222 255
196 222 255
196 221 255
195 221 255
195 221 255
195 221 255
195 221 255
195 221 255
195 221 255
195 221 255
195 221 255
195 221 255
194 221 255
194 221 255
194 221 255
194 221 255
194 221 255
194 221 255
194 220 255
193 220 255
193 220 255
193 220 255
193 220 255
193 220 255
193 220 255
192 220 255
192 220 255
192 220 255
192 219 255
191 219 255
191 219 255
191 219 255
191 219 255
190 219 255
190 219 255
190 218 255
189 218 255
189 218 255
188 218 255
188 218 255
188 217 255
187 217 255
187 217 255
186 217 255
186 216 255
185 216 255
186 216 255
186 216 255
186 217 255
186 217 255
187 217 255
187 217 255
187 217 255
188 217 255
188 218 255
189 218 255
189 218 255
190 219 255
191 219 255
191 219 255
192 220 255
193 220 255
195 221 255
196 222 255
198 223 255
200 224 255
203 226 255
209 229 255
211 230 255
211 230 255
211 230 255
211 230 255
211 230 255
211 230 255
211 230 255
211 230 255
211 230 255
211 230 255
211 230 255
211 230 255
211 230 255
211 230 255
211 230 255
211 230 255
211 230 255
211 230 255
211 230 255
211 230 255
211 230 255
211 230 255
211 230 255
211 230 255
211 230 255
211 230 255
211 230 255
207 226 253
99 126 183
62 99 172
62 99 169
61 98 165
62 98 161
62 99 168
62 98 160
63 99 170
62 98 163
62 98 165
62 98 167
61 98 167
61 97 158
62 98 162
62 98 164
62 98 161
61 97 161
62 98 160
62 98 165
62 98 165
61 97 157
62 98 162
61 97 156
62 99 167
62 98 159
62 98 163
61 98 159
63 99 172
61 97 155
62 98 160
62 98 162
63 99 162
61 97 158
62 98 161
63 99 169
61 97 160
63 99 167
62 98 161
62 98 160
61 97 161
61 97 157
62 99 164
62 98 157
61 97 158
61 97 157
62 98 158
62 98 163
61 97 154
63 99 165
61 97 152
62 98 160
62 98 168
61 97 156
62 98 162
62 98 164
61 97 152
62 97 164
61 97 158
62 98 158
61 97 163
62 98 161
62 98 163
62 98 170
61 97 165
61 97 157
61 97 162
62 98 157
61 96 160
61 96 164
62 97 163
62 97 160
62 97 163
61 96 163
62 98 167
61 95 162
103 129 185
211 230 255
211 230 255
211 230 255
211 230 255
211 230 255
211 230 255
211 230 255
211 230 255
211 230 255
211 230 255
211 230 255
211 230 255
211 230 255
211 230 255
211 230 255
211 230 255
211 230 255
211 230 255
211 230 255
211 230 255
211 230 255
211 230 255
211 230 255
211 230 255
211 230 255
211 230 255
211 230 255
211 230 255
200 213 220
191 201 197
187 194 182
186 194 182
183 192 187
180 185 167
183 188 170
177 184 168
179 187 178
177 184 168
179 185 169
174 179 157
175 179 154
172 176 151
175 180 156
169 173 147
170 175 154
173 177 153
175 179 152
174 176 145
173 176 144
169 171 133
178 180 150
176 179 149
173 175 140
179 182 156
178 180 147
173 176 143
174 175 135
175 174 132
177 179 142
169 169 131
173 174 133
179 180 146
177 177 138
178 178 142
178 176 129
172 172 128
175 177 140
170 170 128
175 174 129
179 177 131
176 176 133
179 178 134
179 177 132
178 177 133
176 175 126
179 179 137
179 178 135
176 174 126
179 176 125
179 177 134
180 179 134
177 175 127
180 180 141
180 179 134
178 175 123
181 180 136
181 179 134
177 174 122
181 179 133
180 179 135
181 180 136
176 175 126
179 177 129
179 177 128
183 180 133
178 176 128
180 178 129
180 178 133
178 177 130
182 182 142
179 176 125
183 181 137
180 178 133
181 181 140
180 178 132
182 179 131
184 183 143
180 179 135
182 180 134
184 182 138
180 179 134
181 179 132
185 184 145
181 181 138
184 183 142
184 184 146
184 182 139
182 180 137
178 177 129
180 179 134
182 181 139
186 186 152
181 180 140
182 181 139
183 183 142
182 180 136
182 181 139
183 183 146
181 180 137
186 187 155
184 183 145
182 183 145
184 183 144
181 178 131
184 184 146
181 181 139
181 182 142
183 183 142
184 184 148
189 190 160
186 186 153
181 182 142
183 181 137
185 185 149
183 183 146
186 187 157
186 185 148
183 184 149
188 188 156
185 184 145
188 189 160
186 187 155
183 180 133
185 185 151
180 179 134
188 190 161
190 192 167
190 192 167
186 187 154
186 187 155
182 181 137
184 184 147
203 225 255
203 225 255
202 225 255
202 225 255
202 225 255
202 225 255
202 225 255
201 225 255
201 224 255
201 224 255
201 224 255
200 224 255
200 224 255
200 224 255
200 224 255
200 224 255
199 224 255
199 223 255
199 223 255
199 223 255
199 223 255
198 223 255
198 223 255
198 223 255
198 223 255
197 222 255
197 222 255
197 222 255
197 222 255
197 222 255
198 223 255
198 223 255
198 223 255
198 223 255
198 223 255
198 223 255
198 223 255
198 223 255
198 223 255
198 223 255
198 223 255
198 223 255
198 223 255
198 223 255
198 223 255
198 223 255
198 223 255
198 223 255
198 223 255
198 223 255
198 223 255
197 222 255
197 223 255
197 223 255
197 222 255
197 222 255
197 222 255
197 222 255
197 222 255
197 222 255
197 222 255
197 222 255
197 222 255
197 222 255
197 222 255
197 222 255
197 222 255
197 222 255
197 222 255
197 222 255
196 222 255
196 222 255
196 222 255
196 222 255
196 222 255
196 222 255
196 222 255
196 222 255
196 222 255
195 221 255
195 221 255
195 221 255
195 221 255
195 221 255
195 221 255
195 221 255
194 221 255
194 221 255
194 221 255
194 221 255
194 220 255
193 220 255
193 220 255
193 220 255
193 220 255
193 220 255
192 220 255
192 220 255
192 220 255
192 219 255
191 219 255
191 219 255
191 219 255
190 219 255
190 219 255
190 218 255
189 218 255
189 218 255
188 218 255
188 217 255
187 217 255
187 217 255
186 217 255
186 217 255
186 217 255
187 217 255
187 217 255
187 217 255
188 217 255
188 218 255
188 218 255
189 218 255
189 218 255
190 219 255
190 219 255
191 219 255
192 220 255
193 220 255
194 221 255
195 221 255
197 222 255
198 223 255
200 224 255
204 226 255
210 229 255
212 230 255
212 230 255
212 230 255
212 230 255
211 230 255
211 230 255
211 230 255
211 230 255
211 230 255
211 230 255
211 230 255
211 230 255
211 230 255
211 230 255
211 230 255
211 230 255
211 230 255
211 230 255
211 230 255
211 230 255
211 230 255
211 230 255
211 230 255
211 230 255
211 230 255
210 229 255
120 144 190
62 98 167
62 99 168
62 99 169
62 98 161
62 98 164
62 98 162
63 99 167
62 98 170
62 98 164
61 97 162
62 99 167
62 98 155
62 98 162
63 99 167
61 97 157
61 97 158
62 98 161
62 98 157
62 98 161
61 97 157
62 98 166
61 97 160
61 97 155
63 99 169
62 99 165
62 98 162
62 98 164
61 97 160
63 99 166
61 97 153
62 98 162
62 98 163
62 98 161
62 97 156
62 98 159
63 98 161
62 98 160
61 97 160
62 98 162
62 98 161
62 98 160
61 97 158
62 97 158
61 97 156
61 97 160
61 97 152
62 98 164
61 97 156
62 98 164
62 98 168
61 97 161
61 97 156
61 97 158
62 98 164
61 97 158
62 98 161
63 99 162
61 97 158
61 96 150
61 96 154
62 98 163
61 97 163
61 97 152
61 97 159
61 97 160
62 97 159
61 97 161
61 98 167
61 96 158
62 98 167
62 97 159
62 96 160
60 95 159
61 95 150
60 94 157
60 94 155
118 141 186
208 227 253
211 230 255
211 230 255
211 230 255
211 230 255
211 230 255
211 230 255
211 230 255
211 230 255
211 230 255
211 230 255
211 230 255
211 230 255
211 230 255
211 230 255
211 230 255
211 230 255
211 230 255
211 230 255
211 230 255
211 230 255
211 230 255
212 230 255
212 230 255
212 230 255
212 230 255
200 211 217
186 190 170
184 189 171
186 194 187
184 190 178
181 187 172
178 185 171
177 185 175
173 176 150
179 184 161
177 182 162
174 179 159
173 179 159
168 174 155
179 184 164
172 177 153
167 172 147
176 180 155
171 174 143
174 178 151
179 184 163
173 175 144
173 175 141
173 176 145
173 176 144
174 177 145
173 174 138
174 174 134
176 179 152
173 173 129
173 172 131
177 179 147
170 171 131
174 175 138
174 176 144
175 175 136
174 174 134
175 174 130
172 173 133
176 174 126
175 173 126
180 179 141
179 176 131
173 173 130
177 176 130
174 173 128
181 179 135
179 180 141
179 179 140
175 175 129
177 177 133
177 174 121
177 176 131
180 177 130
179 176 128
181 179 136
181 180 138
180 179 134
184 181 136
180 177 129
178 176 127
181 179 134
179 178 133
178 176 125
179 177 132
177 175 124
178 177 130
182 178 130
178 175 125
182 182 142
181 179 135
183 180 136
181 179 133
182 181 138
180 177 127
179 177 129
181 180 138
181 179 132
182 180 135
183 183 143
179 176 124
183 180 134
180 177 126
182 181 137
181 178 132
179 176 125
179 175 121
180 176 121
180 177 127
180 180 137
180 178 128
179 177 130
180 179 136
184 183 142
182 179 134
184 184 148
183 184 148
183 183 145
183 182 143
183 181 137
183 181 139
179 176 125
184 183 143
179 178 133
185 186 151
179 178 132
183 182 143
183 181 138
184 183 143
185 186 151
182 183 144
183 181 136
184 186 155
183 182 140
181 180 137
185 184 145
181 180 136
184 185 151
182 180 134
184 182 140
187 186 150
185 186 152
186 186 151
186 186 153
183 182 142
184 183 142
185 186 151
189 191 161
185 183 142
189 193 169
184 185 148
185 183 141
189 192 169
188 190 162
186 188 156
203 226 255
203 225 255
203 225 255
203 225 255
202 225 255
202 225 255
202 225 255
202 225 255
202 225 255
201 225 255
201 224 255
201 224 255
201 224 255
201 224 255
200 224 255
200 224 255
200 224 255
200 224 255
200 224 255
199 223 255
199 223 255
199 223 255
199 223 255
198 223 255
198 223 255
198 223 255
198 223 255
198 223 255
198 223 255
198 223 255
198 223 255
198 223 255
199 223 255
199 223 255
199 223 255
199 223 255
199 223 255
199 223 255
199 223 255
199 223 255
199 223 255
199 223 255
199 223 255
199 223 255
199 223 255
199 223 255
199 223 255
199 223 255
199 223 255
199 223 255
198 223 255
198 223 255
198 223 255
198 223 255
198 223 255
198 223 255
198 223 255
198 223 255
198 223 255
198 223 255
198 223 255
198 223 255
198 223 255
198 223 255
198 223 255
198 223 255
198 223 255
198 223 255
198 223 255
197 222 255
197 222 255
197 222 255
197 222 255
197 222 255
197 222 255
197 222 255
197 222 255
197 222 255
197 222 255
196 222 255
196 222 255
196 222 255
196 222 255
196 222 255
196 222 255
196 222 255
196 221 255
195 221 255
195 221 255
195 221 255
195 221 255
195 221 255
194 221 255
194 221 255
194 221 255
194 221 255
194 220 255
193 220 255
193 220 255
193 220 255
193 220 255
192 220 255
192 220 255
192 219 255
191 219 255
191 219 255
191 219 255
190 219 255
190 218 255
190 218 255
189 218 255
188 218 255
188 218 255
187 217 255
187 217 255
187 217 255
187 217 255
188 217 255
188 218 255
188 218 255
189 218 255
189 218 255
190 218 255
190 219 255
191 219 255
191 219 255
192 220 255
193 220 255
194 220 255
195 221 255
196 222 255
197 222 255
199 223 255
201 224 255
204 226 255
210 229 255
212 230 255
212 230 255
212 230 255
212 230 255
212 230 255
212 230 255
212 230 255
212 230 255
212 230 255
212 230 255
212 230 255
212 230 255
211 230 255
211 230 255
211 230 255
211 230 255
211 230 255
211 230 255
211 230 255
211 230 255
211 230 255
211 230 255
211 230 255
211 230 255
129 153 200
62 99 167
62 98 168
62 99 169
62 98 169
62 98 166
62 98 164
62 98 162
62 98 163
62 98 166
62 98 163
62 98 160
61 98 166
61 97 158
62 98 161
63 99 160
61 96 149
61 97 156
62 98 165
62 98 160
63 99 168
62 98 161
62 98 155
62 98 160
62 98 159
62 98 163
61 98 158
60 96 150
62 98 164
61 98 163
62 99 164
61 97 157
62 98 161
62 98 159
63 99 166
61 97 153
63 98 159
61 96 151
62 98 158
62 98 162
62 98 164
62 98 164
62 98 158
62 97 153
62 98 162
62 98 163
61 97 156
62 98 164
63 99 163
62 98 158
61 96 143
62 98 162
62 97 159
61 97 151
61 97 164
61 97 159
61 96 154
62 98 160
62 97 160
62 97 158
61 97 161
62 98 164
62 98 163
62 98 163
63 99 168
63 98 166
61 97 156
62 98 162
62 98 164
61 96 160
62 98 166
62 97 159
61 97 160
61 96 159
61 96 162
60 95 157
60 95 157
61 96 159
61 95 160
142 163 208
211 230 255
211 230 255
211 230 255
211 230 255
211 230 255
211 230 255
211 230 255
211 230 255
211 230 255
211 230 255
211 230 255
211 230 255
211 230 255
212 230 255
212 230 255
212 230 255
212 230 255
212 230 255
212 230 255
212 230 255
212 230 255
212 230 255
212 230 255
212 230 255
203 217 229
187 194 181
187 193 182
182 188 172
180 185 169
177 184 172
175 179 154
175 181 161
177 184 171
174 179 161
176 181 160
180 186 169
176 181 156
171 174 146
170 175 155
177 182 158
170 174 147
173 176 143
174 179 158
171 175 147
167 168 133
173 177 147
173 176 145
171 173 143
169 169 126
175 176 142
167 169 136
178 179 149
174 176 142
168 169 129
171 174 144
172 172 135
173 174 136
174 173 130
173 174 136
173 171 123
179 181 147
170 170 128
168 168 121
178 176 131
175 175 134
176 176 135
178 176 130
178 176 133
177 175 127
178 178 135
178 176 133
176 174 126
174 174 130
181 179 134
175 173 123
181 178 131
181 180 141
178 174 122
178 176 130
176 174 124
180 179 141
180 179 139
179 177 128
184 180 134
179 178 134
178 176 127
180 178 134
180 178 132
175 172 114
179 177 128
177 175 123
178 176 127
182 180 136
182 178 128
182 178 127
179 175 121
182 181 141
180 176 125
178 177 130
180 177 126
184 184 147
178 175 122
180 178 130
182 180 136
178 175 124
181 180 138
178 178 133
182 182 144
180 178 131
182 180 134
178 176 126
183 182 139
185 184 145
185 183 142
184 182 140
181 178 129
183 182 142
182 180 136
183 181 139
178 177 127
180 178 131
183 181 137
183 181 138
182 180 136
185 184 145
181 180 134
179 175 122
181 182 142
180 178 129
183 183 146
185 185 150
183 182 141
181 180 134
182 181 140
185 185 149
184 180 131
184 182 138
184 184 144
183 182 141
184 183 143
183 182 140
182 182 143
182 182 140
185 184 146
184 184 145
185 185 148
180 178 129
185 185 147
184 182 141
184 185 149
187 187 155
185 185 151
188 187 151
187 187 155
186 187 154
187 186 150
189 190 161
187 190 164
190 194 173
183 181 138
204 226 255
203 226 255
203 226 255
203 225 255
203 225 255
203 225 255
202 225 255
202 225 255
202 225 255
202 225 255
202 225 255
201 225 255
201 225 255
201 224 255
201 224 255
201 224 255
200 224 255
200 224 255
200 224 255
200 224 255
200 224 255
199 223 255
199 223 255
199 223 255
199 223 255
199 223 255
199 223 255
199 223 255
199 223 255
199 224 255
199 224 255
199 224 255
199 224 255
199 224 255
199 224 255
200 224 255
199 224 255
200 224 255
200 224 255
200 224 255
200 224 255
199 224 255
199 224 255
200 224 255
199 224 255
199 224 255
199 224 255
199 224 255
199 224 255
199 224 255
199 224 255
199 223 255
199 224 255
199 223 255
199 223 255
199 223 255
199 223 255
199 223 255
199 223 255
199 223 255
199 223 255
199 223 255
199 223 255
199 223 255
199 223 255
199 223 255
199 223 255
199 223 255
198 223 255
198 223 255
198 223 255
198 223 255
198 223 255
198 223 255
198 223 255
198 223 255
198 223 255
198 223 255
198 223 255
197 222 255
197 222 255
197 222 255
197 222 255
197 222 255
197 222 255
197 222 255
196 222 255
196 222 255
196 222 255
196 222 255
196 222 255
196 222 255
196 221 255
195 221 255
195 221 255
195 221 255
195 221 255
195 221 255
194 221 255
194 221 255
194 221 255
194 220 255
193 220 255
193 220 255
193 220 255
193 220 255
192 220 255
192 220 255
191 219 255
191 219 255
191 219 255
190 219 255
190 218 255
189 218 255
189 218 255
188 218 255
188 217 255
188 218 255
188 218 255
189 218 255
189 218 255
189 218 255
190 218 255
190 219 255
191 219 255
191 219 255
192 220 255
193 220 255
193 220 255
194 221 255
195 221 255
196 222 255
198 223 255
200 224 255
202 225 255
205 227 255
211 230 255
212 230 255
212 230 255
212 230 255
212 230 255
212 230 255
212 230 255
212 230 255
212 230 255
212 230 255
212 230 255
212 230 255
212 230 255
212 230 255
212 230 255
212 230 255
212 230 255
212 230 255
212 230 255
212 230 255
212 230 255
211 230 255
211 230 255
169 190 225
62 98 168
61 98 162
61 97 160
62 98 164
62 98 161
61 97 160
62 98 165
61 97 162
61 97 165
61 96 149
63 99 165
62 98 163
62 99 165
62 98 164
62 98 164
61 98 163
62 98 162
62 97 156
62 98 165
61 98 162
61 96 154
61 97 159
62 98 158
62 98 155
63 99 163
62 98 155
61 98 159
61 97 159
62 98 160
62 98 163
62 98 158
63 98 163
61 97 156
62 98 163
63 99 164
61 97 156
62 98 163
62 98 164
62 98 162
63 99 162
63 99 162
62 99 166
62 98 161
62 98 161
62 98 164
60 96 149
61 96 149
62 98 159
62 98 165
63 98 160
62 98 161
61 97 159
62 98 165
62 98 160
61 97 158
62 98 161
61 96 155
61 97 155
63 98 166
62 97 159
62 98 160
61 96 155
61 96 151
63 98 165
61 96 155
61 97 162
62 97 159
61 97 159
61 96 153
60 96 159
60 95 154
61 95 148
61 96 158
61 96 160
61 97 156
60 94 154
61 96 164
60 95 155
61 96 160
61 95 159
162 182 216
211 230 255
211 230 255
212 230 255
212 230 255
212 230 255
212 230 255
212 230 255
212 230 255
212 230 255
212 230 255
212 230 255
212 230 255
212 230 255
212 230 255
212 230 255
212 230 255
212 230 255
212 230 255
212 230 255
212 230 255
212 230 255
212 230 255
207 222 239
191 197 186
188 195 184
184 191 178
179 185 170
179 184 163
178 184 167
181 189 180
173 179 157
175 180 160
171 175 150
175 181 161
175 181 162
166 170 145
175 179 154
168 173 150
168 170 136
169 171 143
173 174 139
169 173 148
175 179 154
174 175 140
168 172 145
170 176 156
169 172 139
174 176 145
168 171 139
169 170 134
173 175 142
171 170 128
175 175 134
178 179 143
175 176 139
168 168 124
178 179 142
178 178 139
175 177 139
174 174 129
173 172 126
173 173 132
174 173 131
178 176 130
179 176 127
175 173 128
176 174 128
175 174 130
178 177 134
174 173 125
180 179 138
177 175 130
178 176 133
177 174 124
178 178 138
180 177 131
179 176 125
179 177 127
177 174 121
176 174 121
177 176 126
179 174 117
181 177 124
178 175 124
181 178 130
179 176 125
181 180 139
179 176 127
180 177 125
177 175 124
179 177 130
179 175 121
182 180 137
179 176 123
180 177 128
180 177 129
181 178 128
180 178 130
178 176 126
180 178 134
178 177 132
178 175 123
179 176 125
181 180 137
177 174 121
183 180 135
182 179 131
181 179 132
181 181 142
183 181 138
181 179 133
178 174 117
181 179 133
181 179 134
183 179 128
183 182 142
183 182 140
181 179 134
185 183 144
182 179 131
182 182 143
182 180 135
185 184 147
181 178 131
184 182 141
185 184 145
182 181 139
183 183 146
185 183 142
183 181 138
183 182 142
183 180 134
181 179 134
185 185 148
183 183 143
181 179 132
183 182 140
184 184 145
182 180 135
184 183 142
183 183 144
183 183 142
184 184 147
185 184 147
187 186 152
183 182 143
184 184 148
184 184 146
187 186 151
188 189 157
182 182 140
183 184 147
185 186 149
185 186 152
185 184 145
185 186 151
182 183 143
188 189 157
184 182 140
204 226 255
204 226 255
204 226 255
203 226 255
203 226 255
203 226 255
203 225 255
203 225 255
202 225 255
202 225 255
202 225 255
202 225 255
202 225 255
202 225 255
201 225 255
201 224 255
201 224 255
201 224 255
201 224 255
200 224 255
200 224 255
200 224 255
200 224 255
200 224 255
200 224 255
200 224 255
200 224 255
200 224 255
200 224 255
200 224 255
200 224 255
200 224 255
200 224 255
200 224 255
200 224 255
200 224 255
200 224 255
200 224 255
200 224 255
200 224 255
200 224 255
200 224 255
200 224 255
200 224 255
200 224 255
200 224 255
200 224 255
200 224 255
200 224 255
200 224 255
200 224 255
200 224 255
200 224 255
200 224 255
200 224 255
200 224 255
200 224 255
200 224 255
200 224 255
200 224 255
200 224 255
200 224 255
200 224 255
200 224 255
200 224 255
200 224 255
199 224 255
199 224 255
199 223 255
199 223 255
199 223 255
199 223 255
199 223 255
199 223 255
199 223 255
199 223 255
199 223 255
199 223 255
198 223 255
198 223 255
198 223 255
198 223 255
198 223 255
198 223 255
198 223 255
198 223 255
198 223 255
197 222 255
197 222 255
197 222 255
197 222 255
197 222 255
197 222 255
196 222 255
196 222 255
196 222 255
196 222 255
196 222 255
196 221 255
195 221 255
195 221 255
195 221 255
195 221 255
194 221 255
194 221 255
194 221 255
193 220 255
193 220 255
193 220 255
193 220 255
192 220 255
192 219 255
191 219 255
191 219 255
190 219 255
190 218 255
189 218 255
189 218 255
189 218 255
189 218 255
189 218 255
190 218 255
190 219 255
191 219 255
191 219 255
191 219 255
192 220 255
193 220 255
193 220 255
194 221 255
195 221 255
196 222 255
197 222 255
199 223 255
200 224 255
202 225 255
206 227 255
212 230 255
212 231 255
212 231 255
212 231 255
212 231 255
212 231 255
212 230 255
212 230 255
212 230 255
212 230 255
212 230 255
212 230 255
212 230 255
212 230 255
212 230 255
212 230 255
212 230 255
212 230 255
212 230 255
212 230 255
212 230 255
192 212 242
68 102 169
62 98 165
62 98 160
62 99 165
62 98 165
62 98 164
62 97 158
61 97 158
62 98 162
62 98 163
63 98 160
62 98 160
62 98 160
62 98 168
62 98 164
61 96 153
61 97 158
62 98 160
62 97 155
62 98 161
62 98 160
62 98 160
61 97 157
61 97 156
62 98 161
63 98 161
62 98 157
61 97 155
61 97 160
62 98 161
60 96 150
62 98 154
62 98 156
62 98 165
61 97 155
61 97 158
61 97 160
62 98 160
61 97 157
61 97 152
61 97 158
62 98 164
62 98 158
63 98 158
62 98 159
62 97 156
63 99 165
62 98 165
61 97 158
62 97 158
62 98 162
61 96 151
62 97 155
62 98 165
62 98 164
61 96 156
61 97 155
62 98 163
60 96 155
61 97 156
61 97 156
61 97 154
63 99 164
61 97 158
62 98 162
62 97 157
61 97 161
61 97 159
62 98 161
62 97 158
62 98 164
61 95 149
60 95 150
61 97 161
61 96 159
61 95 157
61 97 159
61 95 156
61 97 160
60 93 144
61 95 158
70 100 160
191 211 242
212 230 255
212 230 255
212 230 255
212 230 255
212 230 255
212 230 255
212 230 255
212 230 255
212 230 255
212 230 255
212 230 255
212 230 255
212 230 255
212 230 255
212 230 255
212 231 255
212 231 255
212 231 255
212 231 255
212 231 255
210 227 248
191 199 193
182 187 168
184 190 178
184 193 189
172 178 162
176 183 172
172 178 161
170 175 156
170 175 154
172 178 160
170 175 154
162 167 142
172 177 155
171 177 156
170 174 149
168 171 140
169 172 141
174 177 152
166 170 143
168 171 142
169 172 140
169 171 143
166 168 136
168 169 131
172 173 135
173 173 138
172 174 142
175 176 139
177 176 138
165 167 132
170 171 137
175 176 141
176 175 135
170 171 136
176 176 138
177 177 134
175 174 130
169 168 123
175 172 118
172 171 124
175 175 133
177 176 131
178 178 140
175 172 122
175 172 125
181 179 134
176 175 131
175 175 135
175 175 134
176 174 128
177 176 135
173 171 120
177 175 129
177 176 134
178 177 134
175 174 123
179 176 123
177 175 128
178 177 129
179 175 120
179 174 117
179 175 122
178 175 122
177 175 121
177 174 121
181 178 130
179 176 127
177 174 120
180 178 132
178 174 117
181 178 131
180 177 127
181 178 128
180 177 125
181 178 129
180 177 126
179 176 125
179 177 127
179 179 134
178 175 119
179 176 124
181 181 139
183 181 136
178 175 120
179 176 124
179 177 127
181 179 134
179 176 125
180 179 132
181 180 135
183 181 136
181 180 136
179 177 126
180 177 126
180 178 129
179 176 124
183 181 138
182 181 137
186 184 142
184 182 142
179 177 128
182 179 132
184 183 144
184 184 144
186 186 152
182 180 135
185 183 142
182 182 141
180 180 139
183 182 139
180 180 136
186 185 147
180 177 128
183 181 137
178 175 121
184 184 147
186 186 151
183 182 141
181 179 134
183 184 147
188 190 162
184 184 147
185 184 148
184 183 146
183 182 141
184 183 141
185 184 146
181 180 136
184 183 142
189 190 159
184 185 152
188 191 167
185 185 149
188 189 158
187 186 149
191 195 174
185 185 149
204 226 255
204 226 255
204 226 255
204 226 255
204 226 255
204 226 255
203 226 255
203 226 255
203 225 255
203 225 255
203 225 255
202 225 255
202 225 255
202 225 255
202 225 255
202 225 255
201 225 255
201 225 255
201 224 255
201 224 255
201 224 255
201 224 255
201 224 255
201 224 255
201 224 255
201 224 255
201 224 255
201 224 255
201 224 255
201 224 255
201 224 255
201 224 255
201 224 255
201 224 255
201 224 255
201 225 255
201 225 255
201 225 255
201 225 255
201 225 255
201 225 255
201 225 255
201 225 255
201 225 255
201 225 255
201 224 255
201 224 255
201 224 255
201 224 255
201 224 255
201 224 255
201 224 255
201 224 255
201 224 255
201 224 255
201 224 255
201 224 255
201 224 255
201 224 255
201 224 255
201 224 255
201 224 255
201 224 255
201 224 255
200 224 255
200 224 255
200 224 255
200 224 255
200 224 255
200 224 255
200 224 255
200 224 255
200 224 255
200 224 255
200 224 255
200 224 255
200 224 255
199 224 255
199 224 255
199 223 255
199 223 255
199 223 255
199 223 255
199 223 255
199 223 255
199 223 255
199 223 255
198 223 255
198 223 255
198 223 255
198 223 255
198 223 255
198 223 255
198 223 255
197 222 255
197 222 255
197 222 255
197 222 255
197 222 255
196 222 255
196 222 255
196 222 255
196 222 255
195 221 255
195 221 255
195 221 255
195 221 255
194 221 255
194 221 255
194 221 255
193 220 255
193 220 255
193 220 255
192 220 255
192 220 255
191 219 255
191 219 255
190 219 255
190 218 255
190 218 255
190 219 255
190 219 255
191 219 255
191 219 255
191 219 255
192 220 255
192 220 255
193 220 255
193 220 255
194 221 255
195 221 255
196 222 255
197 222 255
198 223 255
199 224 255
201 225 255
204 226 255
208 228 255
212 231 255
213 231 255
213 231 255
213 231 255
212 231 255
212 231 255
212 231 255
212 231 255
212 231 255
212 231 255
212 231 255
212 231 255
212 231 255
212 231 255
212 230 255
212 230 255
212 230 255
212 230 255
212 230 255
208 227 253
89 118 182
62 98 170
62 98 167
61 98 164
62 98 166
62 99 167
62 97 158
62 98 158
61 97 162
62 97 161
61 97 154
61 97 155
61 97 162
63 99 163
62 98 163
62 97 155
61 97 158
62 98 158
61 97 156
62 98 159
61 98 161
62 97 155
62 98 162
61 97 161
62 98 158
62 98 161
63 99 165
62 98 158
62 98 158
62 98 159
61 97 150
61 97 155
62 98 161
62 97 156
63 98 159
62 98 159
62 98 156
62 97 152
61 96 152
63 98 158
62 98 162
61 97 149
62 98 158
61 97 160
61 97 158
62 98 158
61 97 154
61 96 150
62 98 158
61 97 155
62 98 157
62 98 157
62 98 159
62 97 157
61 96 152
62 97 159
61 97 152
61 97 151
62 97 152
62 97 160
62 97 158
61 97 153
62 98 163
61 96 151
62 97 161
63 99 164
60 95 149
62 98 164
62 97 157
61 96 159
61 97 157
62 98 160
62 98 167
61 96 159
62 97 158
60 95 154
61 96 158
61 96 158
60 94 154
61 95 157
60 95 155
61 96 158
61 96 160
95 121 176
209 227 252
212 230 255
212 230 255
212 230 255
212 230 255
212 230 255
212 231 255
212 231 255
212 231 255
212 231 255
212 231 255
212 231 255
212 231 255
212 231 255
212 231 255
212 231 255
213 231 255
213 231 255
213 231 255
211 228 250
193 200 189
180 186 170
181 186 170
181 188 177
177 181 162
176 182 167
171 176 158
169 177 164
167 176 168
168 174 155
163 167 140
166 168 137
170 173 145
168 172 147
171 177 159
169 172 146
164 166 136
160 164 136
168 172 145
169 170 135
169 172 137
165 168 140
171 172 139
166 168 138
165 167 132
172 173 137
173 174 139
166 166 124
173 175 144
174 174 138
171 170 130
168 167 124
167 168 129
173 174 139
176 176 140
172 172 131
171 170 125
175 173 125
168 167 119
175 176 138
173 173 129
171 169 119
178 176 132
173 171 123
175 174 132
177 175 132
175 175 131
174 170 115
176 174 128
178 176 132
174 172 121
179 178 134
178 175 124
179 175 124
176 175 128
178 177 130
179 177 130
178 174 118
182 181 138
178 175 125
177 173 119
178 176 126
180 176 124
180 177 127
180 176 126
179 177 129
178 175 123
178 174 119
179 176 123
179 175 118
178 176 123
179 176 124
185 182 139
179 175 122
178 174 118
178 175 123
178 176 124
181 178 128
182 178 129
180 176 122
179 176 125
178 174 120
180 178 130
182 180 134
178 175 124
181 178 129
179 178 131
181 178 132
179 176 123
182 181 138
181 179 131
181 178 127
180 179 134
182 180 134
180 176 124
184 183 143
182 180 134
180 175 120
181 178 131
181 177 125
179 176 125
180 180 138
181 177 124
185 184 145
183 181 137
184 182 141
181 179 132
184 184 147
180 177 126
182 180 133
178 174 117
185 184 146
183 181 135
181 178 130
185 183 143
184 185 149
184 180 134
183 183 144
184 183 145
183 183 143
181 179 134
182 180 134
182 182 142
185 184 146
183 179 127
186 184 145
182 182 141
185 184 146
184 182 141
183 182 137
184 183 142
184 184 147
180 181 140
187 187 154
186 186 149
184 184 148
191 193 168
187 185 145
205 227 255
205 226 255
205 226 255
204 226 255
204 226 255
204 226 255
204 226 255
204 226 255
203 226 255
203 226 255
203 226 255
203 225 255
203 225 255
203 225 255
202 225 255
202 225 255
202 225 255
202 225 255
202 225 255
202 225 255
202 225 255
202 225 255
202 225 255
202 225 255
202 225 255
202 225 255
202 225 255
202 225 255
202 225 255
202 225 255
202 225 255
202 225 255
202 225 255
202 225 255
202 225 255
202 225 255
202 225 255
202 225 255
202 225 255
202 225 255
202 225 255
202 225 255
202 225 255
202 225 255
202 225 255
202 225 255
202 225 255
202 225 255
202 225 255
202 225 255
202 225 255
202 225 255
202 225 255
202 225 255
202 225 255
202 225 255
202 225 255
202 225 255
202 225 255
202 225 255
202 225 255
201 225 255
201 225 255
201 225 255
201 225 255
201 225 255
201 225 255
201 224 255
201 224 255
201 224 255
201 224 255
201 224 255
201 224 255
201 224 255
201 224 255
201 224 255
200 224 255
200 224 255
200 224 255
200 224 255
200 224 255
200 224 255
200 224 255
200 224 255
200 224 255
200 224 255
199 224 255
199 223 255
199 223 255
199 223 255
199 223 255
199 223 255
199 223 255
198 223 255
198 223 255
198 223 255
198 223 255
198 223 255
198 223 255
198 223 255
197 222 255
197 222 255
197 222 255
197 222 255
196 222 255
196 222 255
196 222 255
196 222 255
195 221 255
195 221 255
195 221 255
194 221 255
194 221 255
194 220 255
193 220 255
193 220 255
192 220 255
192 220 255
191 219 255
191 219 255
191 219 255
191 219 255
191 219 255
191 219 255
192 220 255
192 220 255
193 220 255
193 220 255
194 220 255
194 221 255
195 221 255
196 222 255
197 222 255
198 223 255
199 223 255
200 224 255
202 225 255
205 226 255
209 229 255
213 231 255
213 231 255
213 231 255
213 231 255
213 231 255
213 231 255
213 231 255
213 231 255
213 231 255
213 231 255
213 231 255
213 231 255
213 231 255
212 231 255
212 231 255
212 231 255
212 231 255
212 231 255
140 162 205
61 98 160
62 98 165
62 98 166
62 98 164
62 99 169
61 97 154
62 98 160
61 97 161
61 97 160
63 99 167
62 98 156
62 98 158
61 97 152
62 99 167
63 99 164
62 97 159
61 97 152
62 98 159
62 98 158
61 97 154
61 98 163
61 97 155
62 98 161
60 96 150
61 97 157
62 98 155
62 98 160
62 97 152
61 97 151
61 97 152
61 97 157
62 98 165
61 97 153
62 97 157
61 97 156
63 99 166
62 98 159
62 97 156
61 97 150
62 98 161
61 96 154
62 98 159
62 97 151
62 98 164
61 97 155
62 98 160
63 99 164
62 97 156
62 98 162
61 97 154
62 98 154
62 98 159
62 97 163
61 97 154
61 97 154
61 97 153
61 96 156
62 97 159
62 98 154
62 97 155
61 97 155
61 96 154
62 98 158
61 96 154
61 96 155
61 97 156
61 97 164
61 96 156
60 95 156
62 98 156
62 97 158
60 95 150
61 96 156
61 97 156
60 95 149
60 95 150
61 97 161
60 95 152
61 96 154
62 97 158
61 96 159
61 95 159
61 95 160
62 97 161
126 148 192
212 231 255
212 231 255
212 231 255
212 231 255
212 231 255
213 231 255
213 231 255
213 231 255
213 231 255
213 231 255
213 231 255
213 231 255
213 231 255
213 231 255
213 231 255
213 231 255
213 231 255
213 231 255
194 203 200
186 194 187
182 189 179
174 180 164
174 183 176
171 177 160
178 184 169
173 181 171
171 178 165
161 167 154
169 176 161
169 172 145
164 169 143
169 174 154
167 172 155
171 177 160
163 165 133
166 171 149
166 169 138
160 162 127
166 170 141
164 166 128
172 174 143
165 168 137
160 160 120
169 169 127
168 167 124
171 171 134
168 169 130
161 162 123
168 169 129
172 170 124
172 171 128
173 171 124
171 171 128
170 168 120
171 171 127
171 170 127
174 172 128
172 169 116
176 175 131
174 171 121
177 173 123
175 171 117
170 169 118
171 168 115
171 169 119
176 173 121
174 172 122
175 174 132
176 174 123
175 172 118
176 174 125
178 174 118
179 177 132
175 174 128
179 177 130
179 177 132
179 176 125
177 173 119
177 174 122
179 175 120
180 178 129
177 174 120
181 180 136
180 178 129
183 180 133
178 174 118
178 174 120
179 175 119
176 172 117
180 177 126
177 174 120
181 177 126
178 175 122
179 176 123
182 179 132
178 174 118
181 179 131
180 178 132
178 176 125
177 174 118
181 178 127
181 178 126
180 177 125
177 174 118
182 179 131
180 177 129
183 179 131
183 182 142
181 178 127
177 174 119
182 179 130
181 179 134
181 175 117
182 178 127
179 175 120
183 180 133
180 177 128
179 176 123
182 180 134
179 177 129
180 178 129
182 180 137
181 178 130
182 179 132
186 183 142
181 178 127
180 178 131
182 181 140
182 178 130
180 179 134
185 184 146
180 177 124
182 181 137
182 179 131
181 179 133
183 181 135
184 184 145
185 185 148
185 185 148
182 180 134
184 181 136
185 185 151
182 181 138
187 187 154
183 180 135
188 189 158
183 183 147
188 188 156
187 188 157
187 187 151
185 185 149
188 187 151
185 184 146
186 186 151
183 184 147
188 188 156
186 185 149
205 227 255
205 227 255
205 227 255
205 226 255
205 226 255
205 226 255
204 226 255
204 226 255
204 226 255
204 226 255
204 226 255
203 226 255
203 226 255
203 226 255
203 225 255
203 225 255
202 225 255
202 225 255
202 225 255
202 225 255
202 225 255
202 225 255
202 225 255
203 225 255
203 225 255
203 225 255
203 225 255
203 225 255
203 225 255
203 225 255
203 225 255
203 225 255
203 225 255
203 225 255
203 225 255
203 225 255
203 225 255
203 225 255
203 225 255
203 225 255
203 225 255
203 225 255
203 225 255
203 225 255
203 225 255
203 225 255
203 225 255
203 225 255
203 225 255
203 225 255
203 225 255
203 225 255
203 225 255
203 225 255
203 225 255
203 225 255
202 225 255
202 225 255
202 225 255
202 225 255
202 225 255
202 225 255
202 225 255
202 225 255
202 225 255
202 225 255
202 225 255
202 225 255
202 225 255
202 225 255
202 225 255
202 225 255
202 225 255
202 225 255
201 225 255
201 225 255
201 225 255
201 225 255
201 224 255
201 224 255
201 224 255
201 224 255
201 224 255
201 224 255
201 224 255
200 224 255
200 224 255
200 224 255
200 224 255
200 224 255
200 224 255
200 224 255
200 224 255
200 224 255
199 224 255
199 223 255
199 223 255
199 223 255
199 223 255
199 223 255
198 223 255
198 223 255
198 223 255
198 223 255
198 223 255
197 222 255
197 222 255
197 222 255
197 222 255
196 222 255
196 222 255
196 222 255
195 221 255
195 221 255
195 221 255
194 221 255
194 221 255
193 220 255
193 220 255
192 220 255
192 220 255
191 219 255
192 219 255
192 220 255
192 220 255
193 220 255
193 220 255
194 220 255
194 221 255
195 221 255
195 221 255
196 222 255
197 222 255
198 223 255
199 223 255
200 224 255
201 225 255
203 226 255
206 227 255
211 230 255
213 231 255
213 231 255
213 231 255
213 231 255
213 231 255
213 231 255
213 231 255
213 231 255
213 231 255
213 231 255
213 231 255
213 231 255
213 231 255
213 231 255
213 231 255
213 231 255
181 201 235
62 98 170
61 97 164
61 98 164
61 97 161
61 97 158
61 97 158
62 98 160
62 98 158
62 98 159
63 99 165
61 97 156
62 98 158
62 97 158
62 97 157
60 96 155
62 98 159
62 98 157
61 97 157
60 96 150
61 97 153
62 98 158
61 97 155
60 96 153
62 97 155
62 98 159
61 97 159
62 98 165
62 98 164
60 96 155
61 97 155
62 97 154
61 97 152
62 98 157
63 99 162
61 97 161
61 96 153
62 98 163
61 97 158
62 97 156
62 98 161
61 96 150
62 98 162
62 98 160
62 97 156
62 98 158
62 98 159
61 96 149
62 97 157
61 96 156
61 97 158
61 96 154
61 97 156
61 97 153
62 98 158
61 96 152
62 98 159
63 98 160
62 97 158
61 97 158
60 96 151
61 96 150
61 96 155
61 97 156
62 97 156
61 96 152
62 97 164
62 97 160
61 96 153
61 96 155
61 96 151
61 96 155
61 95 150
61 96 155
61 96 155
60 95 152
61 96 153
60 95 150
61 96 154
61 95 147
61 95 159
61 95 156
60 93 150
60 94 155
61 96 158
59 93 151
59 92 153
179 198 229
213 231 255
213 231 255
213 231 255
213 231 255
213 231 255
213 231 255
213 231 255
213 231 255
213 231 255
213 231 255
213 231 255
213 231 255
213 231 255
213 231 255
213 231 255
213 231 255
200 213 221
184 191 179
184 191 182
182 189 179
178 185 176
175 183 173
161 166 145
173 180 165
173 179 163
163 170 157
165 170 149
166 170 147
164 167 141
168 172 146
162 168 145
163 168 145
167 169 139
172 176 152
163 165 135
164 167 142
162 165 135
171 172 135
167 171 146
167 169 135
168 170 135
173 174 138
173 176 148
170 170 129
166 167 131
169 169 125
173 175 143
172 172 134
173 173 135
169 170 134
170 170 130
171 170 124
167 169 129
172 171 127
165 166 121
168 168 125
172 170 120
174 172 122
171 170 119
173 171 124
173 171 122
176 174 124
170 168 117
176 176 136
176 174 123
172 169 111
175 172 115
172 171 122
179 176 125
180 176 124
171 168 111
177 173 116
176 174 125
174 172 119
177 172 112
178 176 125
178 174 120
178 175 124
175 171 114
178 174 117
178 174 119
177 174 119
181 176 121
181 177 127
178 174 119
180 177 125
177 174 122
176 173 118
180 176 124
179 175 120
180 177 128
177 175 124
180 176 124
180 177 126
178 174 117
181 178 129
182 178 126
183 179 130
182 177 122
182 177 124
180 178 131
181 177 124
180 178 131
182 180 134
182 181 140
179 177 125
180 178 129
183 182 140
181 177 126
180 178 130
179 175 121
180 177 126
181 178 129
181 180 137
181 179 133
182 180 137
179 177 130
180 175 119
180 177 123
182 178 127
186 185 147
180 177 127
182 182 140
182 182 141
184 183 143
182 180 134
182 180 136
183 180 134
185 182 137
181 179 133
181 180 137
185 184 144
180 177 124
181 178 128
179 178 130
182 181 140
182 180 134
184 183 143
180 178 129
186 187 152
185 182 138
184 185 147
178 175 123
183 181 137
187 188 156
181 180 134
181 180 135
182 181 140
185 185 146
187 188 156
185 183 142
186 184 145
183 182 142
186 187 152
188 189 159
185 183 142
206 227 255
206 227 255
206 227 255
205 227 255
205 227 255
205 227 255
205 226 255
205 226 255
205 226 255
204 226 255
204 226 255
204 226 255
204 226 255
204 226 255
204 226 255
203 226 255
203 226 255
203 226 255
203 226 255
203 226 255
203 226 255
203 226 255
203 226 255
203 226 255
203 226 255
203 226 255
203 226 255
204 226 255
204 226 255
204 226 255
204 226 255
204 226 255
204 226 255
204 226 255
204 226 255
204 226 255
204 226 255
204 226 255
204 226 255
204 226 255
204 226 255
204 226 255
204 226 255
204 226 255
204 226 255
204 226 255
204 226 255
204 226 255
204 226 255
203 226 255
203 226 255
203 226 255
203 226 255
203 226 255
203 226 255
203 226 255
203 226 255
203 226 255
203 226 255
203 226 255
203 226 255
203 226 255
203 226 255
203 225 255
203 225 255
203 225 255
203 225 255
203 225 255
203 225 255
203 225 255
203 225 255
203 225 255
203 225 255
202 225 255
202 225 255
202 225 255
202 225 255
202 225 255
202 225 255
202 225 255
202 225 255
202 225 255
202 225 255
202 225 255
202 225 255
201 225 255
201 225 255
201 224 255
201 224 255
201 224 255
201 224 255
201 224 255
201 224 255
200 224 255
200 224 255
200 224 255
200 224 255
200 224 255
200 224 255
200 224 255
199 224 255
199 223 255
199 223 255
199 223 255
199 223 255
199 223 255
198 223 255
198 223 255
198 223 255
198 223 255
197 222 255
197 222 255
197 222 255
196 222 255
196 222 255
196 222 255
195 221 255
195 221 255
194 221 255
194 221 255
193 220 255
193 220 255
192 220 255
193 220 255
193 220 255
193 220 255
194 220 255
194 221 255
194 221 255
195 221 255
196 221 255
196 222 255
197 222 255
198 223 255
199 223 255
200 224 255
201 224 255
202 225 255
204 226 255
208 228 255
213 231 255
213 231 255
213 231 255
213 231 255
213 231 255
213 231 255
213 231 255
213 231 255
213 231 255
213 231 255
213 231 255
213 231 255
213 231 255
213 231 255
213 231 255
210 228 253
89 118 173
61 97 154
61 98 162
62 98 164
61 97 157
62 98 161
62 98 163
62 98 160
61 97 156
61 98 163
61 97 161
61 97 160
62 98 158
61 96 153
62 97 154
61 97 159
62 98 156
61 97 157
61 96 154
61 96 147
62 97 161
61 97 151
61 97 159
61 96 152
63 98 161
62 97 157
62 98 155
62 99 163
62 98 161
62 98 157
61 97 152
62 97 154
61 97 155
62 97 154
62 98 158
61 97 154
61 97 152
61 97 160
60 96 145
61 97 155
61 97 159
61 97 158
61 97 156
61 97 150
60 96 150
61 96 146
61 96 149
61 97 152
62 98 161
62 97 156
62 97 156
63 99 160
62 98 154
61 97 154
62 98 156
61 97 155
62 98 157
61 97 155
62 98 160
61 96 150
61 97 156
61 96 148
61 97 151
62 98 164
62 98 160
61 96 154
62 97 163
61 97 154
61 96 152
61 96 155
62 97 157
62 97 159
61 96 152
61 96 156
61 96 155
61 96 156
62 96 161
60 95 154
61 96 154
61 96 159
60 94 146
62 98 162
60 94 152
59 93 149
61 96 160
61 94 150
62 96 162
88 116 175
207 225 250
213 231 255
213 231 255
213 231 255
213 231 255
213 231 255
213 231 255
213 231 255
213 231 255
213 231 255
213 231 255
213 231 255
213 231 255
213 231 255
213 231 255
207 223 241
181 187 171
180 187 179
182 190 181
173 180 170
171 177 164
170 176 161
168 175 162
174 181 170
163 168 150
169 175 156
165 170 144
160 165 146
164 171 157
168 172 146
163 166 140
157 162 138
152 156 127
172 177 154
162 165 136
164 165 128
157 159 121
166 168 136
171 173 140
165 168 135
166 168 137
164 167 139
168 170 134
164 165 131
170 170 133
167 166 123
165 165 120
167 168 132
169 169 130
167 167 120
171 171 130
170 169 119
167 166 119
172 171 123
168 168 127
169 167 119
175 173 129
171 168 116
174 172 122
171 168 118
171 168 115
170 168 117
176 174 127
174 173 130
175 173 121
175 173 122
173 171 121
175 171 113
177 174 124
181 177 125
179 175 119
177 174 120
178 175 125
174 171 117
178 176 128
177 173 119
178 175 126
175 170 113
179 174 118
176 172 112
180 176 124
180 176 123
179 175 123
179 177 130
180 178 130
178 174 119
178 174 117
176 173 116
178 175 122
179 176 126
175 171 107
180 177 127
180 176 125
182 179 132
180 177 125
180 178 131
181 177 126
180 177 125
181 178 129
179 176 122
181 176 120
181 177 125
180 179 134
178 173 113
179 175 121
184 181 136
179 176 124
179 174 115
179 176 122
183 178 127
179 177 128
180 177 125
180 176 125
178 175 122
180 177 126
179 177 126
180 180 136
180 178 133
182 180 136
178 174 120
179 175 117
183 181 137
184 181 137
184 182 137
183 179 130
182 180 135
183 180 134
183 181 136
182 181 139
185 184 146
183 181 137
182 181 136
180 178 133
181 179 130
182 180 135
185 182 138
183 182 142
184 183 145
180 177 122
183 181 137
184 183 144
184 183 142
185 185 148
181 180 134
183 182 142
189 191 163
184 182 142
185 185 148
183 184 147
184 184 146
179 178 134
180 180 137
183 184 147
184 184 147
184 184 145
186 185 148
206 227 255
206 227 255
206 227 255
206 227 255
206 227 255
206 227 255
205 227 255
205 227 255
205 227 255
205 227 255
205 226 255
205 226 255
204 226 255
204 226 255
204 226 255
204 226 255
204 226 255
204 226 255
204 226 255
204 226 255
204 226 255
204 226 255
204 226 255
204 226 255
204 226 255
204 226 255
204 226 255
204 226 255
204 226 255
204 226 255
204 226 255
204 226 255
204 226 255
204 226 255
204 226 255
204 226 255
204 226 255
204 226 255
204 226 255
204 226 255
204 226 255
204 226 255
204 226 255
204 226 255
204 226 255
204 226 255
204 226 255
204 226 255
204 226 255
204 226 255
204 226 255
204 226 255
204 226 255
204 226 255
204 226 255
204 226 255
204 226 255
204 226 255
204 226 255
204 226 255
204 226 255
204 226 255
204 226 255
204 226 255
204 226 255
204 226 255
204 226 255
204 226 255
204 226 255
203 226 255
203 226 255
203 226 255
203 226 255
203 226 255
203 226 255
203 226 255
203 225 255
203 225 255
203 225 255
203 225 255
203 225 255
203 225 255
203 225 255
202 225 255
202 225 255
202 225 255
202 225 255
202 225 255
202 225 255
202 225 255
202 225 255
202 225 255
202 225 255
201 225 255
201 225 255
201 224 255
201 224 255
201 224 255
201 224 255
201 224 255
200 224 255
200 224 255
200 224 255
200 224 255
200 224 255
200 224 255
199 224 255
199 223 255
199 223 255
199 223 255
198 223 255
198 223 255
198 223 255
198 223 255
197 222 255
197 222 255
197 222 255
196 222 255
196 222 255
195 221 255
195 221 255
194 221 255
194 221 255
193 220 255
194 220 255
194 221 255
194 221 255
195 221 255
195 221 255
195 221 255
196 222 255
196 222 255
197 222 255
198 223 255
199 223 255
200 224 255
201 224 255
202 225 255
204 226 255
206 227 255
209 229 255
213 231 255
214 231 255
214 231 255
214 231 255
214 231 255
214 231 255
213 231 255
213 231 255
213 231 255
213 231 255
213 231 255
213 231 255
213 231 255
213 231 255
149 170 207
61 96 155
61 98 163
62 98 159
61 97 156
63 99 168
61 98 160
60 96 152
62 98 161
60 95 148
61 97 155
61 97 151
61 96 153
61 97 157
62 97 154
60 96 158
61 97 154
61 97 156
61 97 154
62 98 154
61 96 150
62 98 157
61 96 149
61 97 156
62 98 156
61 97 156
61 97 151
62 97 152
62 98 161
62 97 155
62 98 159
62 98 158
61 97 152
61 97 152
62 97 155
62 98 158
62 98 161
62 98 155
61 97 150
61 97 155
61 97 152
62 98 157
63 98 159
63 98 156
61 97 152
61 97 160
62 98 158
61 97 154
62 98 160
61 96 152
61 97 156
61 97 156
61 97 148
62 98 155
61 97 154
61 96 150
62 98 157
62 98 159
61 96 148
60 95 144
62 98 161
61 96 153
62 98 156
62 97 152
61 97 152
62 97 155
62 97 156
61 97 161
61 97 156
61 96 149
61 96 151
62 97 156
61 96 149
62 97 158
62 97 161
62 97 157
62 97 161
62 97 156
60 94 152
60 95 152
62 97 157
61 96 154
61 95 150
60 94 153
59 93 151
61 95 151
61 94 153
59 93 152
58 91 150
149 169 205
213 231 255
213 231 255
213 231 255
213 231 255
213 231 255
213 231 255
213 231 255
213 231 255
214 231 255
214 231 255
214 231 255
214 231 255
214 231 255
213 230 252
196 205 204
182 188 175
175 182 171
181 190 184
180 187 178
160 169 162
168 175 162
176 181 161
162 168 148
162 169 153
155 162 144
160 165 144
167 171 146
160 165 140
163 169 152
155 160 140
168 172 148
160 163 137
165 169 145
162 165 136
159 162 128
160 164 137
159 162 130
169 171 140
166 166 130
167 170 137
166 165 124
161 162 126
161 163 130
163 164 123
170 170 130
171 172 135
166 167 127
172 173 133
166 166 127
171 168 116
174 173 130
172 169 120
174 172 125
172 171 129
172 170 124
168 167 120
174 173 132
179 180 144
171 167 112
174 172 121
175 173 124
174 171 112
177 174 122
177 173 117
180 176 125
175 172 117
174 171 118
178 175 125
176 173 120
177 174 123
176 173 120
177 174 123
174 171 120
175 172 114
176 172 118
177 172 115
179 177 130
178 175 123
180 177 124
176 173 119
179 175 124
179 176 125
181 179 132
178 174 117
182 180 135
180 177 126
179 175 122
179 175 123
179 175 117
179 174 115
180 176 123
180 176 123
180 177 129
180 177 126
178 173 110
177 172 111
178 174 118
180 177 126
177 172 111
180 176 122
182 176 117
179 177 125
179 177 129
181 178 130
182 179 130
179 177 126
178 176 123
179 174 116
179 177 126
177 172 110
179 176 121
180 178 130
182 179 131
179 177 129
178 175 121
182 180 134
184 181 134
183 178 126
182 179 130
186 184 145
181 177 125
180 177 127
178 174 118
179 177 126
183 182 140
180 178 130
183 181 136
183 182 141
182 179 129
181 178 130
182 180 132
183 181 138
181 179 132
183 181 137
183 183 144
184 182 139
182 180 134
182 180 135
182 180 135
185 184 144
182 182 141
185 183 142
185 183 139
183 182 139
181 181 137
183 182 138
185 184 146
185 185 151
186 185 147
185 183 139
187 187 151
185 185 149
187 185 144
187 188 157
188 189 155
207 228 255
207 227 255
207 227 255
206 227 255
206 227 255
206 227 255
206 227 255
206 227 255
206 227 255
205 227 255
205 227 255
205 227 255
205 227 255
205 226 255
205 226 255
205 226 255
205 226 255
205 226 255
205 226 255
205 226 255
205 226 255
205 227 255
205 227 255
205 227 255
205 227 255
205 227 255
205 227 255
205 227 255
205 227 255
205 227 255
205 227 255
205 227 255
205 227 255
205 227 255
205 227 255
205 227 255
205 227 255
205 227 255
205 227 255
205 227 255
205 227 255
205 227 255
205 227 255
205 227 255
205 227 255
205 227 255
205 227 255
205 227 255
205 227 255
205 227 255
205 227 255
205 227 255
205 227 255
205 227 255
205 226 255
205 226 255
205 226 255
205 226 255
205 226 255
205 226 255
205 226 255
205 226 255
205 226 255
205 226 255
205 226 255
204 226 255
204 226 255
204 226 255
204 226 255
204 226 255
204 226 255
204 226 255
204 226 255
204 226 255
204 226 255
204 226 255
204 226 255
204 226 255
204 226 255
204 226 255
204 226 255
203 226 255
203 226 255
203 226 255
203 226 255
203 226 255
203 225 255
203 225 255
203 225 255
203 225 255
203 225 255
203 225 255
202 225 255
202 225 255
202 225 255
202 225 255
202 225 255
202 225 255
202 225 255
202 225 255
201 225 255
201 225 255
201 224 255
201 224 255
201 224 255
201 224 255
200 224 255
200 224 255
200 224 255
200 224 255
200 224 255
199 223 255
199 223 255
199 223 255
198 223 255
198 223 255
198 223 255
198 223 255
197 222 255
197 222 255
196 222 255
196 222 255
195 221 255
195 221 255
194 221 255
195 221 255
195 221 255
195 221 255
196 222 255
196 222 255
196 222 255
197 222 255
198 223 255
198 223 255
199 223 255
200 224 255
201 224 255
202 225 255
203 225 255
205 226 255
207 228 255
212 230 255
214 231 255
214 231 255
214 231 255
214 231 255
214 231 255
214 231 255
214 231 255
214 231 255
214 231 255
214 231 255
214 231 255
214 231 255
194 213 243
65 100 167
62 98 168
62 98 166
60 96 155
61 98 161
61 97 154
60 96 151
62 97 157
62 98 156
62 97 156
62 98 161
62 98 162
61 97 159
62 97 158
60 96 147
61 97 152
62 98 153
62 98 158
62 97 157
63 98 163
61 97 155
61 97 155
61 97 155
61 97 150
62 98 159
62 98 161
61 97 152
61 97 153
62 98 158
61 97 153
61 97 156
61 97 152
62 97 149
61 96 143
61 97 151
62 97 153
63 99 161
61 97 152
62 98 159
61 96 150
61 97 156
61 96 150
60 96 144
61 97 153
62 97 157
61 97 155
61 96 148
61 96 151
61 97 155
61 96 149
62 97 158
62 98 158
61 96 149
61 97 160
61 96 149
61 97 159
62 98 155
61 97 153
62 98 156
62 97 157
63 98 154
61 97 151
61 96 150
62 98 156
62 97 149
62 98 158
62 97 158
62 97 153
61 97 155
62 98 162
62 97 155
61 97 151
62 97 155
62 97 158
60 94 148
61 96 155
61 95 152
62 97 157
61 96 152
60 95 149
60 95 149
62 97 162
61 95 146
62 96 160
62 96 161
59 92 150
60 93 151
61 93 152
60 94 152
70 100 156
202 220 247
214 231 255
214 231 255
214 231 255
214 231 255
214 231 255
214 231 255
214 231 255
214 231 255
214 231 255
214 231 255
214 231 255
214 231 255
201 214 221
178 183 163
185 193 185
172 179 169
166 171 151
168 175 162
164 171 158
165 169 149
164 170 156
169 174 156
164 168 149
157 164 146
164 169 150
150 156 138
155 159 134
158 162 141
159 164 143
160 165 140
153 157 131
159 159 115
166 170 145
159 162 132
161 164 135
155 158 128
162 163 126
170 171 133
166 166 129
163 163 123
170 170 132
168 168 128
164 167 133
173 171 127
169 169 126
170 171 132
160 160 117
171 170 122
175 174 134
166 165 117
167 164 115
171 170 123
168 167 117
167 164 109
172 170 123
172 172 130
173 171 126
170 167 113
173 171 123
174 172 123
178 175 124
174 173 125
174 171 120
177 174 126
173 170 113
176 174 125
177 173 118
178 174 116
176 170 108
175 172 119
177 172 115
178 175 121
180 176 123
177 173 117
170 166 107
178 173 119
178 174 120
177 173 116
177 173 115
179 174 116
177 173 116
180 175 119
176 172 116
180 176 120
180 176 123
178 174 118
181 177 126
179 175 121
178 174 115
176 172 112
177 173 114
178 172 110
178 174 115
178 174 118
180 177 126
180 176 123
177 174 116
181 176 118
181 178 127
179 175 118
181 177 125
177 173 112
179 176 123
181 177 124
179 175 120
178 175 119
178 172 110
180 178 130
182 179 131
182 179 131
180 177 127
182 178 130
181 180 135
179 176 124
181 178 130
177 174 120
180 177 126
181 178 127
182 178 125
180 177 126
180 177 125
186 182 137
182 181 138
182 181 139
183 182 139
179 178 132
184 182 138
181 177 124
183 180 135
182 179 132
183 181 137
182 181 136
185 183 140
183 181 137
187 188 154
183 182 141
183 182 138
182 181 139
181 179 131
182 181 137
184 182 138
184 184 144
183 181 138
183 181 135
184 184 145
183 183 144
182 182 140
186 185 147
185 183 141
185 184 143
184 182 140
185 184 145
183 183 145
187 185 146
207 228 255
207 228 255
207 228 255
207 228 255
207 228 255
207 227 255
206 227 255
206 227 255
206 227 255
206 227 255
206 227 255
206 227 255
205 227 255
205 227 255
205 227 255
205 227 255
205 227 255
206 227 255
206 227 255
206 227 255
206 227 255
206 227 255
206 227 255
206 227 255
206 227 255
206 227 255
206 227 255
206 227 255
206 227 255
206 227 255
206 227 255
206 227 255
206 227 255
206 227 255
206 227 255
206 227 255
206 227 255
206 227 255
206 227 255
206 227 255
206 227 255
206 227 255
206 227 255
206 227 255
206 227 255
206 227 255
206 227 255
206 227 255
206 227 255
206 227 255
206 227 255
206 227 255
206 227 255
206 227 255
206 227 255
206 227 255
206 227 255
206 227 255
205 227 255
205 227 255
205 227 255
205 227 255
205 227 255
205 227 255
205 227 255
205 227 255
205 227 255
205 227 255
205 227 255
205 227 255
205 227 255
205 226 255
205 226 255
205 226 255
205 226 255
205 226 255
205 226 255
205 226 255
204 226 255
204 226 255
204 226 255
204 226 255
204 226 255
204 226 255
204 226 255
204 226 255
204 226 255
204 226 255
204 226 255
204 226 255
203 226 255
203 226 255
203 226 255
203 226 255
203 226 255
203 225 255
203 225 255
203 225 255
203 225 255
202 225 255
202 225 255
202 225 255
202 225 255
202 225 255
202 225 255
202 225 255
201 225 255
201 224 255
201 224 255
201 224 255
201 224 255
200 224 255
200 224 255
200 224 255
200 224 255
199 224 255
199 223 255
199 223 255
198 223 255
198 223 255
198 223 255
197 222 255
197 222 255
196 222 255
196 222 255
195 221 255
196 222 255
196 222 255
196 222 255
197 222 255
197 222 255
197 223 255
198 223 255
199 223 255
199 223 255
200 224 255
201 224 255
202 225 255
203 225 255
204 226 255
206 227 255
209 229 255
214 231 255
214 232 255
214 232 255
214 232 255
214 232 255
214 232 255
214 232 255
214 232 255
214 231 255
214 231 255
214 231 255
214 231 255
134 157 202
62 99 165
61 97 156
62 98 163
61 96 153
62 98 160
62 98 164
61 97 157
61 97 156
60 96 156
63 98 158
60 95 144
61 97 154
62 98 159
62 98 158
61 97 155
61 97 153
60 96 155
62 97 157
62 98 156
62 97 153
61 97 155
61 96 158
62 98 155
62 98 156
61 97 158
63 98 157
61 96 153
61 97 152
61 97 154
61 97 155
62 98 154
62 98 158
61 96 150
62 97 155
62 97 153
61 96 150
61 97 153
60 96 144
62 97 152
61 96 143
62 98 156
62 97 156
63 99 159
62 97 153
61 96 150
60 96 142
61 96 151
61 96 145
62 98 152
60 96 149
60 96 144
61 97 151
62 98 162
61 97 151
62 97 150
61 97 147
62 98 155
61 97 153
62 97 153
62 98 158
62 97 152
62 97 154
61 96 152
61 96 149
61 96 145
61 96 148
62 98 155
61 96 155
60 95 144
61 96 153
61 96 153
62 97 149
61 96 153
61 96 155
62 97 153
62 97 156
62 97 155
61 96 150
61 96 152
60 94 145
62 97 159
61 95 151
62 97 157
58 91 142
62 97 166
61 95 153
61 95 152
61 95 154
59 92 148
59 92 148
138 158 195
214 231 255
214 231 255
214 231 255
214 231 255
214 232 255
214 232 255
214 232 255
214 232 255
214 232 255
214 232 255
214 232 255
211 226 245
186 192 182
184 190 176
174 181 171
175 181 171
168 177 173
163 171 162
162 169 158
152 159 147
162 168 150
158 166 154
154 160 143
159 165 145
156 161 137
160 165 143
161 167 151
160 166 148
156 160 135
162 166 143
157 163 146
159 164 144
158 162 139
157 159 128
159 161 131
168 169 136
160 163 132
168 171 144
161 163 124
164 163 116
170 172 138
172 172 131
168 168 129
166 165 122
164 164 121
168 168 125
167 168 135
168 166 121
169 167 123
165 164 115
169 167 120
173 171 126
170 168 119
174 173 127
170 167 113
172 169 118
171 168 117
161 161 114
172 170 123
166 164 112
177 175 125
179 175 125
179 176 126
173 170 113
175 172 117
172 168 112
176 172 119
177 174 123
172 169 112
179 176 125
175 171 116
176 172 114
176 172 116
176 173 115
172 170 114
177 173 116
179 177 133
175 170 104
179 175 119
177 173 117
179 174 115
177 172 114
176 173 119
180 175 116
178 175 124
175 171 111
180 176 124
178 174 118
175 171 112
179 174 117
178 174 116
177 172 109
177 172 108
185 181 135
177 174 121
177 172 108
179 176 121
179 176 124
179 175 121
179 174 111
181 176 122
177 173 120
179 174 117
181 179 130
177 172 113
177 174 118
178 174 113
180 176 119
180 178 130
180 175 117
182 179 128
181 178 128
179 176 120
181 177 123
179 176 121
179 176 121
179 176 123
183 181 135
180 178 130
184 183 142
180 177 123
183 182 138
180 178 131
174 171 112
179 176 122
185 184 146
183 181 135
180 176 121
181 180 135
181 179 134
183 183 142
179 176 121
183 181 137
180 179 131
183 182 140
184 182 138
182 180 133
179 176 124
183 180 134
184 182 138
183 180 131
182 181 137
181 180 135
187 185 145
185 185 147
184 183 143
184 183 144
186 185 145
186 184 143
183 182 140
184 183 144
185 184 143
187 188 154
187 187 154
208 228 255
208 228 255
208 228 255
207 228 255
207 228 255
207 228 255
207 228 255
207 228 255
207 227 255
207 227 255
206 227 255
206 227 255
206 227 255
206 227 255
206 227 255
206 227 255
206 227 255
206 227 255
206 227 255
206 227 255
206 227 255
206 227 255
206 227 255
206 227 255
207 227 255
207 227 255
207 227 255
207 227 255
207 227 255
207 227 255
207 227 255
207 227 255
207 227 255
207 227 255
207 227 255
207 227 255
207 227 255
207 227 255
207 227 255
207 227 255
207 227 255
207 227 255
207 227 255
207 227 255
207 227 255
207 227 255
207 227 255
207 227 255
207 227 255
207 227 255
206 227 255
206 227 255
206 227 255
206 227 255
206 227 255
206 227 255
206 227 255
206 227 255
206 227 255
206 227 255
206 227 255
206 227 255
206 227 255
206 227 255
206 227 255
206 227 255
206 227 255
206 227 255
206 227 255
206 227 255
206 227 255
206 227 255
206 227 255
206 227 255
206 227 255
205 227 255
205 227 255
205 227 255
205 227 255
205 227 255
205 227 255
205 227 255
205 227 255
205 227 255
205 226 255
205 226 255
205 226 255
205 226 255
205 226 255
204 226 255
204 226 255
204 226 255
204 226 255
204 226 255
204 226 255
204 226 255
204 226 255
204 226 255
204 226 255
203 226 255
203 226 255
203 226 255
203 225 255
203 225 255
203 225 255
203 225 255
202 225 255
202 225 255
202 225 255
202 225 255
202 225 255
202 225 255
201 225 255
201 224 255
201 224 255
201 224 255
200 224 255
200 224 255
200 224 255
199 224 255
199 223 255
199 223 255
198 223 255
198 223 255
197 222 255
197 222 255
196 222 255
197 222 255
197 222 255
197 222 255
198 223 255
198 223 255
199 223 255
199 223 255
200 224 255
200 224 255
201 224 255
202 225 255
203 225 255
204 226 255
205 227 255
208 228 255
211 230 255
214 232 255
214 232 255
214 232 255
214 232 255
214 232 255
214 232 255
214 232 255
214 232 255
214 232 255
214 232 255
196 214 240
65 100 161
60 96 154
61 97 151
61 97 155
61 97 156
62 98 154
61 98 158
61 97 158
61 97 156
62 98 159
62 97 153
62 98 161
62 98 160
62 98 162
61 97 159
61 97 152
62 98 159
61 97 155
60 96 148
61 97 153
62 97 155
62 98 158
62 98 159
61 97 150
61 96 148
61 97 152
62 97 157
61 96 144
61 97 153
62 97 150
61 96 150
61 96 150
61 97 153
62 97 152
62 97 153
61 97 150
61 96 150
61 97 151
62 97 154
62 97 152
62 98 158
61 97 150
62 98 158
62 98 154
62 97 152
61 96 152
60 95 145
62 97 155
60 96 149
60 95 148
61 97 153
62 98 163
62 98 157
62 98 158
60 95 146
62 97 155
62 98 153
62 97 154
61 97 155
62 97 152
61 96 150
62 98 159
61 97 153
62 98 154
62 97 154
61 97 154
61 96 154
61 96 152
62 97 151
61 96 150
61 96 155
61 97 155
62 97 156
60 95 145
62 97 156
61 96 147
60 95 150
61 96 148
62 97 157
61 96 153
61 96 153
62 97 154
62 97 152
60 95 151
61 96 154
61 95 151
61 94 148
59 93 147
60 94 152
59 92 146
59 93 152
57 89 145
197 214 240
214 232 255
214 232 255
214 232 255
214 232 255
214 232 255
214 232 255
214 232 255
214 232 255
214 232 255
214 232 255
194 204 203
173 180 172
178 183 169
162 168 153
169 176 166
166 173 161
166 172 156
172 179 167
158 166 154
150 156 139
158 163 143
161 167 151
164 170 154
151 156 138
148 152 130
165 170 148
147 150 123
155 161 144
156 161 139
155 159 131
154 157 128
156 160 133
158 160 131
165 169 145
168 170 141
159 160 125
157 157 116
162 165 132
164 164 121
161 162 123
170 170 129
161 163 125
161 162 123
164 162 115
171 169 119
166 166 127
169 167 118
161 161 118
169 167 118
164 161 107
167 165 119
173 170 117
172 168 114
170 168 120
164 162 108
170 167 120
171 169 115
169 167 112
168 166 108
176 171 119
170 167 110
173 171 120
173 169 110
175 171 112
172 168 111
173 169 114
173 169 110
176 174 128
173 170 113
178 173 115
173 170 116
175 171 111
174 170 110
176 173 118
179 174 118
177 173 114
177 173 115
178 172 111
177 173 115
176 171 113
178 173 115
178 174 114
177 172 108
174 171 111
179 174 117
179 174 115
178 173 110
178 175 122
181 176 121
183 181 136
180 176 123
175 170 104
180 176 123
181 176 120
177 174 119
180 175 118
180 175 116
179 173 112
180 175 118
182 179 130
176 171 108
183 180 134
180 176 120
180 177 124
179 176 124
179 176 123
179 177 125
181 177 123
184 181 135
181 178 127
182 179 133
179 176 121
183 179 130
177 172 108
178 174 120
182 180 132
181 176 121
180 176 123
176 173 113
177 174 120
180 177 127
180 178 129
180 176 123
185 186 150
180 177 124
182 181 138
181 176 119
182 181 140
184 181 133
180 177 123
183 181 136
182 179 128
181 178 126
183 180 130
186 183 141
184 183 140
181 179 131
184 182 141
182 179 130
186 186 149
183 181 134
186 184 144
182 181 136
185 184 143
187 186 147
185 185 148
184 182 138
181 181 140
183 182 144
187 188 155
187 188 157
186 186 150
186 185 149
208 228 255
208 228 255
208 228 255
208 228 255
208 228 255
208 228 255
208 228 255
207 228 255
207 228 255
207 228 255
207 228 255
207 228 255
207 228 255
207 228 255
207 228 255
207 228 255
207 228 255
207 228 255
207 228 255
207 228 255
207 228 255
207 228 255
207 228 255
207 228 255
207 228 255
207 228 255
207 228 255
207 228 255
207 228 255
207 228 255
207 228 255
207 228 255
207 228 255
207 228 255
207 228 255
207 228 255
207 228 255
207 228 255
207 228 255
207 228 255
207 228 255
207 228 255
207 228 255
207 228 255
207 228 255
207 228 255
207 228 255
207 228 255
207 228 255
207 228 255
207 228 255
207 228 255
207 228 255
207 228 255
207 228 255
207 228 255
207 228 255
207 228 255
207 228 255
207 228 255
207 228 255
207 228 255
207 228 255
207 228 255
207 228 255
207 227 255
207 227 255
207 227 255
207 227 255
207 227 255
207 227 255
206 227 255
206 227 255
206 227 255
206 227 255
206 227 255
206 227 255
206 227 255
206 227 255
206 227 255
206 227 255
206 227 255
206 227 255
206 227 255
206 227 255
206 227 255
205 227 255
205 227 255
205 227 255
205 227 255
205 227 255
205 227 255
205 227 255
205 227 255
205 226 255
205 226 255
205 226 255
204 226 255
204 226 255
204 226 255
204 226 255
204 226 255
204 226 255
204 226 255
204 226 255
204 226 255
203 226 255
203 226 255
203 225 255
203 225 255
203 225 255
203 225 255
202 225 255
202 225 255
202 225 255
202 225 255
201 225 255
201 224 255
201 224 255
201 224 255
200 224 255
200 224 255
200 224 255
199 223 255
199 223 255
198 223 255
198 223 255
197 222 255
198 223 255
198 223 255
198 223 255
199 223 255
199 223 255
200 224 255
200 224 255
201 224 255
201 225 255
202 225 255
203 225 255
204 226 255
205 227 255
207 228 255
209 229 255
214 231 255
215 232 255
215 232 255
215 232 255
215 232 255
215 232 255
215 232 255
215 232 255
215 232 255
215 232 255
139 161 199
61 97 155
61 97 161
62 98 164
61 97 154
61 97 159
62 98 165
62 98 158
62 97 152
60 95 150
61 97 155
61 96 144
62 98 159
61 97 153
61 97 155
61 96 151
61 96 150
61 96 147
61 97 148
61 97 153
61 96 150
62 98 158
62 97 155
62 97 152
61 96 149
60 95 147
61 97 151
62 97 155
61 96 154
61 96 147
62 97 151
62 97 148
62 98 157
62 97 151
61 96 152
61 97 155
61 97 156
61 97 154
61 97 152
62 97 150
61 97 159
61 97 156
61 96 149
62 98 157
61 97 154
61 97 152
62 98 160
62 98 158
60 96 149
61 96 146
62 97 152
61 97 151
61 97 153
61 96 152
62 97 156
62 98 159
61 96 151
61 97 153
61 96 150
62 98 160
61 96 149
61 96 150
62 98 158
61 96 150
61 96 148
61 96 151
62 97 155
62 98 154
61 97 155
61 96 143
61 97 160
61 96 149
62 96 151
61 97 158
61 95 142
60 95 148
60 94 139
61 96 153
61 96 148
62 97 152
62 97 152
60 95 143
61 95 153
61 95 149
60 94 146
60 95 152
60 95 155
60 94 148
60 93 148
60 93 150
59 92 143
59 92 142
60 94 155
148 167 201
215 232 255
215 232 255
215 232 255
215 232 255
215 232 255
215 232 255
215 232 255
215 232 255
215 232 255
204 219 234
178 184 171
184 191 183
168 177 171
167 174 165
168 176 171
166 174 166
166 172 158
152 161 153
156 164 154
155 160 142
162 168 150
158 165 152
141 146 121
153 158 136
164 168 146
146 151 131
148 155 140
158 163 142
159 164 143
152 154 122
154 157 126
159 163 138
156 159 129
160 162 128
163 164 133
161 163 128
161 161 124
154 156 118
160 159 111
164 164 126
157 158 121
160 161 121
162 161 119
163 162 120
161 161 123
162 161 117
164 164 120
165 163 115
165 164 117
172 169 121
172 170 123
167 166 117
173 171 122
168 166 115
168 166 118
168 167 117
176 172 118
171 169 116
175 171 117
173 169 116
167 164 112
170 167 108
172 169 119
172 167 100
173 170 116
175 172 121
176 171 118
172 171 116
173 169 108
175 174 125
175 171 113
176 171 107
177 174 119
177 172 113
176 172 115
176 173 116
179 173 113
173 168 108
178 173 112
178 174 121
175 171 111
178 174 120
175 172 115
177 172 114
177 173 117
182 177 122
175 172 112
176 172 112
180 176 123
176 173 118
180 176 122
176 174 119
179 177 127
179 174 117
179 176 123
178 174 117
184 181 136
183 180 131
180 178 127
179 175 120
181 176 121
178 173 113
181 176 121
181 175 115
180 175 121
177 174 116
179 175 117
178 174 117
182 178 127
182 179 131
180 177 125
181 179 130
177 174 119
181 178 130
179 174 114
182 177 123
178 176 125
184 181 135
180 176 121
185 182 136
180 176 121
179 178 130
179 177 125
183 182 137
177 173 118
183 179 130
181 180 135
182 182 140
182 179 132
181 179 132
184 180 132
180 180 136
184 183 141
182 178 127
182 180 135
181 177 121
183 182 140
182 181 137
185 183 142
186 186 147
184 183 146
182 180 131
184 181 135
183 182 140
182 181 137
186 187 154
183 181 134
182 182 142
182 181 136
187 186 147
186 185 148
185 185 146
189 190 159
209 229 255
209 229 255
209 229 255
209 228 255
208 228 255
208 228 255
208 228 255
208 228 255
208 228 255
208 228 255
208 228 255
208 228 255
208 228 255
208 228 255
208 228 255
208 228 255
208 228 255
208 228 255
208 228 255
208 228 255
208 228 255
208 228 255
208 228 255
208 228 255
208 228 255
208 228 255
208 228 255
208 228 255
208 228 255
208 228 255
208 228 255
208 228 255
208 228 255
208 228 255
208 228 255
208 228 255
208 228 255
208 228 255
208 228 255
208 228 255
208 228 255
208 228 255
208 228 255
208 228 255
208 228 255
208 228 255
208 228 255
208 228 255
208 228 255
208 228 255
208 228 255
208 228 255
208 228 255
208 228 255
208 228 255
208 228 255
208 228 255
208 228 255
208 228 255
208 228 255
208 228 255
208 228 255
208 228 255
208 228 255
207 228 255
207 228 255
207 228 255
207 228 255
207 228 255
207 228 255
207 228 255
207 228 255
207 228 255
207 228 255
207 228 255
207 228 255
207 228 255
207 228 255
207 228 255
207 228 255
207 227 255
207 227 255
207 227 255
206 227 255
206 227 255
206 227 255
206 227 255
206 227 255
206 227 255
206 227 255
206 227 255
206 227 255
206 227 255
206 227 255
206 227 255
206 227 255
205 227 255
205 227 255
205 227 255
205 227 255
205 227 255
205 226 255
205 226 255
205 226 255
205 226 255
204 226 255
204 226 255
204 226 255
204 226 255
204 226 255
204 226 255
204 226 255
203 226 255
203 226 255
203 225 255
203 225 255
202 225 255
202 225 255
202 225 255
202 225 255
201 225 255
201 224 255
201 224 255
200 224 255
200 224 255
200 224 255
199 223 255
199 223 255
197 221 254
158 183 226
151 176 222
156 181 226
149 174 221
173 197 237
193 217 250
201 224 255
202 225 255
202 225 255
203 226 255
204 226 255
205 227 255
207 227 255
208 228 255
212 230 255
215 232 255
215 232 255
215 232 255
215 232 255
215 232 255
215 232 255
215 232 255
215 232 255
204 221 246
67 101 161
61 98 164
61 97 154
62 98 165
62 98 161
62 98 158
61 96 151
61 97 152
61 96 150
61 96 150
61 97 154
61 97 155
61 96 152
61 97 149
59 95 143
61 97 153
61 96 151
62 98 160
61 97 151
60 95 145
61 97 151
61 97 153
62 98 158
61 97 155
62 97 153
62 98 155
62 98 151
61 96 148
61 96 149
61 97 153
61 96 152
62 97 151
62 98 157
62 97 153
62 97 151
61 97 152
61 97 147
61 97 154
59 94 144
61 96 150
62 98 159
61 97 148
61 96 152
62 97 154
62 97 149
62 98 162
61 96 149
61 96 143
61 97 152
63 98 156
61 96 143
59 94 140
62 98 159
61 97 151
62 97 153
61 96 149
61 97 152
62 97 154
62 97 152
61 96 149
61 96 148
62 98 162
61 97 159
60 95 143
61 96 151
61 96 145
61 96 150
62 97 151
61 97 159
60 95 145
61 97 149
61 96 152
62 97 159
62 97 152
61 96 155
61 96 149
61 95 148
60 96 153
60 94 146
61 96 152
61 96 152
59 93 148
62 97 156
61 96 149
61 95 149
60 94 147
60 94 144
60 94 148
57 90 141
59 93 149
59 92 146
58 91 144
58 91 146
68 97 150
203 220 246
215 232 255
215 232 255
215 232 255
215 232 255
215 232 255
215 232 255
215 232 255
213 230 252
189 198 194
185 192 185
170 177 166
164 172 163
162 168 154
169 176 165
166 174 167
155 162 149
158 167 163
161 170 161
149 157 145
156 161 141
155 161 139
154 158 133
151 155 131
153 156 131
155 158 130
153 155 127
161 167 151
150 153 125
157 159 128
143 146 112
158 162 137
157 159 130
155 156 118
156 158 122
155 157 118
163 161 113
169 170 134
157 156 111
163 164 124
162 164 130
165 163 119
162 162 122
161 159 111
164 163 116
172 169 119
169 167 123
164 163 115
168 166 119
165 163 110
167 164 115
172 169 116
168 164 106
172 170 120
168 166 121
171 169 119
166 164 112
169 166 114
170 167 110
174 170 115
177 172 118
176 172 117
176 173 122
169 166 113
176 171 113
175 171 114
173 168 110
172 170 115
176 172 114
177 173 118
174 170 108
175 171 111
177 172 111
173 169 110
178 173 113
175 171 113
178 174 120
178 174 120
178 172 112
180 176 122
175 170 108
176 172 115
178 174 114
180 175 115
181 176 121
177 173 117
177 173 112
177 172 110
179 175 119
178 173 110
180 174 116
179 176 123
174 170 106
182 177 123
179 175 120
180 174 114
180 177 127
180 176 120
176 172 110
177 173 116
179 176 124
178 173 112
179 175 120
180 176 121
177 174 117
181 179 131
180 176 124
178 174 119
179 175 119
182 178 125
183 179 128
182 177 121
179 175 120
179 174 116
179 176 124
180 175 118
179 175 120
181 178 127
178 175 118
181 179 131
182 181 137
183 179 129
181 178 128
181 178 126
182 180 135
184 179 129
181 179 131
179 176 123
182 179 131
183 180 133
182 181 136
183 181 138
181 179 132
179 177 126
181 179 133
178 175 118
185 185 146
183 183 144
185 184 142
182 179 130
183 179 130
181 180 137
185 185 147
184 183 141
181 180 135
183 181 135
186 184 142
182 181 137
182 180 135
186 185 146
186 185 148
186 183 139
184 183 143
210 229 255
209 229 255
209 229 255
209 229 255
209 229 255
209 229 255
209 229 255
209 229 255
208 228 255
208 228 255
208 228 255
208 228 255
208 228 255
208 228 255
208 228 255
208 228 255
208 228 255
208 228 255
209 228 255
209 228 255
209 229 255
209 229 255
209 229 255
209 229 255
209 229 255
209 229 255
209 229 255
209 229 255
209 229 255
209 229 255
209 229 255
209 229 255
209 229 255
209 229 255
209 229 255
209 229 255
209 229 255
209 229 255
209 229 255
209 229 255
209 229 255
209 229 255
209 229 255
209 229 255
209 229 255
209 229 255
209 229 255
209 229 255
209 229 255
209 229 255
209 229 255
209 229 255
209 228 255
209 228 255
208 228 255
208 228 255
208 228 255
208 228 255
208 228 255
208 228 255
208 228 255
208 228 255
208 228 255
208 228 255
208 228 255
208 228 255
208 228 255
208 228 255
208 228 255
208 228 255
208 228 255
208 228 255
208 228 255
208 228 255
208 228 255
208 228 255
208 228 255
208 228 255
208 228 255
208 228 255
207 228 255
207 228 255
207 228 255
207 228 255
207 228 255
207 228 255
207 228 255
207 228 255
207 228 255
207 228 255
207 228 255
207 228 255
207 227 255
207 227 255
206 227 255
206 227 255
206 227 255
206 227 255
206 227 255
206 227 255
206 227 255
206 227 255
206 227 255
206 227 255
205 227 255
205 227 255
205 227 255
205 227 255
205 227 255
205 226 255
205 226 255
204 226 255
204 226 255
204 226 255
204 226 255
204 226 255
204 226 255
203 226 255
203 226 255
203 225 255
203 225 255
202 225 255
202 225 255
202 225 255
201 225 255
201 224 255
200 224 255
200 224 255
200 224 255
115 142 196
62 99 173
62 98 169
62 99 175
62 99 178
73 107 177
123 149 202
176 199 233
203 225 255
204 226 255
204 226 255
205 227 255
207 227 255
208 228 255
210 229 255
214 232 255
215 232 255
215 232 255
215 232 255
215 232 255
215 232 255
215 232 255
215 232 255
166 185 218
61 97 160
61 97 157
61 96 156
61 96 148
60 96 156
62 98 157
61 97 157
60 96 150
63 99 161
61 97 151
62 98 159
61 96 150
62 97 157
61 96 155
61 97 155
61 96 150
62 98 162
61 96 149
61 96 148
62 97 151
62 98 157
62 97 156
60 95 149
62 98 156
62 98 158
61 97 158
61 97 157
60 96 147
60 95 148
61 96 149
62 98 157
61 97 152
60 95 141
61 96 143
61 96 145
60 95 142
61 96 151
62 98 155
61 96 149
61 96 148
61 96 152
61 96 145
61 96 147
63 98 155
63 98 154
61 96 148
62 97 158
61 96 144
61 97 155
60 95 142
61 97 152
61 96 150
61 96 143
61 97 151
61 96 150
61 96 143
62 97 156
61 96 145
61 97 150
62 97 151
62 97 158
62 97 153
62 97 155
61 96 148
61 96 156
61 96 147
62 98 156
62 97 153
61 97 154
61 97 154
61 97 151
61 96 150
60 95 147
61 96 146
59 93 137
61 95 142
60 95 145
61 96 156
61 96 154
60 94 142
61 97 154
60 95 150
61 95 146
61 96 154
59 93 144
61 95 151
59 92 138
60 93 149
59 92 148
60 93 140
61 95 150
61 94 153
59 92 147
60 92 145
144 163 200
215 232 255
215 232 255
215 232 255
215 232 255
215 232 255
215 232 255
215 232 255
208 221 233
180 187 180
174 182 175
163 168 154
163 171 162
158 166 160
163 171 161
154 163 159
153 159 145
145 153 139
151 157 141
149 157 146
148 153 134
159 163 137
149 155 139
145 152 139
156 162 144
147 151 125
145 148 116
150 155 133
156 160 131
156 161 141
158 162 138
165 168 140
150 152 117
156 157 115
154 154 114
156 157 122
150 151 110
155 155 112
161 161 116
156 155 107
162 162 113
162 163 125
157 159 123
151 150 106
157 156 104
168 168 125
167 167 124
158 157 107
163 162 111
166 164 111
171 169 120
166 164 114
170 167 113
169 166 104
175 171 118
172 169 115
174 169 110
169 166 114
168 166 118
170 166 111
173 168 104
170 166 104
172 169 114
172 168 115
166 163 107
173 169 110
173 169 111
175 169 101
174 170 111
173 169 113
169 165 104
173 169 107
177 172 113
177 171 108
176 170 108
175 170 109
177 172 111
176 171 108
177 172 114
176 171 106
177 172 108
173 168 98
179 174 113
178 172 110
178 174 117
176 171 104
178 175 121
177 173 112
177 174 119
177 172 109
176 172 115
178 173 111
178 172 109
177 172 108
174 171 110
182 177 121
179 173 113
179 174 115
178 173 115
181 176 121
180 175 118
179 174 116
178 174 115
180 177 124
180 176 121
182 177 121
180 176 120
178 173 112
185 180 131
178 174 115
178 173 110
181 178 127
178 173 112
177 173 115
181 178 126
181 177 124
183 181 137
180 177 124
181 176 120
182 180 134
179 175 117
182 179 130
178 174 117
179 177 126
185 183 141
180 178 129
181 179 130
180 177 126
179 176 125
185 183 139
186 183 138
183 180 133
179 177 124
182 178 127
180 179 132
177 172 107
181 180 134
177 175 120
184 183 142
181 178 129
185 182 137
184 183 141
184 183 142
184 182 139
184 181 134
185 183 144
183 182 141
182 180 134
188 189 156
186 184 142
187 188 154
187 187 151
186 187 152
210 229 255
210 229 255
210 229 255
210 229 255
210 229 255
209 229 255
209 229 255
209 229 255
209 229 255
209 229 255
209 229 255
209 229 255
209 229 255
209 229 255
209 229 255
209 229 255
209 229 255
209 229 255
209 229 255
209 229 255
209 229 255
209 229 255
209 229 255
209 229 255
209 229 255
209 229 255
209 229 255
209 229 255
209 229 255
209 229 255
209 229 255
209 229 255
209 229 255
209 229 255
209 229 255
209 229 255
209 229 255
209 229 255
209 229 255
209 229 255
209 229 255
209 229 255
209 229 255
209 229 255
209 229 255
209 229 255
209 229 255
209 229 255
209 229 255
209 229 255
209 229 255
209 229 255
209 229 255
209 229 255
209 229 255
209 229 255
209 229 255
209 229 255
209 229 255
209 229 255
209 229 255
209 229 255
209 229 255
209 229 255
209 229 255
209 229 255
209 229 255
209 229 255
209 229 255
209 229 255
209 229 255
209 229 255
209 228 255
209 228 255
209 228 255
208 228 255
208 228 255
208 228 255
208 228 255
208 228 255
208 228 255
208 228 255
208 228 255
208 228 255
208 228 255
208 228 255
208 228 255
208 228 255
208 228 255
208 228 255
208 228 255
208 228 255
207 228 255
207 228 255
207 228 255
207 228 255
207 228 255
207 228 255
207 228 255
207 228 255
207 228 255
207 227 255
207 227 255
206 227 255
206 227 255
206 227 255
206 227 255
206 227 255
206 227 255
206 227 255
206 227 255
205 227 255
205 227 255
205 227 255
205 227 255
205 226 255
205 226 255
204 226 255
204 226 255
204 226 255
204 226 255
204 226 255
203 226 255
203 225 255
202 225 255
202 225 255
202 225 255
201 225 255
201 224 255
190 214 247
65 100 170
62 99 175
62 99 174
61 97 163
62 99 173
62 99 174
63 99 174
117 143 199
190 212 245
205 226 255
206 227 255
207 227 255
208 228 255
209 229 255
212 231 255
216 232 255
216 232 255
216 232 255
216 232 255
215 232 255
215 232 255
214 231 254
86 115 166
61 97 155
62 98 162
61 97 156
61 97 158
61 96 151
61 97 159
62 98 156
62 97 156
60 96 155
60 96 152
62 98 154
61 96 148
62 97 155
62 97 151
60 95 147
61 96 150
61 96 151
62 97 149
62 97 151
61 97 152
61 96 149
61 97 145
60 96 148
62 98 158
61 97 152
62 97 152
62 98 157
61 96 153
61 96 144
61 97 155
59 94 143
60 96 149
61 96 141
62 98 155
62 97 155
60 95 142
62 98 160
61 97 153
61 97 153
61 96 147
61 96 141
62 98 158
60 95 145
62 97 153
61 96 150
62 97 153
61 97 149
61 97 152
62 97 150
61 97 153
62 98 159
61 96 139
61 97 149
62 97 151
62 97 146
62 97 154
61 96 149
61 97 153
61 96 152
61 96 149
61 96 149
60 95 138
61 97 150
62 98 152
61 96 151
60 95 142
61 97 155
61 96 142
61 96 146
62 97 156
60 95 136
61 95 148
61 96 152
61 95 148
61 95 150
61 97 155
61 96 151
61 97 154
61 95 148
60 94 145
61 96 147
61 96 149
60 95 144
60 93 141
59 93 140
61 95 153
59 93 137
60 93 141
61 95 145
61 95 153
60 93 151
60 94 150
61 94 152
57 88 135
68 98 152
213 230 253
215 232 255
215 232 255
216 232 255
216 232 255
216 232 255
216 232 255
195 204 203
174 181 175
179 187 182
160 170 171
159 167 158
158 166 156
162 169 154
150 156 141
145 152 137
153 161 153
154 159 141
146 152 136
147 154 138
150 155 129
153 158 133
150 156 137
150 154 127
154 158 134
158 162 136
141 145 117
150 153 121
152 155 130
154 159 136
154 155 117
152 154 122
159 161 128
155 156 111
156 156 116
160 160 115
155 157 120
161 163 126
156 155 111
169 167 120
149 149 107
163 161 115
163 162 113
163 162 112
169 166 116
169 168 122
165 164 123
156 156 109
163 161 105
166 163 111
163 161 108
169 164 102
170 166 106
173 170 120
169 166 107
174 172 120
167 163 107
172 169 113
173 169 113
168 165 111
172 168 108
169 165 104
170 167 110
175 171 113
171 168 109
171 167 108
172 167 104
174 169 106
172 168 103
171 167 111
170 167 106
175 170 110
174 169 105
176 171 107
175 171 106
172 169 115
177 172 115
176 171 108
172 168 103
178 172 108
175 169 104
177 172 110
180 176 120
176 171 110
181 177 123
178 171 107
178 174 113
179 175 118
178 173 112
177 173 111
175 171 109
178 174 118
176 172 106
178 174 120
178 173 112
179 173 111
179 173 108
180 176 122
180 176 120
178 174 117
178 172 109
177 172 109
180 174 112
180 176 120
181 179 131
182 178 125
181 177 122
180 178 129
180 175 115
179 175 117
176 172 112
179 173 110
181 178 126
177 174 115
178 175 120
183 178 126
179 177 125
181 178 129
178 175 124
183 179 128
182 180 132
178 175 121
182 178 125
183 181 137
178 175 117
183 180 134
182 179 129
182 179 127
176 174 118
181 178 124
186 184 143
179 176 124
180 178 126
179 177 125
183 180 134
180 178 132
181 178 127
180 179 131
188 186 147
183 182 140
183 180 132
182 179 132
183 182 137
185 184 142
188 189 159
185 185 148
187 185 145
184 182 135
185 183 142
186 186 151
186 186 151
184 183 141
211 230 255
210 230 255
210 229 255
210 229 255
210 229 255
210 229 255
210 229 255
210 229 255
210 229 255
210 229 255
210 229 255
210 229 255
210 229 255
210 229 255
210 229 255
210 229 255
210 229 255
210 229 255
210 229 255
210 229 255
210 229 255
210 229 255
210 229 255
210 229 255
210 229 255
210 229 255
210 229 255
210 229 255
210 229 255
210 229 255
210 229 255
210 229 255
210 229 255
210 229 255
210 229 255
210 229 255
210 229 255
210 229 255
210 229 255
210 229 255
210 229 255
210 229 255
210 229 255
210 229 255
210 229 255
210 229 255
210 229 255
210 229 255
210 229 255
210 229 255
210 229 255
210 229 255
210 229 255
210 229 255
210 229 255
210 229 255
210 229 255
210 229 255
210 229 255
210 229 255
210 229 255
210 229 255
210 229 255
210 229 255
210 229 255
210 229 255
210 229 255
210 229 255
209 229 255
209 229 255
209 229 255
209 229 255
209 229 255
209 229 255
209 229 255
209 229 255
209 229 255
209 229 255
209 229 255
209 229 255
209 229 255
209 229 255
209 229 255
209 229 255
209 229 255
209 229 255
209 229 255
209 228 255
209 228 255
208 228 255
208 228 255
208 228 255
208 228 255
208 228 255
208 228 255
208 228 255
208 228 255
208 228 255
208 228 255
208 228 255
208 228 255
208 228 255
207 228 255
207 228 255
207 228 255
207 228 255
207 228 255
207 228 255
207 228 255
207 227 255
207 227 255
206 227 255
206 227 255
206 227 255
206 227 255
206 227 255
206 227 255
205 227 255
205 227 255
205 227 255
205 226 255
205 226 255
204 226 255
204 226 255
204 226 255
203 226 255
203 226 255
203 225 255
202 225 255
202 225 255
140 165 211
62 99 169
62 98 170
62 98 167
62 99 169
62 98 164
62 98 171
62 98 168
67 102 172
169 192 231
206 227 255
207 228 255
208 228 255
209 229 255
211 230 255
215 232 255
216 233 255
216 233 255
216 232 255
216 232 255
216 232 255
187 205 232
60 96 149
60 96 151
61 97 157
61 96 150
61 97 155
60 96 149
61 97 154
61 96 148
60 96 151
61 97 153
61 97 151
60 95 147
61 97 158
62 97 158
60 95 147
62 97 150
61 96 149
62 97 151
62 97 150
61 97 147
61 96 137
62 97 153
61 97 154
61 96 149
62 97 150
62 98 159
61 97 153
61 97 150
61 96 139
61 97 154
61 96 145
61 97 144
63 98 154
62 97 151
61 97 150
60 96 143
62 98 156
61 96 145
61 96 142
60 96 145
59 94 142
61 96 143
60 95 139
62 98 160
62 98 154
62 97 154
62 97 155
61 96 141
62 97 152
61 96 141
61 97 152
62 98 154
61 95 149
61 97 150
61 96 149
62 98 153
62 98 155
60 96 148
62 98 155
60 94 144
62 97 151
61 96 142
61 96 145
62 98 156
61 95 140
60 96 146
61 95 145
61 96 151
61 95 145
62 97 151
61 96 147
61 96 141
60 94 142
60 94 140
61 96 152
61 96 146
61 94 140
60 94 142
60 94 143
61 96 145
60 94 142
61 96 146
61 95 148
62 97 153
59 92 139
60 94 145
60 93 139
60 93 139
61 95 146
60 94 150
60 94 150
61 94 144
59 92 142
57 89 130
58 90 139
58 90 146
181 198 225
216 232 255
216 232 255
216 233 255
216 233 255
216 233 255
206 220 235
170 176 163
175 183 179
175 183 175
161 169 164
158 166 159
153 161 151
136 144 134
146 153 144
146 154 147
142 149 133
148 157 150
157 163 149
144 149 125
146 154 145
134 140 118
151 156 136
139 144 121
151 155 130
141 146 125
154 158 135
154 156 127
149 152 125
156 159 130
153 155 122
156 158 120
152 153 116
157 158 118
162 161 120
154 156 119
161 161 118
156 156 118
153 153 114
163 164 124
156 158 124
164 162 114
162 160 113
155 154 106
169 167 118
163 160 105
163 161 113
166 163 112
162 159 104
171 168 116
163 160 106
165 161 103
170 166 113
164 160 99
165 161 104
170 166 105
170 166 105
167 166 115
168 164 104
171 167 109
166 162 101
173 167 99
170 165 104
168 164 103
171 167 106
172 168 109
176 170 106
175 170 108
177 172 111
175 170 110
173 168 109
176 170 106
178 173 116
174 169 106
176 171 108
175 170 107
175 169 105
180 174 109
176 170 102
178 172 112
174 169 104
175 170 107
176 172 111
175 170 109
177 172 108
178 171 105
175 170 101
172 167 98
180 175 116
177 172 108
178 171 106
176 171 106
177 172 112
178 174 114
178 175 119
175 170 103
176 172 111
180 176 120
177 172 108
179 173 110
178 175 119
178 174 115
178 174 114
180 176 121
180 176 120
173 168 102
178 174 116
178 174 118
182 178 124
178 173 114
175 171 109
183 179 131
177 176 122
179 175 118
179 175 120
178 172 110
175 171 106
181 179 132
178 176 122
178 174 115
174 169 101
182 178 127
181 178 129
179 177 125
179 175 118
183 182 138
184 181 134
178 175 118
179 175 118
183 179 127
178 174 118
182 179 130
180 178 127
186 183 141
183 182 140
184 184 145
183 179 130
181 178 128
182 180 134
181 180 135
180 177 126
182 180 133
186 185 147
181 180 133
184 183 141
185 186 151
184 181 136
183 181 135
185 184 143
182 179 130
181 179 135
187 185 146
211 230 255
211 230 255
211 230 255
211 230 255
211 230 255
211 230 255
210 230 255
210 229 255
210 229 255
210 229 255
210 230 255
210 230 255
210 230 255
210 230 255
211 230 255
211 230 255
211 230 255
211 230 255
211 230 255
211 230 255
211 230 255
211 230 255
211 230 255
211 230 255
211 230 255
211 230 255
211 230 255
211 230 255
211 230 255
211 230 255
211 230 255
211 230 255
211 230 255
211 230 255
211 230 255
211 230 255
211 230 255
211 230 255
211 230 255
211 230 255
211 230 255
211 230 255
211 230 255
211 230 255
211 230 255
211 230 255
211 230 255
211 230 255
211 230 255
211 230 255
211 230 255
211 230 255
211 230 255
211 230 255
211 230 255
211 230 255
211 230 255
210 230 255
210 230 255
210 230 255
210 229 255
210 229 255
210 229 255
210 229 255
210 229 255
210 229 255
210 229 255
210 229 255
210 229 255
210 229 255
210 229 255
210 229 255
210 229 255
210 229 255
210 229 255
210 229 255
210 229 255
210 229 255
210 229 255
210 229 255
210 229 255
210 229 255
210 229 255
210 229 255
209 229 255
209 229 255
209 229 255
209 229 255
209 229 255
209 229 255
209 229 255
209 229 255
209 229 255
209 229 255
209 229 255
209 229 255
209 229 255
209 229 255
209 229 255
208 228 255
208 228 255
208 228 255
208 228 255
208 228 255
208 228 255
208 228 255
208 228 255
208 228 255
208 228 255
208 228 255
207 228 255
207 228 255
207 228 255
207 228 255
207 228 255
207 227 255
207 227 255
206 227 255
206 227 255
206 227 255
206 227 255
206 227 255
205 227 255
205 227 255
205 227 255
205 226 255
204 226 255
204 226 255
204 226 255
203 226 255
191 214 248
61 97 167
61 97 164
60 97 164
61 98 162
61 97 165
62 98 170
61 97 169
61 98 166
62 99 169
147 170 214
207 228 255
208 228 255
209 229 255
211 230 255
214 231 255
216 233 255
216 233 255
216 233 255
216 233 255
216 233 255
120 143 187
61 96 153
60 96 150
61 96 155
62 98 157
61 96 151
61 97 157
60 96 148
61 97 151
61 96 149
62 98 157
62 98 155
62 98 154
62 98 153
61 96 147
62 98 160
61 96 147
62 98 159
60 95 141
61 97 153
60 96 145
61 97 153
61 96 148
61 97 150
60 95 139
61 97 152
61 97 150
60 95 140
61 96 142
62 97 152
62 97 152
61 95 142
62 97 147
61 97 151
61 96 147
60 95 143
61 96 147
63 98 161
61 96 148
61 96 143
62 97 154
61 96 141
61 96 142
61 97 152
62 97 156
60 95 145
59 94 137
62 97 156
61 97 152
62 97 150
60 96 145
61 96 144
62 98 160
62 97 150
62 97 148
59 94 134
61 96 142
60 95 139
60 95 151
62 97 153
62 97 156
61 96 148
61 97 154
61 96 147
60 95 147
60 95 147
62 97 161
60 95 138
62 97 155
61 97 152
61 96 151
60 95 145
61 96 147
60 95 138
61 96 148
61 95 144
61 95 144
62 98 155
61 96 148
62 96 154
60 94 140
61 96 151
61 96 150
61 95 144
60 95 148
60 93 148
61 95 147
61 94 144
62 97 161
60 94 144
59 93 142
58 92 142
59 92 142
61 94 151
59 92 149
57 88 139
57 87 127
139 157 189
216 233 255
216 233 255
216 233 255
216 233 255
216 233 255
195 205 208
169 178 176
164 170 157
151 158 150
151 160 156
158 165 159
160 169 164
143 152 147
147 155 146
138 146 137
138 143 122
147 154 141
132 139 122
149 157 145
130 135 114
150 154 126
152 157 137
145 150 127
143 149 132
133 139 120
139 144 121
153 158 137
147 151 124
150 151 113
145 147 110
154 156 121
156 159 130
151 152 116
150 150 106
158 160 126
145 146 108
158 157 113
159 158 116
163 161 108
152 151 102
162 160 112
161 161 116
153 152 104
152 151 101
158 156 104
160 159 106
164 162 112
161 160 112
166 162 103
161 159 108
172 169 113
166 163 107
170 166 108
171 168 114
164 161 103
165 163 106
168 164 106
172 168 107
172 167 102
172 169 115
172 167 106
174 170 110
175 169 104
177 171 112
173 169 106
173 167 105
173 168 104
172 168 108
178 171 108
172 167 104
177 173 116
174 168 104
177 173 113
175 169 99
176 172 111
174 170 105
178 172 110
175 171 108
177 172 108
177 172 110
178 173 113
180 174 115
178 172 107
176 171 105
178 173 113
172 168 98
176 172 114
175 171 105
177 172 108
176 170 98
176 171 113
176 170 107
180 175 116
179 173 110
173 169 105
178 172 107
174 169 103
180 175 114
179 177 128
180 175 118
179 174 115
178 176 122
178 173 109
178 173 110
178 173 112
179 174 116
181 178 131
182 178 126
179 175 121
177 173 113
178 173 109
180 175 116
181 177 121
178 174 115
178 175 121
183 179 131
180 175 119
177 172 110
180 177 123
180 177 125
180 177 127
176 173 113
181 176 120
181 178 124
181 178 130
180 178 127
182 178 124
180 177 123
182 178 125
178 176 125
183 179 128
179 176 125
179 175 120
181 178 130
180 178 128
184 182 137
185 184 144
183 181 135
183 180 130
181 180 133
182 180 133
183 184 145
184 180 131
179 176 122
182 180 136
183 183 142
184 182 136
185 184 144
183 180 132
181 179 134
181 179 132
212 230 255
212 230 255
212 230 255
211 230 255
211 230 255
211 230 255
211 230 255
211 230 255
211 230 255
211 230 255
211 230 255
211 230 255
211 230 255
211 230 255
211 230 255
211 230 255
211 230 255
211 230 255
211 230 255
211 230 255
211 230 255
211 230 255
211 230 255
211 230 255
211 230 255
211 230 255
211 230 255
211 230 255
211 230 255
211 230 255
211 230 255
211 230 255
211 230 255
211 230 255
211 230 255
211 230 255
211 230 255
211 230 255
211 230 255
211 230 255
211 230 255
211 230 255
211 230 255
211 230 255
211 230 255
211 230 255
211 230 255
211 230 255
211 230 255
211 230 255
211 230 255
211 230 255
211 230 255
211 230 255
211 230 255
211 230 255
211 230 255
211 230 255
211 230 255
211 230 255
211 230 255
211 230 255
211 230 255
211 230 255
211 230 255
211 230 255
211 230 255
211 230 255
211 230 255
211 230 255
211 230 255
211 230 255
211 230 255
211 230 255
211 230 255
211 230 255
211 230 255
211 230 255
210 230 255
210 229 255
210 230 255
210 229 255
210 229 255
210 229 255
210 229 255
210 229 255
210 229 255
210 229 255
210 229 255
210 229 255
210 229 255
210 229 255
210 229 255
210 229 255
210 229 255
210 229 255
210 229 255
209 229 255
209 229 255
209 229 255
209 229 255
209 229 255
209 229 255
209 229 255
209 229 255
209 229 255
209 229 255
209 229 255
209 228 255
208 228 255
208 228 255
208 228 255
208 228 255
208 228 255
208 228 255
208 228 255
208 228 255
207 228 255
207 228 255
207 228 255
207 228 255
207 227 255
207 227 255
206 227 255
206 227 255
206 227 255
205 227 255
205 227 255
205 226 255
204 226 255
204 226 255
97 126 184
61 97 166
61 98 167
61 98 165
61 97 164
62 98 170
60 96 154
60 97 164
61 97 166
61 97 164
138 161 205
209 228 255
209 229 255
211 230 255
213 231 255
216 233 255
216 233 255
216 233 255
216 233 255
214 231 254
64 99 157
61 97 153
62 97 154
61 96 149
60 95 145
61 97 160
61 97 153
61 96 153
62 97 153
60 96 140
60 96 140
61 97 150
62 98 154
61 97 151
61 97 149
60 95 149
61 97 147
62 97 150
62 98 149
62 98 157
61 96 147
62 97 154
61 96 151
62 97 149
61 96 147
61 96 137
59 94 143
61 97 153
61 95 145
60 96 147
60 95 148
61 96 149
61 96 147
60 95 141
61 96 142
61 96 149
59 94 137
61 96 150
60 96 145
61 97 147
60 96 135
59 94 133
62 97 152
62 97 151
62 97 149
61 96 147
62 97 151
61 96 142
61 96 153
61 97 148
61 96 149
61 96 145
61 97 151
62 97 151
61 97 159
62 97 156
60 95 147
61 96 142
60 95 140
61 95 138
60 94 142
60 95 142
61 96 147
61 97 153
61 96 146
60 95 138
61 97 149
61 97 150
60 95 141
61 95 143
60 95 148
62 97 158
61 96 147
60 95 148
60 95 137
61 95 138
61 95 146
60 95 144
60 94 141
61 95 147
61 95 147
59 94 138
60 94 145
61 95 145
60 94 143
61 95 148
60 94 140
61 95 147
60 94 147
59 92 141
59 91 133
58 90 140
58 91 136
59 93 146
59 90 141
58 89 137
58 88 135
68 95 139
207 223 247
216 233 255
216 233 255
216 233 255
212 227 244
189 197 192
167 174 166
168 177 175
157 167 165
150 159 153
141 149 145
139 147 141
150 157 147
136 145 143
151 159 150
147 155 142
142 149 137
145 153 143
143 150 139
144 151 139
150 157 143
136 142 123
139 144 126
141 144 119
143 147 122
141 144 116
156 158 123
145 147 114
155 158 131
158 159 127
142 147 121
148 148 106
143 146 110
155 157 123
153 154 116
146 147 105
156 156 115
164 162 113
163 162 122
159 157 109
167 164 115
155 155 109
158 158 119
163 160 105
164 162 114
164 162 110
162 160 107
161 158 101
159 158 106
168 165 111
173 168 110
170 167 116
168 164 100
167 163 104
161 158 99
175 171 114
171 167 113
172 167 111
171 167 112
170 166 109
167 163 98
171 167 105
175 170 108
173 168 104
171 167 107
175 169 107
174 170 110
174 169 108
173 168 102
172 167 101
176 172 113
172 167 103
175 170 106
178 173 112
176 170 109
174 170 105
173 169 108
175 171 111
177 171 107
174 169 100
177 171 106
175 169 105
175 170 105
177 172 110
178 172 113
174 168 101
176 170 105
174 171 109
175 170 103
181 177 122
180 174 113
179 175 118
173 169 99
178 174 116
173 168 97
179 174 116
178 174 115
176 171 108
181 175 116
177 172 112
179 174 115
181 176 118
179 174 113
178 172 109
175 171 107
182 179 130
176 172 110
179 173 107
177 173 111
177 173 115
182 177 125
179 174 113
178 173 110
179 174 112
176 171 108
180 175 118
180 176 120
175 170 106
181 177 123
176 173 118
179 174 115
179 176 122
176 174 116
180 177 124
181 179 133
180 176 121
183 180 131
181 180 134
179 175 117
178 174 113
179 174 115
181 176 120
181 177 126
178 175 121
185 184 143
180 176 122
184 183 140
185 183 139
182 179 129
184 181 135
184 182 136
188 187 149
181 181 140
183 180 132
188 188 152
182 180 131
185 184 146
181 179 131
181 178 129
179 178 131
182 182 143
212 231 255
212 231 255
212 230 255
212 230 255
212 230 255
212 230 255
212 230 255
212 230 255
212 230 255
212 230 255
212 230 255
212 230 255
212 230 255
212 230 255
212 230 255
212 230 255
212 230 255
212 230 255
212 230 255
212 230 255
212 230 255
212 230 255
212 230 255
212 230 255
212 230 255
212 230 255
212 230 255
212 230 255
212 230 255
212 230 255
212 230 255
212 230 255
212 230 255
212 230 255
212 230 255
212 230 255
212 230 255
212 230 255
212 230 255
212 230 255
212 230 255
212 230 255
212 230 255
212 230 255
212 230 255
212 230 255
212 230 255
212 230 255
212 230 255
212 230 255
212 230 255
212 230 255
212 230 255
212 230 255
212 230 255
212 230 255
212 230 255
212 230 255
212 230 255
212 230 255
212 230 255
212 230 255
212 230 255
212 230 255
212 230 255
212 230 255
212 230 255
212 230 255
212 230 255
211 230 255
211 230 255
211 230 255
211 230 255
211 230 255
211 230 255
211 230 255
211 230 255
211 230 255
211 230 255
211 230 255
211 230 255
211 230 255
211 230 255
211 230 255
211 230 255
211 230 255
211 230 255
211 230 255
211 230 255
211 230 255
211 230 255
211 230 255
211 230 255
211 230 255
210 230 255
210 229 255
210 229 255
210 229 255
210 229 255
210 229 255
210 229 255
210 229 255
210 229 255
210 229 255
210 229 255
210 229 255
210 229 255
209 229 255
209 229 255
209 229 255
209 229 255
209 229 255
209 229 255
209 229 255
209 229 255
209 229 255
208 228 255
208 228 255
208 228 255
208 228 255
208 228 255
208 228 255
207 228 255
207 228 255
207 228 255
207 228 255
207 227 255
206 227 255
206 227 255
206 227 255
205 227 255
166 188 226
61 97 166
60 96 158
61 96 155
61 97 159
60 97 165
62 98 169
60 96 158
61 97 162
61 98 167
60 96 162
169 189 226
210 229 255
211 230 255
212 231 255
216 233 255
217 233 255
217 233 255
217 233 255
167 186 219
60 95 150
60 95 149
61 97 155
59 95 145
61 97 154
60 96 151
61 96 154
60 95 144
61 97 151
61 96 141
61 97 153
62 97 155
62 97 157
61 96 148
61 96 148
61 96 142
63 98 160
60 96 152
62 98 154
61 96 147
60 95 140
61 96 145
61 96 147
61 96 145
61 96 147
62 97 153
62 98 152
61 96 143
60 95 137
61 96 140
61 97 147
61 96 143
62 97 152
60 96 143
61 97 150
61 97 150
61 96 144
61 97 156
61 96 143
61 96 149
61 96 142
60 95 145
61 96 145
61 97 145
61 97 150
61 96 149
60 95 142
60 96 148
61 97 149
61 96 144
61 96 148
63 98 157
61 96 142
61 96 148
61 96 148
61 97 150
61 96 153
61 96 148
62 97 152
60 95 143
61 96 150
61 96 140
61 96 144
61 96 148
61 96 145
60 95 139
60 95 138
61 96 144
62 97 150
60 94 139
61 96 149
61 95 151
61 96 147
60 95 141
61 96 144
61 96 145
61 95 148
61 96 149
60 94 145
60 95 150
61 94 146
60 94 148
60 94 138
60 94 144
59 93 142
62 96 151
61 96 147
58 91 138
61 96 147
62 96 155
60 94 143
60 94 146
60 93 138
60 93 145
59 92 143
57 89 136
58 89 138
57 87 137
190 207 232
217 233 255
217 233 255
217 233 255
203 215 225
172 183 185
164 172 165
156 163 155
143 151 145
159 168 167
150 158 154
146 154 145
135 145 142
151 160 154
148 156 146
151 160 155
133 139 127
150 157 144
138 143 120
133 141 131
145 150 132
145 150 130
148 153 134
147 152 129
149 153 124
144 147 120
142 145 117
145 148 120
152 154 119
155 157 124
147 149 115
153 155 123
156 155 112
150 151 111
149 148 101
153 153 114
154 154 111
156 155 110
155 154 109
144 144 101
163 161 113
163 161 113
163 160 105
163 159 95
161 159 107
160 158 101
167 164 113
162 160 107
165 161 106
169 167 113
166 164 114
166 161 101
169 164 108
165 161 97
175 171 113
172 167 105
171 165 100
175 170 109
171 167 108
169 165 107
171 166 105
171 166 100
170 166 111
172 167 103
174 169 112
173 169 109
174 169 107
175 169 104
172 168 105
172 168 106
177 173 118
172 168 103
172 167 109
177 172 112
175 171 113
175 171 110
173 167 97
175 168 99
173 167 99
176 170 105
180 174 112
176 171 107
179 173 110
176 171 104
178 173 112
177 173 112
176 171 105
176 170 101
178 173 110
175 169 103
175 170 103
176 172 112
178 172 109
181 175 112
178 173 109
179 173 110
178 172 108
179 174 113
175 170 101
176 172 113
181 174 111
180 174 113
176 172 110
178 175 118
176 173 113
178 175 118
181 176 124
181 178 125
177 173 115
178 173 113
180 176 123
178 173 111
180 175 117
181 177 124
178 172 109
177 172 112
180 176 118
181 178 126
177 173 113
181 177 126
180 176 120
182 179 131
177 175 118
180 176 121
184 179 128
178 173 113
184 180 133
179 177 125
178 175 121
183 179 130
179 176 121
183 182 138
180 175 118
186 183 138
181 178 130
185 182 138
185 183 142
182 178 124
182 180 134
183 181 139
180 178 127
182 179 130
183 182 140
182 180 135
183 181 135
182 180 133
183 180 133
182 179 126
181 180 134
186 186 149
185 183 141
213 231 255
213 231 255
213 231 255
213 231 255
212 231 255
212 231 255
212 231 255
212 231 255
212 231 255
212 231 255
212 231 255
212 231 255
212 231 255
212 231 255
213 231 255
213 231 255
213 231 255
213 231 255
213 231 255
213 231 255
213 231 255
213 231 255
213 231 255
213 231 255
213 231 255
213 231 255
213 231 255
213 231 255
213 231 255
213 231 255
213 231 255
213 231 255
213 231 255
213 231 255
213 231 255
213 231 255
213 231 255
213 231 255
213 231 255
213 231 255
213 231 255
213 231 255
213 231 255
213 231 255
213 231 255
213 231 255
213 231 255
213 231 255
213 231 255
213 231 255
213 231 255
213 231 255
213 231 255
213 231 255
213 231 255
212 231 255
212 231 255
212 231 255
212 231 255
212 231 255
212 231 255
212 231 255
212 231 255
212 231 255
212 231 255
212 231 255
212 231 255
212 231 255
212 231 255
212 230 255
212 230 255
212 230 255
212 230 255
212 230 255
212 230 255
212 230 255
212 230 255
212 230 255
212 230 255
212 230 255
212 230 255
212 230 255
212 230 255
212 230 255
212 230 255
212 230 255
212 230 255
211 230 255
211 230 255
211 230 255
211 230 255
211 230 255
211 230 255
211 230 255
211 230 255
211 230 255
211 230 255
211 230 255
211 230 255
211 230 255
211 230 255
211 230 255
211 230 255
211 230 255
211 230 255
211 230 255
210 229 255
210 229 255
210 229 255
210 229 255
210 229 255
210 229 255
210 229 255
210 229 255
210 229 255
210 229 255
209 229 255
209 229 255
209 229 255
209 229 255
209 229 255
209 229 255
208 228 255
208 228 255
208 228 255
208 228 255
208 228 255
207 228 255
207 228 255
207 228 255
207 227 255
196 217 247
63 99 157
61 97 158
60 97 158
60 96 153
61 98 166
61 97 163
60 96 163
61 97 161
60 95 160
59 95 158
67 101 163
195 215 243
211 230 255
212 231 255
215 232 255
217 233 255
217 233 255
217 233 255
140 161 201
59 95 143
61 97 145
60 96 150
62 98 161
61 96 151
62 97 153
61 97 147
61 97 150
60 95 150
60 94 140
60 95 144
62 97 155
61 96 151
62 97 149
61 95 142
61 97 147
61 96 143
61 96 145
60 95 141
61 96 142
61 96 143
61 96 142
61 96 147
62 97 153
62 97 150
63 98 154
62 98 157
61 96 150
61 97 151
60 95 140
61 96 147
62 97 148
61 97 150
60 95 145
60 95 135
62 97 152
62 97 150
62 98 152
61 96 153
61 96 145
62 97 150
61 96 137
60 95 144
62 97 147
61 96 142
60 95 137
60 95 148
62 98 156
61 97 151
61 96 144
62 97 145
61 96 149
61 96 142
62 97 154
61 95 143
61 96 141
62 97 154
61 96 149
61 96 151
60 95 151
61 97 152
61 96 147
61 96 150
61 97 151
61 96 148
61 96 147
61 95 143
61 97 149
61 97 155
60 95 144
62 98 156
61 96 147
62 97 155
61 96 150
60 95 143
61 96 148
61 96 152
60 95 146
61 95 153
61 95 146
59 93 145
61 95 149
60 94 146
61 95 142
60 94 142
59 93 142
60 94 152
59 92 132
60 94 144
59 90 133
60 93 142
59 92 138
61 94 141
59 93 145
58 91 140
58 91 140
57 88 131
56 85 132
126 145 178
217 233 255
217 233 255
217 233 255
186 194 190
161 169 162
166 174 171
154 162 156
145 154 152
152 161 156
141 149 141
139 148 144
144 154 154
134 142 135
134 142 129
145 153 144
129 137 126
136 143 128
138 147 139
144 150 132
131 135 105
129 137 121
135 139 113
145 151 136
139 144 124
150 152 120
153 156 130
146 150 123
143 144 102
143 144 104
152 154 121
150 151 113
154 156 127
149 150 110
150 151 110
151 150 98
145 146 108
154 154 110
155 155 108
157 156 116
156 155 105
159 156 101
151 150 101
154 155 114
155 152 95
170 168 115
162 159 100
158 156 106
164 161 109
166 163 110
158 156 99
164 160 101
161 158 101
164 161 103
168 164 101
171 167 111
167 163 101
168 164 103
172 167 105
166 162 97
168 164 99
170 165 99
171 167 105
173 167 101
174 169 106
169 165 103
172 166 99
170 165 98
173 168 104
172 168 106
171 166 97
170 166 98
177 171 108
176 170 103
175 171 109
176 172 114
175 170 104
175 170 109
175 170 108
177 171 104
178 172 108
178 174 116
174 170 106
178 174 117
177 170 103
176 172 107
178 172 108
176 172 113
180 176 119
175 169 101
178 174 118
175 170 106
177 172 110
177 171 103
176 171 104
180 174 112
176 171 104
177 171 106
180 175 117
178 172 108
178 174 116
173 170 108
176 172 112
179 175 117
177 169 97
178 174 117
177 171 106
182 176 120
178 173 112
181 176 121
178 172 108
182 176 118
175 173 116
176 171 104
180 176 120
180 176 121
182 177 123
177 173 117
182 181 134
181 180 134
178 174 118
181 180 135
181 178 126
182 178 124
178 173 112
181 176 122
175 172 115
184 179 128
182 179 130
179 175 121
178 174 115
179 176 120
185 183 142
185 182 136
181 179 128
181 179 127
180 178 131
185 183 138
182 180 133
183 179 127
179 175 117
182 181 136
184 183 140
178 176 124
182 181 138
186 182 136
180 177 123
187 185 143
182 181 139
178 175 118
185 183 141
213 231 255
213 231 255
213 231 255
213 231 255
213 231 255
213 231 255
213 231 255
213 231 255
213 231 255
213 231 255
213 231 255
213 231 255
213 231 255
213 231 255
213 231 255
213 231 255
213 231 255
213 231 255
213 231 255
213 231 255
213 231 255
213 231 255
213 231 255
213 231 255
213 231 255
213 231 255
213 231 255
213 231 255
213 231 255
213 231 255
213 231 255
213 231 255
213 231 255
213 231 255
213 231 255
213 231 255
213 231 255
213 231 255
213 231 255
213 231 255
213 231 255
213 231 255
213 231 255
213 231 255
213 231 255
213 231 255
213 231 255
213 231 255
213 231 255
213 231 255
213 231 255
213 231 255
213 231 255
213 231 255
213 231 255
213 231 255
213 231 255
213 231 255
213 231 255
213 231 255
213 231 255
213 231 255
213 231 255
213 231 255
213 231 255
213 231 255
213 231 255
213 231 255
213 231 255
213 231 255
213 231 255
213 231 255
213 231 255
213 231 255
213 231 255
213 231 255
213 231 255
213 231 255
213 231 255
213 231 255
213 231 255
212 231 255
212 231 255
212 231 255
212 231 255
212 231 255
212 231 255
212 231 255
212 230 255
212 230 255
212 230 255
212 230 255
212 230 255
212 230 255
212 230 255
212 230 255
212 230 255
212 230 255
212 230 255
212 230 255
212 230 255
212 230 255
211 230 255
211 230 255
211 230 255
211 230 255
211 230 255
211 230 255
211 230 255
211 230 255
211 230 255
211 230 255
211 230 255
211 230 255
211 230 255
210 230 255
210 229 255
210 229 255
210 229 255
210 229 255
210 229 255
210 229 255
210 229 255
209 229 255
209 229 255
209 229 255
209 229 255
209 229 255
208 228 255
208 228 255
208 228 255
207 228 255
118 143 192
61 97 164
61 96 154
61 97 162
62 98 166
60 96 162
61 97 164
60 96 159
60 95 159
59 94 157
60 96 158
105 131 179
211 229 255
213 231 255
214 232 255
217 233 255
217 233 255
217 233 255
93 120 159
61 97 151
61 96 152
61 97 148
61 97 150
60 95 145
60 95 141
60 96 147
61 96 139
59 95 143
61 96 149
61 96 148
61 96 150
62 97 151
61 96 148
60 96 143
60 95 137
60 95 143
60 95 143
61 96 147
61 96 147
61 95 147
62 97 150
61 96 147
62 97 151
62 97 149
61 97 149
60 95 145
60 95 140
60 95 141
62 98 156
61 97 144
61 96 147
61 97 147
61 96 141
61 97 147
61 96 152
62 97 147
60 95 141
61 96 139
61 97 149
60 95 147
61 96 148
62 97 148
61 97 144
61 97 152
59 94 135
60 95 136
60 95 135
61 95 143
61 96 142
61 96 142
62 97 151
60 95 145
60 95 137
61 96 148
61 96 149
61 95 147
61 96 142
61 97 145
61 96 147
61 96 142
59 94 139
61 96 150
61 96 145
61 95 139
60 95 142
60 95 141
61 95 149
60 95 136
61 95 144
60 95 146
60 93 134
60 94 138
60 95 140
61 96 145
60 95 144
60 94 145
61 95 144
60 95 142
60 94 143
61 95 144
62 96 147
61 95 147
60 95 145
61 94 140
58 90 131
61 95 145
60 93 135
61 95 147
61 94 140
59 93 140
60 93 142
58 90 127
61 94 151
58 89 137
59 91 137
56 87 134
58 89 136
85 107 146
217 233 255
217 233 255
209 222 236
178 186 183
165 174 173
152 160 155
154 164 163
142 151 148
131 139 132
133 142 137
141 150 147
140 148 142
124 133 126
139 147 140
129 137 129
146 153 138
145 153 143
125 133 124
139 145 127
133 140 124
142 149 132
140 144 116
128 133 110
140 145 122
145 150 127
142 144 114
150 151 115
145 145 103
140 141 99
154 153 111
151 152 112
157 157 117
147 149 118
151 153 115
161 160 106
151 149 95
158 157 107
157 156 113
155 154 109
164 164 122
159 158 114
162 158 101
154 153 103
161 159 106
164 162 110
161 158 99
158 156 99
157 155 106
170 167 112
157 154 94
172 168 108
168 164 102
166 163 108
162 158 99
155 152 89
162 158 95
165 160 95
164 159 94
170 165 99
171 168 108
170 166 101
174 168 100
172 167 100
172 167 98
172 168 106
171 166 98
168 164 101
173 167 101
169 165 93
172 167 102
171 166 99
175 169 105
175 170 110
172 168 99
174 169 103
174 168 99
174 167 93
172 169 110
174 170 104
173 168 98
173 167 97
176 170 106
177 170 104
173 170 110
175 170 104
177 172 108
178 172 112
176 169 99
179 173 110
175 170 101
171 166 94
177 174 114
175 170 104
178 173 110
178 175 120
175 169 97
178 172 106
176 170 104
178 172 108
175 171 111
178 173 112
178 173 114
177 173 113
176 172 112
178 174 114
173 169 102
176 171 108
175 170 103
180 177 125
178 174 117
181 178 127
180 175 114
175 169 103
178 174 120
177 174 115
181 177 122
179 174 116
178 173 108
182 179 129
179 175 119
180 175 117
181 177 122
183 180 131
177 174 117
183 180 132
176 173 120
181 176 120
180 177 129
182 179 132
178 176 122
177 173 113
180 177 126
178 175 117
184 182 141
183 181 133
180 177 129
178 176 122
185 183 140
179 176 122
179 175 118
184 182 137
185 182 137
180 180 138
182 181 137
182 181 136
186 185 147
189 188 154
186 185 144
182 181 137
183 182 141
214 231 255
214 231 255
214 231 255
214 231 255
214 231 255
214 231 255
214 231 255
214 231 255
214 231 255
214 231 255
214 231 255
214 231 255
214 231 255
214 231 255
214 231 255
214 231 255
214 231 255
214 231 255
214 231 255
214 231 255
214 231 255
214 231 255
214 231 255
214 231 255
214 231 255
214 231 255
214 231 255
214 231 255
214 231 255
214 231 255
214 231 255
214 231 255
214 231 255
214 231 255
214 231 255
214 231 255
214 231 255
214 231 255
214 231 255
214 231 255
214 231 255
214 231 255
214 231 255
214 231 255
214 231 255
214 231 255
214 231 255
214 231 255
214 231 255
214 231 255
214 231 255
214 231 255
214 231 255
214 231 255
214 231 255
214 231 255
214 231 255
214 231 255
214 231 255
214 231 255
214 231 255
214 231 255
214 231 255
214 231 255
214 231 255
214 231 255
214 231 255
214 231 255
214 231 255
214 231 255
214 231 255
213 231 255
213 231 255
213 231 255
213 231 255
213 231 255
213 231 255
213 231 255
213 231 255
213 231 255
213 231 255
213 231 255
213 231 255
213 231 255
213 231 255
213 231 255
213 231 255
213 231 255
213 231 255
213 231 255
213 231 255
213 231 255
213 231 255
213 231 255
213 231 255
213 231 255
213 231 255
213 231 255
213 231 255
212 231 255
212 231 255
212 231 255
212 231 255
212 231 255
212 230 255
212 230 255
212 230 255
212 230 255
212 230 255
212 230 255
212 230 255
212 230 255
212 230 255
211 230 255
211 230 255
211 230 255
211 230 255
211 230 255
211 230 255
211 230 255
211 230 255
211 230 255
210 230 255
210 229 255
210 229 255
210 229 255
210 229 255
210 229 255
209 229 255
209 229 255
209 229 255
209 228 255
156 178 217
62 98 163
60 96 163
60 96 158
61 96 152
61 98 165
60 96 154
58 93 152
59 95 156
60 96 164
61 96 160
59 95 158
158 179 214
213 231 255
214 232 255
217 233 255
218 233 255
203 219 242
60 96 155
59 94 150
60 94 149
61 96 151
61 96 149
60 95 143
60 95 140
61 97 152
60 96 147
61 97 153
60 96 144
61 97 151
62 97 147
62 98 159
60 95 147
62 97 154
62 97 150
61 96 147
61 96 147
61 96 142
61 97 150
60 94 134
61 97 150
61 96 148
61 96 144
61 95 144
60 94 142
61 97 147
60 95 139
61 96 145
62 97 149
62 97 153
59 94 141
61 96 148
62 98 155
61 96 152
61 97 151
61 96 148
62 96 143
60 96 140
60 95 137
62 97 150
62 97 150
62 97 152
61 96 142
61 96 140
61 96 142
60 94 139
63 98 158
60 95 138
61 96 140
60 95 142
62 97 149
61 96 149
61 96 149
61 96 137
60 94 135
62 97 147
60 96 147
61 96 147
61 96 142
61 96 143
61 96 147
61 96 142
63 98 159
61 96 148
60 94 139
60 95 140
62 97 149
62 97 146
60 95 140
61 95 144
60 95 140
59 92 135
60 95 137
61 96 144
60 94 141
60 93 142
62 97 152
61 96 150
61 96 144
61 95 142
61 96 140
61 94 143
60 95 143
60 94 138
61 94 147
60 93 142
58 92 131
60 93 145
60 93 142
60 94 140
59 92 135
59 92 139
57 89 130
58 91 139
59 91 138
60 92 137
56 87 128
58 90 143
204 220 244
218 233 255
208 221 237
178 186 183
174 184 188
159 167 160
142 152 151
146 156 157
145 153 149
139 149 147
133 143 143
124 133 124
144 152 146
129 138 130
122 131 124
135 142 129
132 141 136
143 149 133
136 142 129
124 129 104
137 143 122
142 148 132
139 144 117
134 138 110
130 135 110
145 148 119
140 141 108
139 143 115
148 149 110
154 157 125
146 147 102
141 143 109
152 153 113
153 155 118
143 143 99
152 151 100
159 157 107
156 155 109
160 158 108
150 149 94
156 155 103
157 156 107
159 158 103
163 161 113
157 154 97
153 152 97
156 153 95
165 162 103
162 158 99
162 159 97
161 158 101
165 162 102
169 165 106
161 157 100
169 163 98
170 164 100
170 167 106
168 163 106
168 164 100
168 163 103
177 171 110
165 161 95
174 168 105
165 161 93
169 164 97
171 166 96
174 168 104
171 166 97
173 168 102
176 170 107
173 167 98
171 166 98
173 168 97
174 168 99
177 170 97
172 167 104
176 170 103
174 169 105
177 171 108
177 171 106
172 167 97
174 169 105
174 169 103
171 166 96
175 171 112
178 173 109
178 172 106
172 167 96
174 169 98
173 168 99
177 170 101
176 171 106
174 169 96
178 173 114
175 170 106
179 174 115
177 170 103
174 170 104
177 172 108
175 169 101
179 173 110
179 174 112
176 171 110
180 175 117
181 177 124
175 172 112
177 171 109
179 173 110
178 173 112
178 172 110
179 175 116
175 169 99
180 175 119
177 173 113
183 180 133
181 180 133
177 175 123
182 177 125
184 182 139
175 172 112
176 173 118
178 176 126
179 177 125
180 176 121
181 178 128
177 173 115
181 177 124
184 180 129
182 178 127
179 175 117
176 174 116
183 180 134
178 176 123
182 180 134
178 174 114
180 177 126
183 182 139
180 177 122
180 177 124
182 180 133
179 176 120
177 175 121
178 176 126
182 180 133
183 178 125
182 179 127
183 182 139
180 178 130
184 182 139
183 181 137
215 232 255
215 232 255
214 232 255
214 232 255
214 232 255
214 232 255
214 232 255
214 232 255
214 232 255
214 232 255
214 232 255
214 232 255
215 232 255
214 232 255
214 232 255
214 232 255
215 232 255
215 232 255
215 232 255
215 232 255
215 232 255
215 232 255
215 232 255
215 232 255
215 232 255
215 232 255
215 232 255
215 232 255
215 232 255
215 232 255
215 232 255
215 232 255
215 232 255
215 232 255
215 232 255
215 232 255
215 232 255
215 232 255
215 232 255
215 232 255
215 232 255
215 232 255
215 232 255
215 232 255
215 232 255
215 232 255
215 232 255
215 232 255
215 232 255
215 232 255
215 232 255
214 232 255
214 232 255
214 232 255
214 232 255
214 232 255
214 232 255
214 232 255
214 232 255
214 232 255
214 232 255
214 232 255
214 232 255
214 232 255
214 232 255
214 232 255
214 232 255
214 232 255
214 232 255
214 232 255
214 232 255
214 232 255
214 232 255
214 232 255
214 232 255
214 232 255
214 232 255
214 231 255
214 231 255
214 231 255
214 231 255
214 231 255
214 231 255
214 231 255
214 231 255
214 231 255
214 231 255
214 231 255
214 231 255
214 231 255
214 231 255
214 231 255
213 231 255
213 231 255
213 231 255
213 231 255
213 231 255
213 231 255
213 231 255
213 231 255
213 231 255
213 231 255
213 231 255
213 231 255
213 231 255
213 231 255
213 231 255
213 231 255
213 231 255
213 231 255
213 231 255
213 231 255
212 231 255
212 231 255
212 231 255
212 230 255
212 230 255
212 230 255
212 230 255
212 230 255
212 230 255
212 230 255
211 230 255
211 230 255
211 230 255
211 230 255
211 230 255
211 230 255
210 230 255
210 229 255
210 229 255
210 229 255
183 203 236
61 97 163
60 96 153
60 96 155
59 94 151
59 95 148
57 92 148
59 94 148
60 96 161
60 96 156
60 96 162
60 96 163
69 102 160
209 227 253
214 232 255
216 233 255
218 234 255
166 185 217
60 95 147
60 95 149
60 95 150
60 95 151
61 96 147
60 96 147
60 95 144
61 96 148
60 95 142
61 96 145
60 95 137
60 95 143
61 96 141
61 96 142
59 94 140
60 95 144
60 95 140
60 96 144
61 97 152
60 95 143
61 96 148
60 95 142
62 97 151
61 96 139
59 94 136
61 96 145
60 95 139
61 96 142
61 96 143
61 96 147
61 96 145
62 97 145
59 94 139
60 94 143
61 95 134
60 95 139
61 95 139
60 95 143
61 95 147
61 96 145
60 96 148
61 97 148
60 95 135
60 96 145
61 96 147
61 96 148
60 95 141
61 96 147
62 97 148
62 97 148
60 96 144
61 96 143
60 95 137
61 96 145
61 97 150
61 96 146
61 96 141
61 97 150
61 96 145
61 96 147
61 96 141
61 96 151
60 94 141
62 98 153
61 95 142
61 96 143
61 95 140
61 96 145
60 95 140
60 95 139
62 97 148
61 96 147
62 97 146
60 94 139
60 95 142
62 97 153
62 97 158
60 95 138
61 95 145
61 96 148
60 94 140
60 93 132
60 94 135
59 92 132
61 95 145
60 94 141
61 96 149
60 95 142
60 93 141
58 90 128
60 93 142
58 91 131
59 92 138
59 92 139
58 89 128
59 91 135
56 86 123
56 85 116
55 84 123
52 80 117
173 189 215
218 234 255
188 199 204
157 163 158
161 169 168
161 170 170
147 156 157
143 152 148
142 152 151
128 137 133
140 149 144
147 156 152
137 144 132
132 140 131
136 143 137
127 135 125
135 141 123
124 130 110
127 134 116
130 136 117
127 131 103
125 130 104
141 143 111
153 156 131
138 140 107
137 142 115
144 148 119
137 141 111
146 146 105
147 146 103
143 144 100
149 148 110
155 155 111
138 139 96
148 148 106
146 145 97
157 154 102
155 152 96
153 151 97
155 152 95
158 157 108
160 157 100
164 161 105
163 160 103
159 155 98
168 166 116
160 156 97
162 160 109
163 159 97
167 163 102
168 163 102
166 162 101
167 162 94
159 156 102
166 161 95
168 164 96
166 161 94
168 165 103
167 162 89
169 164 94
169 163 97
172 167 103
167 162 92
166 161 96
174 170 109
167 162 96
173 168 104
172 167 102
172 167 105
172 167 96
172 165 94
174 168 100
176 169 100
169 165 97
177 170 99
173 168 104
173 167 95
175 169 105
174 169 103
176 170 106
175 168 97
178 172 107
171 167 98
177 170 97
172 167 96
174 169 104
176 170 101
176 170 99
177 171 106
176 170 101
175 168 95
178 172 105
175 170 107
176 172 113
177 172 109
177 171 106
179 175 121
178 173 110
174 169 106
176 171 104
178 172 109
176 170 101
176 173 115
176 171 108
175 172 108
175 170 107
179 175 116
176 170 102
179 176 120
175 171 108
173 169 102
179 172 108
179 175 119
182 180 130
181 178 127
179 177 124
179 175 115
180 175 115
177 174 118
178 174 115
178 175 122
178 175 117
178 174 117
176 174 120
176 172 113
181 177 121
179 176 122
179 177 123
177 174 120
179 176 120
173 171 111
178 174 116
180 177 124
179 176 121
180 176 119
179 177 125
180 177 126
179 175 120
183 180 130
184 181 135
182 180 134
181 178 126
180 178 128
180 177 125
184 180 130
183 182 137
183 180 133
183 181 135
186 186 148
181 181 136
215 232 255
215 232 255
215 232 255
215 232 255
215 232 255
215 232 255
215 232 255
215 232 255
215 232 255
215 232 255
215 232 255
215 232 255
215 232 255
215 232 255
215 232 255
215 232 255
215 232 255
215 232 255
215 232 255
215 232 255
215 232 255
215 232 255
215 232 255
215 232 255
215 232 255
215 232 255
215 232 255
215 232 255
215 232 255
215 232 255
215 232 255
215 232 255
215 232 255
215 232 255
215 232 255
215 232 255
215 232 255
215 232 255
215 232 255
215 232 255
215 232 255
215 232 255
215 232 255
215 232 255
215 232 255
215 232 255
215 232 255
215 232 255
215 232 255
215 232 255
215 232 255
215 232 255
215 232 255
215 232 255
215 232 255
215 232 255
215 232 255
215 232 255
215 232 255
215 232 255
215 232 255
215 232 255
215 232 255
215 232 255
215 232 255
215 232 255
215 232 255
215 232 255
215 232 255
215 232 255
215 232 255
215 232 255
215 232 255
215 232 255
215 232 255
215 232 255
215 232 255
215 232 255
215 232 255
215 232 255
215 232 255
215 232 255
215 232 255
215 232 255
214 232 255
214 232 255
214 232 255
214 232 255
214 232 255
214 232 255
214 232 255
214 232 255
214 232 255
214 232 255
214 232 255
214 232 255
214 232 255
214 232 255
214 231 255
214 231 255
214 231 255
214 231 255
214 231 255
214 231 255
214 231 255
214 231 255
214 231 255
214 231 255
213 231 255
213 231 255
213 231 255
213 231 255
213 231 255
213 231 255
213 231 255
213 231 255
213 231 255
213 231 255
213 231 255
213 231 255
213 231 255
212 231 255
212 231 255
212 231 255
212 230 255
212 230 255
212 230 255
212 230 255
212 230 255
211 230 255
211 230 255
211 230 255
207 226 252
66 100 165
59 95 158
59 95 155
59 94 149
59 94 152
60 96 157
59 94 159
59 95 154
59 95 155
60 95 161
57 92 151
58 93 154
147 167 203
215 232 255
216 233 255
218 234 255
139 159 193
59 94 140
59 94 142
60 95 150
60 95 152
60 96 143
58 93 135
60 96 139
61 95 141
59 95 140
60 95 144
61 96 142
60 95 141
60 95 140
61 96 149
60 95 134
60 94 143
59 94 135
60 95 142
61 96 145
60 95 141
62 97 145
61 97 150
61 96 150
60 96 141
59 94 129
61 96 137
62 98 155
61 96 144
62 97 148
62 97 148
61 96 143
61 96 147
61 96 148
60 95 135
60 95 141
61 96 144
61 96 149
61 97 148
61 96 149
61 96 145
60 95 141
61 96 137
62 97 149
60 95 133
61 96 149
60 95 142
60 95 139
61 96 145
59 94 134
61 96 142
61 96 145
61 97 145
61 95 141
61 97 145
61 96 141
60 95 144
60 96 144
61 96 147
62 97 142
60 95 139
61 95 139
61 95 143
60 94 142
60 95 140
61 96 141
61 96 143
60 94 133
61 96 146
59 94 140
58 92 134
60 95 140
59 94 134
60 94 135
60 95 139
59 93 134
60 95 134
61 95 152
61 95 144
60 94 139
60 95 141
62 96 150
60 95 145
59 92 139
61 95 141
60 95 149
60 94 144
59 93 143
60 93 139
60 94 140
60 95 142
59 91 122
60 93 136
59 92 134
59 92 140
58 90 133
56 86 129
57 89 129
58 90 134
58 89 139
54 83 121
164 180 205
217 232 253
169 179 180
166 173 168
154 163 162
144 152 146
132 142 139
138 147 149
147 157 160
125 135 139
124 133 131
120 129 122
127 136 129
120 128 118
116 123 111
133 143 140
130 138 130
120 126 107
151 155 130
133 139 120
129 134 110
138 141 117
135 140 119
147 151 127
138 142 110
135 138 105
132 137 110
147 149 113
136 138 100
146 147 108
147 147 107
142 143 102
147 149 109
147 146 97
155 154 113
148 146 95
148 148 103
157 156 111
157 155 104
162 159 102
157 155 105
160 158 112
153 151 96
155 153 94
150 150 97
160 158 107
161 157 97
159 156 92
167 163 102
160 157 97
162 159 97
163 159 97
162 158 94
166 161 102
167 161 87
161 158 95
170 166 101
166 161 100
171 165 95
174 169 103
167 162 96
169 164 94
169 165 101
169 163 97
171 166 100
172 165 98
174 169 101
173 167 97
174 169 98
172 166 93
172 166 102
177 170 101
172 166 94
172 168 100
175 168 98
175 169 103
174 168 96
173 168 102
174 168 99
173 167 92
173 168 100
173 167 94
174 169 103
177 173 110
173 167 95
175 169 100
174 169 109
176 172 106
173 167 97
177 172 105
175 170 104
175 170 101
174 169 101
179 172 106
174 170 104
172 167 97
175 170 107
175 172 112
178 174 116
174 168 98
177 173 116
179 174 112
178 173 112
177 173 116
178 172 107
175 171 107
178 172 108
179 175 117
177 173 113
177 172 110
176 171 105
178 173 111
176 170 103
180 175 120
180 175 118
180 175 116
179 177 125
180 176 120
181 175 113
178 174 115
181 178 129
178 174 113
181 178 125
173 168 100
180 176 118
180 175 118
180 178 131
181 177 121
180 176 121
181 178 129
180 176 122
181 178 125
180 177 124
180 176 118
185 180 128
180 176 122
182 178 130
183 181 134
182 180 133
181 179 132
182 180 134
182 180 135
179 176 119
182 181 135
189 191 160
181 180 134
183 181 133
180 177 123
181 180 133
182 180 136
216 232 255
216 232 255
216 232 255
216 232 255
216 232 255
216 232 255
216 232 255
216 232 255
216 232 255
216 232 255
216 232 255
216 232 255
216 232 255
216 232 255
216 232 255
216 232 255
216 232 255
216 232 255
216 232 255
216 232 255
216 233 255
216 232 255
216 233 255
216 233 255
216 232 255
216 233 255
216 233 255
216 233 255
216 233 255
216 233 255
216 233 255
216 233 255
216 233 255
216 233 255
216 233 255
216 233 255
216 233 255
216 233 255
216 233 255
216 232 255
216 232 255
216 233 255
216 233 255
216 232 255
216 233 255
216 233 255
216 232 255
216 232 255
216 232 255
216 232 255
216 232 255
216 232 255
216 232 255
216 232 255
216 232 255
216 232 255
216 232 255
216 232 255
216 232 255
216 232 255
216 232 255
216 232 255
216 232 255
216 232 255
216 232 255
216 232 255
216 232 255
216 232 255
215 232 255
216 232 255
215 232 255
215 232 255
215 232 255
215 232 255
215 232 255
215 232 255
215 232 255
215 232 255
215 232 255
215 232 255
215 232 255
215 232 255
215 232 255
215 232 255
215 232 255
215 232 255
215 232 255
215 232 255
215 232 255
215 232 255
215 232 255
215 232 255
215 232 255
215 232 255
215 232 255
215 232 255
215 232 255
215 232 255
215 232 255
215 232 255
215 232 255
215 232 255
215 232 255
215 232 255
214 232 255
214 232 255
214 232 255
214 232 255
214 232 255
214 232 255
214 232 255
214 232 255
214 232 255
214 232 255
214 231 255
214 231 255
214 231 255
214 231 255
214 231 255
214 231 255
213 231 255
213 231 255
213 231 255
213 231 255
213 231 255
213 231 255
213 231 255
213 231 255
213 231 255
212 231 255
212 231 255
212 230 255
212 230 255
118 142 188
58 94 147
61 96 155
59 94 146
60 96 160
60 96 155
58 93 144
57 91 144
59 94 150
59 94 152
56 89 148
58 94 153
101 126 172
213 230 254
216 233 255
218 234 255
136 157 192
60 96 152
62 97 152
60 94 143
60 96 149
59 95 140
61 96 148
61 96 145
60 95 140
60 95 140
62 97 150
60 95 148
61 96 148
61 96 141
60 95 142
61 96 148
60 96 151
60 95 140
60 95 141
59 94 136
60 95 145
62 97 156
61 96 143
61 96 144
60 95 137
60 95 136
61 96 143
60 95 135
60 95 135
60 95 139
61 95 143
60 94 139
62 98 152
60 95 139
60 96 145
61 95 140
61 96 139
62 97 145
61 96 145
60 95 147
60 96 136
61 96 142
60 95 140
60 95 143
60 95 131
61 96 145
60 95 140
60 95 139
61 97 152
61 97 147
60 95 143
61 96 142
61 96 142
60 95 144
61 96 143
60 95 136
60 95 136
61 96 142
61 96 148
60 94 135
60 94 136
60 95 137
61 97 144
60 95 136
61 96 138
59 94 129
60 95 150
60 94 142
61 96 150
60 95 140
59 94 139
62 97 150
61 95 139
61 95 139
62 97 154
60 95 146
61 95 142
60 95 144
61 95 143
60 95 147
61 95 139
60 94 139
60 95 142
60 94 145
61 95 144
60 93 134
60 94 142
60 94 137
60 94 146
61 94 147
59 92 139
59 93 137
59 91 134
59 92 141
56 88 113
59 90 140
59 92 139
56 87 127
58 90 134
58 89 130
55 85 131
119 139 169
214 228 245
164 171 167
161 169 166
151 159 156
153 162 162
147 156 158
128 137 136
121 130 129
132 142 142
130 139 134
124 134 134
128 136 129
131 140 135
114 121 106
117 125 115
118 124 107
135 141 126
129 136 119
130 138 132
128 134 116
133 139 119
133 138 117
129 131 99
134 136 95
137 140 111
142 144 117
142 144 102
149 151 114
148 151 119
140 145 118
156 155 110
157 157 117
156 155 109
148 146 96
141 142 95
150 149 105
153 150 94
154 153 106
145 144 95
159 157 107
160 158 106
161 158 100
154 152 93
152 149 89
154 151 92
158 153 91
159 155 95
160 155 94
160 156 100
164 160 102
161 157 92
164 160 95
153 150 88
159 156 94
162 159 97
168 164 99
165 161 97
164 160 97
168 162 95
162 158 90
172 166 101
169 163 92
176 170 103
170 165 95
171 166 95
171 168 105
170 164 93
171 166 97
173 167 95
171 165 97
169 163 89
176 169 96
165 160 91
172 166 97
174 167 97
170 165 91
176 169 100
174 168 97
172 167 98
170 165 95
171 167 98
175 169 99
174 169 103
174 168 96
176 170 104
177 172 108
176 170 100
174 168 97
177 172 106
174 169 97
174 169 105
179 173 108
178 173 109
176 172 109
173 170 108
176 170 102
175 169 99
176 171 103
177 171 104
175 169 97
175 170 104
175 170 104
173 168 100
179 173 112
181 178 127
179 175 115
175 170 103
175 171 109
173 170 104
177 172 112
177 174 115
177 171 104
181 177 122
177 171 103
176 171 108
177 174 116
177 173 113
175 172 113
179 174 115
181 178 127
183 179 129
175 173 116
178 175 120
177 173 113
177 173 110
181 178 124
180 178 129
178 172 108
182 179 129
184 182 136
180 177 125
182 179 132
184 182 140
183 179 126
182 181 137
179 177 124
185 183 141
183 180 131
180 179 130
182 178 124
184 180 132
180 175 118
183 181 136
177 175 121
181 180 132
180 177 126
184 182 136
182 179 131
181 180 137
216 233 255
216 233 255
216 233 255
216 233 255
216 233 255
216 233 255
216 233 255
216 233 255
216 233 255
216 233 255
216 233 255
216 233 255
216 233 255
216 233 255
216 233 255
216 233 255
216 233 255
216 233 255
216 233 255
216 233 255
216 233 255
216 233 255
216 233 255
216 233 255
216 233 255
216 233 255
216 233 255
216 233 255
216 233 255
216 233 255
216 233 255
216 233 255
216 233 255
216 233 255
216 233 255
216 233 255
216 233 255
216 233 255
216 233 255
216 233 255
216 233 255
216 233 255
216 233 255
216 233 255
216 233 255
216 233 255
216 233 255
216 233 255
216 233 255
216 233 255
216 233 255
216 233 255
216 233 255
216 233 255
216 233 255
216 233 255
216 233 255
216 233 255
216 233 255
216 233 255
216 233 255
216 233 255
216 233 255
216 233 255
216 233 255
216 233 255
216 233 255
216 233 255
216 233 255
216 233 255
216 233 255
216 233 255
216 233 255
216 233 255
216 233 255
216 233 255
216 233 255
216 233 255
216 233 255
216 233 255
216 233 255
216 233 255
216 233 255
216 233 255
216 233 255
216 233 255
216 233 255
216 232 255
216 232 255
216 232 255
216 232 255
216 232 255
216 232 255
216 232 255
216 232 255
216 232 255
216 232 255
215 232 255
215 232 255
215 232 255
215 232 255
215 232 255
215 232 255
215 232 255
215 232 255
215 232 255
215 232 255
215 232 255
215 232 255
215 232 255
215 232 255
215 232 255
215 232 255
215 232 255
215 232 255
215 232 255
215 232 255
215 232 255
215 232 255
214 232 255
214 232 255
214 232 255
214 232 255
214 232 255
214 231 255
214 231 255
214 231 255
214 231 255
214 231 255
213 231 255
213 231 255
213 231 255
213 231 255
154 174 209
58 92 155
58 93 141
58 93 153
58 93 141
58 93 151
59 94 143
58 92 146
58 93 147
57 91 152
59 94 156
59 94 158
60 95 153
194 211 238
217 233 255
218 234 255
81 110 160
60 96 150
60 96 140
60 95 143
58 93 142
61 96 148
60 96 145
60 95 137
60 95 142
60 95 148
60 96 139
59 93 130
61 96 143
61 96 144
58 92 133
60 95 133
61 96 147
61 96 145
60 96 150
60 95 141
59 94 139
61 96 147
59 94 141
61 96 149
61 97 143
61 96 139
60 96 144
61 96 151
61 96 148
60 95 135
61 96 149
60 95 139
60 95 139
61 95 140
60 95 135
61 96 149
60 95 142
61 96 141
62 97 143
60 94 137
61 96 144
60 95 140
62 97 149
60 95 135
62 97 148
60 95 140
59 94 139
60 95 142
61 96 148
62 97 143
61 96 147
61 96 142
60 95 133
61 95 143
60 95 141
61 95 140
61 96 142
61 96 144
60 95 140
61 96 146
62 97 147
61 96 143
60 95 141
60 94 134
60 95 137
61 96 149
60 94 129
60 94 136
60 95 147
62 97 150
60 95 142
59 93 132
60 94 141
60 94 143
60 95 143
59 93 127
61 96 140
60 95 143
59 94 131
60 94 140
61 95 142
59 93 140
61 95 144
60 95 153
62 97 157
60 93 138
61 95 147
60 94 138
60 93 141
59 92 139
59 92 142
59 92 140
59 92 139
59 91 140
58 90 127
58 91 132
59 91 135
58 90 135
57 88 133
58 88 127
55 85 127
81 102 139
208 220 231
172 181 182
148 158 163
156 164 162
142 152 157
129 137 136
141 149 147
140 150 154
132 141 139
129 139 139
138 147 145
118 127 120
129 138 136
141 149 146
111 119 114
122 128 113
121 128 115
137 144 131
123 128 111
130 134 105
130 135 110
147 150 125
124 128 98
130 135 112
141 144 118
131 135 106
141 142 103
135 138 103
152 153 115
140 141 97
149 148 103
139 138 88
154 154 114
148 147 104
147 146 94
142 141 88
153 152 100
150 148 95
153 151 99
153 151 100
153 151 96
160 156 100
157 153 93
162 159 102
163 159 94
158 155 84
156 153 92
156 151 84
164 160 99
156 154 89
166 162 96
162 157 90
165 161 93
164 160 93
168 163 91
169 164 99
159 155 87
168 164 92
165 161 96
162 157 92
169 164 99
162 157 90
172 166 98
168 162 91
168 163 97
171 165 94
168 163 88
172 167 100
171 165 92
174 167 96
170 164 92
172 167 99
170 164 90
170 165 88
170 165 90
169 164 94
173 167 99
174 169 101
171 165 91
172 166 88
170 165 97
175 169 104
176 170 101
176 170 104
175 170 107
174 168 97
171 166 97
177 171 106
176 171 103
173 168 99
177 169 99
173 168 98
175 170 103
173 168 97
172 167 103
173 170 107
173 169 103
176 171 104
177 172 109
177 172 109
175 170 104
178 173 111
173 168 95
174 170 108
179 175 122
179 174 110
180 176 120
181 175 115
180 176 118
177 173 113
178 173 110
177 172 104
180 174 109
175 170 100
178 176 122
175 169 99
183 179 129
179 174 112
181 178 126
179 175 120
178 174 114
177 173 113
180 177 122
173 170 106
182 176 117
182 178 125
181 179 128
178 173 115
177 174 115
177 172 112
178 174 115
179 175 120
178 176 121
179 178 133
176 172 109
177 174 116
183 181 135
184 182 137
182 180 132
180 178 129
180 175 121
182 180 134
182 179 127
182 179 128
180 178 127
186 184 141
183 183 142
179 177 126
178 175 121
217 233 255
217 233 255
217 233 255
217 233 255
217 233 255
217 233 255
217 233 255
217 233 255
217 233 255
217 233 255
217 233 255
217 233 255
217 233 255
217 233 255
217 233 255
217 233 255
217 233 255
217 233 255
217 233 255
217 233 255
217 233 255
217 233 255
217 233 255
217 233 255
217 233 255
217 233 255
217 233 255
217 233 255
217 233 255
217 233 255
217 233 255
217 233 255
217 233 255
217 233 255
217 233 255
217 233 255
217 233 255
217 233 255
217 233 255
217 233 255
217 233 255
217 233 255
217 233 255
217 233 255
217 233 255
217 233 255
217 233 255
217 233 255
217 233 255
217 233 255
217 233 255
217 233 255
217 233 255
217 233 255
217 233 255
217 233 255
217 233 255
217 233 255
217 233 255
217 233 255
217 233 255
217 233 255
217 233 255
217 233 255
217 233 255
217 233 255
217 233 255
217 233 255
217 233 255
217 233 255
217 233 255
217 233 255
217 233 255
217 233 255
217 233 255
217 233 255
217 233 255
217 233 255
217 233 255
217 233 255
217 233 255
217 233 255
217 233 255
217 233 255
217 233 255
217 233 255
216 233 255
216 233 255
216 233 255
216 233 255
216 233 255
216 233 255
216 233 255
216 233 255
216 233 255
216 233 255
216 233 255
216 233 255
216 233 255
216 233 255
216 233 255
216 233 255
216 233 255
216 233 255
216 233 255
216 233 255
216 233 255
216 233 255
216 233 255
216 233 255
216 232 255
216 232 255
216 232 255
216 232 255
216 232 255
216 232 255
216 232 255
215 232 255
215 232 255
215 232 255
215 232 255
215 232 255
215 232 255
215 232 255
215 232 255
215 232 255
215 232 255
215 232 255
215 232 255
214 232 255
214 232 255
214 232 255
214 231 255
160 180 214
60 96 157
60 95 144
59 94 156
59 94 147
58 93 138
59 94 149
58 92 141
56 90 142
60 95 163
58 93 150
55 89 144
57 92 152
133 154 190
217 233 255
209 225 247
60 95 144
60 95 144
60 96 144
59 93 140
60 95 139
60 95 140
61 96 152
60 95 141
61 96 134
61 96 149
60 95 137
60 94 140
59 94 136
61 95 140
60 95 143
61 96 141
60 95 137
61 96 140
61 97 147
59 94 134
59 93 131
59 94 137
60 95 133
61 96 135
59 94 133
59 94 140
61 96 140
60 95 137
60 96 139
60 95 141
60 96 148
61 96 136
61 96 139
61 95 142
61 97 149
60 94 133
61 96 144
60 94 136
61 97 151
60 96 145
61 96 152
60 95 140
60 95 134
60 95 141
61 96 143
61 96 145
60 95 137
61 96 144
62 97 143
60 95 139
62 97 151
61 96 144
61 96 147
60 96 134
60 94 134
59 94 136
61 96 141
61 96 140
60 95 139
60 95 138
60 94 133
59 93 131
61 96 145
60 95 137
58 91 120
59 93 134
63 98 154
60 95 140
61 96 147
59 94 137
59 94 139
61 95 141
61 96 148
61 95 151
61 95 144
60 94 145
61 95 142
60 94 142
61 96 145
61 95 143
61 95 140
60 95 142
60 95 139
61 95 144
61 94 144
58 92 131
58 92 127
61 95 147
60 94 135
60 94 139
58 91 134
60 93 137
58 90 129
60 93 140
58 91 131
57 89 137
59 92 136
58 89 130
58 90 139
57 87 122
56 86 125
53 81 122
186 196 201
167 177 182
164 175 182
136 144 141
142 152 157
141 151 156
138 148 151
132 142 142
120 129 127
133 142 140
114 124 121
132 141 138
126 136 131
121 128 115
129 138 134
133 140 128
133 140 125
129 135 116
132 138 122
121 127 103
138 142 115
143 146 116
138 140 107
125 130 107
139 145 119
145 148 118
140 141 104
143 144 107
145 146 112
130 132 89
146 145 97
149 148 99
149 148 101
147 146 99
147 146 91
152 151 95
151 150 105
154 152 103
157 155 101
156 153 94
157 154 96
152 148 84
160 156 94
160 157 100
156 154 94
159 156 90
160 157 95
162 158 94
163 158 93
167 161 93
170 165 98
163 159 91
163 158 90
162 158 90
166 162 92
167 163 95
161 157 82
160 155 85
168 162 88
168 162 93
169 164 93
170 164 91
165 160 91
166 161 85
167 161 93
168 163 89
163 158 85
169 163 90
169 164 88
170 165 97
172 166 97
175 167 93
174 168 93
171 165 89
174 168 93
172 167 100
175 169 100
173 167 91
175 168 96
175 169 101
173 166 93
173 167 95
171 166 92
173 167 95
175 169 103
172 167 96
173 169 104
172 167 95
174 169 103
172 167 94
174 170 103
175 171 106
178 172 104
176 170 102
176 170 101
178 173 109
176 170 100
172 169 106
176 171 103
177 173 116
175 170 101
173 168 98
180 177 123
178 172 107
178 173 110
173 167 97
176 170 103
180 177 123
179 177 127
179 173 108
181 176 118
179 174 112
177 172 108
178 174 113
175 172 111
176 172 110
179 175 118
180 177 123
177 170 99
180 175 115
176 172 109
176 173 113
174 170 106
176 173 116
180 176 117
177 173 116
179 176 122
181 180 133
180 176 121
178 173 113
179 175 115
182 178 127
183 178 126
179 174 112
179 176 120
176 173 113
180 177 123
180 177 122
183 181 136
184 181 132
179 177 125
183 182 141
182 181 137
186 185 145
181 179 135
183 183 142
181 179 128
185 184 144
181 179 131
218 234 255
218 233 255
217 233 255
217 233 255
217 233 255
217 233 255
217 233 255
218 233 255
218 233 255
218 233 255
218 233 255
218 233 255
218 233 255
218 233 255
218 233 255
218 234 255
218 233 255
218 234 255
218 234 255
218 234 255
218 234 255
218 234 255
218 233 255
218 234 255
218 234 255
218 234 255
218 234 255
218 234 255
218 234 255
218 234 255
218 234 255
218 234 255
218 234 255
218 234 255
218 234 255
218 234 255
218 234 255
218 234 255
218 234 255
218 234 255
218 234 255
218 234 255
218 234 255
218 234 255
218 234 255
218 234 255
218 234 255
218 234 255
218 233 255
218 234 255
218 233 255
218 233 255
218 233 255
218 233 255
218 233 255
218 233 255
218 233 255
218 233 255
217 233 255
217 233 255
218 233 255
218 233 255
217 233 255
218 233 255
217 233 255
217 233 255
217 233 255
217 233 255
217 233 255
217 233 255
217 233 255
217 233 255
217 233 255
217 233 255
217 233 255
217 233 255
217 233 255
217 233 255
217 233 255
217 233 255
217 233 255
217 233 255
217 233 255
217 233 255
217 233 255
217 233 255
217 233 255
217 233 255
217 233 255
217 233 255
217 233 255
217 233 255
217 233 255
217 233 255
217 233 255
217 233 255
217 233 255
217 233 255
217 233 255
217 233 255
217 233 255
217 233 255
217 233 255
217 233 255
217 233 255
217 233 255
217 233 255
217 233 255
217 233 255
217 233 255
217 233 255
217 233 255
216 233 255
216 233 255
216 233 255
216 233 255
216 233 255
216 233 255
216 233 255
216 233 255
216 233 255
216 233 255
216 233 255
216 233 255
216 233 255
216 232 255
216 232 255
216 232 255
216 232 255
215 232 255
215 232 255
215 232 255
215 232 255
183 201 231
59 95 155
58 92 146
58 92 139
57 91 134
58 92 143
58 93 146
58 92 139
58 93 140
56 89 140
57 90 149
59 93 152
58 92 144
104 129 176
217 233 255
191 208 231
59 94 141
59 94 134
61 96 137
60 96 149
60 95 137
59 93 135
60 95 137
61 96 148
60 95 141
60 95 144
60 95 140
60 95 149
61 96 145
59 94 135
59 94 130
61 96 141
60 94 133
61 96 142
60 95 140
61 96 151
61 96 148
59 94 141
60 95 135
59 94 133
60 94 134
62 97 141
60 95 134
61 96 145
61 96 143
62 97 143
59 94 135
61 96 148
60 94 134
59 94 130
59 94 136
60 95 141
61 96 140
61 96 142
59 94 129
61 96 136
61 95 145
60 95 136
61 96 143
60 95 142
60 95 135
62 97 154
60 95 144
60 95 134
60 95 129
61 96 143
60 95 148
60 95 140
60 95 137
61 96 142
60 94 139
61 96 142
60 94 134
62 97 151
60 95 139
61 96 148
61 95 143
59 93 131
60 94 138
59 93 142
61 96 150
59 93 136
60 95 135
59 93 131
61 96 152
61 96 141
59 93 130
60 94 140
60 94 138
60 95 141
60 94 137
59 93 138
58 92 128
61 96 145
60 95 146
60 95 137
60 93 134
61 95 138
61 95 149
59 93 132
61 94 149
60 94 137
60 94 136
60 93 138
60 94 137
60 93 133
57 89 125
59 92 136
59 91 134
58 90 128
58 91 133
60 92 140
55 86 117
57 88 132
57 87 124
56 86 127
54 83 124
56 86 125
157 164 159
171 181 185
154 164 168
138 148 151
127 136 137
128 138 141
134 144 148
126 137 142
120 129 126
102 111 103
129 138 138
115 124 119
122 132 130
127 134 128
122 129 117
117 124 108
125 132 115
130 136 118
130 135 111
123 127 102
128 133 111
128 133 106
132 133 99
134 138 110
149 152 123
142 141 95
136 138 99
144 146 113
141 142 106
145 146 108
143 143 100
144 144 91
141 142 100
151 151 109
145 145 97
148 147 101
146 145 98
150 147 91
151 148 96
141 140 92
151 148 93
154 152 103
145 143 90
154 151 92
156 154 89
159 155 91
165 160 95
159 156 94
164 159 94
166 161 98
160 156 92
152 148 78
161 157 83
169 163 94
160 156 89
166 160 94
167 161 89
164 160 85
160 156 92
164 160 89
164 159 84
171 165 93
168 163 96
165 161 94
165 160 91
165 160 82
171 166 91
167 162 90
170 164 94
174 168 100
174 168 95
173 167 94
171 165 95
171 165 93
174 168 99
171 165 94
169 163 91
174 168 98
174 168 102
173 167 98
175 168 94
174 167 97
174 168 97
175 169 97
169 165 96
181 174 111
176 170 99
175 169 100
175 170 103
175 170 102
173 167 88
174 168 93
176 171 106
176 170 100
176 170 99
176 170 99
174 168 96
173 168 97
171 165 91
177 171 102
178 172 106
175 169 96
176 171 104
176 172 111
179 174 115
174 170 106
179 173 112
173 168 98
179 174 116
176 171 104
180 175 115
177 173 113
180 173 109
176 171 110
177 173 117
179 175 120
176 171 106
176 172 107
178 173 112
181 177 122
177 174 117
175 170 104
175 170 103
180 175 115
177 175 122
176 173 115
178 176 125
183 180 129
180 176 120
173 168 97
178 176 124
184 181 134
182 179 131
180 176 120
181 178 128
180 178 124
181 176 121
183 181 138
184 182 137
181 179 134
182 179 129
178 175 117
183 181 139
182 178 127
183 181 136
180 178 128
183 178 123
186 187 153
183 182 137
218 234 255
218 234 255
218 234 255
218 234 255
218 234 255
218 234 255
218 234 255
218 234 255
218 234 255
218 234 255
218 234 255
218 234 255
218 234 255
218 234 255
218 234 255
218 234 255
218 234 255
218 234 255
218 234 255
218 234 255
218 234 255
218 234 255
218 234 255
218 234 255
218 234 255
218 234 255
218 234 255
218 234 255
218 234 255
218 234 255
218 234 255
218 234 255
218 234 255
218 234 255
218 234 255
218 234 255
218 234 255
218 234 255
218 234 255
218 234 255
218 234 255
218 234 255
218 234 255
218 234 255
218 234 255
218 234 255
218 234 255
218 234 255
218 234 255
218 234 255
218 234 255
218 234 255
218 234 255
218 234 255
218 234 255
218 234 255
218 234 255
218 234 255
218 234 255
218 234 255
218 234 255
218 234 255
218 234 255
218 234 255
218 234 255
218 234 255
218 234 255
218 234 255
218 234 255
218 234 255
218 234 255
218 234 255
218 234 255
218 234 255
218 234 255
218 234 255
218 234 255
218 234 255
218 234 255
218 234 255
218 234 255
218 234 255
218 234 255
218 234 255
218 234 255
218 234 255
218 234 255
218 234 255
218 234 255
218 234 255
218 234 255
218 234 255
218 234 255
218 234 255
218 234 255
218 234 255
218 234 255
218 234 255
218 234 255
218 234 255
218 233 255
218 233 255
218 233 255
218 233 255
218 233 255
217 233 255
217 233 255
217 233 255
217 233 255
217 233 255
217 233 255
217 233 255
217 233 255
217 233 255
217 233 255
217 233 255
217 233 255
217 233 255
217 233 255
217 233 255
217 233 255
217 233 255
217 233 255
217 233 255
217 233 255
217 233 255
217 233 255
217 233 255
216 233 255
216 233 255
216 233 255
216 233 255
216 233 255
189 207 233
58 92 140
58 92 139
60 95 144
59 94 150
58 92 140
59 94 148
56 90 133
55 89 135
57 90 142
57 91 138
56 89 146
54 87 140
57 91 141
210 226 249
186 202 224
59 95 145
59 94 135
58 92 135
61 97 152
60 95 143
60 95 137
59 94 134
60 94 135
61 96 142
60 95 137
61 96 147
59 94 128
61 96 145
60 95 137
61 96 149
60 95 136
58 92 136
60 95 134
60 95 135
60 96 140
60 95 140
61 96 140
60 95 135
59 94 134
60 95 142
61 96 141
61 96 143
61 96 141
60 96 137
60 95 149
61 96 141
60 95 137
61 96 152
61 96 139
60 95 142
61 96 144
61 95 141
60 94 137
61 96 140
61 97 148
60 95 128
59 94 130
62 98 152
61 97 148
62 97 147
60 95 133
60 94 130
60 95 141
61 95 136
59 93 122
60 95 133
60 95 137
60 95 136
60 94 130
62 97 147
59 93 134
61 96 140
60 94 135
60 95 140
59 93 131
61 95 141
61 96 140
60 95 137
60 94 135
61 96 147
62 97 148
58 92 132
60 95 144
60 95 136
60 95 143
61 96 148
61 96 144
60 94 140
61 96 147
60 94 134
59 93 127
59 94 133
60 95 144
60 93 134
60 95 146
59 92 134
61 95 141
61 96 151
60 94 144
60 95 134
61 95 141
60 93 131
60 94 133
61 95 142
60 93 133
59 92 136
59 92 132
59 92 136
59 91 139
57 89 126
59 92 139
58 90 133
59 92 133
58 91 131
56 86 128
56 86 128
54 82 115
128 137 141
160 168 166
160 169 173
143 152 153
144 155 161
123 133 136
126 136 139
127 137 142
134 145 150
133 142 142
122 131 129
122 131 125
126 136 136
115 122 114
109 117 109
117 124 109
118 125 109
120 128 115
124 131 116
124 129 99
132 137 118
130 134 102
121 126 98
124 129 108
132 135 103
138 141 109
154 154 116
144 146 106
140 141 107
144 146 107
140 141 100
152 152 106
146 146 101
159 157 105
147 147 99
148 147 95
152 150 95
142 140 83
144 144 96
156 154 102
151 150 98
150 147 85
151 149 88
149 147 83
156 152 88
153 150 91
159 154 86
150 148 88
165 160 93
157 153 89
157 153 82
163 158 90
156 152 81
167 162 93
158 154 91
160 156 83
163 158 88
164 158 91
164 159 88
165 160 85
163 158 80
168 163 94
165 160 84
168 162 90
168 162 93
171 165 94
172 165 92
166 161 87
172 166 94
174 167 94
170 164 89
174 167 94
169 163 96
172 167 102
168 162 87
175 168 94
172 165 90
169 164 91
169 163 84
170 165 95
177 170 97
175 169 99
175 169 100
175 169 99
176 169 97
173 167 99
175 170 104
175 168 97
172 166 90
173 168 96
175 169 99
173 167 92
178 172 104
173 168 95
169 164 91
172 167 94
173 167 96
175 170 108
176 171 101
177 171 106
175 170 104
176 172 114
174 169 102
172 167 99
179 173 114
178 173 110
178 174 115
179 174 114
174 169 98
180 176 118
178 173 113
179 174 112
179 174 115
179 174 116
175 172 113
179 174 112
174 170 107
177 171 103
175 170 109
179 173 110
178 174 115
177 173 110
175 172 111
175 170 110
177 174 114
181 178 129
178 174 110
181 178 126
180 178 130
178 173 110
183 182 137
181 176 118
178 177 126
181 179 130
178 174 118
181 177 125
183 181 138
180 177 122
184 181 131
185 182 135
179 176 121
178 174 118
181 180 133
183 180 131
182 182 139
184 183 141
186 185 144
181 178 126
184 182 137
219 234 255
219 234 255
219 234 255
219 234 255
219 234 255
219 234 255
219 234 255
219 234 255
219 234 255
219 234 255
219 234 255
219 234 255
219 234 255
219 234 255
219 234 255
219 234 255
219 234 255
219 234 255
219 234 255
219 234 255
219 234 255
219 234 255
219 234 255
219 234 255
219 234 255
219 234 255
219 234 255
219 234 255
219 234 255
219 234 255
219 234 255
219 234 255
219 234 255
219 234 255
219 234 255
219 234 255
219 234 255
219 234 255
219 234 255
219 234 255
219 234 255
219 234 255
219 234 255
219 234 255
219 234 255
219 234 255
219 234 255
219 234 255
219 234 255
219 234 255
219 234 255
219 234 255
219 234 255
219 234 255
219 234 255
219 234 255
219 234 255
219 234 255
219 234 255
219 234 255
219 234 255
219 234 255
219 234 255
219 234 255
219 234 255
219 234 255
219 234 255
219 234 255
219 234 255
219 234 255
219 234 255
219 234 255
219 234 255
219 234 255
219 234 255
219 234 255
219 234 255
219 234 255
219 234 255
219 234 255
219 234 255
219 234 255
219 234 255
219 234 255
219 234 255
219 234 255
219 234 255
219 234 255
219 234 255
219 234 255
219 234 255
218 234 255
218 234 255
218 234 255
218 234 255
218 234 255
218 234 255
218 234 255
218 234 255
218 234 255
218 234 255
218 234 255
218 234 255
218 234 255
218 234 255
218 234 255
218 234 255
218 234 255
218 234 255
218 234 255
218 234 255
218 234 255
218 234 255
218 234 255
218 234 255
218 234 255
218 234 255
218 234 255
218 234 255
218 234 255
218 234 255
218 234 255
218 234 255
218 234 255
218 234 255
218 234 255
218 233 255
218 233 255
217 233 255
217 233 255
217 233 255
217 233 255
217 233 255
198 215 240
58 92 142
57 91 139
60 95 143
59 95 143
58 93 148
56 90 123
59 94 145
59 93 148
56 90 135
56 90 141
55 89 143
55 88 136
55 88 143
193 209 232
166 183 208
58 93 133
60 95 144
59 94 140
58 92 128
58 92 126
60 95 139
59 94 136
60 95 136
59 94 139
61 96 142
60 95 136
59 93 133
59 93 133
61 95 141
61 96 140
60 95 143
61 95 134
62 97 143
60 95 143
60 94 135
61 96 147
60 94 135
60 95 139
61 96 142
60 95 139
60 96 143
60 95 137
60 94 136
59 93 133
61 96 142
59 93 126
60 94 140
60 95 136
61 95 147
59 93 128
61 96 143
61 96 133
61 96 139
59 93 133
62 96 148
60 94 133
60 95 141
62 97 143
60 95 137
60 95 147
60 95 136
61 95 142
60 95 141
61 95 136
60 95 140
59 93 130
60 95 136
61 96 148
60 95 134
60 95 135
60 95 136
60 94 128
61 97 150
60 95 134
60 95 136
60 94 133
61 96 143
60 95 139
59 94 126
61 95 140
60 95 135
60 95 136
59 93 135
61 95 141
61 96 141
60 94 138
61 96 149
60 94 141
61 96 144
59 94 138
59 92 124
59 94 134
61 95 141
58 92 126
59 92 131
61 95 148
60 95 137
59 92 123
61 94 145
59 92 131
57 90 115
60 93 136
58 91 131
59 91 135
58 90 124
59 92 137
59 93 130
58 91 131
59 93 134
57 89 120
58 89 124
60 93 140
58 90 130
57 88 128
56 87 131
54 83 115
55 84 120
124 136 146
159 168 169
148 156 158
135 144 148
131 140 142
124 133 133
128 139 143
137 148 153
127 137 139
118 128 127
105 115 115
115 123 113
129 138 136
116 123 111
130 138 129
119 125 110
121 126 100
124 130 110
126 132 116
128 133 110
131 133 104
134 140 123
125 129 98
124 128 98
142 144 112
133 136 104
142 143 106
131 133 89
141 142 105
136 135 90
133 134 88
142 141 89
136 137 93
148 147 101
149 147 90
158 157 110
153 151 97
149 148 89
156 153 100
147 144 86
159 156 97
156 152 95
153 150 89
151 150 93
164 159 95
159 155 91
152 148 84
154 152 93
161 157 92
154 150 82
158 154 83
156 152 86
162 157 86
162 157 89
167 161 88
154 151 83
162 157 90
168 163 91
157 152 83
166 161 88
169 163 92
169 162 89
170 164 89
168 162 92
168 162 89
169 162 83
169 163 90
169 163 93
169 164 92
168 162 87
166 160 84
171 165 92
170 164 91
167 162 86
168 163 91
168 162 84
175 169 97
170 165 96
174 168 97
171 165 88
174 168 94
173 167 92
175 170 102
173 166 92
174 169 99
171 165 91
171 166 94
172 166 88
171 166 93
174 168 97
172 166 91
174 170 105
172 167 93
172 166 90
177 172 109
175 168 93
178 173 113
173 168 99
174 170 106
178 173 113
173 168 97
176 171 103
173 169 101
173 169 101
170 165 88
176 171 108
178 174 115
176 170 103
181 177 122
181 176 117
177 172 107
180 176 118
177 172 108
177 173 115
175 172 111
177 173 116
178 174 116
181 178 125
178 174 115
179 175 118
180 177 123
181 178 123
179 175 118
181 177 122
179 177 127
177 172 108
182 180 134
178 175 121
177 174 114
178 175 123
180 178 130
180 177 124
174 171 110
181 178 129
182 178 124
182 178 125
175 171 108
182 178 124
180 178 129
179 176 123
180 179 133
181 180 133
180 178 124
186 186 149
182 179 128
185 184 144
180 176 120
179 176 122
183 183 142
219 235 255
219 234 255
219 234 255
219 234 255
219 235 255
219 234 255
219 234 255
219 234 255
219 235 255
219 235 255
219 234 255
219 235 255
219 235 255
219 234 255
219 235 255
219 235 255
219 235 255
219 235 255
219 235 255
219 235 255
219 235 255
219 235 255
219 235 255
219 235 255
219 235 255
219 235 255
219 235 255
219 235 255
219 235 255
219 235 255
219 235 255
219 235 255
219 235 255
219 235 255
219 235 255
219 235 255
219 235 255
219 235 255
219 235 255
219 235 255
219 235 255
219 235 255
219 235 255
219 235 255
219 235 255
219 235 255
219 234 255
219 234 255
219 235 255
219 235 255
219 235 255
219 234 255
219 235 255
219 235 255
219 235 255
219 234 255
219 235 255
219 234 255
219 235 255
219 234 255
219 234 255
219 234 255
219 234 255
219 234 255
219 234 255
219 234 255
219 234 255
219 234 255
219 234 255
219 234 255
219 234 255
219 234 255
219 234 255
219 234 255
219 234 255
219 234 255
219 234 255
219 234 255
219 234 255
219 234 255
219 234 255
219 234 255
219 234 255
219 234 255
219 234 255
219 234 255
219 234 255
219 234 255
219 234 255
219 234 255
219 234 255
219 234 255
219 234 255
219 234 255
219 234 255
219 234 255
219 234 255
219 234 255
219 234 255
219 234 255
219 234 255
219 234 255
219 234 255
219 234 255
219 234 255
219 234 255
219 234 255
219 234 255
219 234 255
219 234 255
219 234 255
219 234 255
219 234 255
219 234 255
219 234 255
219 234 255
219 234 255
219 234 255
219 234 255
219 234 255
219 234 255
219 234 255
219 234 255
219 234 255
219 234 255
219 234 255
218 234 255
218 234 255
218 234 255
218 234 255
218 234 255
218 234 255
218 234 255
207 222 243
58 92 141
56 89 142
58 93 144
59 94 144
57 92 134
57 91 133
56 89 141
56 90 142
57 91 148
55 88 138
53 86 132
54 87 132
55 88 135
164 182 210
163 181 209
60 96 153
58 92 126
59 94 142
59 94 135
58 93 126
59 94 129
59 93 134
60 95 135
59 94 130
60 95 144
60 94 133
60 95 137
60 96 140
59 94 135
62 97 151
60 95 133
61 96 140
60 95 141
58 93 133
60 94 139
59 94 141
61 97 149
60 94 137
59 93 133
60 95 136
61 95 142
60 94 134
59 94 133
59 94 129
60 95 137
59 93 126
59 93 122
60 94 130
62 97 152
61 96 149
59 94 139
60 94 133
61 96 137
61 96 134
59 93 136
60 95 134
62 97 144
61 95 139
60 95 136
60 95 134
60 94 136
59 94 140
60 95 139
61 95 139
59 94 133
60 94 134
58 92 124
59 93 130
59 93 129
61 96 136
59 94 130
62 98 150
61 96 141
60 95 129
60 95 129
59 94 130
60 95 145
60 95 137
60 95 136
60 94 133
60 94 135
60 94 136
61 96 143
61 95 134
60 94 132
60 95 142
60 95 142
60 94 132
59 93 135
59 93 126
61 95 137
60 94 139
59 92 130
61 95 139
60 94 140
61 95 147
61 95 144
60 94 128
61 95 141
60 94 134
60 93 131
59 93 129
59 92 137
60 93 133
59 93 136
58 91 132
58 91 127
58 91 129
59 92 136
56 87 122
58 89 128
57 89 132
58 90 123
57 88 126
57 88 126
56 85 115
56 84 116
115 127 138
142 148 140
141 150 151
120 127 128
136 145 147
122 131 130
134 144 150
108 118 118
122 132 134
123 132 133
112 121 118
131 140 139
107 117 110
127 135 129
104 111 96
114 120 96
116 122 102
125 132 117
110 116 96
118 124 106
127 133 111
120 125 95
116 121 99
130 133 102
130 132 93
129 131 98
135 136 96
138 138 96
142 143 106
139 139 94
141 139 85
148 150 114
143 143 96
145 146 102
146 144 95
149 147 90
140 140 83
153 150 96
155 153 101
154 151 88
141 140 89
152 150 92
156 152 86
152 148 79
154 150 80
152 149 83
156 152 89
159 155 86
166 160 92
158 154 85
160 155 80
163 158 90
167 162 90
159 155 82
159 154 88
155 152 78
157 152 79
162 157 87
159 155 89
159 155 86
166 161 84
171 164 87
163 158 86
165 159 83
171 165 90
166 161 84
168 161 85
168 162 88
168 162 87
167 161 87
170 164 89
167 162 82
168 163 86
164 158 85
170 164 81
173 167 91
175 167 89
173 167 101
174 167 94
171 166 94
166 161 81
172 166 97
173 167 90
172 167 92
174 168 99
173 169 103
171 165 87
169 164 87
172 165 89
176 169 95
176 171 106
174 168 98
173 168 95
174 168 95
172 165 90
174 168 93
175 169 98
174 169 98
173 168 102
170 166 95
179 174 115
177 173 112
175 169 98
170 166 93
175 171 110
178 174 114
177 173 111
170 165 90
175 168 93
176 172 112
177 174 115
176 171 109
183 180 133
175 170 104
172 168 96
175 170 101
174 167 95
176 170 105
181 176 121
175 170 108
179 177 125
177 174 118
173 168 97
178 175 117
177 175 117
182 178 125
176 171 107
178 174 116
179 176 121
181 178 126
179 176 121
179 175 117
173 170 106
183 180 133
183 179 129
178 175 119
179 177 129
179 176 120
184 180 129
180 177 123
179 177 123
185 184 144
178 174 115
183 183 144
180 176 119
180 178 131
181 180 134
182 180 132
183 181 134
220 235 255
220 235 255
220 235 255
220 235 255
220 235 255
220 235 255
220 235 255
220 235 255
220 235 255
220 235 255
220 235 255
220 235 255
220 235 255
220 235 255
220 235 255
220 235 255
220 235 255
220 235 255
220 235 255
220 235 255
220 235 255
220 235 255
220 235 255
220 235 255
220 235 255
220 235 255
220 235 255
220 235 255
220 235 255
220 235 255
220 235 255
220 235 255
220 235 255
220 235 255
220 235 255
220 235 255
220 235 255
220 235 255
220 235 255
220 235 255
220 235 255
220 235 255
220 235 255
220 235 255
220 235 255
220 235 255
220 235 255
220 235 255
220 235 255
220 235 255
220 235 255
220 235 255
220 235 255
220 235 255
220 235 255
220 235 255
220 235 255
220 235 255
220 235 255
220 235 255
220 235 255
220 235 255
220 235 255
220 235 255
220 235 255
220 235 255
220 235 255
220 235 255
220 235 255
220 235 255
220 235 255
220 235 255
220 235 255
220 235 255
220 235 255
220 235 255
220 235 255
220 235 255
220 235 255
220 235 255
220 235 255
220 235 255
220 235 255
220 235 255
220 235 255
220 235 255
220 235 255
220 235 255
220 235 255
220 235 255
220 235 255
220 235 255
220 235 255
220 235 255
220 235 255
220 235 255
220 235 255
220 235 255
220 235 255
220 235 255
220 235 255
220 235 255
220 235 255
220 235 255
220 235 255
220 235 255
220 235 255
220 235 255
220 235 255
220 235 255
220 235 255
220 235 255
220 235 255
220 235 255
220 235 255
220 235 255
220 235 255
220 235 255
220 235 255
220 235 255
220 235 255
220 235 255
220 235 255
219 235 255
219 235 255
219 235 255
219 235 255
219 234 255
219 235 255
219 234 255
219 234 255
219 234 255
219 234 255
213 228 250
59 93 133
55 88 134
58 92 135
58 93 137
58 92 136
58 92 136
57 91 138
56 90 136
54 87 128
54 87 138
53 85 128
53 85 132
49 80 123
156 173 198
142 160 191
58 92 130
59 93 129
60 95 142
59 93 128
58 93 133
59 93 129
61 96 143
61 97 143
59 94 133
59 94 128
60 94 129
62 97 147
61 95 137
60 95 135
59 94 128
60 95 141
61 96 148
59 94 133
60 95 143
59 95 131
61 96 142
59 94 135
60 95 134
59 94 129
60 95 144
61 96 135
60 94 137
58 92 131
60 94 141
60 95 140
59 94 134
61 96 139
59 94 134
60 95 140
62 97 150
59 94 135
60 95 143
61 96 145
59 94 129
61 96 145
60 95 135
61 96 140
61 96 142
59 94 134
61 96 142
61 96 144
62 97 143
58 93 128
59 94 133
59 94 133
60 95 131
60 94 131
58 92 118
60 95 129
60 95 137
62 97 143
60 95 139
61 95 136
60 94 135
59 93 130
60 95 133
60 95 141
61 95 137
60 95 137
61 96 143
62 97 145
60 94 132
61 96 144
60 95 140
59 93 126
60 93 133
60 95 140
60 95 139
61 95 138
59 93 132
59 93 137
61 95 139
60 95 139
59 93 130
60 94 142
59 93 132
61 94 145
59 93 132
58 91 126
61 95 141
59 92 130
59 91 127
58 91 118
59 92 127
58 90 122
57 89 126
59 93 138
59 92 124
58 90 125
57 89 128
58 90 126
58 90 128
59 90 130
56 87 126
55 85 112
56 86 129
56 84 115
108 121 137
152 161 162
138 146 146
149 160 169
133 143 147
135 145 153
110 120 124
116 125 127
133 144 150
113 121 119
106 115 109
107 116 109
125 133 121
98 105 91
115 122 108
132 139 125
132 138 123
120 126 105
132 139 122
132 136 110
124 128 100
131 134 107
129 132 105
121 125 95
138 138 94
131 134 104
141 143 106
137 139 103
143 144 104
137 137 86
147 147 101
140 140 83
140 140 89
135 135 87
141 140 79
145 144 95
144 143 90
149 146 89
154 151 93
148 146 84
147 144 84
156 154 93
152 149 87
158 154 96
159 156 90
155 152 87
149 146 79
156 152 86
160 155 83
151 148 80
158 154 86
166 160 92
155 151 79
162 157 91
160 155 83
165 160 90
159 154 86
165 160 88
163 159 77
169 164 93
160 156 84
164 159 85
163 158 86
167 161 86
170 163 87
167 161 86
169 163 89
168 163 90
166 161 79
163 158 79
165 160 83
170 165 86
170 165 92
168 163 89
169 163 87
174 168 99
166 161 81
172 165 89
169 164 90
171 166 92
168 163 85
169 162 84
173 168 99
170 166 96
172 164 87
175 169 101
175 169 96
175 168 97
176 169 95
173 166 90
173 167 94
175 168 98
177 170 103
173 167 92
172 167 95
171 167 94
171 167 101
176 169 97
171 165 95
174 169 103
174 169 101
175 170 103
178 174 116
176 171 110
176 170 98
175 169 101
175 171 104
174 169 104
173 168 101
178 172 108
175 171 104
173 168 101
179 174 117
179 175 117
181 176 118
178 173 108
177 172 115
175 171 105
178 174 116
173 169 100
175 172 109
174 169 101
180 176 121
178 174 113
175 172 112
176 174 118
178 176 125
177 173 113
181 177 124
178 175 120
179 175 117
178 175 122
183 181 131
179 175 120
179 175 117
175 171 107
179 176 123
179 176 123
177 174 115
177 173 114
182 179 127
179 176 125
183 181 132
179 175 117
182 178 127
177 173 113
176 174 116
181 179 134
180 178 126
221 235 255
221 235 255
221 235 255
221 235 255
221 235 255
221 235 255
221 235 255
221 235 255
221 235 255
221 235 255
221 235 255
221 235 255
221 235 255
221 235 255
221 235 255
221 235 255
221 235 255
221 235 255
221 235 255
221 235 255
221 235 255
221 235 255
221 235 255
221 235 255
221 235 255
221 235 255
221 235 255
221 235 255
221 235 255
221 235 255
221 235 255
221 235 255
221 235 255
221 235 255
221 235 255
221 235 255
221 235 255
221 235 255
221 235 255
221 235 255
221 235 255
221 235 255
221 235 255
221 235 255
221 235 255
221 235 255
221 235 255
221 235 255
221 235 255
221 235 255
221 235 255
221 235 255
221 235 255
221 235 255
221 235 255
221 235 255
221 235 255
221 235 255
221 235 255
221 235 255
221 235 255
221 235 255
221 235 255
221 235 255
221 235 255
221 235 255
221 235 255
221 235 255
221 235 255
221 235 255
221 235 255
221 235 255
221 235 255
221 235 255
221 235 255
221 235 255
221 235 255
221 235 255
221 235 255
221 235 255
221 235 255
221 235 255
221 235 255
221 235 255
221 235 255
221 235 255
221 235 255
221 235 255
221 235 255
221 235 255
221 235 255
221 235 255
221 235 255
221 235 255
221 235 255
221 235 255
220 235 255
220 235 255
221 235 255
220 235 255
221 235 255
220 235 255
220 235 255
220 235 255
221 235 255
220 235 255
220 235 255
220 235 255
220 235 255
220 235 255
220 235 255
220 235 255
220 235 255
220 235 255
220 235 255
220 235 255
220 235 255
220 235 255
220 235 255
220 235 255
220 235 255
220 235 255
220 235 255
220 235 255
220 235 255
220 235 255
220 235 255
220 235 255
220 235 255
220 235 255
220 235 255
220 235 255
220 235 255
220 235 255
58 92 139
53 85 127
56 89 135
57 91 136
56 89 118
58 93 139
56 90 135
55 88 131
58 91 136
56 89 135
51 82 131
51 83 117
55 88 136
154 172 201
158 176 199
58 93 125
59 94 131
59 93 128
60 94 134
60 95 142
60 95 141
59 94 131
61 96 144
60 95 135
60 94 139
60 95 130
61 96 144
61 96 136
60 94 135
60 95 135
60 94 130
60 95 134
60 95 136
59 93 126
59 94 133
58 93 125
60 95 139
60 95 147
60 94 135
61 96 141
60 94 135
60 95 136
60 95 137
60 95 136
59 94 131
60 95 136
60 95 139
61 96 143
61 97 143
61 96 136
62 97 148
60 95 140
61 95 139
60 94 131
60 95 139
61 96 136
62 97 150
58 93 117
60 95 129
59 93 136
59 93 130
60 95 139
60 95 133
61 96 139
59 93 130
60 95 131
61 96 141
61 95 143
59 93 131
60 94 129
60 95 133
62 96 141
60 94 133
61 96 152
60 95 137
59 94 134
60 95 137
60 95 135
60 95 134
60 94 133
60 95 139
59 94 133
61 95 141
60 95 139
58 92 125
61 95 135
59 93 134
60 95 140
59 93 137
59 92 132
59 92 123
59 93 133
60 93 142
59 94 135
60 93 133
60 93 137
57 91 118
59 93 132
60 94 137
60 93 137
58 91 115
58 91 124
59 92 127
60 93 129
60 93 137
58 90 132
58 91 130
60 93 138
58 90 130
60 93 139
58 91 130
58 90 132
58 89 124
56 87 113
58 88 125
54 83 115
52 80 104
110 122 135
149 156 155
141 149 152
123 130 129
135 144 151
125 134 138
119 128 131
120 130 136
123 132 133
104 113 112
122 132 130
117 126 124
106 114 108
124 132 127
117 125 120
112 120 109
121 128 112
119 125 109
125 128 100
127 131 108
133 137 111
133 138 113
125 129 96
126 131 111
115 120 86
133 135 99
127 130 96
130 131 94
136 137 95
122 125 80
129 129 79
129 132 97
133 135 92
143 142 82
146 145 98
145 144 93
149 147 92
149 146 83
151 148 88
154 151 83
153 149 84
145 143 76
158 154 91
155 149 76
154 151 89
158 154 81
158 154 89
157 153 84
158 154 85
156 152 81
157 152 87
158 154 86
165 160 94
159 154 83
160 156 84
153 149 78
165 159 88
162 156 82
163 159 89
165 160 82
160 154 77
169 163 86
160 156 83
170 163 83
163 157 84
166 161 86
161 157 86
166 161 85
164 159 85
165 159 84
169 164 93
166 161 80
166 161 87
169 163 88
168 163 80
170 164 94
171 164 87
172 165 91
174 167 95
166 162 86
175 169 101
173 167 92
170 165 89
174 168 98
176 169 102
173 166 93
167 162 81
169 164 85
173 167 88
171 166 90
174 168 96
170 165 95
173 166 97
171 167 96
176 170 97
173 168 100
174 168 96
176 171 103
174 168 97
178 173 115
178 172 105
175 170 105
172 166 97
174 168 96
173 167 99
177 172 110
175 168 95
175 169 103
176 170 100
175 171 104
179 175 117
177 172 108
177 172 110
177 173 111
174 170 109
175 170 106
180 177 127
178 176 123
175 171 109
174 169 102
179 175 120
180 176 123
178 176 123
178 174 118
176 171 109
181 177 124
179 176 124
179 176 123
176 174 125
179 175 117
177 174 117
179 176 122
177 175 122
178 176 124
181 178 125
178 173 116
180 177 126
183 181 134
179 176 124
180 177 124
175 171 111
179 177 125
178 174 113
183 179 129
182 179 129
182 181 135
182 178 124
178 177 129
182 181 133
221 236 255
221 236 255
221 236 255
221 236 255
221 236 255
221 236 255
221 236 255
221 236 255
221 236 255
221 236 255
221 236 255
221 236 255
221 236 255
221 236 255
221 236 255
221 236 255
221 236 255
221 236 255
221 236 255
221 236 255
221 236 255
221 236 255
221 236 255
221 236 255
221 236 255
221 236 255
221 236 255
221 236 255
221 236 255
221 236 255
221 236 255
221 236 255
221 236 255
221 236 255
221 236 255
221 236 255
221 236 255
221 236 255
221 236 255
221 236 255
221 236 255
221 236 255
221 236 255
221 236 255
221 236 255
221 236 255
221 236 255
221 236 255
221 236 255
221 236 255
221 236 255
221 236 255
221 236 255
221 236 255
221 236 255
221 236 255
221 236 255
221 236 255
221 236 255
221 236 255
221 236 255
221 236 255
221 236 255
221 236 255
221 236 255
221 236 255
221 236 255
221 236 255
221 236 255
221 236 255
221 236 255
221 236 255
221 236 255
221 236 255
221 236 255
221 236 255
221 236 255
221 236 255
221 236 255
221 236 255
221 236 255
221 236 255
221 236 255
221 236 255
221 236 255
221 236 255
221 236 255
221 236 255
221 236 255
221 236 255
221 236 255
221 236 255
221 236 255
221 236 255
221 236 255
221 236 255
221 236 255
221 236 255
221 236 255
221 236 255
221 236 255
221 236 255
221 236 255
221 236 255
221 236 255
221 236 255
221 236 255
221 236 255
221 236 255
221 236 255
221 236 255
221 236 255
221 236 255
221 236 255
221 235 255
221 236 255
221 236 255
221 236 255
221 236 255
221 236 255
221 236 255
221 236 255
221 236 255
221 236 255
221 236 255
221 236 255
221 236 255
221 236 255
221 236 255
221 236 255
221 236 255
221 236 255
221 235 255
220 235 255
58 92 143
57 91 134
57 91 128
58 93 138
57 92 141
57 90 135
57 91 134
57 90 128
57 91 138
52 83 116
50 81 113
55 87 128
54 86 133
130 149 178
150 168 194
59 93 126
57 91 131
58 93 134
59 94 133
59 94 137
60 95 139
60 94 129
57 92 130
59 93 134
60 95 141
58 92 125
60 95 128
60 95 137
60 96 141
60 95 136
60 95 136
60 95 135
58 92 117
60 94 131
60 94 139
59 94 139
61 96 139
61 96 140
59 94 131
60 94 128
60 95 129
60 94 133
59 93 122
61 96 141
62 97 140
61 96 142
60 94 136
60 95 137
61 97 141
60 95 135
60 95 134
60 94 137
60 94 128
60 94 131
59 94 136
61 95 137
59 94 134
59 93 126
60 95 141
60 94 136
58 93 120
60 95 137
60 95 140
60 94 134
61 97 144
59 94 136
61 95 139
60 94 134
60 95 135
61 95 142
61 96 142
60 94 128
59 93 131
60 95 137
60 95 139
59 93 128
60 94 132
61 96 140
59 93 125
59 93 132
60 94 135
60 95 135
59 93 123
60 94 133
59 92 121
61 95 140
59 93 128
60 94 132
60 93 132
59 93 130
60 93 134
60 93 139
59 93 125
61 95 138
58 91 121
60 95 137
60 94 137
58 91 119
60 94 137
59 92 135
59 92 130
59 92 128
59 92 130
60 94 139
58 90 122
59 92 127
59 91 129
59 91 119
57 88 120
57 88 122
60 93 142
58 90 127
58 88 122
55 84 121
56 85 119
53 80 112
53 82 123
103 115 122
161 170 172
134 143 147
130 138 142
131 141 148
129 137 139
119 129 132
114 123 128
127 137 141
113 123 124
105 114 112
107 117 110
118 126 118
120 130 126
117 125 111
120 128 123
121 126 105
117 123 108
122 127 99
124 128 103
115 119 89
129 134 106
108 114 88
124 127 94
130 133 96
138 141 105
127 127 86
130 132 90
130 130 94
130 131 93
140 141 103
136 139 96
152 152 105
146 144 92
143 142 90
151 148 93
145 143 89
147 144 87
146 145 86
145 142 84
153 149 87
150 147 88
145 142 78
157 153 87
157 154 95
151 148 87
156 151 80
154 151 81
157 154 87
157 152 76
153 149 75
153 149 84
164 159 89
163 157 82
160 155 84
157 152 83
161 156 83
163 158 88
164 159 81
159 154 80
165 159 82
165 160 82
167 161 89
164 158 84
168 162 85
162 157 84
164 158 85
166 159 78
165 160 84
169 162 86
171 164 84
173 166 90
171 165 93
172 166 91
169 163 82
170 164 87
167 162 83
171 164 85
174 167 90
171 164 91
165 159 81
172 165 89
171 164 89
170 165 86
175 169 94
168 163 89
172 165 90
174 168 100
175 169 98
174 168 93
175 170 104
172 167 97
173 167 93
175 168 98
175 169 99
176 170 99
172 167 97
172 166 96
175 169 100
175 169 106
175 169 98
174 169 104
173 167 97
180 175 115
172 169 107
174 170 108
170 165 91
177 172 108
175 169 101
174 167 97
177 171 101
181 176 115
173 168 97
177 173 113
173 170 106
174 168 100
170 165 90
176 170 105
176 171 109
169 164 90
175 169 101
180 175 117
177 173 113
178 172 108
175 170 108
182 180 134
175 174 117
182 179 126
179 176 119
181 179 127
178 173 110
179 177 125
173 170 106
178 176 121
180 177 122
176 173 118
182 180 132
182 178 123
183 182 138
177 173 115
182 182 140
179 176 128
180 178 129
180 177 124
180 175 120
186 185 147
183 179 129
180 177 122
184 184 143
222 236 255
222 236 255
222 236 255
222 236 255
222 236 255
222 236 255
222 236 255
222 236 255
222 236 255
222 236 255
222 236 255
222 236 255
222 236 255
222 236 255
222 236 255
222 236 255
222 236 255
222 236 255
222 236 255
222 236 255
222 236 255
222 236 255
222 236 255
222 236 255
222 236 255
222 236 255
222 236 255
222 236 255
222 236 255
222 236 255
222 236 255
222 236 255
222 236 255
222 236 255
222 236 255
222 236 255
222 236 255
222 236 255
222 236 255
222 236 255
222 236 255
222 236 255
222 236 255
222 236 255
222 236 255
222 236 255
222 236 255
222 236 255
222 236 255
222 236 255
222 236 255
222 236 255
222 236 255
222 236 255
222 236 255
222 236 255
222 236 255
222 236 255
222 236 255
222 236 255
222 236 255
222 236 255
222 236 255
222 236 255
222 236 255
222 236 255
222 236 255
222 236 255
222 236 255
222 236 255
222 236 255
222 236 255
222 236 255
222 236 255
222 236 255
222 236 255
222 236 255
222 236 255
222 236 255
222 236 255
222 236 255
222 236 255
222 236 255
222 236 255
222 236 255
222 236 255
222 236 255
222 236 255
222 236 255
222 236 255
222 236 255
222 236 255
222 236 255
222 236 255
222 236 255
222 236 255
222 236 255
222 236 255
222 236 255
222 236 255
222 236 255
222 236 255
222 236 255
222 236 255
222 236 255
222 236 255
222 236 255
222 236 255
222 236 255
222 236 255
222 236 255
222 236 255
222 236 255
222 236 255
222 236 255
222 236 255
222 236 255
222 236 255
222 236 255
222 236 255
222 236 255
222 236 255
222 236 255
222 236 255
222 236 255
222 236 255
222 236 255
222 236 255
222 236 255
222 236 255
222 236 255
222 236 255
222 236 255
220 234 254
57 91 125
55 88 126
58 91 126
56 90 124
59 93 140
57 90 128
58 92 129
56 90 126
55 88 125
55 87 138
50 82 104
52 84 121
55 89 137
147 164 188
158 176 202
58 93 129
59 93 129
59 93 140
59 93 128
59 94 133
59 94 135
60 95 136
61 96 144
61 96 143
59 93 139
61 96 143
60 95 144
59 93 130
58 92 130
59 94 133
61 97 140
61 96 144
61 96 144
61 96 142
59 94 131
60 94 141
60 95 133
59 93 134
60 94 130
61 96 141
59 94 135
61 96 139
58 93 126
59 94 131
60 95 135
60 95 139
61 96 144
61 95 139
60 95 135
60 94 131
60 94 134
61 96 139
59 94 124
60 95 147
59 93 130
61 97 140
61 96 145
61 96 143
59 93 124
60 95 142
59 93 129
59 93 124
59 93 129
60 93 128
60 94 139
60 95 139
60 94 133
60 95 139
59 94 133
60 94 140
59 94 134
61 95 133
59 94 130
60 95 134
59 94 139
59 93 124
59 94 126
60 95 137
59 92 128
61 95 135
59 93 126
59 93 134
60 94 136
58 92 125
59 93 136
60 94 136
61 95 141
61 96 140
59 93 125
59 92 128
59 93 131
59 92 134
60 95 135
59 93 138
59 93 133
61 95 145
61 95 147
59 93 126
58 91 130
59 92 134
60 92 134
58 91 125
58 92 128
57 88 119
58 91 133
58 91 126
60 93 139
58 91 130
58 89 121
58 90 126
58 90 126
56 87 124
59 90 128
57 88 123
56 85 122
53 81 110
54 82 122
111 123 134
145 154 155
141 150 152
120 129 131
122 131 136
118 127 131
117 126 130
111 121 122
103 113 114
110 119 120
129 139 140
114 124 123
110 120 118
111 119 108
113 122 117
102 109 92
125 132 116
121 125 103
120 124 95
126 132 111
127 132 107
129 135 114
133 135 100
129 133 100
148 148 112
131 133 91
126 127 86
128 129 84
129 130 83
135 138 97
132 134 92
136 136 92
141 143 102
152 152 103
143 142 88
140 140 93
146 144 89
141 141 95
141 139 77
140 139 79
145 143 91
148 145 83
153 149 85
144 141 73
147 145 86
155 152 84
153 151 88
156 152 81
156 152 83
161 156 83
155 152 83
159 154 85
158 154 80
151 148 75
161 156 86
165 161 91
162 157 85
163 158 90
161 156 79
159 154 78
164 158 80
158 154 76
170 164 87
163 157 83
161 156 77
168 162 82
163 157 87
171 164 90
162 157 80
170 163 83
174 167 91
169 163 87
167 162 84
169 162 88
165 160 83
172 166 97
173 167 97
173 167 95
166 161 84
170 163 82
172 165 89
171 164 85
165 160 82
170 163 84
172 166 95
171 166 90
170 163 84
170 164 87
168 163 89
172 166 95
173 167 89
175 168 93
174 167 92
174 168 97
173 166 88
171 167 95
174 168 92
173 166 91
171 166 93
175 169 100
173 167 99
170 163 87
174 170 102
177 171 103
174 170 109
176 172 108
175 169 99
179 173 112
172 168 101
171 168 104
172 168 100
175 171 107
175 170 99
171 166 95
178 174 112
176 172 110
176 172 110
178 175 122
176 170 101
176 170 103
177 172 109
178 174 116
177 174 118
181 177 119
176 172 115
182 180 133
178 173 109
175 172 106
175 171 108
181 178 122
179 175 119
176 172 110
183 180 134
181 178 124
179 178 130
178 174 120
178 175 119
181 178 126
181 177 123
181 179 131
181 178 127
181 178 129
184 183 142
179 178 134
182 181 136
179 176 127
181 178 127
180 179 131
185 183 141
222 236 255
222 236 255
222 236 255
222 236 255
222 236 255
222 236 255
222 236 255
222 236 255
222 236 255
222 236 255
222 236 255
222 236 255
222 236 255
222 236 255
222 236 255
222 236 255
222 236 255
222 236 255
222 236 255
222 236 255
222 236 255
222 236 255
222 236 255
222 236 255
222 236 255
222 236 255
222 236 255
222 236 255
222 236 255
222 236 255
222 236 255
222 236 255
222 236 255
222 236 255
222 236 255
222 236 255
222 236 255
222 236 255
222 236 255
222 236 255
222 236 255
222 236 255
222 236 255
222 236 255
222 236 255
222 236 255
222 236 255
222 236 255
222 236 255
222 236 255
222 236 255
222 236 255
222 236 255
222 236 255
222 236 255
222 236 255
222 236 255
222 236 255
222 236 255
222 236 255
222 236 255
222 236 255
222 236 255
222 236 255
222 236 255
222 236 255
222 236 255
222 236 255
222 236 255
222 236 255
222 236 255
222 236 255
222 236 255
222 236 255
222 236 255
222 236 255
222 236 255
222 236 255
223 236 255
222 236 255
223 236 255
222 236 255
223 236 255
223 236 255
223 236 255
222 236 255
222 236 255
223 236 255
222 236 255
223 236 255
223 236 255
223 236 255
223 236 255
223 236 255
223 236 255
223 236 255
223 236 255
223 236 255
223 236 255
223 236 255
223 236 255
223 236 255
223 236 255
223 236 255
223 236 255
223 236 255
223 236 255
223 236 255
223 236 255
223 236 255
223 236 255
223 236 255
223 236 255
223 236 255
223 236 255
223 236 255
223 236 255
223 236 255
223 236 255
223 236 255
223 236 255
223 236 255
223 236 255
223 236 255
223 237 255
223 237 255
223 237 255
223 237 255
223 237 255
223 237 255
223 237 255
223 237 255
223 237 255
216 230 250
55 88 116
53 85 122
56 90 125
59 94 133
57 90 128
56 89 119
57 91 136
58 92 126
54 86 117
54 86 122
49 80 110
48 78 112
50 80 124
154 170 192
152 169 193
59 94 141
59 94 135
60 95 136
58 92 129
60 94 130
59 93 133
59 93 128
58 92 122
60 95 135
59 93 126
59 94 133
60 95 134
59 94 129
60 95 126
61 96 140
59 94 130
60 94 136
60 95 134
61 95 142
62 97 142
60 95 140
60 94 139
60 95 143
59 93 121
59 93 122
61 96 147
61 95 140
60 95 137
61 96 142
60 94 134
59 94 134
59 94 129
60 95 141
60 94 135
60 95 140
60 95 133
60 94 128
61 96 141
59 93 118
60 95 134
59 94 134
58 92 129
59 94 128
59 94 131
59 93 131
61 95 145
62 97 142
61 96 140
60 94 129
59 94 136
60 95 135
60 95 140
59 93 125
61 95 134
59 92 123
59 93 129
61 95 146
61 96 137
59 93 126
58 92 123
59 93 125
59 92 130
60 95 141
59 94 135
60 94 129
60 94 139
59 93 135
60 94 132
60 93 131
61 95 133
61 95 135
59 93 124
58 92 125
61 96 142
59 92 127
60 94 136
60 95 141
59 93 129
60 94 132
59 93 125
58 90 124
59 93 130
59 92 128
60 93 139
58 90 120
59 92 125
59 93 131
58 90 130
60 93 137
58 91 120
59 91 135
58 91 129
59 92 134
58 89 120
58 89 127
56 88 123
56 87 118
54 84 113
57 88 117
58 88 124
53 81 110
53 81 110
123 134 138
169 177 179
151 159 159
125 134 138
118 127 126
123 132 135
125 135 140
115 125 127
94 102 102
105 114 113
96 104 95
114 123 116
120 129 127
113 121 109
134 142 132
137 145 140
119 124 108
131 137 121
111 118 101
111 118 99
120 125 102
140 144 115
122 125 93
126 127 98
128 131 92
131 133 97
126 129 92
129 130 88
128 130 80
144 143 96
141 141 102
134 135 83
149 148 97
133 134 85
142 142 88
142 141 90
150 147 90
136 135 75
153 151 90
138 136 79
139 138 79
152 149 86
145 142 74
156 151 82
145 143 80
152 149 92
156 152 87
153 150 78
160 155 86
159 154 78
158 152 81
157 151 77
159 154 84
153 149 82
166 160 87
167 161 90
165 159 78
159 154 75
163 158 80
164 159 83
165 159 89
156 151 70
162 157 84
168 162 84
165 159 83
169 163 87
168 163 81
164 159 79
172 165 87
166 161 85
165 159 73
168 162 86
167 161 80
166 159 78
168 161 79
172 166 90
170 165 89
169 163 82
167 162 90
169 163 84
167 161 81
166 160 81
169 164 85
169 163 86
171 165 90
170 164 84
172 165 88
174 168 99
175 168 98
168 162 81
169 164 85
174 168 97
171 164 90
176 170 101
170 164 91
174 168 96
175 171 109
170 166 93
174 169 101
176 173 114
175 170 106
172 166 92
171 167 97
172 167 93
170 166 93
175 170 104
172 166 95
173 167 99
173 168 99
175 171 112
175 168 95
178 173 113
175 170 104
176 171 109
177 173 114
178 173 113
178 174 118
170 165 87
180 175 117
177 173 111
176 172 114
179 174 116
173 168 95
177 173 116
176 172 113
177 173 111
178 173 108
175 169 98
177 173 113
177 173 116
177 173 114
180 176 118
179 176 122
176 171 105
180 176 120
179 175 118
178 174 120
181 179 130
177 174 119
178 175 120
182 179 131
181 178 125
176 173 113
186 185 146
185 183 139
180 177 126
181 178 127
179 176 122
182 180 129
223 237 255
223 237 255
223 237 255
223 237 255
223 237 255
223 237 255
223 237 255
223 237 255
223 237 255
223 237 255
223 237 255
223 237 255
223 237 255
223 237 255
223 237 255
223 237 255
223 237 255
223 237 255
223 237 255
223 237 255
223 237 255
223 237 255
223 237 255
223 237 255
223 236 255
223 237 255
223 237 255
223 236 255
223 237 255
223 237 255
223 237 255
223 237 255
223 237 255
223 236 255
223 237 255
223 237 255
223 237 255
223 237 255
223 237 255
223 237 255
223 237 255
223 237 255
223 237 255
223 237 255
223 237 255
223 237 255
223 237 255
223 237 255
223 237 255
223 237 255
223 237 255
223 237 255
223 237 255
223 237 255
223 237 255
223 237 255
223 237 255
223 237 255
223 237 255
223 237 255
223 237 255
223 237 255
223 237 255
223 237 255
223 237 255
223 237 255
223 237 255
223 237 255
223 237 255
223 237 255
223 237 255
223 237 255
223 237 255
223 237 255
223 237 255
223 237 255
223 237 255
223 237 255
223 237 255
223 237 255
223 237 255
223 237 255
223 237 255
223 237 255
223 237 255
223 237 255
223 237 255
223 237 255
223 237 255
223 237 255
223 237 255
223 237 255
223 237 255
223 237 255
223 237 255
223 237 255
223 237 255
223 237 255
223 237 255
223 237 255
223 237 255
223 237 255
223 237 255
223 237 255
223 237 255
223 237 255
223 237 255
223 237 255
223 237 255
223 237 255
223 237 255
223 237 255
224 237 255
224 237 255
224 237 255
224 237 255
224 237 255
224 237 255
224 237 255
224 237 255
224 237 255
224 237 255
224 237 255
224 237 255
224 237 255
224 237 255
224 237 255
224 237 255
224 237 255
224 237 255
224 237 255
224 237 255
224 237 255
211 225 236
55 88 113
54 86 112
57 91 136
59 93 141
57 90 123
53 85 126
57 90 127
58 92 127
56 89 118
51 83 116
53 84 114
51 83 117
52 84 115
180 196 220
169 185 209
59 94 141
57 91 122
59 94 126
59 93 125
58 93 131
58 92 115
60 95 141
59 94 136
62 96 143
60 94 135
59 94 135
59 93 135
60 95 139
60 94 128
58 93 128
59 93 124
61 95 141
59 94 134
59 93 125
60 95 130
60 95 142
60 95 135
59 94 128
59 93 126
60 94 130
62 96 142
58 92 125
60 95 139
60 95 137
59 94 131
58 93 136
60 94 134
60 95 137
60 94 133
60 95 128
58 93 121
60 95 137
60 94 134
60 95 133
61 95 144
59 94 130
59 94 126
60 95 136
60 94 130
60 95 134
59 94 134
60 95 135
61 96 139
60 94 140
61 96 137
59 93 131
61 96 143
61 95 133
60 94 133
60 93 133
61 95 141
59 94 126
60 94 130
60 94 133
59 93 124
58 91 125
61 96 139
59 93 126
59 93 128
59 93 130
59 93 126
60 95 137
58 92 128
60 95 133
59 94 131
59 94 129
59 93 133
60 95 142
60 93 128
59 94 130
60 94 134
58 91 118
59 93 134
58 91 122
60 94 140
60 93 129
60 94 139
60 94 136
60 93 124
57 89 125
59 92 128
59 92 126
60 94 145
59 92 130
60 93 135
58 90 124
57 89 123
58 90 119
56 87 121
58 90 130
56 86 114
55 86 116
58 88 123
55 85 110
56 85 112
51 78 99
53 80 103
124 134 141
158 165 168
146 155 157
134 145 151
136 145 152
107 116 117
124 134 137
120 129 129
126 136 137
126 135 139
105 113 108
115 124 121
126 134 126
126 133 125
104 112 98
122 128 118
113 118 94
119 125 107
120 127 106
128 134 114
120 126 102
118 123 94
122 123 75
126 128 90
123 127 95
134 137 98
143 145 110
135 135 90
122 125 86
141 139 91
138 139 95
136 136 94
141 141 90
136 136 86
145 143 81
150 146 75
138 134 73
149 147 96
139 137 79
136 136 74
143 141 72
154 149 82
148 146 78
152 149 82
142 140 71
156 151 78
148 145 78
148 147 80
155 151 81
165 158 82
157 152 81
157 152 78
160 155 77
157 153 78
160 154 83
159 155 78
161 156 82
166 160 86
154 150 69
163 158 81
165 160 87
170 162 86
165 159 81
161 156 78
164 158 79
165 160 87
163 159 79
167 161 83
164 158 74
166 160 81
169 162 84
163 159 84
170 163 79
166 160 73
168 162 91
168 161 85
165 160 76
170 164 85
169 164 92
170 164 91
163 157 78
169 163 81
173 165 91
168 161 82
173 167 95
171 165 90
170 165 91
173 166 90
166 161 80
172 165 94
170 163 86
165 159 81
174 167 93
169 164 90
173 167 93
171 166 93
177 172 108
171 166 97
175 170 104
173 169 103
175 169 102
176 169 97
176 169 97
176 171 104
176 171 107
173 167 97
177 173 113
177 172 110
174 168 99
180 175 118
171 166 98
172 168 97
172 168 100
178 176 121
175 169 102
175 171 109
174 168 100
177 173 117
176 172 110
179 177 132
181 177 122
176 174 117
173 168 97
175 171 115
181 178 127
182 179 134
176 172 107
181 180 134
173 168 95
177 174 115
177 173 116
179 176 121
180 178 126
177 173 117
180 178 124
182 179 127
177 173 117
181 178 127
182 181 134
178 173 112
184 182 139
177 174 114
182 180 132
184 182 137
182 179 128
179 178 126
184 181 136
181 176 121
183 182 137
224 237 255
224 237 255
224 237 255
224 237 255
224 237 255
224 237 255
224 237 255
224 237 255
224 237 255
224 237 255
224 237 255
224 237 255
224 237 255
224 237 255
224 237 255
224 237 255
224 237 255
224 237 255
224 237 255
224 237 255
224 237 255
224 237 255
224 237 255
224 237 255
224 237 255
224 237 255
224 237 255
224 237 255
224 237 255
224 237 255
224 237 255
224 237 255
224 237 255
224 237 255
224 237 255
224 237 255
224 237 255
224 237 255
224 237 255
224 237 255
224 237 255
224 237 255
224 237 255
224 237 255
224 237 255
224 237 255
224 237 255
224 237 255
224 237 255
224 237 255
224 237 255
224 237 255
224 237 255
224 237 255
224 237 255
224 237 255
224 237 255
224 237 255
224 237 255
224 237 255
224 237 255
224 237 255
224 237 255
224 237 255
224 237 255
224 237 255
224 237 255
224 237 255
224 237 255
224 237 255
224 237 255
224 237 255
224 237 255
224 237 255
224 237 255
224 237 255
224 237 255
224 237 255
224 237 255
224 237 255
224 237 255
224 237 255
224 237 255
224 237 255
224 237 255
224 237 255
224 237 255
224 237 255
224 237 255
224 237 255
224 237 255
224 237 255
224 237 255
224 237 255
224 237 255
224 237 255
224 237 255
224 237 255
224 237 255
224 237 255
224 237 255
224 237 255
224 237 255
224 237 255
224 237 255
224 237 255
224 237 255
224 237 255
224 237 255
224 237 255
224 237 255
224 237 255
224 237 255
224 237 255
224 237 255
224 237 255
224 237 255
224 237 255
222 236 249
222 235 248
219 233 237
213 228 220
216 230 230
208 224 203
206 222 198
205 221 193
200 218 179
194 213 155
188 209 130
188 208 128
183 204 102
179 201 76
176 199 25
158 182 44
56 89 120
54 86 119
56 90 125
55 88 124
55 89 118
56 89 125
56 88 117
54 87 123
55 87 132
55 87 123
53 85 108
50 81 113
48 77 98
203 216 238
176 192 212
57 91 118
59 94 133
58 92 124
58 92 130
58 92 124
60 95 130
59 93 128
58 93 134
60 95 133
60 94 126
60 94 129
59 93 129
60 95 131
59 93 130
58 92 125
60 94 131
58 92 124
60 95 133
60 95 139
60 95 140
59 94 134
59 94 134
60 94 131
58 93 131
60 95 130
60 95 130
58 93 133
60 95 133
59 93 128
61 96 147
60 94 141
59 94 133
60 95 134
57 91 131
60 95 139
58 92 114
60 94 133
57 91 118
60 94 133
59 93 128
59 94 130
60 95 134
60 94 130
58 92 126
59 93 122
61 95 131
59 92 131
59 93 131
61 96 139
60 95 131
60 94 126
60 95 142
60 95 139
60 95 140
60 95 136
60 95 129
58 92 121
60 95 129
60 94 128
59 93 130
59 93 128
60 94 133
60 95 142
58 92 130
60 95 136
59 93 128
60 94 137
59 93 128
61 95 142
58 92 133
59 93 133
58 92 123
60 94 134
59 92 128
59 93 139
57 91 123
60 94 141
61 96 136
60 95 137
58 93 132
60 94 132
61 95 142
59 93 131
58 92 130
59 93 129
59 93 133
57 89 116
58 91 125
58 91 126
58 90 126
56 86 111
56 87 117
59 91 125
58 90 132
58 90 134
59 92 134
58 89 126
59 90 127
55 85 119
54 83 111
57 87 116
50 75 90
135 144 143
139 147 145
141 148 148
153 162 165
137 146 148
128 137 141
122 131 135
108 117 112
117 127 128
114 122 117
120 128 125
114 122 117
111 118 108
112 119 105
115 123 116
120 127 109
111 118 105
108 113 87
128 133 118
110 115 93
110 114 88
130 135 113
129 132 107
123 127 98
139 142 106
129 130 88
126 128 88
127 129 90
131 132 86
129 130 82
129 130 79
141 141 94
136 135 77
142 141 87
137 136 80
150 148 93
137 137 81
138 136 69
144 142 70
153 152 97
150 146 76
151 146 79
154 152 93
153 150 94
151 148 85
148 146 81
152 149 82
157 153 80
154 151 82
154 150 87
156 151 74
156 151 79
162 157 78
160 155 77
159 154 82
154 150 76
153 149 77
160 154 74
160 155 82
159 155 84
166 160 82
162 157 80
166 160 84
165 159 82
166 160 82
167 161 75
163 158 82
162 157 75
162 157 79
166 160 78
162 156 72
162 157 79
165 159 76
169 163 83
162 157 76
165 160 85
170 163 85
168 162 82
168 163 92
167 161 76
171 164 82
172 165 87
165 160 75
172 167 94
169 163 84
171 164 89
169 164 85
169 164 88
172 166 93
172 167 99
170 164 83
172 165 92
168 163 81
171 167 94
172 166 94
171 167 103
176 171 104
169 163 87
176 171 109
178 174 112
175 168 95
175 169 101
172 166 90
174 169 99
170 164 91
176 173 113
175 170 99
172 167 99
171 165 93
173 169 101
176 172 111
176 170 99
175 170 101
171 167 101
179 172 106
176 171 110
176 172 110
175 172 113
175 170 101
175 170 106
176 173 116
175 170 102
178 174 121
176 172 110
172 169 104
175 172 112
177 173 109
179 174 116
174 169 102
178 176 120
176 172 115
174 170 106
179 176 119
179 176 123
180 178 125
181 177 121
184 182 135
174 170 110
179 176 121
180 176 118
175 172 111
183 180 132
178 175 117
178 176 122
187 187 150
186 186 149
184 182 135
180 177 126
181 177 123
224 237 255
224 237 255
224 237 255
224 237 255
224 237 255
224 237 255
224 237 255
224 237 255
224 237 255
224 237 255
224 237 255
224 237 255
224 237 255
224 237 255
224 237 255
224 237 255
224 237 255
224 237 255
224 237 255
224 237 255
224 237 255
224 237 255
224 237 255
224 237 255
224 237 255
224 237 255
224 237 255
224 237 255
224 237 255
224 237 255
224 237 255
224 237 255
224 237 255
224 237 255
224 237 255
224 237 255
224 237 255
224 237 255
224 237 255
224 237 255
224 237 255
224 237 255
224 237 255
224 237 255
224 237 255
224 237 255
224 237 255
224 237 255
224 237 255
224 237 255
224 237 255
224 237 255
224 237 255
224 237 255
224 237 255
224 237 255
224 237 255
224 237 255
224 237 255
224 237 255
224 237 255
224 237 255
224 237 255
224 237 255
224 237 255
224 237 255
224 237 255
224 237 255
224 237 255
224 237 255
224 237 255
224 237 255
224 237 255
224 237 255
224 237 255
224 237 255
224 237 255
224 237 255
224 237 255
224 237 255
224 237 255
224 237 255
224 237 255
224 237 255
224 237 255
224 237 255
225 237 255
225 237 255
225 237 255
225 237 255
225 237 255
225 237 255
225 237 255
223 236 252
220 234 242
220 234 242
220 234 244
217 231 233
214 229 223
215 230 227
211 226 214
211 226 214
208 224 203
207 223 198
204 221 191
202 219 184
207 223 201
197 215 167
191 210 137
194 213 151
192 211 142
189 209 128
184 205 114
186 207 117
182 204 92
179 201 62
180 202 72
176 199 25
174 198 0
174 198 0
174 197 0
174 197 0
174 198 0
174 198 0
174 198 0
174 197 0
172 197 0
174 197 0
174 197 0
174 197 0
175 198 0
176 199 0
174 198 0
143 167 75
52 84 104
57 91 120
58 92 122
58 92 118
58 91 123
57 90 124
56 89 111
59 92 123
53 85 112
54 86 106
51 82 113
51 82 120
52 83 106
213 227 238
180 195 217
58 92 117
57 91 120
60 95 128
58 93 133
59 93 134
60 95 137
59 93 129
59 93 117
59 94 139
59 93 122
60 94 125
61 96 144
59 93 126
58 92 122
60 95 137
59 94 131
60 94 131
60 95 134
60 94 135
59 94 128
60 94 139
58 93 133
60 94 131
58 92 124
60 95 131
60 94 129
59 94 128
59 93 130
59 93 124
59 93 121
60 95 135
60 95 130
60 94 130
60 94 134
57 90 121
59 94 131
59 94 128
60 94 135
61 96 137
59 93 133
58 92 128
60 95 143
60 94 129
60 95 135
60 95 133
61 96 135
59 93 125
60 94 130
60 94 135
58 92 124
59 93 121
59 94 131
60 94 134
59 93 134
61 95 136
60 94 129
61 96 139
60 94 133
60 95 128
59 92 129
59 93 124
58 92 120
57 91 123
59 93 125
59 93 130
58 92 121
60 93 123
61 95 141
58 92 114
61 95 142
59 92 124
60 95 138
58 92 126
58 91 129
60 95 143
59 92 124
59 93 130
59 92 128
59 93 125
62 96 142
58 92 126
58 90 124
58 91 126
59 92 132
58 91 121
60 94 144
57 89 119
59 92 126
57 88 123
59 91 128
58 90 124
58 90 125
58 89 121
57 89 114
58 90 129
57 89 131
57 89 128
59 90 131
55 84 114
54 83 108
55 83 109
52 79 101
149 157 159
166 173 174
144 151 151
146 155 163
126 135 139
135 144 149
127 136 141
132 142 144
117 126 128
98 106 98
107 116 115
126 135 133
126 134 128
104 112 101
131 139 134
123 130 113
124 131 119
123 129 114
134 140 127
113 118 89
116 121 94
125 129 101
130 133 103
124 128 104
124 128 96
130 131 90
124 128 87
135 136 92
139 140 96
138 137 85
134 134 80
141 142 101
133 134 90
131 132 85
138 137 86
141 140 85
139 138 78
141 140 78
150 147 89
138 137 86
142 139 68
144 142 75
142 139 72
150 147 74
151 148 88
145 143 77
150 146 80
151 147 74
148 144 69
150 146 78
150 146 75
160 154 84
153 149 79
157 152 73
145 142 65
157 151 73
157 153 72
158 154 83
161 155 78
163 157 78
160 155 80
162 157 81
162 157 74
162 157 79
162 156 76
161 155 78
167 161 86
161 156 75
167 161 85
167 162 83
168 162 80
166 161 80
170 164 90
164 159 80
171 165 85
166 160 80
170 164 86
171 164 81
170 164 87
165 160 80
171 164 89
169 163 85
168 162 81
170 163 80
172 165 93
171 164 87
172 166 94
171 165 90
166 160 80
168 163 90
170 164 87
173 169 99
173 167 91
171 165 93
171 164 86
170 165 93
172 165 84
171 167 95
170 164 90
169 163 81
169 164 92
173 167 95
168 162 80
172 168 99
177 171 105
169 164 96
173 168 104
168 163 99
172 166 93
176 173 116
172 169 104
177 173 113
173 167 96
174 169 101
176 170 95
169 165 93
173 169 106
173 169 104
173 168 99
178 175 117
175 171 107
172 167 97
178 173 110
178 174 118
182 179 130
177 173 113
182 179 129
180 176 122
175 173 116
176 172 112
179 176 123
179 175 122
179 175 117
177 175 121
177 173 109
178 176 123
177 174 113
181 178 126
179 175 117
177 174 116
184 182 136
182 181 133
177 173 112
181 178 125
179 176 119
178 174 112
182 180 133
179 176 123
178 175 125
225 238 255
225 238 255
224 237 254
221 234 244
222 236 248
224 237 254
224 237 254
225 238 255
225 238 255
225 238 255
225 238 255
225 238 255
225 238 255
225 238 255
225 238 255
225 238 255
225 238 255
225 238 255
225 238 255
225 238 255
225 238 255
225 238 255
225 237 255
225 238 255
225 237 255
225 237 255
225 237 255
225 238 255
225 237 255
225 237 255
225 237 255
225 237 255
225 237 255
225 237 255
225 237 255
225 237 255
225 238 255
225 237 255
225 238 255
225 238 255
225 238 255
225 238 255
225 238 255
225 238 255
225 238 255
225 238 255
225 238 255
225 238 255
225 238 255
225 238 255
225 238 255
224 237 254
224 237 254
224 237 253
220 234 242
222 235 248
222 235 246
218 232 234
221 235 245
218 232 234
215 230 228
219 233 238
217 231 233
215 229 224
212 227 217
213 228 218
211 226 214
216 230 228
211 227 215
209 225 207
204 220 188
208 224 206
201 219 182
201 219 182
203 219 182
204 221 189
201 218 179
195 214 157
197 216 169
196 215 167
198 216 165
189 209 135
191 210 137
188 208 125
187 207 122
186 206 114
184 205 102
187 207 117
180 202 76
181 203 92
176 199 51
176 199 44
175 198 0
174 198 0
175 198 0
174 197 0
175 198 0
173 197 0
175 198 0
175 198 0
173 197 0
174 198 0
173 197 0
175 198 0
174 198 0
174 198 0
174 197 0
175 198 0
174 198 0
175 198 0
173 197 0
173 197 0
174 197 0
175 198 0
174 197 0
174 198 0
175 198 0
175 198 0
175 198 0
174 198 0
175 198 0
176 199 0
174 198 0
174 197 0
175 198 0
175 198 0
173 197 0
175 198 0
177 199 0
174 197 0
173 196 0
175 198 0
173 196 0
146 170 67
55 87 104
56 89 117
58 91 122
56 90 115
58 92 126
56 90 119
55 88 123
53 84 99
55 87 113
54 86 118
53 85 122
54 86 112
81 108 111
188 208 128
202 216 235
57 91 113
58 92 134
58 92 124
58 92 128
57 91 126
58 92 122
59 93 128
59 93 131
59 94 130
59 94 128
60 94 135
61 95 133
60 94 129
60 94 134
60 95 131
61 95 135
60 94 131
60 94 130
58 92 122
59 93 125
60 95 133
60 94 130
60 94 131
58 92 120
60 95 139
60 94 129
58 93 122
60 95 131
60 94 128
59 94 135
58 92 115
58 91 124
61 96 134
58 92 126
59 93 133
60 94 129
60 95 137
61 96 133
59 93 128
60 94 133
58 93 124
59 92 122
59 93 131
60 94 126
59 94 121
60 95 133
59 93 125
59 93 120
61 96 140
60 95 140
60 95 135
58 92 124
59 94 126
58 92 131
60 94 135
60 95 133
59 93 125
59 94 120
59 93 134
59 93 123
58 92 122
61 96 142
59 93 124
60 93 133
59 93 131
61 95 143
60 94 141
58 91 122
59 93 129
60 93 127
59 93 127
59 93 129
60 94 139
61 95 137
60 93 137
59 93 129
60 94 132
59 93 123
59 91 125
58 91 119
59 92 125
57 91 118
59 91 123
60 93 135
59 93 131
60 93 135
59 91 125
59 92 138
58 91 122
58 89 118
57 89 124
59 90 127
56 87 113
58 90 118
56 87 110
57 88 118
57 87 119
54 84 117
57 86 111
57 86 115
54 82 114
50 76 97
160 168 167
154 162 163
149 156 154
128 136 138
133 142 147
118 127 124
131 140 142
120 129 129
120 128 127
104 114 113
127 136 135
112 120 116
113 122 122
111 118 108
102 111 97
119 125 109
110 118 100
111 117 99
135 139 118
123 130 112
118 122 96
120 123 94
113 115 80
126 128 87
126 128 87
140 141 103
129 131 88
135 138 101
135 135 83
136 137 84
139 138 83
131 131 74
139 140 93
137 137 86
146 145 93
140 139 80
143 141 75
141 138 79
143 142 84
146 144 84
149 145 83
152 149 74
140 137 73
156 153 96
152 148 78
153 150 68
153 149 75
153 149 81
156 151 73
160 156 90
152 148 76
154 150 75
155 151 71
154 149 75
160 154 75
165 159 81
162 157 79
160 155 79
159 153 74
160 154 82
160 155 75
162 157 72
162 157 83
164 158 78
160 155 74
165 159 82
162 156 74
164 159 76
160 154 83
159 154 73
170 163 83
168 163 87
167 161 77
167 161 82
168 161 83
164 158 73
168 161 81
165 159 81
168 162 83
165 160 78
167 162 80
165 158 80
168 164 85
165 159 77
169 164 84
172 167 94
173 168 103
171 164 86
167 163 85
172 167 93
168 162 87
173 167 91
173 167 94
168 162 83
172 167 99
177 172 110
171 166 94
172 168 99
175 167 88
174 169 98
172 167 94
170 165 94
173 170 107
174 168 97
172 167 96
172 169 108
171 166 95
175 169 98
173 167 89
175 170 104
177 172 102
175 171 105
176 171 108
175 171 109
178 173 109
175 170 102
178 176 118
178 175 117
177 172 109
177 174 116
176 173 118
175 171 110
177 173 116
173 169 103
172 169 101
176 171 109
178 175 119
175 171 110
178 176 122
178 174 115
175 171 106
180 176 121
177 173 110
181 178 127
180 177 132
178 175 121
177 174 115
179 176 124
180 177 122
179 176 125
182 179 131
180 178 128
177 174 119
183 181 135
178 176 124
175 173 113
181 178 125
180 178 127
182 180 134
183 204 99
177 200 72
175 198 0
174 198 0
174 198 0
173 197 0
175 198 25
175 198 25
177 199 36
179 201 67
179 201 62
180 202 80
183 204 99
182 203 88
185 205 95
182 203 88
182 203 92
182 203 92
185 206 108
186 206 114
188 208 120
183 204 92
184 205 108
186 206 114
183 204 99
190 210 135
187 207 122
187 207 122
188 208 122
186 207 117
186 207 114
188 208 125
184 205 105
184 205 105
187 208 122
183 204 105
182 203 92
187 207 114
184 205 102
181 202 80
182 203 92
181 203 80
182 203 92
182 203 88
177 200 72
177 200 57
179 201 72
176 199 51
176 199 44
174 198 0
178 200 36
175 198 0
173 197 0
173 197 0
174 198 0
174 197 0
175 198 0
173 197 0
175 198 0
173 197 0
174 197 0
173 197 0
175 198 0
174 198 0
174 198 0
176 198 0
174 197 0
174 197 0
175 198 0
174 198 0
175 198 0
174 198 0
174 197 0
176 199 0
174 198 0
175 198 0
174 198 0
175 198 0
173 197 0
175 198 0
175 198 0
174 197 0
174 198 0
173 197 0
175 198 0
175 198 0
173 197 0
175 198 0
174 198 0
175 198 0
174 197 0
173 197 0
174 198 0
175 198 0
173 197 0
175 198 0
174 198 0
174 198 0
174 197 0
173 196 0
173 197 0
173 197 0
173 197 0
175 198 0
174 198 0
173 196 0
176 199 0
175 198 0
175 198 0
173 197 0
174 198 0
175 198 0
176 198 0
176 199 0
175 198 0
175 198 0
175 198 0
174 198 0
173 197 0
173 197 0
175 198 0
174 198 0
175 198 0
174 198 0
174 198 0
173 197 0
174 198 0
174 198 0
173 197 0
174 198 0
173 196 0
172 196 0
171 195 0
119 143 86
54 86 103
55 88 102
57 90 124
55 88 120
54 86 103
57 91 125
56 89 112
55 88 112
56 89 123
53 84 121
55 87 110
50 80 90
125 148 82
174 198 0
209 224 231
56 90 120
57 91 117
58 92 120
58 92 115
60 94 131
60 94 126
58 93 129
59 94 133
59 94 125
59 94 122
58 92 126
59 93 124
60 95 134
59 93 121
60 95 134
59 93 130
58 93 118
59 93 128
60 94 134
58 92 126
58 92 124
59 94 124
60 94 128
61 95 130
59 94 124
59 93 128
58 92 117
59 93 131
60 94 134
60 94 133
60 94 129
59 94 129
60 94 128
58 93 126
59 94 135
59 93 122
60 94 135
60 94 126
58 92 121
59 93 136
60 94 133
59 93 122
58 92 120
59 94 128
57 91 115
61 96 144
59 93 130
60 94 130
59 93 120
59 94 129
59 93 123
59 93 131
59 93 129
59 93 125
60 94 130
58 92 129
60 95 135
59 94 120
60 94 139
59 94 129
60 94 130
59 93 132
58 92 117
60 95 143
59 92 123
59 93 129
60 95 139
59 93 130
59 93 125
59 93 121
60 95 126
59 93 130
58 92 127
57 90 123
60 93 128
59 92 123
59 93 133
59 93 129
59 92 124
59 93 130
58 92 126
59 91 126
59 93 135
56 88 123
59 91 117
59 91 123
59 91 131
56 87 104
58 91 124
58 91 124
58 90 124
58 90 125
59 91 122
58 89 124
58 90 124
57 88 109
57 87 115
57 87 121
56 87 127
52 80 101
52 79 101
50 76 102
179 188 193
148 155 149
151 157 156
131 139 139
132 140 137
120 128 127
119 127 126
94 101 96
117 126 127
129 138 137
104 114 109
120 127 120
112 120 113
127 135 133
112 121 114
114 120 103
113 120 105
115 121 98
136 143 126
114 119 98
121 127 108
125 129 97
141 145 126
128 131 102
123 126 98
129 131 93
135 137 103
130 130 87
144 146 104
124 124 64
122 123 80
140 139 94
146 145 86
141 141 90
148 146 86
136 136 85
136 136 83
135 133 75
149 146 82
141 139 80
143 140 76
141 139 72
147 145 83
146 144 82
149 146 75
156 151 82
143 140 67
149 145 79
153 148 76
154 150 81
153 150 79
160 155 80
157 154 87
160 153 77
157 153 83
152 148 70
152 148 62
156 151 77
159 155 76
159 154 81
157 152 67
155 151 65
160 155 74
160 155 73
160 154 73
158 153 76
169 162 89
166 161 89
162 157 75
163 158 73
169 162 82
170 164 86
168 162 82
167 162 82
170 163 89
160 155 76
169 164 85
164 159 79
170 164 87
174 166 87
170 164 88
170 165 88
168 161 85
165 160 80
173 166 93
172 167 97
169 164 86
169 164 90
169 163 88
166 161 87
166 159 76
172 164 79
170 163 90
172 166 87
172 167 95
169 164 87
172 166 84
168 162 80
172 165 90
175 170 104
173 171 113
176 172 110
170 164 90
173 168 95
170 165 91
172 165 88
169 166 97
176 173 119
174 169 95
177 172 109
174 171 110
177 172 108
175 170 106
180 175 116
173 170 111
174 169 106
175 170 103
178 174 119
173 168 104
178 174 115
172 168 103
179 175 120
177 173 114
175 170 103
180 175 118
179 176 122
179 175 121
180 176 120
182 179 131
177 172 108
176 172 112
175 170 103
176 172 111
177 174 117
175 172 113
174 170 104
181 177 121
181 179 132
179 177 123
184 183 140
179 176 123
180 177 122
180 177 124
184 181 132
183 182 141
180 178 126
182 179 131
181 181 134
182 181 135
176 199 0
175 198 0
175 198 0
173 197 0
173 197 0
174 197 0
175 198 0
173 197 0
175 198 0
175 198 0
172 196 0
174 198 0
174 198 0
174 198 0
175 198 0
175 198 0
176 199 0
173 197 0
175 198 0
175 198 0
174 198 0
173 197 0
173 197 0
175 198 0
175 198 0
176 199 0
174 198 0
176 199 0
173 197 0
174 198 0
175 198 0
175 198 0
175 198 0
174 198 0
174 198 0
175 198 0
175 198 0
175 198 0
173 197 0
175 198 0
175 198 0
175 198 0
174 198 0
175 198 0
176 198 0
176 199 0
175 198 0
175 198 0
173 197 0
173 197 0
174 198 0
174 198 0
176 199 0
174 198 0
173 197 0
175 198 0
176 198 0
175 198 0
174 198 0
175 198 0
175 198 0
174 198 0
174 197 0
174 198 0
175 198 0
174 198 0
172 197 0
174 198 0
174 198 0
174 198 0
174 198 0
174 197 0
175 198 0
175 198 0
174 198 0
173 197 0
176 199 0
174 197 0
174 197 0
175 198 0
174 198 0
176 199 0
174 197 0
175 198 0
175 198 0
175 198 0
173 197 0
174 198 0
175 198 0
175 198 0
173 197 0
173 197 0
175 198 0
174 197 0
176 199 0
173 197 0
175 198 0
173 197 0
175 198 0
176 198 0
174 197 0
174 198 0
173 197 0
174 197 0
176 198 0
174 198 0
173 197 0
176 198 0
176 199 0
172 196 0
173 197 0
172 196 0
175 198 0
175 198 0
174 198 0
173 196 0
175 198 0
175 198 0
172 196 0
173 197 0
174 198 0
174 198 0
174 197 0
174 197 0
173 196 0
173 197 0
175 198 0
170 193 0
174 198 0
173 197 0
172 196 0
171 195 0
175 198 0
113 137 77
53 85 100
56 89 103
54 86 101
58 92 124
55 88 115
56 88 108
53 85 102
54 86 114
59 92 135
52 83 102
52 83 102
53 85 113
152 176 51
174 197 0
215 230 232
86 111 136
59 93 120
57 91 122
58 93 120
57 91 114
57 91 117
60 94 134
58 92 130
60 94 129
56 89 115
59 93 125
58 92 130
57 91 115
60 94 136
59 93 124
59 93 125
59 93 125
60 95 130
60 94 125
59 93 130
60 94 130
59 92 128
60 94 134
59 94 137
59 93 135
60 95 130
60 95 134
61 96 142
60 94 129
58 92 120
60 95 128
61 95 136
59 93 120
58 91 126
57 91 126
59 93 120
60 94 135
59 94 124
59 93 125
58 92 129
58 93 124
57 91 117
61 96 142
59 94 128
60 94 139
58 92 118
60 94 128
59 94 130
60 95 137
59 93 133
58 92 124
59 92 122
60 94 135
61 96 136
60 94 134
60 95 134
58 92 124
59 93 131
60 94 132
59 93 128
59 93 130
59 93 126
58 91 122
60 94 128
58 91 120
59 92 130
58 92 125
60 95 138
59 93 130
58 92 130
59 92 128
59 92 125
58 91 118
57 90 120
57 90 115
59 93 125
57 90 122
59 93 127
57 90 110
59 93 129
60 93 130
59 92 123
60 93 134
59 92 120
58 90 120
58 90 119
59 92 118
57 89 114
58 91 122
58 90 126
56 86 99
59 91 124
58 90 123
57 88 109
58 89 113
56 86 115
55 86 111
55 84 114
56 87 118
54 82 104
51 77 97
80 97 108
208 219 229
167 174 170
156 163 160
145 153 154
141 150 154
131 139 137
127 135 136
122 130 129
118 127 127
122 132 130
111 120 116
115 123 119
108 117 105
108 116 109
120 126 115
103 111 96
119 128 119
117 123 103
109 116 98
122 125 94
127 131 108
139 142 114
122 124 91
115 121 99
135 137 103
120 125 90
124 124 71
126 128 89
126 129 93
127 128 78
126 127 78
142 140 82
135 134 86
136 136 90
147 146 90
131 129 61
137 136 71
143 142 84
143 142 88
143 141 85
150 146 76
142 140 73
149 145 66
147 144 76
148 145 74
149 146 68
152 149 76
147 144 75
151 148 76
147 144 71
156 153 86
159 155 83
150 146 71
156 151 74
160 155 76
158 153 80
150 146 67
155 150 73
165 158 78
166 159 82
161 155 70
156 151 67
157 152 76
159 155 76
162 157 82
167 161 77
165 159 80
158 153 68
162 157 70
164 159 85
163 158 76
164 159 79
164 159 75
168 162 85
169 163 86
171 165 85
167 161 79
166 160 80
168 163 84
165 160 84
164 158 78
171 164 87
171 165 89
168 162 81
169 162 82
166 158 76
170 165 90
170 164 88
170 164 90
172 166 90
171 165 97
173 168 97
170 165 91
173 167 94
171 165 94
168 162 78
176 173 116
178 172 103
170 165 84
165 160 74
172 165 87
173 167 90
171 165 88
170 166 93
173 171 109
176 171 108
169 165 101
176 173 112
171 164 78
177 171 111
173 170 106
171 167 92
171 166 90
172 168 101
174 169 101
169 164 90
178 173 114
173 170 108
175 172 117
176 171 106
174 170 103
182 179 130
174 170 108
179 174 116
176 171 106
170 166 99
175 171 104
179 174 110
176 173 117
179 176 122
177 175 119
173 168 101
182 179 129
180 176 123
178 175 120
174 170 106
180 176 121
180 179 131
179 175 117
182 182 142
178 175 117
179 176 120
177 175 123
175 172 114
179 177 126
175 171 112
179 175 118
182 181 134
181 179 129
175 198 0
175 198 0
174 198 0
174 198 0
175 198 0
174 198 0
175 198 0
174 198 0
174 197 0
177 199 0
177 199 0
174 198 0
174 198 0
173 197 0
175 198 0
175 198 0
174 198 0
176 198 0
175 198 0
176 199 0
175 198 0
175 198 0
175 198 0
176 198 0
175 198 0
174 198 0
173 197 0
175 198 0
175 198 0
175 198 0
176 198 0
174 197 0
175 198 0
176 199 0
174 197 0
174 198 0
175 198 0
175 198 0
174 198 0
173 197 0
174 198 0
172 197 0
175 198 0
174 198 0
174 197 0
174 198 0
174 198 0
173 197 0
175 198 0
173 197 0
175 198 0
175 198 0
175 198 0
175 198 0
172 197 0
174 198 0
173 197 0
173 197 0
175 198 0
174 198 0
176 199 0
174 197 0
175 198 0
173 197 0
175 198 0
175 198 0
173 197 0
175 198 0
174 198 0
175 198 0
175 198 0
175 198 0
175 198 0
173 197 0
175 198 0
174 198 0
174 197 0
174 197 0
173 197 0
174 197 0
172 196 0
173 197 0
175 198 0
175 198 0
175 198 0
176 199 0
174 197 0
175 198 0
175 198 0
175 198 0
174 198 0
173 197 0
173 197 0
174 197 0
173 196 0
175 198 0
175 198 0
173 197 0
174 198 0
174 198 0
175 198 0
173 197 0
175 198 0
175 198 0
174 198 0
171 194 0
171 195 0
171 195 0
174 198 0
173 196 0
174 197 0
174 197 0
174 198 0
173 197 0
174 198 0
176 198 0
173 196 0
175 198 0
173 196 0
173 197 0
172 196 0
174 197 0
173 196 0
173 197 0
175 198 0
173 196 0
172 195 0
170 195 0
171 194 0
172 196 0
171 194 0
172 195 0
166 190 0
81 108 102
57 90 116
57 90 123
55 87 103
52 84 95
54 86 109
56 89 102
54 87 111
54 87 116
52 84 107
54 86 107
55 87 117
78 107 111
174 197 0
175 198 0
215 230 228
130 149 174
56 90 115
56 89 105
59 93 129
58 91 115
59 94 128
57 91 115
58 92 125
57 91 118
60 94 131
57 91 113
58 92 118
60 95 142
59 93 131
61 95 140
58 92 111
59 93 126
60 94 131
59 93 130
59 93 125
58 92 113
59 94 126
59 93 125
59 94 131
59 93 126
58 92 120
59 94 125
60 94 128
58 92 124
60 94 136
58 92 125
59 93 122
59 93 134
58 92 130
59 93 131
59 94 126
60 94 124
59 93 122
60 94 129
59 93 128
59 93 121
59 92 125
60 94 130
60 94 130
59 94 126
60 93 125
58 92 122
59 94 128
60 94 128
59 93 124
59 93 115
58 93 130
60 95 131
59 94 134
60 95 134
59 93 128
59 94 133
59 93 130
58 92 118
58 92 123
59 93 133
61 96 140
59 93 129
59 93 125
60 95 130
60 94 135
60 95 134
61 95 136
60 94 139
59 91 123
60 94 128
59 93 123
59 93 126
58 91 120
58 92 124
58 90 114
59 93 127
60 94 130
58 91 122
60 94 134
58 91 123
59 93 130
57 90 121
60 93 134
58 90 119
58 91 117
59 91 122
59 91 122
57 89 115
58 90 118
58 90 117
57 88 116
56 86 116
57 89 119
57 88 114
56 86 107
54 84 102
56 85 111
53 81 105
52 80 105
53 81 95
112 129 149
218 230 245
167 174 166
165 173 175
129 136 133
134 141 137
140 149 152
126 134 132
131 140 143
101 110 105
117 126 122
118 126 127
114 121 112
110 120 114
121 127 112
110 116 103
96 101 75
110 118 105
122 127 99
126 131 115
124 129 110
120 125 101
115 119 91
134 138 114
121 123 88
124 128 99
136 138 101
132 133 94
130 132 94
132 132 83
141 142 97
140 140 94
137 137 89
142 141 88
140 138 83
134 134 85
137 135 76
145 145 96
137 136 76
149 147 93
141 137 65
146 143 86
134 134 81
145 144 90
142 140 80
151 147 73
148 145 76
145 143 76
144 140 69
153 149 72
148 143 70
155 151 80
160 154 75
151 146 69
158 153 81
159 154 82
153 148 67
157 151 78
158 153 77
154 150 66
158 154 74
156 151 68
159 153 81
159 155 72
162 156 74
163 158 78
160 155 72
167 160 83
167 160 81
165 160 81
165 160 87
161 157 73
164 158 76
162 156 71
168 162 82
168 160 78
166 159 73
165 159 78
162 155 71
168 162 85
168 162 81
173 167 90
167 161 83
166 162 84
170 164 84
171 163 82
173 167 91
166 160 72
168 163 80
170 163 80
166 161 80
170 164 84
169 165 95
173 167 96
172 165 84
170 163 88
170 162 86
170 164 93
169 165 90
169 163 88
168 162 83
174 167 98
175 168 96
167 163 87
174 168 93
170 165 88
170 166 95
169 163 88
174 169 98
172 167 95
165 160 83
172 168 101
177 172 113
172 168 99
177 172 108
174 169 106
178 174 115
175 169 104
178 175 117
175 170 105
174 170 106
179 176 120
176 171 106
175 172 116
171 168 106
175 171 106
179 175 118
180 176 118
173 170 109
174 170 108
181 180 134
181 178 122
176 170 104
177 173 113
180 177 126
179 176 123
177 175 120
182 180 134
178 174 120
178 174 116
176 173 114
180 176 122
179 176 120
178 177 126
179 175 118
179 179 134
180 179 132
178 175 119
181 179 130
183 180 132
175 198 0
176 199 0
174 198 0
174 198 0
174 198 0
175 198 0
173 197 0
174 197 0
175 198 0
175 198 0
174 197 0
175 198 0
175 198 0
174 197 0
175 198 0
174 198 0
175 198 0
173 197 0
176 199 0
173 197 0
174 198 0
174 198 0
174 197 0
173 197 0
174 198 0
176 198 0
175 198 0
175 198 0
174 198 0
173 197 0
175 198 0
175 198 0
174 198 0
172 197 0
175 198 0
176 199 0
174 198 0
173 197 0
175 198 0
173 197 0
174 198 0
174 197 0
174 198 0
174 197 0
174 197 0
174 198 0
174 197 0
174 198 0
173 197 0
173 197 0
174 198 0
174 198 0
173 197 0
174 198 0
172 196 0
176 199 0
173 197 0
174 197 0
174 197 0
175 198 0
175 198 0
175 198 0
174 197 0
175 198 0
174 198 0
173 196 0
174 198 0
175 198 0
174 198 0
174 197 0
174 198 0
174 198 0
174 197 0
174 198 0
175 198 0
176 199 0
177 199 0
175 198 0
175 198 0
175 198 0
174 198 0
174 198 0
174 198 0
174 197 0
174 198 0
175 198 0
176 198 0
174 198 0
176 198 0
175 198 0
175 198 0
175 198 0
175 198 0
174 198 0
172 196 0
175 198 0
174 198 0
174 197 0
174 198 0
172 196 0
174 198 0
173 197 0
175 198 0
175 198 0
175 198 0
173 196 0
173 197 0
173 197 0
173 196 0
175 198 0
174 197 0
173 197 0
176 199 0
171 195 0
172 195 0
173 197 0
173 196 0
173 197 0
172 195 0
171 195 0
171 195 0
174 198 0
173 196 0
171 195 0
171 195 0
174 198 0
171 194 0
174 197 0
171 194 0
171 194 0
171 194 0
167 190 0
164 187 0
58 88 94
55 88 108
59 92 128
56 89 107
55 87 101
55 87 110
57 90 114
54 86 107
53 85 98
54 86 103
53 85 100
55 88 103
130 153 67
173 196 0
177 200 62
224 237 254
137 155 170
57 90 124
57 91 120
58 92 128
59 94 126
59 92 114
58 91 108
58 91 118
59 93 140
58 92 117
60 95 130
58 92 128
59 93 118
59 92 125
58 92 115
57 90 115
59 93 136
60 94 126
58 92 124
60 94 139
59 93 125
59 94 134
60 94 124
58 92 124
58 91 113
60 95 126
58 93 117
59 93 121
58 93 120
59 93 126
59 93 129
60 95 139
58 91 114
58 93 128
59 93 126
60 95 135
59 93 131
59 93 131
59 93 136
60 94 128
60 94 125
58 92 118
58 92 126
59 93 129
59 93 126
59 94 125
57 91 122
60 94 131
60 95 136
60 94 142
58 92 130
59 93 124
58 92 118
60 94 137
60 94 126
59 93 124
59 93 133
59 92 126
59 93 124
59 94 126
59 93 125
59 92 132
58 91 124
59 93 131
58 92 124
60 94 131
58 91 124
59 93 129
60 93 132
58 91 125
59 93 126
57 90 112
60 94 133
58 92 126
58 92 121
58 90 118
56 89 116
58 92 128
59 92 132
58 92 123
58 91 116
56 88 112
59 93 134
60 94 133
56 89 112
59 93 130
58 90 130
57 90 115
58 90 118
57 89 120
54 85 104
58 88 115
58 89 120
58 89 120
58 90 123
57 87 112
53 82 90
57 89 130
52 80 98
53 82 106
55 84 108
149 163 181
223 235 252
183 190 188
153 160 155
150 157 153
131 139 137
121 129 129
130 140 140
131 138 132
118 125 123
131 139 142
114 123 120
130 139 133
116 123 110
123 131 124
108 114 99
110 117 102
130 135 118
104 109 82
125 128 100
113 118 96
115 121 98
114 117 88
119 121 85
128 130 94
117 119 77
131 132 87
125 126 85
131 131 82
130 132 90
127 127 80
138 138 84
132 132 84
131 132 87
130 131 83
140 138 85
145 144 90
133 132 77
139 138 74
144 142 83
144 142 82
145 143 79
143 141 84
144 142 83
151 149 87
158 153 74
145 142 71
153 148 71
150 146 75
141 138 55
153 150 86
146 144 78
153 149 71
150 146 69
153 149 69
155 150 71
158 154 84
148 144 71
160 154 73
157 152 70
161 156 68
159 154 78
162 156 76
162 157 81
155 150 73
164 159 82
165 158 79
162 157 64
163 158 85
158 153 66
166 159 75
162 156 79
165 158 73
163 157 79
165 159 90
167 160 75
167 160 80
169 163 82
171 166 91
164 160 82
164 158 74
171 166 90
168 160 80
164 160 80
170 165 89
171 165 90
170 163 87
172 165 87
169 164 85
166 161 81
177 171 99
169 163 81
172 168 96
171 164 88
170 165 89
171 166 90
171 165 90
171 164 86
167 162 86
170 164 86
169 163 90
172 167 95
174 169 99
171 164 84
173 168 98
172 168 104
175 169 100
170 164 92
170 164 81
172 166 94
170 167 94
173 168 97
171 167 99
171 167 95
173 168 101
175 172 112
177 173 113
175 172 112
174 169 101
174 170 105
174 171 112
177 172 110
173 170 111
177 173 115
176 172 108
174 170 108
176 172 116
175 171 109
179 177 130
176 170 104
178 174 110
174 170 106
175 171 110
180 177 128
177 174 118
173 168 103
177 175 124
181 178 129
178 175 122
176 172 110
179 176 122
175 173 113
185 182 137
182 182 140
180 177 123
179 176 124
177 174 120
180 178 130
185 185 146
183 183 139
174 197 0
176 199 0
174 197 0
174 197 0
174 197 0
174 197 0
174 198 0
175 198 0
174 198 0
173 197 0
174 198 0
173 197 0
174 198 0
173 197 0
174 197 0
174 198 0
174 198 0
175 198 0
173 197 0
174 198 0
174 198 0
173 197 0
175 198 0
173 197 0
174 197 0
174 198 0
174 198 0
173 197 0
174 198 0
174 198 0
173 197 0
175 198 0
174 198 0
174 198 0
176 199 0
175 198 0
174 197 0
174 198 0
172 196 0
174 198 0
174 198 0
174 198 0
174 198 0
173 197 0
175 198 0
175 198 0
173 197 0
176 199 0
174 198 0
174 198 0
173 197 0
176 198 0
175 197 0
175 198 0
174 198 0
174 197 0
176 198 0
174 198 0
174 198 0
174 198 0
174 198 0
175 198 0
174 198 0
174 198 0
174 197 0
173 197 0
176 198 0
174 197 0
172 196 0
173 197 0
174 198 0
174 197 0
173 197 0
174 198 0
176 198 0
173 197 0
174 198 0
175 198 0
175 198 0
174 198 0
175 198 0
174 197 0
173 197 0
174 198 0
175 198 0
173 197 0
174 197 0
173 197 0
174 197 0
175 198 0
173 197 0
175 197 0
174 197 0
174 197 0
175 198 0
175 198 0
172 197 0
173 196 0
173 197 0
174 197 0
175 198 0
174 198 0
174 198 0
175 197 0
170 194 0
173 196 0
172 196 0
172 195 0
176 198 0
172 195 0
172 196 0
174 197 0
173 196 0
174 197 0
173 196 0
173 197 0
173 196 0
173 197 0
173 197 0
172 195 0
174 197 0
172 195 0
172 196 0
173 196 0
170 192 0
168 192 0
171 195 0
172 195 0
171 195 0
171 193 0
169 192 0
163 186 0
149 171 40
56 89 102
56 89 103
56 89 118
55 88 103
54 86 101
54 86 102
55 88 90
53 85 95
54 87 99
56 89 116
54 86 98
70 98 100
163 187 25
173 197 0
186 206 111
212 227 218
159 176 177
56 89 104
59 93 135
57 90 118
57 90 114
59 93 133
58 92 126
56 90 115
57 91 113
59 94 130
59 93 125
58 92 118
60 94 134
60 95 136
58 91 117
59 94 128
59 93 125
60 94 126
59 92 122
59 92 122
59 94 126
58 92 122
60 94 130
58 92 129
57 91 108
57 91 115
60 94 118
58 92 118
59 93 121
61 95 137
60 94 134
59 93 125
60 94 128
57 91 108
59 92 124
58 92 115
59 93 120
59 93 126
58 91 122
58 91 120
57 90 122
59 93 129
59 94 126
59 93 128
59 94 131
60 95 135
59 94 131
60 94 129
58 91 115
59 93 130
58 93 121
58 92 118
60 94 133
57 91 117
60 95 134
59 93 124
61 96 134
59 93 124
59 93 132
59 93 129
59 94 129
60 94 128
59 93 130
58 91 118
59 92 122
58 92 129
59 92 115
58 91 120
57 90 117
59 92 123
58 91 129
59 92 123
59 93 137
59 93 125
58 92 122
59 92 129
61 95 136
57 90 123
57 89 114
58 91 120
58 91 129
59 92 130
58 91 125
59 93 131
57 90 110
60 93 131
59 92 125
55 86 111
58 90 114
58 90 116
55 86 105
56 87 107
54 84 109
56 87 108
58 89 112
55 86 110
56 87 114
55 83 102
51 78 86
50 76 89
53 80 100
173 187 183
217 231 233
174 179 159
157 165 160
157 164 160
156 165 166
136 143 144
122 129 123
117 126 121
112 119 108
119 127 123
114 123 122
112 121 120
118 126 124
130 138 132
118 124 109
123 129 114
118 123 108
110 117 104
118 123 99
125 131 117
114 120 97
126 130 104
117 120 90
121 125 88
122 123 89
137 137 88
116 117 65
126 129 101
147 148 107
130 130 78
147 145 93
122 124 80
141 141 89
138 138 88
132 131 66
129 127 69
139 137 72
140 138 73
140 140 85
141 140 83
148 145 77
147 143 76
146 144 71
144 140 66
148 144 71
146 144 72
152 149 78
156 151 75
148 146 75
158 154 82
157 153 63
154 149 75
153 148 63
156 151 79
159 153 81
150 146 64
163 157 78
161 157 76
155 151 69
155 149 66
159 155 86
156 152 71
161 155 80
162 155 82
162 156 81
160 154 75
164 157 78
163 157 85
160 154 69
159 153 64
166 160 80
171 163 89
170 163 86
166 160 70
165 158 80
167 161 78
164 159 75
165 159 72
165 159 80
162 157 72
163 157 77
165 160 83
166 161 84
167 161 82
170 164 84
171 166 89
169 164 88
172 165 90
176 170 98
166 161 86
172 166 93
168 163 90
168 161 80
167 162 81
170 164 84
173 167 92
172 166 93
169 165 96
172 166 99
174 168 101
175 173 117
179 173 113
173 167 97
168 164 93
170 166 89
171 165 98
175 170 107
173 168 98
173 168 101
172 169 106
173 168 98
178 172 105
169 163 88
175 172 112
173 168 95
170 167 99
176 170 101
177 172 108
174 171 109
176 170 101
174 169 103
172 166 93
171 166 97
174 170 106
177 175 124
172 167 104
172 168 103
173 170 109
176 172 109
175 171 108
176 173 113
175 171 106
175 171 103
178 172 104
182 179 134
175 173 112
177 173 114
179 176 124
181 178 124
175 172 115
182 179 129
177 174 123
185 183 137
183 181 133
179 176 124
175 170 108
186 185 143
180 180 138
176 172 111
174 197 0
174 198 0
175 198 0
174 197 0
174 197 0
174 198 0
176 199 0
175 198 0
176 198 0
174 197 0
175 198 0
174 198 0
174 198 0
175 198 0
175 198 0
174 198 0
174 198 0
175 198 0
175 198 0
174 198 0
175 198 0
174 198 0
173 197 0
174 197 0
174 197 0
175 198 0
174 198 0
174 197 0
174 197 0
176 198 0
174 198 0
174 197 0
174 198 0
175 198 0
176 198 0
174 197 0
175 198 0
174 198 0
173 197 0
175 198 0
174 198 0
175 198 0
175 198 0
174 198 0
174 198 0
175 198 0
175 198 0
175 198 0
174 197 0
174 198 0
177 199 0
173 197 0
175 198 0
174 198 0
174 198 0
173 197 0
176 199 0
175 198 0
176 199 0
173 197 0
173 197 0
173 197 0
175 198 0
175 198 0
175 198 0
174 198 0
175 198 0
173 197 0
174 197 0
174 198 0
174 198 0
175 198 0
173 197 0
174 198 0
175 198 0
174 198 0
175 198 0
173 196 0
176 198 0
172 196 0
175 198 0
174 198 0
174 197 0
174 197 0
174 197 0
175 198 0
175 198 0
176 198 0
175 198 0
173 197 0
174 198 0
173 197 0
173 197 0
173 197 0
174 198 0
173 197 0
172 196 0
173 197 0
174 198 0
172 196 0
174 198 0
174 197 0
175 198 0
172 195 0
173 196 0
173 197 0
172 196 0
172 195 0
172 196 0
174 197 0
172 196 0
173 196 0
172 195 0
173 196 0
172 196 0
174 197 0
171 195 0
172 196 0
172 195 0
173 196 0
172 195 0
173 197 0
172 195 0
168 192 0
171 195 0
173 196 0
171 195 0
166 189 0
168 191 0
167 191 0
167 191 0
158 182 0
126 149 54
54 85 92
56 89 104
57 90 107
55 88 107
52 83 98
56 88 116
54 85 92
52 84 98
54 85 99
55 88 108
53 84 89
143 165 70
171 194 0
174 197 0
175 198 0
176 199 0
165 188 44
57 90 120
58 91 111
58 92 120
56 89 110
58 91 108
58 92 118
57 91 121
58 92 115
55 88 97
58 92 125
58 92 113
58 92 124
58 92 114
58 92 115
60 95 135
60 94 135
58 91 120
59 93 126
58 91 117
59 94 126
58 92 114
59 93 125
60 94 131
59 94 137
59 93 117
59 92 125
58 91 114
59 93 118
57 90 110
59 93 121
60 94 133
59 92 121
59 93 124
59 93 126
58 92 129
59 94 129
59 94 129
60 93 130
59 94 125
60 94 133
59 93 131
59 93 124
60 95 125
60 94 126
59 92 118
60 94 130
59 93 120
59 92 124
58 91 114
59 93 125
59 93 125
60 95 135
60 94 138
59 94 128
60 95 131
58 92 122
60 95 133
59 93 129
59 92 125
59 92 115
59 94 121
59 93 130
59 93 129
61 94 134
59 93 122
58 91 113
58 92 125
58 92 117
58 92 121
60 94 135
60 94 136
58 92 123
59 92 133
57 91 120
59 93 124
56 89 121
59 91 131
58 91 117
60 93 132
61 95 140
58 90 122
59 91 130
58 91 118
58 91 123
57 89 120
57 89 112
58 90 111
57 89 109
57 89 117
57 88 120
57 89 115
57 88 114
58 90 120
56 87 119
56 87 119
53 82 93
55 85 114
54 83 109
52 79 102
51 77 97
160 183 38
175 198 0
176 190 117
173 180 175
141 148 141
155 161 157
138 145 144
145 153 147
107 114 105
130 137 132
121 128 117
115 123 115
108 115 107
124 131 123
97 104 92
122 129 120
117 123 104
118 127 115
127 133 115
123 130 114
129 134 113
113 119 96
120 123 90
121 126 96
128 131 103
128 132 110
132 134 92
130 133 98
137 138 94
130 131 93
125 126 80
134 131 76
137 136 83
139 139 86
137 138 94
139 137 70
135 134 70
131 130 71
133 130 67
141 138 70
143 141 84
138 135 61
143 140 65
147 145 88
143 141 71
143 139 73
140 138 67
141 137 58
148 144 74
146 143 68
154 151 69
151 148 73
152 148 71
153 149 68
152 146 71
157 153 77
153 149 78
151 147 78
158 153 74
156 150 72
154 149 70
156 151 68
163 158 80
160 155 82
165 159 87
155 150 71
163 158 79
166 159 70
162 156 73
156 150 65
161 155 84
161 157 76
164 158 71
165 158 70
167 161 83
162 157 74
168 163 93
169 162 82
165 160 78
166 160 79
164 158 67
172 166 96
170 164 88
162 157 73
170 165 93
168 161 82
164 159 75
168 162 74
164 160 75
168 164 97
170 164 93
170 166 89
173 167 90
169 163 85
166 160 70
165 160 85
173 168 99
169 163 84
167 162 87
170 166 93
169 164 87
169 166 101
169 166 97
170 166 97
170 165 95
174 170 107
168 163 93
171 166 99
175 170 106
170 164 96
172 168 109
171 166 91
166 162 84
177 172 115
173 167 97
172 166 85
174 171 111
176 172 109
169 165 100
177 171 105
174 168 97
175 172 115
170 164 87
175 173 116
176 172 109
173 170 103
177 173 118
177 173 112
177 173 115
178 175 119
182 181 135
176 172 112
175 171 109
176 173 113
176 172 113
176 174 118
175 173 117
179 176 127
180 179 130
184 182 139
179 177 126
182 182 139
178 173 111
182 179 130
178 176 125
180 177 120
182 179 131
178 176 123
184 182 140
181 179 131
173 197 0
174 197 0
173 197 0
174 197 0
172 197 0
174 197 0
174 198 0
174 197 0
177 199 0
174 198 0
176 199 0
174 197 0
174 198 0
176 198 0
176 199 0
174 197 0
174 197 0
176 199 0
174 197 0
174 198 0
176 199 0
176 198 0
174 198 0
174 197 0
174 197 0
173 197 0
173 196 0
176 199 0
175 198 0
173 197 0
173 197 0
174 197 0
175 198 0
173 197 0
174 198 0
174 198 0
175 198 0
175 198 0
174 198 0
174 198 0
175 198 0
173 197 0
176 199 0
175 198 0
175 198 0
174 197 0
173 197 0
176 198 0
175 198 0
173 197 0
174 198 0
173 197 0
176 199 0
175 198 0
173 197 0
175 198 0
175 198 0
173 197 0
175 198 0
174 197 0
174 198 0
172 196 0
172 196 0
176 199 0
173 197 0
175 198 0
175 198 0
174 198 0
173 197 0
176 199 0
174 198 0
175 198 0
173 197 0
174 198 0
175 198 0
174 197 0
174 197 0
174 197 0
173 197 0
174 197 0
173 196 0
175 198 0
174 198 0
172 195 0
173 197 0
175 198 0
173 197 0
175 198 0
174 198 0
172 196 0
174 197 0
172 196 0
175 198 0
174 197 0
174 197 0
175 197 0
172 196 0
173 197 0
173 196 0
172 196 0
171 195 0
175 197 0
174 197 0
175 198 0
171 195 0
171 195 0
173 196 0
173 196 0
173 197 0
171 195 0
172 195 0
171 194 0
171 195 0
170 193 0
174 198 0
170 194 0
170 194 0
171 195 0
171 195 0
171 194 0
172 195 0
170 195 0
171 194 0
168 192 0
171 193 0
169 193 0
169 192 0
165 189 0
157 181 0
165 189 0
156 179 0
160 184 0
96 121 74
53 84 96
54 86 99
54 87 99
54 86 100
53 84 78
53 85 103
54 86 91
53 84 99
51 82 82
53 85 100
89 114 86
169 192 25
171 195 0
173 197 0
174 197 0
175 198 0
175 198 0
78 106 118
57 90 115
58 91 122
59 93 129
57 91 118
58 92 125
58 92 114
60 94 130
55 88 107
59 93 124
59 93 117
58 92 120
60 94 122
58 91 128
59 94 126
57 90 107
58 91 121
57 91 118
58 92 124
59 93 125
60 94 130
60 94 126
59 93 121
60 94 136
59 93 129
59 93 120
59 92 130
59 94 122
60 94 125
57 91 118
60 94 131
60 94 129
58 92 126
57 90 122
60 94 128
59 93 125
58 92 122
58 92 118
58 92 120
58 92 122
58 92 121
57 91 114
60 94 130
56 89 111
59 93 128
60 94 126
60 95 133
60 95 129
59 93 125
61 95 137
58 92 130
58 92 122
59 93 129
58 91 114
58 92 120
60 94 122
58 92 125
58 92 125
59 93 134
60 95 133
60 94 135
58 92 129
58 92 110
59 93 121
59 93 125
58 91 121
58 90 110
58 90 120
58 92 124
58 92 120
57 90 111
58 91 118
59 93 129
59 93 120
59 93 129
56 89 113
59 92 115
56 89 110
59 92 128
58 91 118
57 89 115
57 90 114
57 89 120
57 89 120
58 91 119
58 91 122
54 85 108
57 88 117
57 89 115
57 89 114
56 87 109
57 89 117
57 89 114
58 89 121
56 87 119
54 83 105
51 79 84
54 82 103
51 77 99
67 90 96
174 198 0
174 198 0
179 199 78
173 180 175
157 162 150
158 166 166
145 153 156
141 148 149
138 146 146
128 134 125
136 145 145
139 146 139
126 133 129
109 114 100
128 134 120
115 122 113
128 133 119
110 115 96
109 115 89
125 131 113
115 119 94
123 126 95
115 118 86
135 138 105
116 120 97
119 122 82
118 121 88
120 121 68
134 136 97
126 128 91
127 128 85
139 140 86
130 130 77
140 139 74
126 125 58
142 140 73
136 134 71
150 150 97
145 144 95
148 145 84
143 141 77
151 148 77
142 139 67
148 145 82
147 144 79
146 143 74
150 146 72
148 144 72
155 150 78
154 150 76
155 151 75
153 149 78
156 151 78
149 145 71
154 150 70
152 148 62
151 148 76
159 155 71
154 148 73
157 152 72
156 150 68
157 152 76
162 156 85
158 154 79
163 157 76
158 153 71
154 150 68
154 149 67
164 158 73
164 159 78
161 156 72
158 152 63
162 155 78
161 157 82
163 157 74
161 156 75
167 162 81
168 162 79
163 159 89
166 161 87
163 158 79
160 155 77
165 162 87
166 161 84
166 161 80
164 158 69
168 163 80
166 162 82
169 162 85
169 163 88
169 164 95
170 165 95
167 162 88
170 165 93
171 167 93
168 163 87
171 165 88
167 161 81
174 169 103
170 165 87
171 166 97
172 168 97
171 167 103
167 161 84
175 169 92
175 170 98
172 167 96
170 165 93
171 165 90
174 171 109
176 172 108
174 166 90
171 166 93
172 168 104
177 174 116
176 171 110
169 165 99
169 164 91
172 167 100
169 165 92
174 168 99
176 172 110
176 171 110
172 167 99
180 176 121
175 171 112
175 171 109
174 171 110
173 169 104
175 171 107
179 177 124
171 167 97
173 170 108
182 180 132
176 174 113
175 171 109
182 180 133
179 176 126
180 176 121
182 180 134
181 179 132
176 175 124
177 173 118
176 173 115
179 178 132
180 178 129
181 178 129
180 177 124
181 180 135
180 178 129
173 197 0
173 197 0
174 198 0
173 196 0
174 198 0
173 197 0
175 198 0
175 198 0
173 197 0
173 196 0
174 197 0
173 197 0
172 196 0
175 198 0
175 198 0
175 198 0
175 198 0
174 198 0
174 197 0
173 197 0
174 197 0
172 196 0
176 199 0
173 197 0
173 197 0
174 198 0
174 198 0
172 197 0
176 199 0
172 196 0
175 198 0
173 197 0
175 198 0
173 197 0
177 199 0
175 198 0
174 198 0
175 198 0
174 197 0
175 198 0
175 198 0
176 199 0
175 198 0
175 198 0
173 197 0
175 198 0
173 196 0
174 197 0
175 198 0
175 198 0
175 198 0
176 199 0
174 197 0
174 197 0
172 196 0
173 197 0
174 197 0
173 197 0
172 196 0
174 198 0
175 198 0
174 198 0
176 198 0
173 196 0
174 198 0
174 198 0
174 198 0
173 197 0
174 198 0
174 197 0
174 197 0
173 196 0
175 198 0
173 197 0
174 197 0
175 198 0
173 197 0
173 197 0
174 198 0
173 197 0
173 196 0
174 197 0
174 197 0
175 198 0
170 194 0
173 197 0
172 196 0
173 196 0
172 196 0
173 197 0
173 197 0
174 198 0
171 196 0
172 195 0
170 194 0
174 197 0
175 198 0
174 197 0
172 196 0
172 195 0
172 196 0
172 195 0
170 194 0
171 195 0
174 197 0
172 196 0
172 195 0
172 197 0
172 195 0
170 194 0
169 193 0
171 195 0
174 197 0
173 197 0
170 195 0
169 194 0
173 196 0
169 193 0
171 195 0
169 193 0
169 192 0
169 192 0
170 193 0
167 191 0
168 192 0
167 191 0
167 190 0
164 187 0
165 189 0
156 179 0
157 180 0
151 174 25
56 86 78
54 86 94
56 89 108
54 86 94
55 87 90
54 86 92
54 86 99
54 86 98
55 88 103
55 87 92
59 89 92
144 167 44
172 195 0
172 195 0
172 196 0
172 197 0
174 197 0
176 199 0
102 128 95
56 89 110
56 90 99
56 89 115
58 91 128
59 92 117
58 91 107
56 89 113
58 92 117
57 91 115
58 91 115
56 89 115
56 89 110
59 93 122
57 91 103
59 94 130
59 93 122
59 93 126
58 92 121
58 91 113
59 94 125
56 89 114
59 94 128
59 93 124
59 93 130
58 93 114
59 93 124
59 93 120
60 94 135
58 91 122
59 93 122
58 93 120
59 93 125
60 94 128
59 93 120
58 92 118
60 94 135
59 93 128
60 94 130
57 90 114
59 93 128
60 94 131
58 92 115
58 92 122
59 93 126
59 93 128
58 91 117
58 91 115
59 93 122
57 91 115
60 94 126
60 95 133
59 93 120
59 93 133
57 91 111
58 91 122
58 91 115
56 89 103
58 91 124
59 93 132
58 92 118
59 93 128
60 95 135
60 93 136
57 91 117
59 92 130
60 94 136
57 89 114
60 94 132
58 92 127
58 91 125
59 94 133
59 92 129
59 92 117
57 90 123
59 93 129
59 92 125
60 94 135
56 88 105
58 91 113
57 91 120
57 90 116
57 89 111
57 90 118
58 91 116
56 88 113
57 89 112
58 90 118
56 87 103
58 90 114
56 86 118
56 87 121
57 88 113
55 85 105
56 85 117
53 81 93
52 80 106
53 81 110
51 77 91
123 144 74
175 198 0
175 198 0
172 196 2
175 182 160
160 167 164
143 148 138
149 157 156
139 147 139
141 149 144
138 146 145
147 156 153
130 137 130
133 141 141
121 128 119
129 134 125
113 119 104
123 129 109
123 129 119
121 127 106
113 117 95
134 138 112
120 126 107
124 129 105
122 125 95
135 139 115
125 128 81
137 139 99
136 139 106
117 120 87
133 135 93
138 137 84
118 118 60
133 135 92
140 138 85
136 137 88
140 139 80
132 131 72
141 141 87
139 139 91
128 128 76
140 138 70
138 137 72
145 143 79
139 135 53
145 144 81
145 142 79
154 148 72
146 142 67
143 140 68
149 145 70
149 144 69
145 142 60
153 150 82
149 146 69
149 145 61
155 150 69
154 150 73
151 146 64
158 153 73
157 153 71
160 154 74
161 156 86
157 152 76
159 154 69
164 157 70
155 150 69
160 155 77
154 150 72
162 158 84
163 156 66
156 150 73
159 153 65
162 156 74
159 154 79
166 160 75
161 156 72
164 158 77
164 158 77
169 163 83
165 160 78
169 163 86
163 157 72
168 162 82
164 159 78
167 162 90
166 160 76
167 160 76
165 162 86
167 162 90
167 162 82
170 164 80
170 165 90
174 167 93
170 165 93
170 163 84
168 164 91
171 168 106
169 164 93
170 164 91
174 169 101
175 170 101
175 169 101
169 163 81
174 168 97
173 170 98
169 164 85
174 170 106
171 167 101
171 168 106
171 166 98
176 173 116
170 166 87
174 171 110
176 173 116
176 171 110
170 166 96
172 167 93
170 167 101
174 169 100
174 171 107
171 168 101
176 171 109
178 174 118
176 172 113
176 173 110
172 169 109
176 172 117
176 172 112
177 173 110
175 171 106
177 172 110
176 172 111
177 175 120
175 171 114
172 169 109
179 177 125
177 174 120
176 173 115
175 173 125
181 180 135
173 167 95
177 174 120
177 173 111
174 170 104
177 174 116
182 180 131
181 179 130
182 180 133
180 178 124
181 179 130
174 198 0
173 197 0
173 197 0
173 197 0
175 198 0
175 198 0
174 198 0
173 196 0
174 198 0
174 198 0
174 197 0
175 198 0
174 198 0
175 198 0
174 197 0
174 198 0
174 198 0
174 197 0
175 198 0
174 197 0
173 196 0
173 197 0
173 196 0
172 196 0
175 198 0
174 197 0
174 197 0
175 198 0
174 197 0
175 198 0
174 198 0
174 197 0
175 198 0
173 197 0
173 197 0
175 198 0
173 197 0
175 198 0
174 198 0
174 198 0
175 198 0
175 198 0
175 198 0
175 198 0
174 197 0
175 198 0
173 197 0
174 198 0
174 198 0
173 197 0
174 198 0
174 197 0
175 198 0
173 197 0
173 197 0
174 198 0
175 198 0
175 198 0
174 197 0
174 197 0
174 198 0
174 198 0
174 197 0
173 197 0
174 198 0
174 197 0
171 196 0
173 197 0
174 197 0
173 197 0
174 197 0
174 198 0
173 197 0
172 196 0
175 198 0
174 197 0
173 197 0
173 196 0
172 197 0
172 196 0
172 196 0
173 197 0
172 196 0
174 197 0
173 197 0
172 196 0
173 197 0
172 196 0
172 196 0
173 197 0
172 195 0
173 196 0
172 196 0
174 197 0
171 194 0
174 197 0
171 194 0
174 197 0
174 197 0
175 198 0
174 197 0
173 197 0
171 195 0
172 195 0
172 195 0
173 196 0
173 196 0
170 194 0
171 195 0
170 195 0
170 195 0
169 193 0
172 196 0
169 193 0
171 195 0
172 195 0
173 197 0
168 193 0
167 192 0
168 192 0
166 189 0
170 194 0
165 189 0
167 191 0
168 191 0
166 190 0
169 193 0
165 189 0
163 186 0
159 182 0
153 175 0
117 139 54
53 85 85
55 88 108
56 89 113
55 87 86
54 85 90
52 83 93
54 86 92
53 85 102
53 84 84
54 86 94
124 147 57
168 192 0
170 194 0
173 196 0
174 197 0
175 198 0
173 197 0
176 198 0
151 175 60
58 91 129
58 91 117
57 90 107
57 90 114
59 93 130
57 90 113
59 92 122
56 89 114
56 89 103
57 90 122
58 92 117
60 94 130
57 91 108
58 92 125
58 91 115
59 94 124
59 93 124
57 90 115
57 91 121
57 91 121
59 93 126
58 92 117
59 93 120
59 93 118
59 93 121
59 93 129
59 93 130
57 91 117
58 92 120
58 91 124
60 95 124
59 94 129
60 93 130
58 92 117
58 91 107
58 92 120
58 91 115
60 94 130
59 93 130
60 94 133
58 91 118
58 92 125
57 91 118
57 91 117
58 92 121
59 93 126
58 92 120
57 90 115
56 89 107
60 94 129
58 92 115
58 91 125
57 91 126
58 91 125
57 91 117
58 91 116
59 93 129
58 92 117
58 92 110
57 91 121
58 91 123
59 92 115
57 90 107
58 93 107
58 92 124
59 92 113
58 92 120
58 91 121
59 93 123
60 94 126
57 89 116
57 90 115
58 92 125
59 92 131
59 92 120
58 91 119
58 91 120
57 89 120
56 87 110
58 91 124
57 89 123
56 88 115
57 89 115
57 90 122
56 87 117
57 89 116
56 88 117
57 89 117
57 89 108
55 86 102
57 89 111
56 88 107
53 82 98
52 80 102
56 87 115
54 82 98
56 85 106
51 77 93
142 163 46
174 197 0
174 198 0
174 198 0
178 191 130
170 176 170
154 160 154
150 157 152
154 161 159
136 142 137
150 159 156
128 134 129
127 131 120
128 135 129
112 118 102
118 124 108
131 137 127
118 125 117
116 123 112
131 137 119
109 115 93
133 135 106
121 125 96
119 122 86
124 128 105
126 129 92
119 122 82
133 138 113
125 127 81
134 134 91
129 128 75
138 139 93
128 126 63
123 124 69
140 142 94
144 143 90
141 140 86
139 139 79
140 138 78
142 140 84
137 135 77
132 132 75
144 141 64
129 128 63
143 140 66
142 141 81
149 146 81
153 150 80
148 143 73
146 143 69
147 144 73
153 148 80
144 141 66
149 145 70
150 146 73
147 144 66
154 149 69
156 153 77
152 148 69
157 154 84
157 154 87
157 152 65
154 150 62
153 149 65
160 156 86
154 150 70
156 151 78
160 156 79
164 157 73
159 154 70
161 155 72
164 158 75
165 160 84
159 155 74
162 157 75
154 150 64
164 156 70
162 157 82
168 161 72
164 159 75
164 159 76
165 159 72
161 156 66
166 160 82
165 160 85
166 159 83
166 163 93
165 160 82
167 162 80
165 159 78
168 163 91
159 154 74
170 165 103
163 159 80
165 160 75
169 165 93
170 166 91
170 165 89
171 167 95
169 163 82
171 167 103
171 166 97
173 168 101
170 166 100
172 168 104
168 164 93
170 164 92
171 167 97
170 164 84
173 168 99
164 162 94
174 172 112
164 161 84
171 167 103
173 169 98
173 169 106
172 167 101
178 175 118
172 167 99
178 174 114
174 169 103
178 173 112
172 169 103
176 174 118
174 170 106
177 173 113
174 170 108
174 170 109
173 168 99
175 173 114
172 168 106
175 171 106
177 174 118
176 173 115
175 172 109
179 178 130
174 171 109
174 170 107
179 174 113
173 169 101
179 177 121
174 172 116
177 175 122
180 179 133
182 180 134
183 180 130
184 182 136
175 172 120
184 182 135
177 174 112
177 174 120
175 198 0
171 196 0
173 197 0
172 195 0
173 197 0
174 198 0
174 197 0
175 198 0
174 198 0
175 198 0
175 198 0
175 198 0
175 198 0
175 198 0
173 197 0
175 198 0
175 198 0
175 198 0
175 198 0
174 198 0
173 197 0
174 198 0
174 197 0
173 196 0
173 197 0
174 197 0
175 198 0
173 197 0
175 198 0
173 197 0
174 197 0
174 197 0
173 197 0
173 197 0
175 198 0
173 197 0
172 196 0
173 197 0
173 197 0
174 197 0
175 198 0
173 197 0
174 197 0
173 197 0
171 195 0
174 198 0
174 197 0
176 198 0
175 198 0
174 197 0
172 196 0
174 197 0
174 197 0
174 198 0
175 198 0
175 198 0
176 198 0
174 197 0
173 197 0
174 198 0
175 198 0
174 198 0
174 197 0
174 198 0
174 197 0
175 197 0
173 196 0
174 197 0
174 197 0
173 197 0
175 198 0
174 198 0
173 197 0
175 198 0
174 197 0
171 195 0
174 197 0
171 195 0
173 197 0
175 198 0
172 196 0
173 196 0
174 197 0
175 198 0
172 197 0
170 195 0
173 196 0
171 195 0
175 198 0
172 196 0
173 197 0
173 196 0
173 196 0
169 193 0
173 197 0
173 197 0
172 197 0
173 196 0
170 193 0
171 195 0
172 196 0
171 195 0
174 197 0
173 196 0
172 196 0
172 196 0
172 196 0
176 198 0
174 196 0
168 192 0
169 192 0
171 194 0
172 195 0
168 191 0
170 194 0
171 194 0
169 193 0
170 194 0
165 188 0
172 195 0
168 192 0
166 189 0
164 188 0
167 191 0
168 191 0
165 188 0
160 184 0
164 187 0
161 184 0
158 180 0
149 172 0
69 96 67
53 84 86
55 87 86
53 84 80
53 84 72
52 83 78
56 88 102
52 83 84
53 85 78
53 85 91
121 145 67
165 187 0
168 192 0
170 193 0
173 196 0
173 197 0
175 198 0
175 198 0
175 198 0
173 196 0
62 94 114
57 91 120
57 90 100
56 89 113
58 92 118
56 89 120
57 91 103
56 89 108
59 93 126
57 90 110
57 91 107
57 91 108
57 91 115
57 91 113
58 91 122
60 94 125
57 91 105
59 93 120
58 92 117
56 89 105
58 91 111
58 92 125
59 93 124
58 92 121
59 93 125
59 93 130
60 94 126
59 92 121
61 95 135
57 91 117
57 90 108
58 91 113
57 91 114
59 93 124
61 96 136
60 94 121
60 94 131
57 90 110
60 94 124
58 92 117
58 91 117
57 90 105
58 91 122
61 95 137
60 94 129
59 93 124
59 94 129
59 92 115
58 92 128
59 93 129
58 92 117
58 91 110
59 93 125
60 94 130
57 90 121
59 93 129
56 89 111
60 94 135
58 91 117
59 93 127
58 93 125
58 92 124
58 91 123
57 90 115
56 89 108
58 92 120
57 90 117
57 91 110
58 91 116
58 92 114
57 90 110
59 93 129
58 91 108
58 91 117
59 92 117
59 93 122
59 92 130
56 88 123
57 89 118
56 89 114
59 91 122
59 92 130
55 86 109
54 85 97
57 88 108
56 88 113
56 87 112
56 88 104
55 86 107
56 87 110
57 89 113
55 86 106
56 87 113
55 84 111
54 83 101
53 80 89
51 78 93
59 84 89
168 192 8
173 196 0
174 198 0
175 198 0
176 196 74
168 173 160
162 168 154
139 144 132
152 159 153
148 154 148
143 149 140
144 149 137
118 124 106
125 133 125
116 121 102
129 135 123
123 128 114
112 119 102
139 145 130
126 131 110
124 128 102
127 131 111
137 142 120
109 111 73
127 130 101
121 122 66
119 122 90
123 123 70
131 133 91
129 131 91
128 131 101
132 131 83
135 135 90
125 127 90
140 139 88
141 141 96
142 142 91
128 128 77
136 134 63
139 137 71
146 143 78
142 143 90
141 140 86
144 141 70
133 132 63
147 146 87
146 144 81
147 143 73
149 147 81
157 153 86
148 144 76
154 151 88
143 141 80
142 139 50
156 152 80
150 147 80
148 145 74
156 152 71
154 149 67
148 145 67
153 149 76
161 156 79
161 157 82
150 146 66
158 153 68
162 157 77
158 153 69
158 153 66
161 156 81
162 156 77
161 156 68
158 154 82
159 154 64
161 155 82
161 157 76
163 157 70
163 156 74
165 160 81
167 161 90
167 160 80
163 158 72
163 158 80
166 161 74
167 161 87
167 161 88
165 159 76
169 164 86
165 160 78
165 158 72
162 157 73
170 166 97
166 160 84
166 160 79
168 163 80
164 159 76
170 164 93
165 159 84
167 161 75
168 162 85
170 166 95
172 167 101
167 162 81
170 166 95
170 164 98
169 165 91
171 165 95
175 169 96
170 166 92
171 168 101
175 172 112
169 165 90
174 169 103
171 167 95
174 171 109
167 163 93
176 171 103
177 172 109
171 166 90
169 164 88
173 170 106
169 165 98
171 166 93
177 171 101
174 172 108
173 169 104
174 169 105
173 168 102
177 172 110
182 180 130
178 176 126
175 172 114
173 170 106
179 175 121
178 173 114
177 175 121
178 176 125
176 171 111
176 172 112
182 178 126
179 178 131
180 177 125
179 179 133
175 171 106
180 176 122
178 175 119
179 175 120
173 169 103
182 182 140
179 176 120
180 178 130
183 180 135
175 198 0
171 196 0
174 197 0
173 197 0
173 197 0
174 197 0
173 197 0
175 198 0
175 198 0
173 197 0
174 197 0
174 198 0
174 198 0
174 198 0
176 198 0
174 197 0
174 197 0
173 197 0
175 198 0
171 195 0
175 198 0
175 198 0
173 197 0
174 198 0
174 198 0
174 198 0
173 197 0
173 197 0
173 197 0
174 197 0
172 196 0
175 198 0
174 197 0
174 198 0
174 197 0
174 197 0
172 196 0
175 198 0
176 199 0
174 197 0
174 198 0
174 197 0
173 197 0
174 198 0
174 198 0
173 197 0
175 198 0
175 198 0
173 197 0
173 197 0
174 198 0
173 197 0
175 198 0
174 198 0
175 198 0
174 198 0
174 197 0
173 197 0
174 198 0
173 197 0
172 197 0
172 196 0
174 198 0
173 197 0
174 198 0
174 197 0
174 197 0
174 197 0
170 194 0
173 196 0
175 198 0
173 197 0
170 194 0
173 197 0
175 198 0
174 198 0
173 197 0
173 196 0
174 197 0
174 198 0
173 196 0
173 197 0
173 196 0
174 197 0
174 197 0
174 197 0
170 194 0
173 197 0
172 196 0
173 197 0
175 197 0
174 197 0
173 196 0
170 194 0
173 196 0
172 195 0
170 194 0
173 196 0
173 196 0
171 194 0
174 197 0
171 196 0
169 193 0
167 191 0
172 196 0
174 196 0
172 195 0
172 196 0
171 195 0
171 195 0
171 194 0
168 191 0
169 192 0
166 190 0
173 196 0
172 195 0
169 193 0
168 192 0
165 189 0
169 193 0
167 190 0
165 189 0
168 191 0
168 192 0
163 185 0
156 178 0
155 178 0
157 181 0
156 179 0
142 164 0
113 134 18
54 85 88
54 87 92
53 84 97
55 87 94
54 87 95
52 83 80
55 87 82
53 85 84
54 85 88
111 134 60
164 187 0
164 188 0
164 188 0
170 195 0
175 198 0
172 196 0
173 197 0
175 198 0
173 197 0
175 198 0
110 135 94
54 86 97
57 91 111
57 91 114
57 91 124
59 92 121
58 92 110
57 90 113
59 93 121
57 90 105
58 92 117
58 92 121
58 91 114
57 90 108
58 92 115
59 93 124
57 91 105
57 91 113
58 91 124
57 91 115
58 92 118
58 93 118
58 91 105
60 94 126
57 90 122
57 91 120
59 93 122
59 93 129
55 86 103
59 93 120
60 94 125
59 93 122
58 91 114
58 92 121
57 91 113
58 92 126
59 94 130
59 92 114
58 92 125
59 93 131
59 93 121
56 89 114
57 89 111
59 94 125
61 96 136
58 91 118
58 92 111
58 92 124
57 91 115
58 92 115
57 90 114
59 93 125
58 92 118
59 92 122
57 90 115
57 90 107
57 90 111
57 90 115
58 92 122
58 92 124
56 89 115
58 91 121
58 92 118
61 95 137
57 91 114
57 90 120
58 91 114
58 91 119
57 91 120
56 89 113
56 89 110
59 92 125
58 90 126
56 89 106
57 90 111
58 91 115
58 91 125
58 91 125
58 90 127
57 90 117
56 88 119
57 89 117
58 90 127
55 87 113
55 86 112
59 91 126
58 90 127
58 91 119
55 86 104
57 87 107
56 85 107
57 88 115
55 85 104
55 85 102
54 82 102
52 80 98
50 77 80
113 134 70
172 196 0
175 198 0
173 197 0
171 195 0
173 197 0
174 183 150
163 169 162
160 166 158
139 146 142
151 156 146
132 138 129
147 154 146
129 135 121
121 127 116
128 136 124
133 139 130
126 132 114
129 132 110
113 116 83
123 127 98
108 114 97
118 121 87
121 123 96
132 137 114
131 135 109
137 137 98
128 131 99
121 121 72
118 121 87
118 120 76
125 126 70
133 134 89
132 132 82
135 135 83
126 128 77
140 139 93
142 141 89
131 129 56
141 141 87
139 139 87
141 140 82
139 139 81
133 131 61
147 146 85
144 141 75
154 153 103
145 142 76
152 149 85
148 143 75
147 143 80
159 156 91
144 142 64
148 145 67
145 141 63
155 151 84
146 142 67
157 151 71
151 148 77
147 142 56
157 152 72
159 156 84
155 150 75
156 152 79
158 153 84
152 147 60
155 151 75
153 148 63
157 151 76
157 152 71
158 154 81
162 158 89
163 159 76
162 157 78
161 154 62
159 154 78
155 151 71
163 157 67
164 160 88
161 156 71
156 151 62
158 153 62
166 162 92
165 161 85
165 158 71
162 157 79
164 159 74
169 164 99
163 159 82
164 159 72
168 162 86
168 163 90
170 166 100
168 163 87
171 167 96
164 160 91
166 162 97
166 162 87
164 158 80
171 165 91
172 166 93
174 168 97
168 162 84
168 164 93
170 166 97
173 166 95
165 160 75
166 161 81
173 168 98
170 167 104
173 169 101
168 163 90
171 167 99
176 171 103
167 162 90
171 167 99
176 171 101
176 173 118
176 173 109
171 166 99
174 171 113
171 167 98
175 171 106
174 173 117
174 171 114
177 175 125
174 170 109
173 170 111
176 175 124
170 166 99
174 171 113
174 171 108
172 167 101
176 173 118
175 173 116
177 174 121
176 172 113
182 179 126
184 182 137
180 177 126
175 173 117
180 177 125
178 175 117
178 176 126
179 177 128
177 175 124
182 180 132
180 178 128
179 177 125
178 176 123
182 180 135
185 184 142
176 198 0
173 197 0
174 197 0
174 197 0
172 196 0
174 198 0
172 196 0
174 197 0
173 197 0
174 198 0
174 198 0
173 197 0
175 198 0
174 197 0
173 197 0
174 198 0
172 196 0
175 198 0
174 197 0
175 198 0
173 197 0
173 197 0
174 197 0
174 197 0
175 198 0
176 198 0
173 197 0
173 197 0
174 198 0
174 198 0
172 196 0
172 197 0
173 197 0
174 197 0
174 197 0
175 198 0
174 198 0
174 197 0
173 197 0
173 197 0
174 198 0
174 198 0
173 197 0
173 197 0
173 197 0
174 198 0
172 196 0
171 194 0
174 198 0
172 196 0
174 198 0
175 198 0
172 196 0
174 198 0
175 198 0
174 197 0
175 198 0
175 198 0
174 197 0
171 195 0
174 198 0
175 198 0
174 197 0
173 196 0
175 198 0
172 197 0
173 196 0
172 196 0
172 197 0
173 197 0
172 197 0
173 197 0
173 196 0
173 196 0
175 198 0
172 196 0
175 198 0
173 197 0
172 196 0
173 196 0
172 196 0
174 198 0
174 197 0
170 194 0
175 198 0
173 197 0
173 196 0
171 195 0
170 194 0
172 196 0
172 196 0
173 196 0
172 196 0
169 193 0
171 195 0
171 195 0
172 196 0
172 196 0
172 196 0
174 197 0
169 193 0
174 197 0
171 194 0
169 192 0
171 194 0
170 193 0
171 195 0
171 195 0
168 191 0
169 192 0
171 194 0
168 192 0
169 193 0
167 190 0
162 186 0
169 192 0
169 192 0
165 188 0
166 189 0
163 186 0
166 189 0
163 186 0
165 188 0
161 184 0
162 186 0
160 184 0
159 181 0
150 172 0
145 167 0
130 151 0
82 105 47
52 82 84
52 82 82
52 83 70
54 86 86
52 83 65
53 85 80
53 84 74
58 88 74
112 135 57
152 173 0
156 178 0
157 180 0
164 188 0
169 193 0
173 196 0
174 198 0
172 196 0
172 196 0
173 196 0
174 198 0
142 166 60
56 88 100
56 89 108
56 89 114
55 88 114
59 93 118
55 88 103
58 91 115
56 90 108
56 89 105
56 89 111
58 92 124
56 89 108
57 90 118
59 93 131
59 93 129
58 91 115
59 93 117
56 90 120
58 92 115
58 91 117
56 89 105
58 92 122
57 91 130
59 94 124
55 88 111
58 91 117
59 93 124
60 94 136
58 92 124
57 91 120
57 91 117
57 90 115
56 89 114
56 89 117
58 91 118
59 93 122
59 93 129
58 91 124
59 93 129
58 92 114
58 91 114
59 93 133
57 90 117
59 93 120
59 92 120
58 91 120
58 92 118
59 93 133
59 93 126
58 92 126
56 90 110
58 91 115
59 93 115
57 90 113
58 92 122
58 91 118
57 91 121
58 92 111
57 90 115
58 91 121
57 90 108
57 90 120
59 92 120
59 93 125
57 90 114
60 94 128
58 92 122
58 92 120
59 93 118
59 93 123
57 91 117
57 90 108
56 89 114
59 92 124
58 91 116
58 92 123
59 92 125
59 92 126
58 90 113
58 90 117
59 91 129
56 87 109
56 87 104
57 89 121
56 87 119
56 87 115
55 86 116
56 87 110
57 88 110
57 87 115
54 84 94
55 84 108
55 85 107
56 86 106
52 80 101
49 76 80
145 166 29
172 196 0
173 197 0
173 197 0
175 198 0
174 197 0
174 192 97
176 182 173
166 172 159
159 166 163
152 158 149
127 132 117
126 133 121
126 132 122
132 140 133
138 144 134
134 140 129
125 129 101
145 151 139
125 130 111
115 121 99
133 140 132
129 133 109
113 115 79
118 121 89
124 127 89
124 127 94
131 132 98
139 143 111
120 124 94
117 120 76
126 129 97
138 139 100
129 129 75
136 137 92
132 132 83
141 140 91
126 127 66
140 140 83
137 136 80
137 135 72
146 146 97
143 144 87
142 142 76
153 149 79
140 137 72
143 139 61
141 140 80
142 139 66
147 145 74
151 148 82
155 151 75
145 142 74
145 141 71
144 140 62
151 145 65
150 148 85
153 149 78
152 147 65
151 146 60
151 147 80
153 150 71
164 159 82
162 157 84
152 148 50
158 153 67
156 151 60
156 151 79
155 151 69
158 155 85
157 153 71
154 149 71
163 157 69
157 152 61
154 149 65
163 158 87
161 157 78
157 153 73
166 161 78
164 158 73
164 159 79
162 158 72
163 158 72
166 162 71
166 161 82
164 159 80
168 160 81
169 165 89
169 164 95
168 164 87
164 158 74
168 164 90
170 165 90
163 158 75
166 161 74
167 162 78
169 165 90
168 163 80
167 163 90
167 161 86
163 158 75
168 164 102
176 172 111
170 165 89
172 166 99
175 171 106
167 163 91
167 163 87
167 162 87
170 166 98
168 163 81
172 168 104
170 167 96
174 170 109
170 165 88
169 164 89
175 171 113
171 166 96
171 167 104
171 168 103
172 168 101
175 172 115
174 169 98
180 176 121
170 168 101
171 167 99
173 169 107
174 169 105
174 172 117
175 172 112
176 173 113
175 173 122
176 174 118
178 174 118
178 176 121
175 171 112
175 173 117
177 173 116
179 177 126
180 177 130
181 180 133
179 179 137
179 175 118
172 169 103
179 178 126
175 172 113
177 175 127
181 179 131
178 175 118
184 185 148
182 181 137
178 177 130
175 198 0
172 195 0
175 198 0
173 196 0
173 196 0
174 197 0
174 198 0
173 196 0
173 197 0
176 199 0
172 197 0
173 197 0
175 198 0
173 197 0
173 197 0
172 196 0
174 198 0
173 197 0
174 197 0
174 197 0
174 198 0
174 198 0
172 196 0
174 198 0
174 197 0
174 197 0
175 198 0
175 198 0
175 198 0
174 198 0
173 197 0
172 196 0
175 198 0
174 198 0
174 197 0
171 195 0
173 197 0
174 197 0
173 197 0
175 198 0
173 197 0
175 197 0
174 198 0
171 196 0
174 198 0
175 198 0
173 197 0
175 198 0
173 197 0
173 197 0
174 198 0
174 197 0
176 198 0
173 197 0
173 196 0
173 196 0
175 198 0
172 196 0
173 196 0
173 197 0
172 196 0
175 198 0
173 197 0
172 196 0
173 197 0
170 194 0
172 196 0
176 199 0
173 196 0
174 198 0
174 198 0
172 196 0
175 198 0
172 196 0
173 196 0
173 196 0
171 195 0
173 196 0
175 198 0
170 193 0
172 196 0
172 195 0
172 196 0
175 198 0
173 196 0
174 197 0
170 193 0
172 195 0
168 192 0
173 196 0
172 196 0
171 194 0
170 194 0
171 194 0
169 193 0
171 195 0
171 194 0
169 193 0
173 197 0
172 195 0
169 192 0
174 197 0
171 194 0
169 192 0
169 192 0
170 193 0
170 194 0
166 190 0
169 193 0
172 196 0
169 193 0
171 195 0
170 193 0
173 195 0
168 190 0
169 192 0
164 188 0
163 187 0
165 188 0
165 189 0
166 188 0
161 184 0
161 184 0
153 176 0
163 185 0
158 182 0
159 182 0
143 165 0
144 165 0
111 131 25
51 81 84
53 84 80
52 82 67
49 79 70
50 81 70
51 82 67
51 81 60
81 105 65
132 153 25
152 174 0
146 168 0
155 177 0
152 175 0
163 187 0
170 194 0
172 196 0
173 196 0
175 198 0
174 197 0
174 197 0
175 198 0
169 192 0
73 102 100
56 89 107
57 90 115
56 89 99
56 89 105
58 91 114
56 89 111
56 89 105
58 92 105
57 91 118
55 88 99
59 93 114
57 91 108
58 92 117
56 89 105
57 91 108
57 91 99
57 90 111
58 91 115
58 91 120
57 91 121
58 92 122
59 92 130
58 92 121
57 91 113
59 92 117
58 92 121
57 91 121
56 89 110
57 90 108
56 89 120
59 92 122
58 92 118
56 89 100
60 94 134
59 93 124
58 91 121
58 92 111
59 93 129
59 93 128
58 91 121
59 93 124
57 91 111
57 90 108
57 91 107
57 91 110
58 92 122
56 88 107
57 90 115
59 93 120
58 91 124
56 89 111
58 91 114
59 92 115
57 91 117
57 89 111
57 90 107
57 90 114
58 91 111
59 92 128
56 89 114
57 91 113
58 91 120
58 91 114
59 92 124
57 89 104
56 89 100
58 91 120
56 88 111
59 92 120
59 93 127
57 89 113
56 89 116
57 90 117
57 89 108
57 89 108
57 90 120
56 89 102
58 90 122
56 88 110
57 89 115
58 91 120
57 89 109
56 87 114
55 86 104
58 88 120
54 84 103
56 85 109
56 87 96
56 87 108
52 81 86
55 86 105
52 80 97
51 78 84
53 80 100
61 85 78
172 196 0
175 197 0
173 196 0
174 197 0
174 197 0
172 196 0
173 197 25
186 193 171
165 170 161
156 163 159
152 156 143
147 152 140
155 161 149
127 134 130
150 156 142
127 132 108
139 144 139
138 144 135
118 124 111
126 130 106
121 126 107
129 134 117
130 135 114
139 142 113
111 114 76
132 136 114
128 130 91
137 141 117
124 127 96
137 139 107
134 136 98
130 131 91
135 135 85
132 131 75
139 141 106
131 129 72
135 134 70
139 139 87
135 135 78
132 131 62
141 140 80
133 132 77
144 141 81
139 136 71
143 142 77
144 142 80
134 133 62
147 145 87
141 137 61
137 134 63
153 149 73
151 146 66
151 147 72
153 149 74
151 146 66
154 151 80
154 149 72
149 144 64
150 145 61
157 151 62
152 147 63
161 157 86
153 149 67
157 154 75
158 153 76
161 154 62
153 148 70
161 156 79
156 151 71
154 150 72
158 153 76
168 163 90
161 157 82
164 158 80
158 154 66
164 158 77
165 160 80
163 158 75
162 156 75
159 154 77
164 160 83
163 157 69
161 156 76
169 165 98
161 157 79
166 158 78
171 166 95
170 166 98
167 164 91
161 156 80
165 161 85
163 158 71
171 165 84
168 163 87
169 164 87
166 160 78
165 160 73
169 163 84
166 161 93
166 161 87
173 167 94
165 159 81
168 164 93
170 165 97
174 169 101
167 160 85
167 163 88
173 169 107
173 166 94
172 167 98
172 167 98
166 161 87
172 169 101
165 160 79
171 165 88
169 164 94
166 162 83
172 169 104
170 164 90
168 165 100
173 168 101
172 168 102
174 170 108
175 171 113
177 173 110
177 174 113
169 164 90
175 170 103
172 168 104
178 177 126
180 177 121
173 168 103
173 169 104
179 177 129
176 171 106
180 177 125
177 175 124
181 180 131
173 171 112
170 168 108
178 175 115
178 175 120
176 174 123
176 174 120
179 178 126
176 173 120
179 178 132
187 186 148
185 184 141
176 174 117
175 174 120
181 179 133
173 196 0
173 196 0
174 197 0
172 195 0
172 196 0
173 196 0
174 197 0
173 196 0
171 195 0
174 197 0
174 198 0
175 198 0
174 197 0
173 197 0
173 197 0
173 197 0
173 197 0
175 198 0
173 196 0
174 197 0
173 197 0
173 197 0
173 197 0
176 199 0
174 198 0
173 197 0
174 198 0
173 197 0
174 197 0
174 197 0
175 198 0
173 197 0
172 196 0
174 198 0
173 197 0
175 198 0
174 198 0
174 198 0
172 196 0
174 198 0
174 197 0
174 197 0
172 196 0
173 197 0
174 197 0
175 198 0
175 198 0
174 198 0
174 197 0
175 198 0
173 197 0
172 196 0
172 195 0
173 196 0
174 198 0
175 198 0
169 194 0
174 197 0
174 197 0
174 197 0
174 197 0
174 197 0
173 197 0
173 197 0
173 197 0
174 197 0
172 196 0
174 197 0
172 196 0
171 195 0
171 196 0
174 197 0
173 197 0
172 195 0
173 197 0
173 197 0
173 195 0
173 197 0
172 195 0
171 195 0
172 195 0
173 196 0
173 196 0
174 197 0
173 196 0
167 191 0
172 195 0
173 197 0
173 196 0
172 195 0
171 194 0
171 195 0
170 194 0
172 195 0
169 192 0
172 196 0
170 194 0
172 195 0
173 196 0
172 195 0
176 198 0
172 195 0
171 194 0
169 193 0
170 193 0
167 191 0
169 192 0
169 193 0
172 196 0
169 193 0
168 191 0
170 193 0
168 191 0
163 187 0
166 189 0
164 188 0
168 191 0
161 183 0
163 187 0
163 185 0
160 183 0
161 185 0
154 177 0
159 182 0
150 173 0
150 172 0
148 171 0
140 162 0
128 147 0
68 91 44
50 80 62
50 79 67
50 79 78
53 84 72
47 76 72
82 104 65
107 126 31
132 153 0
130 151 0
144 166 0
148 171 0
163 186 0
164 187 0
169 193 0
171 195 0
173 197 0
174 197 0
172 196 0
173 197 0
172 196 0
170 193 0
174 197 0
131 153 67
55 87 110
55 87 94
56 88 102
57 90 111
57 90 115
58 92 126
56 89 111
58 91 121
59 93 122
56 90 105
57 90 113
57 90 114
57 90 113
58 91 103
58 93 118
57 90 102
57 91 113
57 90 103
57 91 103
59 92 117
60 94 125
57 90 111
57 90 121
59 93 118
59 93 121
58 91 115
58 91 118
58 92 125
57 91 121
57 90 113
58 92 118
59 92 126
58 92 114
57 90 115
58 92 118
57 91 117
58 92 118
58 91 120
58 92 122
57 90 117
59 93 124
57 91 105
59 94 126
59 93 121
57 90 118
58 92 120
59 93 120
57 90 114
57 90 110
59 93 120
60 94 129
57 91 111
58 92 118
57 91 104
57 90 118
57 90 111
58 92 126
58 92 121
58 91 122
59 93 117
58 91 114
58 91 118
58 91 113
57 91 104
57 90 110
57 89 108
58 90 113
57 89 103
56 88 108
57 90 113
58 91 129
56 88 108
58 90 117
57 89 114
57 89 107
57 89 116
56 88 109
57 89 102
58 91 118
56 87 103
57 89 109
56 87 102
56 87 111
57 87 109
58 90 115
58 91 121
56 87 113
56 86 118
53 83 101
57 88 108
54 84 90
55 83 109
50 78 84
53 81 99
121 141 59
173 196 0
174 198 0
176 199 0
173 197 0
175 197 0
170 194 0
173 196 0
180 197 121
160 167 157
163 168 159
146 150 131
156 162 157
148 154 148
132 137 127
137 142 127
145 151 143
108 112 95
139 145 135
128 134 122
147 153 136
133 137 111
117 120 93
117 121 95
126 130 109
128 132 103
121 125 94
137 141 113
132 135 103
123 128 99
125 128 93
125 128 97
138 139 98
130 130 87
129 131 94
125 127 82
135 135 83
140 140 86
137 136 84
140 141 94
130 129 63
152 152 105
143 141 77
146 144 79
142 139 69
141 141 89
145 144 86
144 141 72
149 146 72
145 140 69
149 146 90
152 149 83
153 150 91
147 144 73
153 150 82
155 150 75
152 149 76
160 155 88
146 142 61
155 151 83
147 143 66
156 152 77
154 150 70
157 153 69
155 150 66
159 154 72
161 155 80
153 148 63
162 157 82
161 155 60
153 149 66
166 160 89
165 161 96
158 154 77
159 154 77
161 157 85
156 151 65
162 158 80
160 154 78
163 159 81
164 160 80
165 159 84
157 151 61
160 156 67
167 161 85
164 159 78
163 158 75
169 164 93
170 165 93
161 156 69
172 166 95
167 162 89
163 159 87
168 163 93
165 161 81
168 163 88
169 163 86
162 158 70
168 163 87
164 160 84
165 160 80
166 160 81
169 163 87
165 159 73
165 162 91
173 167 100
172 168 106
171 169 108
164 161 83
168 162 75
171 165 93
169 164 89
172 167 96
171 166 90
173 169 102
175 171 109
173 169 106
168 164 93
172 167 97
174 170 112
176 172 115
172 169 112
176 172 108
181 178 129
172 167 102
176 173 114
178 173 112
173 168 98
174 170 106
174 172 116
178 175 126
177 173 110
174 170 108
173 171 112
180 178 127
174 172 116
172 169 106
172 168 97
173 169 103
176 173 118
180 178 127
179 177 127
180 179 130
178 174 120
178 176 120
174 172 115
177 173 114
184 183 140
179 177 126
184 183 143
173 170 116
172 169 106
183 181 140
172 196 0
175 198 0
175 198 0
173 196 0
171 195 0
173 197 0
172 196 0
172 196 0
171 195 0
172 196 0
172 196 0
173 197 0
174 197 0
174 198 0
173 197 0
174 197 0
175 198 0
174 197 0
175 197 0
173 196 0
174 197 0
174 197 0
172 196 0
174 198 0
173 196 0
172 197 0
176 198 0
175 198 0
174 198 0
174 198 0
173 196 0
174 197 0
174 198 0
175 198 0
173 197 0
173 197 0
173 197 0
174 197 0
174 198 0
172 196 0
173 197 0
173 197 0
173 196 0
173 197 0
173 197 0
174 198 0
172 196 0
171 196 0
173 197 0
175 198 0
175 198 0
174 197 0
173 196 0
173 197 0
174 197 0
173 197 0
174 197 0
173 196 0
172 195 0
174 197 0
174 197 0
174 198 0
173 197 0
174 197 0
173 196 0
172 195 0
171 195 0
172 195 0
174 197 0
174 197 0
172 195 0
172 196 0
173 196 0
174 197 0
174 197 0
175 198 0
173 197 0
169 193 0
174 197 0
170 193 0
169 194 0
173 196 0
170 194 0
177 199 0
173 197 0
172 194 0
169 193 0
171 194 0
174 197 0
169 194 0
172 196 0
171 194 0
169 192 0
172 195 0
172 195 0
171 194 0
171 194 0
165 188 0
171 194 0
172 195 0
172 194 0
170 193 0
168 191 0
168 191 0
168 191 0
168 191 0
170 193 0
172 194 0
168 191 0
165 189 0
167 190 0
165 188 0
163 187 0
171 193 0
164 186 0
165 188 0
162 185 0
163 186 0
164 187 0
153 176 0
164 187 0
153 177 0
152 173 0
157 180 0
163 185 0
152 174 0
133 155 0
135 155 0
97 114 18
58 77 25
73 92 36
70 88 36
74 92 31
102 120 31
113 130 0
128 147 0
123 143 0
138 159 0
140 162 0
142 165 0
155 178 0
165 188 0
163 187 0
166 191 0
172 196 0
173 196 0
174 198 0
172 196 0
171 195 0
173 196 0
174 198 0
171 195 0
164 188 25
56 89 100
58 91 111
57 90 102
58 91 121
59 93 114
57 91 114
58 91 122
57 91 108
56 89 120
57 89 111
58 91 124
57 90 108
56 89 108
57 90 99
56 90 102
58 91 120
56 89 99
59 93 125
58 92 121
59 93 126
56 89 110
56 89 105
57 90 108
57 91 108
57 90 125
57 90 108
59 92 125
58 92 115
59 94 129
59 93 122
59 93 124
58 91 120
58 92 113
57 91 118
59 93 121
58 92 114
58 91 121
57 90 103
58 92 115
59 93 117
59 93 120
57 90 111
58 92 121
59 93 125
58 92 115
58 92 118
59 92 124
58 92 120
59 92 125
56 89 113
59 93 122
56 89 108
57 90 113
59 92 125
58 91 108
59 92 121
55 89 97
57 90 114
57 91 116
58 92 111
57 90 110
57 91 116
56 89 113
58 91 117
56 89 105
58 91 118
56 89 108
58 91 114
56 88 110
55 86 96
56 88 105
57 89 116
58 91 113
57 90 106
58 91 121
57 89 109
56 88 107
57 90 118
55 86 100
56 87 107
56 88 112
55 87 106
55 87 104
55 86 109
55 86 97
55 85 110
56 86 102
53 83 93
56 86 99
55 85 102
53 82 97
52 79 103
51 78 84
51 77 83
165 188 31
172 195 0
172 195 0
173 197 0
173 197 0
174 197 0
173 196 0
172 196 0
174 195 25
174 182 165
175 180 168
174 182 182
144 150 137
147 151 133
151 155 134
143 148 130
129 135 124
126 132 119
126 132 114
123 126 101
130 133 108
116 120 88
122 125 102
137 143 127
120 123 99
137 142 124
112 113 59
134 138 109
121 124 91
109 111 67
134 136 99
124 127 86
130 131 86
132 132 79
143 143 96
125 126 71
138 141 106
132 131 73
129 130 89
142 139 80
133 133 82
139 134 60
145 144 89
137 136 76
142 141 86
131 129 42
140 138 78
146 143 76
154 149 82
148 146 80
141 140 76
158 153 76
140 136 73
147 145 72
152 149 84
141 139 71
155 152 80
151 149 79
153 147 75
149 145 57
147 142 62
155 151 70
154 150 81
153 149 70
157 152 75
159 155 80
151 146 72
158 155 74
154 149 69
160 155 73
162 157 90
160 156 78
160 156 75
162 159 90
160 156 80
160 155 69
164 158 75
162 158 75
165 159 79
162 159 83
165 159 76
165 158 71
159 154 71
162 157 78
170 165 94
171 166 99
167 163 90
160 155 81
160 155 85
167 164 96
163 159 84
168 164 90
165 159 77
166 161 83
164 159 80
163 158 81
169 164 92
164 159 87
172 167 99
172 168 105
172 167 99
174 170 102
168 165 96
168 164 87
168 163 85
168 164 89
169 165 101
172 169 103
174 170 102
169 164 93
165 161 85
172 167 96
168 162 84
170 168 104
171 169 111
171 167 99
170 165 91
171 167 103
167 162 86
168 163 97
165 162 93
173 169 109
175 172 118
178 175 122
174 169 103
174 171 108
169 163 87
178 175 121
182 179 128
179 176 125
178 175 123
172 168 103
173 169 108
178 175 117
180 179 129
177 174 116
176 173 115
180 178 127
177 174 121
173 169 99
174 173 118
175 173 116
179 177 129
176 173 116
181 180 132
178 176 122
180 177 126
175 173 119
184 181 138
175 174 121
178 175 127
178 175 122
184 184 143
174 197 0
175 198 0
172 197 0
175 198 0
172 196 0
173 197 0
172 196 0
173 197 0
172 196 0
175 197 0
174 197 0
172 197 0
174 197 0
173 197 0
174 197 0
173 197 0
174 197 0
173 196 0
174 197 0
173 196 0
173 197 0
174 197 0
173 197 0
175 198 0
173 197 0
176 198 0
174 197 0
174 197 0
175 198 0
174 198 0
174 197 0
175 198 0
174 197 0
173 196 0
173 196 0
171 194 0
173 197 0
175 198 0
174 197 0
172 196 0
173 196 0
173 197 0
173 197 0
172 196 0
172 196 0
175 198 0
172 196 0
173 196 0
173 197 0
175 198 0
175 197 0
174 197 0
173 197 0
176 198 0
172 196 0
173 197 0
174 198 0
173 197 0
172 196 0
173 196 0
170 195 0
172 197 0
173 197 0
173 197 0
174 197 0
173 196 0
174 197 0
175 198 0
173 197 0
174 198 0
172 195 0
176 198 0
172 195 0
171 195 0
172 195 0
174 197 0
174 197 0
172 196 0
173 196 0
174 197 0
173 196 0
174 197 0
169 192 0
173 196 0
173 196 0
173 197 0
170 194 0
173 196 0
173 195 0
173 196 0
174 197 0
169 193 0
169 192 0
171 194 0
174 197 0
176 197 0
171 194 0
172 196 0
170 193 0
172 195 0
169 192 0
173 195 0
168 191 0
171 194 0
167 190 0
167 189 0
171 194 0
170 193 0
169 191 0
167 189 0
165 187 0
166 188 0
167 191 0
166 189 0
161 182 0
156 180 0
166 189 0
164 187 0
157 179 0
158 180 0
152 175 0
155 177 0
157 179 0
152 174 0
137 158 0
145 167 0
138 159 0
123 142 0
81 96 0
104 118 0
96 110 0
100 115 0
102 118 0
99 116 0
117 135 0
126 145 0
132 151 0
131 151 0
148 170 0
145 167 0
156 179 0
158 182 0
163 186 0
173 197 0
174 197 0
172 195 0
173 197 0
175 198 0
170 194 0
170 194 0
171 194 0
173 197 0
173 197 0
114 137 72
55 87 94
56 89 88
55 88 100
56 89 113
57 90 108
57 91 110
57 91 115
56 89 110
56 89 108
56 89 105
56 90 113
57 91 105
57 90 113
57 91 115
57 91 108
58 91 114
58 92 125
56 88 102
54 86 107
57 90 100
58 92 115
58 92 108
58 92 122
55 88 111
57 90 115
58 92 114
58 91 114
57 91 107
58 91 105
56 89 102
58 92 121
59 93 125
58 91 117
57 90 102
58 92 118
58 92 120
57 90 102
57 90 111
57 91 111
58 91 117
56 89 105
58 92 115
60 93 129
58 91 111
57 90 110
59 93 118
58 91 120
58 91 114
56 88 100
57 91 110
58 92 120
56 89 102
56 89 102
58 91 118
58 92 113
56 89 115
57 89 114
58 92 121
55 88 111
58 91 117
59 93 121
56 88 102
57 90 129
57 90 114
57 89 109
56 88 112
58 92 120
59 92 121
55 87 99
59 92 125
57 91 110
56 87 112
57 89 117
58 91 118
57 89 119
57 88 100
56 87 107
55 86 99
56 87 107
55 87 101
55 85 99
57 90 118
53 82 92
57 89 123
55 85 107
55 85 99
53 83 94
54 83 105
54 84 90
53 82 99
51 79 88
50 76 82
123 144 56
174 198 0
174 197 0
172 195 0
173 196 0
174 197 0
170 193 0
172 195 0
172 195 0
172 195 0
172 190 85
175 179 164
165 169 158
168 174 168
152 157 146
153 159 149
158 164 154
140 146 131
137 140 122
146 150 133
136 141 127
127 131 108
141 146 133
137 142 124
140 145 129
132 135 112
125 129 105
124 128 98
130 132 93
126 131 110
128 131 105
142 146 115
132 135 105
130 131 90
131 133 93
124 124 68
133 135 92
127 129 89
132 132 83
137 138 94
145 145 101
139 138 83
133 134 84
139 138 78
139 138 77
154 151 91
146 143 87
141 141 83
142 140 67
138 136 78
148 146 77
144 142 71
138 136 52
157 153 87
149 146 73
151 149 73
152 147 82
160 157 91
148 144 75
153 152 93
150 147 74
146 142 56
148 145 66
150 147 80
159 155 73
150 147 71
150 146 71
159 155 84
153 148 75
161 157 80
153 149 75
163 158 84
156 152 82
164 160 78
157 152 73
156 151 55
156 153 73
158 154 78
155 150 76
163 158 82
158 152 58
164 158 80
164 158 87
163 158 82
161 155 80
161 156 67
162 158 88
162 157 76
161 156 66
165 161 88
164 159 80
169 164 87
166 162 90
162 157 69
164 160 80
168 164 99
166 163 93
164 160 84
169 164 93
167 160 80
167 161 85
167 161 86
166 161 88
171 168 104
170 167 100
170 166 95
168 164 99
174 170 108
168 164 96
169 166 101
171 166 93
171 168 103
172 167 93
169 165 93
169 163 84
172 167 99
169 164 99
174 170 104
170 165 89
167 163 88
169 164 95
176 173 112
169 166 98
174 170 108
170 165 97
174 171 110
173 169 109
170 167 97
175 173 119
171 167 103
172 169 106
169 165 101
172 168 109
176 175 125
167 163 89
178 175 115
174 172 116
177 175 120
174 171 110
180 179 129
181 181 138
181 180 133
170 167 103
184 182 141
171 169 110
177 175 123
179 176 125
176 176 125
183 182 138
176 173 116
180 178 134
174 170 110
179 175 124
182 179 129
172 196 0
173 197 0
175 197 0
173 197 0
172 196 0
173 197 0
172 196 0
173 196 0
173 196 0
175 198 0
174 197 0
170 195 0
173 197 0
173 197 0
173 196 0
172 197 0
173 197 0
172 196 0
173 196 0
172 196 0
174 197 0
174 197 0
172 196 0
174 197 0
173 197 0
173 197 0
174 198 0
173 197 0
170 194 0
173 196 0
172 196 0
172 196 0
175 198 0
171 196 0
173 197 0
175 198 0
173 196 0
175 198 0
174 197 0
172 196 0
173 196 0
173 196 0
173 196 0
173 197 0
172 196 0
175 198 0
174 198 0
174 197 0
172 195 0
175 198 0
175 198 0
170 194 0
170 194 0
175 198 0
174 197 0
174 197 0
173 196 0
174 197 0
174 197 0
173 196 0
173 196 0
174 197 0
174 197 0
173 196 0
175 197 0
172 196 0
173 196 0
174 197 0
172 195 0
174 198 0
173 197 0
173 197 0
173 196 0
173 196 0
175 198 0
175 198 0
172 196 0
172 196 0
170 193 0
172 195 0
176 198 0
171 195 0
173 197 0
174 197 0
174 197 0
170 193 0
172 194 0
173 196 0
172 196 0
173 196 0
169 192 0
169 192 0
173 196 0
168 191 0
169 191 0
174 196 0
172 195 0
172 194 0
173 196 0
174 197 0
170 192 0
165 187 0
168 190 0
170 192 0
169 191 0
170 193 0
169 193 0
169 190 0
166 189 0
172 195 0
164 187 0
168 189 0
161 183 0
162 183 0
163 186 0
167 189 0
157 179 0
161 183 0
156 179 0
163 185 0
160 183 0
150 173 0
144 165 0
157 179 0
154 176 0
140 162 0
118 136 0
88 106 0
81 97 0
107 123 0
88 105 0
98 114 0
110 127 0
108 125 0
110 128 0
129 150 0
125 145 0
139 160 0
149 172 0
145 168 0
156 178 0
163 186 0
172 196 0
172 195 0
172 196 0
172 195 0
173 197 0
170 194 0
170 194 0
172 196 0
170 194 0
172 196 0
172 196 0
160 183 44
54 85 99
55 88 100
56 88 90
56 88 102
55 87 102
56 89 107
55 87 100
57 90 99
56 89 110
55 87 94
58 91 115
57 90 114
57 90 108
56 88 108
57 91 97
54 87 99
55 88 99
59 93 124
56 89 107
58 91 108
57 91 113
57 90 118
56 89 102
59 92 114
56 89 107
58 91 114
59 93 124
57 90 107
57 91 114
58 92 121
59 93 121
56 90 103
57 91 105
58 91 114
58 91 111
59 93 120
59 93 121
57 90 115
59 93 122
59 93 114
59 93 125
57 90 120
58 92 117
58 92 118
57 89 108
57 91 102
57 90 110
56 89 113
58 91 114
56 88 103
57 90 122
58 91 107
58 92 114
58 91 120
57 90 108
59 93 120
58 91 111
55 87 100
58 91 115
57 91 118
57 90 118
58 92 118
56 88 94
57 89 107
57 90 116
56 88 107
55 87 113
56 88 113
56 88 107
57 89 108
56 88 113
55 88 103
56 88 107
59 92 128
56 88 117
56 88 103
56 88 111
56 88 104
55 86 113
55 86 97
56 88 106
56 87 109
55 86 96
56 88 111
56 87 104
56 86 106
53 82 92
53 82 94
53 83 96
52 79 76
54 83 102
52 79 89
155 176 46
173 195 0
172 195 0
172 195 0
170 192 0
170 193 0
173 196 0
170 194 0
173 195 0
172 195 0
174 196 0
184 193 161
173 179 173
159 164 158
159 164 149
147 153 143
143 148 134
124 129 113
147 150 124
136 140 121
128 136 129
132 136 116
138 143 129
135 140 121
119 123 98
132 135 110
123 126 93
124 125 86
128 131 100
138 141 116
128 133 106
143 144 105
140 142 111
139 141 104
139 143 104
135 137 99
138 140 105
124 126 91
137 138 101
133 131 67
132 133 86
143 143 90
148 147 94
142 140 84
146 144 88
134 132 55
145 142 78
143 140 81
136 134 75
150 147 79
145 144 86
145 142 72
147 147 88
148 145 69
146 143 68
151 148 78
152 146 58
151 148 85
152 149 82
154 151 78
150 147 62
153 150 79
160 155 91
151 148 74
152 146 61
156 152 70
153 150 54
154 149 64
159 153 71
151 146 56
158 155 77
164 158 78
156 152 72
150 147 65
163 159 79
161 156 72
163 158 81
149 144 54
162 158 83
163 156 75
164 159 86
159 154 74
159 155 80
159 154 75
164 159 85
165 160 82
171 167 108
167 162 83
160 154 65
169 163 92
171 167 98
156 151 62
166 160 79
166 160 79
160 157 87
163 158 77
162 157 87
167 163 91
168 163 87
161 156 78
167 162 90
169 163 95
173 168 96
167 163 95
174 170 105
166 163 103
167 162 85
167 163 88
169 164 92
165 161 87
175 171 112
169 165 97
165 163 90
169 165 93
170 166 100
172 167 101
168 166 104
170 167 109
168 163 89
176 173 116
167 162 89
172 171 114
174 170 105
172 169 106
172 169 109
172 170 109
174 170 106
173 170 113
171 168 103
174 172 117
178 174 113
172 169 103
172 169 111
171 168 104
176 175 120
173 170 108
177 174 119
177 174 119
178 175 121
176 175 122
179 177 126
177 175 124
178 174 120
178 176 125
179 177 123
177 175 126
179 176 123
180 176 122
176 174 120
178 177 132
184 182 139
178 176 121
179 177 127
181 177 122
174 197 0
172 196 0
172 196 0
170 194 0
171 196 0
174 198 0
174 197 0
170 194 0
174 198 0
173 196 0
174 197 0
173 197 0
172 196 0
173 197 0
174 197 0
172 196 0
175 198 0
173 197 0
174 197 0
173 197 0
173 197 0
173 197 0
175 198 0
174 197 0
172 196 0
173 197 0
173 197 0
172 196 0
174 197 0
175 198 0
173 197 0
175 198 0
175 198 0
175 198 0
174 198 0
173 197 0
175 198 0
174 197 0
173 197 0
172 196 0
172 195 0
172 195 0
173 196 0
174 197 0
174 198 0
173 196 0
176 199 0
174 197 0
171 195 0
173 196 0
171 195 0
169 193 0
174 197 0
173 197 0
173 197 0
173 197 0
174 197 0
175 198 0
173 196 0
171 195 0
173 197 0
172 196 0
173 195 0
173 196 0
175 198 0
173 196 0
171 195 0
173 197 0
169 193 0
174 197 0
171 194 0
172 196 0
173 196 0
177 199 0
174 197 0
173 196 0
176 198 0
176 198 0
172 196 0
171 195 0
175 198 0
174 196 0
170 193 0
173 196 0
171 194 0
173 196 0
172 194 0
173 196 0
171 194 0
171 193 0
174 196 0
175 197 0
173 196 0
171 193 0
172 194 0
172 195 0
169 191 0
171 193 0
172 193 0
170 193 0
171 194 0
171 194 0
171 193 0
170 192 0
172 194 0
169 191 0
164 186 0
169 190 0
169 191 0
170 191 0
165 187 0
163 184 0
165 188 0
166 187 0
163 185 0
157 179 0
163 184 0
159 181 0
154 177 0
159 181 0
153 174 0
154 176 0
149 170 0
143 164 0
129 150 0
134 154 0
111 129 0
110 126 0
108 124 0
125 143 0
112 130 0
102 119 0
124 142 0
123 140 0
130 149 0
132 151 0
134 154 0
146 167 0
147 168 0
156 178 0
155 178 0
171 194 0
173 196 0
173 196 0
173 196 0
168 192 0
173 196 0
174 197 0
172 195 0
173 197 0
172 196 0
173 196 0
173 197 0
174 197 0
113 138 78
54 86 85
54 86 95
54 86 88
55 87 95
56 89 110
56 89 113
55 88 102
56 89 114
57 91 108
56 89 105
58 91 121
55 88 95
56 89 115
58 92 118
58 91 114
56 89 113
56 89 102
57 90 103
58 92 115
58 91 108
57 91 113
56 89 108
55 87 111
57 91 115
58 92 120
58 92 117
58 91 117
57 90 103
57 90 113
58 92 113
57 90 107
58 92 117
59 92 120
56 89 117
59 93 120
58 91 118
57 90 111
59 93 124
57 89 107
58 92 110
58 92 121
59 92 128
57 90 113
56 89 102
57 91 117
59 93 121
59 94 130
59 92 128
55 87 108
58 91 113
58 91 124
58 91 121
58 91 124
57 90 97
55 87 110
57 90 114
58 92 123
57 90 119
56 89 108
58 91 107
58 91 116
58 91 113
58 91 120
59 91 118
56 88 113
58 91 110
57 89 99
55 87 103
56 88 108
57 89 113
56 88 99
59 93 126
57 90 116
55 85 93
56 87 111
57 89 104
54 86 91
54 84 99
56 88 114
56 87 108
55 86 98
55 86 110
55 85 97
52 82 77
52 80 75
53 82 84
52 81 101
50 78 92
53 82 99
51 78 80
115 136 54
172 195 0
171 195 0
169 192 0
170 194 0
174 197 0
171 194 0
166 189 0
172 195 0
172 195 0
172 195 0
171 195 0
176 195 80
180 185 169
168 172 157
163 169 163
146 150 133
142 146 128
151 156 144
154 160 154
147 151 134
121 125 107
127 132 113
137 142 124
139 143 121
133 135 111
122 124 95
121 124 101
132 137 118
116 119 81
136 138 109
132 135 110
128 132 102
135 138 104
133 132 71
134 137 98
140 141 99
137 141 109
134 135 103
137 135 81
145 145 105
145 145 101
138 138 100
138 138 90
142 141 81
141 139 84
147 146 81
136 133 68
141 140 78
144 143 81
152 150 95
150 149 91
141 138 69
145 142 82
144 142 72
147 144 72
148 148 84
149 145 68
144 139 47
145 141 70
151 148 72
151 146 58
150 145 69
145 142 65
148 144 71
148 145 69
159 155 75
155 151 75
160 156 82
158 154 76
159 155 82
156 154 86
159 153 63
151 146 52
159 155 83
157 153 66
159 155 68
158 153 84
163 159 84
167 163 98
160 156 75
158 153 71
163 159 86
161 157 74
164 160 83
163 158 93
164 161 84
159 154 68
169 164 96
164 157 73
164 159 77
166 160 87
166 162 90
166 162 83
169 165 99
165 158 75
164 160 93
171 168 104
169 164 93
168 164 95
167 163 93
171 166 94
167 162 89
167 162 92
168 163 87
167 163 82
167 162 83
170 166 102
172 168 99
177 174 113
170 167 97
171 168 113
170 166 95
167 164 91
176 172 112
168 163 97
164 159 83
171 168 106
165 160 80
171 168 99
177 173 110
177 174 118
174 171 109
173 170 118
176 173 118
176 173 117
178 175 122
172 169 102
171 169 113
176 172 116
174 174 124
174 170 112
171 168 103
170 168 108
171 168 108
175 172 113
174 171 115
168 164 105
178 175 117
175 172 118
175 171 108
177 173 121
181 179 130
182 180 134
178 176 124
177 174 120
178 173 116
178 176 126
179 177 129
182 182 137
176 174 116
182 181 142
174 172 117
182 181 137
183 182 141
172 196 0
172 196 0
173 197 0
173 197 0
173 197 0
175 198 0
171 195 0
174 198 0
175 197 0
176 198 0
172 195 0
171 196 0
173 197 0
174 198 0
171 195 0
173 197 0
171 195 0
173 197 0
172 195 0
174 197 0
173 196 0
174 197 0
173 196 0
175 198 0
172 196 0
174 197 0
171 195 0
171 196 0
174 197 0
172 196 0
174 197 0
175 197 0
172 196 0
172 196 0
174 197 0
172 196 0
173 196 0
173 196 0
172 196 0
172 196 0
175 198 0
173 197 0
175 198 0
172 196 0
174 197 0
173 196 0
173 196 0
170 194 0
173 196 0
173 197 0
173 196 0
174 197 0
172 195 0
174 197 0
174 197 0
176 198 0
172 195 0
174 197 0
175 198 0
172 196 0
174 197 0
171 195 0
173 196 0
170 194 0
176 198 0
172 195 0
172 195 0
170 193 0
172 195 0
174 196 0
169 193 0
173 196 0
173 196 0
173 196 0
174 196 0
170 194 0
174 197 0
170 193 0
172 195 0
170 193 0
172 194 0
170 194 0
172 195 0
171 193 0
174 196 0
175 197 0
174 196 0
172 195 0
175 197 0
174 196 0
173 195 0
171 193 0
171 194 0
172 194 0
172 194 0
170 193 0
169 192 0
172 194 0
169 193 0
172 194 0
172 194 0
166 187 0
172 194 0
175 196 0
164 186 0
166 187 0
169 191 0
164 186 0
166 187 0
167 189 0
162 184 0
163 184 0
151 173 0
168 189 0
163 184 0
164 186 0
159 180 0
160 181 0
163 184 0
158 179 0
147 169 0
151 171 0
145 166 0
147 167 0
125 144 0
119 138 0
116 134 0
112 131 0
117 135 0
114 131 0
115 133 0
125 144 0
115 134 0
109 127 0
126 145 0
138 158 0
140 161 0
142 163 0
155 177 0
160 184 0
158 182 0
168 192 0
175 197 0
168 192 0
169 194 0
171 195 0
171 194 0
171 195 0
171 195 0
171 195 0
172 196 0
167 191 0
171 194 0
172 195 0
156 179 31
63 93 76
52 84 92
55 87 102
56 90 121
55 88 111
54 87 92
55 87 97
56 89 115
55 87 99
57 90 121
56 88 107
56 89 110
55 88 108
58 91 118
55 88 107
56 88 100
56 88 105
55 87 103
57 91 113
58 91 111
57 91 110
56 89 110
57 90 108
58 92 121
56 89 102
57 89 107
56 89 110
57 89 107
57 91 111
57 91 113
55 87 107
55 88 105
57 91 108
58 91 125
56 89 111
55 88 97
56 88 111
55 87 107
55 87 103
55 88 107
56 89 113
57 90 111
57 90 117
59 93 125
56 89 110
58 92 115
58 91 117
57 91 108
58 91 115
56 88 116
56 89 108
57 91 115
57 90 105
57 89 108
55 87 99
58 90 105
58 91 111
58 91 110
56 88 114
56 88 110
57 90 117
57 90 121
56 88 113
55 86 102
56 89 108
56 89 105
57 88 117
56 88 114
56 88 106
57 89 117
58 91 114
56 88 114
55 87 107
57 89 118
56 88 113
57 89 110
56 87 107
54 85 94
55 87 102
56 87 110
57 88 107
57 89 113
54 83 80
57 89 112
53 82 99
51 79 93
50 77 84
50 78 78
49 74 80
70 93 90
162 184 0
174 197 0
167 188 0
172 195 0
169 192 0
169 192 0
171 195 0
168 192 0
171 193 0
175 198 0
170 193 0
168 192 0
172 194 0
176 188 138
175 178 165
161 166 157
164 170 164
151 156 144
145 150 137
148 154 138
151 154 131
145 151 139
148 152 140
136 140 121
147 153 143
136 140 115
135 140 116
133 135 107
129 132 97
142 145 119
136 140 114
137 139 107
129 130 88
138 140 104
120 121 81
132 134 94
136 137 93
147 147 105
134 135 95
135 135 86
130 130 67
121 123 70
144 141 86
141 139 86
138 137 72
145 143 91
136 135 76
139 138 72
140 139 80
144 142 82
136 133 69
140 138 79
141 139 66
147 145 79
151 148 81
146 145 78
153 151 90
147 142 65
148 146 78
148 146 79
149 146 73
156 154 100
147 142 63
150 147 81
153 150 68
156 154 77
148 145 73
146 141 62
162 157 82
152 149 69
161 157 85
158 156 80
151 148 66
159 156 90
161 159 96
159 154 75
159 155 65
157 153 70
164 159 89
159 154 72
158 153 80
160 155 78
156 151 67
164 160 88
159 155 66
158 156 84
163 160 95
166 160 85
167 163 90
167 163 104
163 160 82
153 149 61
170 166 96
168 165 97
160 156 80
169 166 97
163 159 88
158 155 71
166 161 85
168 165 98
168 164 90
162 158 83
159 154 64
169 163 86
167 163 95
164 160 82
170 168 103
166 163 92
170 164 89
168 165 99
168 164 94
170 166 106
176 174 122
163 159 86
171 166 93
171 168 101
168 166 101
175 172 117
169 165 96
172 169 106
171 167 106
164 159 80
170 166 100
174 171 114
173 171 118
174 170 117
176 173 111
175 171 112
166 163 93
174 171 113
174 169 104
176 173 114
171 166 101
174 171 113
175 173 116
179 177 127
173 171 111
180 177 122
175 172 117
173 171 117
180 176 121
173 170 107
172 167 99
176 175 120
178 175 126
177 175 125
177 174 121
175 171 110
174 173 122
187 187 150
181 180 134
181 179 131
183 181 137
180 180 136
183 181 140
174 198 0
173 197 0
171 195 0
173 197 0
171 195 0
172 195 0
173 197 0
171 194 0
175 198 0
172 196 0
174 197 0
174 197 0
172 197 0
172 195 0
170 195 0
174 197 0
173 197 0
173 196 0
173 197 0
174 197 0
172 196 0
172 195 0
174 197 0
171 194 0
173 196 0
170 194 0
174 198 0
170 194 0
174 196 0
174 198 0
174 197 0
173 196 0
173 196 0
174 197 0
174 197 0
173 196 0
172 196 0
176 198 0
174 198 0
171 196 0
172 195 0
174 197 0
172 195 0
174 197 0
175 198 0
175 198 0
173 197 0
173 197 0
172 195 0
171 195 0
173 196 0
174 197 0
173 197 0
172 196 0
173 196 0
174 198 0
175 198 0
172 196 0
173 196 0
172 195 0
173 196 0
175 197 0
174 198 0
170 193 0
175 197 0
171 195 0
172 195 0
175 198 0
174 197 0
172 196 0
172 195 0
176 198 0
174 197 0
176 198 0
174 196 0
174 196 0
174 196 0
173 195 0
174 196 0
173 196 0
173 196 0
172 194 0
173 195 0
173 195 0
169 191 0
173 195 0
173 194 0
176 198 0
173 195 0
174 196 0
171 192 0
173 194 0
175 196 0
169 190 0
176 197 0
172 193 0
169 190 0
171 192 0
167 189 0
169 191 0
173 194 0
166 186 0
172 193 0
174 194 0
166 187 0
170 190 0
167 189 0
169 190 0
166 188 0
168 189 0
163 183 0
162 183 0
160 180 0
157 179 0
160 181 0
160 181 0
154 175 0
155 176 0
148 170 0
153 174 0
155 176 0
142 162 0
138 159 0
127 147 0
123 142 0
124 142 0
121 140 0
125 144 0
113 132 0
113 132 0
118 137 0
124 143 0
126 145 0
132 152 0
128 149 0
135 155 0
139 160 0
153 175 0
148 169 0
164 186 0
171 195 0
172 195 0
173 197 0
170 194 0
168 192 0
174 197 0
169 193 0
169 193 0
171 194 0
172 195 0
172 196 0
173 197 0
171 194 0
173 197 0
169 193 0
126 151 84
54 87 95
55 88 100
55 87 103
54 87 99
56 89 103
55 87 86
58 91 107
56 88 95
56 88 103
55 88 100
55 87 103
55 88 100
56 88 105
56 88 110
57 90 114
56 89 108
56 89 100
57 90 105
57 90 115
57 91 110
55 88 92
58 92 115
55 86 114
56 89 110
54 86 99
57 90 111
59 93 124
59 92 117
56 89 108
57 90 124
57 90 110
59 92 124
58 91 115
58 92 117
57 90 118
57 89 113
59 93 121
55 88 108
57 90 107
57 90 110
57 91 110
56 89 108
57 90 124
58 91 115
56 89 100
57 89 120
59 93 124
56 89 110
58 91 109
58 91 107
57 89 107
58 91 113
59 92 120
56 88 110
59 92 121
56 88 107
56 88 103
56 88 103
58 91 117
57 90 108
56 88 104
58 91 115
57 88 100
57 90 117
57 89 107
56 88 107
58 91 111
57 89 109
56 87 92
56 88 106
56 89 114
56 87 105
55 87 106
56 88 114
54 86 99
54 85 104
55 85 109
56 88 107
53 83 90
54 83 98
55 86 107
52 81 88
56 87 108
50 79 85
53 82 107
52 80 86
52 81 91
47 72 75
113 134 59
172 195 0
169 191 0
170 192 0
170 191 0
166 188 0
171 193 0
168 192 0
170 194 0
168 192 0
169 191 0
168 192 0
171 194 0
169 192 0
172 193 37
170 177 159
165 168 149
159 164 155
170 175 163
145 147 125
146 148 126
149 154 136
150 154 141
125 129 110
136 140 115
141 145 128
139 145 130
138 141 119
131 136 120
138 140 109
131 135 105
135 137 110
130 130 84
137 138 99
130 131 101
143 147 122
143 147 119
143 146 118
137 139 102
132 131 86
141 143 101
141 141 105
133 133 79
133 132 69
137 138 91
147 145 82
144 144 98
127 126 61
135 133 65
151 148 82
143 142 67
143 140 75
136 136 74
143 141 78
149 146 80
148 145 79
146 144 73
146 143 69
147 143 76
152 150 76
147 144 72
152 147 71
152 148 75
147 143 58
157 154 82
158 154 88
154 152 86
147 145 66
155 152 93
156 152 85
152 147 63
155 152 74
154 150 80
153 147 63
150 146 56
157 154 89
159 155 72
155 150 62
161 157 81
157 151 59
162 157 83
154 150 68
160 155 70
166 159 71
158 153 81
157 153 85
165 160 90
163 159 81
164 159 80
162 156 69
166 162 92
162 156 74
162 159 93
161 156 83
166 162 90
165 162 95
169 165 96
161 156 73
170 166 104
168 164 94
168 164 100
171 166 99
167 161 80
168 163 96
171 167 99
170 167 107
169 163 93
168 163 94
171 167 103
161 157 73
168 165 98
171 168 101
168 163 94
165 162 90
169 166 104
168 164 97
170 166 98
173 168 106
169 165 93
170 168 109
172 169 110
166 162 84
176 174 116
170 167 101
174 173 119
173 169 107
171 167 109
173 171 113
173 168 104
176 173 113
177 174 119
174 171 117
172 169 112
175 173 121
178 176 124
174 172 118
179 177 125
177 173 117
180 180 138
173 171 112
175 172 112
180 177 130
179 177 121
179 177 130
182 178 128
176 172 120
182 182 138
176 171 116
171 169 110
174 171 112
179 178 132
175 171 110
181 180 136
180 177 129
183 181 138
177 173 117
174 197 0
173 197 0
173 197 0
172 195 0
171 195 0
174 197 0
173 197 0
174 197 0
173 196 0
171 195 0
172 195 0
173 197 0
173 196 0
170 194 0
170 194 0
172 196 0
173 196 0
172 196 0
172 195 0
173 196 0
172 197 0
172 196 0
174 197 0
174 198 0
173 196 0
172 195 0
174 197 0
171 194 0
172 195 0
173 196 0
173 197 0
171 195 0
173 196 0
172 195 0
170 194 0
174 197 0
174 197 0
174 197 0
173 196 0
172 196 0
171 195 0
174 197 0
174 197 0
173 196 0
173 196 0
172 195 0
172 196 0
174 197 0
174 196 0
173 195 0
173 196 0
172 195 0
172 195 0
174 197 0
176 198 0
172 195 0
173 196 0
172 195 0
172 195 0
172 196 0
173 196 0
173 195 0
172 195 0
172 195 0
174 197 0
176 198 0
175 198 0
172 195 0
175 198 0
174 196 0
174 196 0
173 195 0
175 197 0
176 197 0
173 196 0
173 195 0
175 197 0
175 197 0
171 193 0
173 194 0
174 195 0
176 198 0
173 196 0
176 197 0
174 196 0
173 194 0
172 195 0
175 196 0
171 192 0
175 196 0
171 193 0
173 194 0
173 195 0
175 196 0
172 193 0
176 196 0
173 193 0
173 194 0
167 188 0
171 192 0
173 194 0
177 197 0
167 188 0
167 188 0
167 188 0
168 189 0
168 189 0
172 193 0
166 187 0
165 185 0
154 174 0
159 180 0
160 181 0
152 173 0
160 181 0
156 178 0
157 178 0
158 178 0
143 163 0
148 169 0
156 177 0
136 156 0
144 163 0
132 151 0
132 152 0
116 134 0
112 131 0
123 142 0
122 141 0
124 144 0
123 143 0
124 143 0
141 161 0
123 144 0
136 156 0
145 165 0
145 166 0
152 175 0
152 174 0
162 184 0
170 194 0
171 194 0
173 197 0
171 195 0
169 193 0
167 190 0
169 192 0
168 192 0
167 191 0
171 195 0
170 194 0
169 193 0
170 194 0
171 194 0
164 189 0
165 189 18
80 106 74
56 88 95
53 85 86
55 87 97
53 85 82
55 86 103
58 91 102
56 89 100
56 88 102
55 87 95
56 89 110
55 87 92
56 89 99
56 88 102
54 86 94
57 90 113
54 86 92
55 87 105
54 86 92
58 92 110
58 91 114
57 90 111
55 88 88
57 90 107
57 90 108
57 90 107
58 92 120
55 87 84
56 89 110
56 89 108
56 89 105
55 87 103
58 91 117
56 89 118
58 91 108
57 90 115
56 89 110
56 89 102
57 89 105
56 88 110
58 91 110
58 92 113
59 92 117
57 91 105
56 89 114
56 88 99
56 89 108
57 89 114
59 92 122
56 89 103
56 88 105
55 87 110
55 87 102
57 89 108
57 89 110
56 88 103
57 89 103
56 89 111
57 90 117
54 85 92
57 90 114
56 89 111
55 87 105
57 90 113
56 88 115
55 87 111
56 89 111
57 90 117
57 89 123
57 89 113
57 89 105
55 87 102
56 87 96
55 87 103
53 83 101
56 87 115
55 87 107
54 85 95
54 85 102
53 83 96
53 82 103
53 83 84
56 87 89
53 81 97
52 81 90
49 76 76
52 80 94
72 93 74
164 188 0
171 193 0
169 192 0
173 195 0
171 192 0
169 192 0
171 193 0
167 189 0
170 192 0
172 195 0
168 191 0
169 192 0
169 191 0
171 194 0
167 190 0
177 196 93
168 172 158
156 158 139
166 170 150
149 155 144
155 161 154
153 155 138
148 154 143
150 154 143
141 144 124
142 145 126
145 149 131
137 141 120
145 148 124
140 145 119
147 149 118
139 142 115
137 139 108
136 139 107
134 134 98
144 147 110
146 147 121
127 128 94
147 150 120
138 139 97
138 139 99
132 133 89
133 133 89
140 141 100
138 138 86
141 141 96
146 146 91
129 130 81
146 147 97
144 142 81
144 143 86
140 140 85
143 144 90
152 151 95
146 144 93
149 148 95
148 145 74
145 144 87
146 145 89
147 146 96
158 156 87
142 140 79
152 147 73
156 153 83
152 148 62
156 152 75
151 148 80
154 151 88
150 145 59
149 145 67
167 163 100
163 159 95
158 154 81
153 150 84
154 151 77
163 158 80
162 161 95
162 158 90
157 151 63
156 151 69
153 149 64
158 154 74
161 156 84
155 150 62
164 160 91
158 152 76
161 157 79
162 159 90
164 160 97
163 158 91
168 163 89
166 161 87
164 159 79
162 159 85
165 163 103
164 160 95
170 164 90
168 164 102
164 159 80
167 164 103
161 157 80
168 164 99
166 163 97
166 162 90
163 158 78
168 164 100
163 160 87
165 159 79
164 161 87
165 160 82
175 171 115
170 166 105
166 162 92
173 169 100
169 164 95
164 161 88
172 169 107
173 169 101
173 170 106
171 167 107
177 174 120
169 164 95
171 167 107
165 162 92
168 165 97
171 168 102
170 167 103
172 168 101
176 171 112
170 168 113
171 168 103
173 167 104
171 169 108
179 178 133
174 172 121
168 165 106
173 173 123
173 173 126
176 173 116
180 179 131
176 173 122
176 173 120
178 176 127
178 176 125
177 176 120
180 179 135
178 177 134
172 170 115
170 168 114
185 184 142
174 171 109
181 179 134
180 179 132
179 178 127
180 179 132
178 177 127
173 196 0
172 196 0
174 198 0
172 195 0
172 196 0
172 195 0
173 196 0
173 197 0
175 198 0
169 193 0
171 194 0
174 197 0
174 197 0
173 196 0
172 196 0
171 195 0
172 195 0
171 195 0
172 195 0
172 196 0
172 196 0
173 196 0
174 197 0
175 198 0
174 196 0
172 196 0
176 198 0
172 196 0
171 195 0
172 196 0
174 198 0
175 198 0
175 198 0
175 198 0
170 193 0
173 196 0
174 198 0
176 198 0
173 196 0
174 197 0
173 197 0
175 198 0
172 194 0
174 197 0
173 196 0
173 196 0
175 197 0
172 195 0
171 195 0
175 197 0
174 197 0
173 196 0
175 198 0
175 197 0
176 198 0
174 196 0
174 197 0
168 192 0
172 195 0
174 197 0
172 195 0
176 199 0
173 195 0
174 196 0
175 197 0
170 192 0
174 197 0
174 196 0
172 194 0
170 193 0
174 196 0
177 198 0
174 196 0
177 198 0
174 195 0
175 196 0
174 196 0
176 197 0
175 196 0
175 196 0
175 197 0
174 196 0
175 197 0
175 195 0
172 193 0
177 199 0
172 194 0
174 195 0
173 193 0
176 197 0
169 190 0
171 192 0
169 190 0
171 191 0
171 191 0
173 193 0
173 193 0
175 194 0
174 194 0
172 192 0
170 190 0
171 191 0
171 192 0
166 186 0
162 183 0
160 180 0
167 187 0
164 184 0
163 183 0
164 184 0
166 185 0
158 178 0
162 182 0
153 174 0
149 169 0
158 179 0
153 175 0
157 176 0
143 163 0
154 176 0
139 159 0
135 155 0
133 153 0
133 153 0
122 140 0
127 145 0
138 157 0
122 143 0
134 153 0
113 132 0
128 147 0
126 145 0
116 136 0
134 155 0
139 161 0
130 151 0
150 172 0
156 178 0
166 188 0
168 192 0
170 193 0
172 196 0
166 189 0
170 193 0
171 194 0
169 193 0
169 192 0
170 193 0
166 190 0
170 194 0
168 192 0
167 190 0
171 195 0
168 191 0
166 190 0
167 190 0
142 165 40
54 86 94
52 83 90
55 87 97
56 89 107
56 88 99
55 86 97
54 86 102
57 90 107
54 87 102
56 89 99
56 89 102
58 91 113
54 87 100
56 89 92
57 90 110
55 87 102
57 89 113
54 86 86
55 88 97
57 90 102
56 89 102
56 89 107
56 90 100
55 88 110
56 89 95
57 90 100
59 92 120
57 89 115
58 92 121
57 91 111
57 90 99
57 91 117
56 88 102
55 87 103
56 90 105
56 89 102
58 91 110
55 87 105
58 91 105
56 89 105
55 87 94
56 88 92
56 88 108
57 89 114
57 90 110
58 92 122
57 90 113
55 87 100
57 91 108
55 87 102
56 89 105
56 89 108
55 87 102
57 89 114
57 89 108
58 90 115
55 88 97
56 88 101
54 86 103
57 89 114
57 89 113
58 90 114
56 89 114
55 86 103
57 89 113
56 88 106
54 85 85
54 86 107
54 85 92
56 87 108
53 84 99
54 85 97
54 85 101
53 83 94
56 87 109
55 86 104
54 84 99
53 84 101
56 86 107
55 85 99
55 85 93
54 84 96
54 83 96
54 83 91
51 80 77
49 76 81
143 164 34
163 185 0
167 190 0
165 186 0
170 193 0
168 191 0
165 188 0
167 190 0
169 191 0
167 190 0
169 191 0
164 186 0
170 192 0
168 190 0
169 191 0
170 191 0
165 187 0
169 183 108
179 185 179
176 180 168
161 165 151
162 166 154
156 160 144
147 151 133
152 155 138
137 141 123
134 138 121
136 139 116
148 152 136
137 140 115
145 150 136
159 164 147
136 139 106
130 132 98
126 128 88
142 144 117
146 148 105
150 152 122
146 149 122
136 137 94
136 137 99
136 138 98
138 138 90
143 141 83
146 144 94
138 138 94
130 131 75
137 136 82
144 142 91
151 151 111
138 137 83
145 146 95
147 146 89
150 148 93
133 130 49
136 135 72
147 142 71
156 152 89
147 144 64
153 151 86
151 149 89
147 145 74
155 153 101
156 152 86
153 152 89
148 145 72
154 151 85
148 146 66
142 139 47
154 150 80
151 149 79
154 153 83
160 157 92
153 149 72
157 153 73
154 151 80
160 155 73
160 158 98
162 156 76
160 158 93
156 151 71
165 163 103
158 155 74
162 159 91
156 151 73
161 156 84
162 157 78
168 164 104
157 151 64
164 160 84
158 151 62
166 162 90
162 156 81
163 158 79
157 154 88
162 157 87
164 159 82
162 158 85
167 165 96
166 161 94
166 161 87
168 165 95
161 158 75
170 166 96
169 166 95
166 162 95
166 161 90
170 165 94
170 165 94
170 165 98
163 157 72
171 168 108
170 167 99
166 163 97
166 163 103
167 163 96
169 165 93
168 163 94
171 168 106
171 167 104
168 164 101
173 171 112
170 165 101
168 164 89
170 167 112
175 173 118
177 175 116
171 167 98
174 171 109
172 170 111
168 164 103
170 165 84
170 167 109
172 168 105
171 169 108
173 169 108
179 177 125
176 173 118
178 177 134
183 181 138
176 174 116
179 176 124
179 175 118
185 186 151
176 175 124
169 166 104
178 174 116
175 171 111
180 178 126
178 175 124
177 176 124
182 181 139
177 176 132
183 183 140
179 178 132
180 179 134
183 182 142
173 196 0
173 197 0
174 197 0
173 196 0
172 196 0
174 197 0
171 195 0
171 195 0
174 197 0
172 196 0
174 197 0
170 194 0
174 198 0
173 196 0
172 195 0
173 197 0
175 198 0
167 191 0
173 196 0
175 197 0
173 197 0
171 194 0
174 197 0
173 196 0
174 198 0
174 197 0
172 196 0
172 195 0
173 196 0
173 196 0
175 198 0
171 194 0
174 197 0
171 195 0
172 195 0
174 197 0
174 197 0
174 197 0
174 197 0
173 197 0
173 196 0
172 196 0
173 196 0
174 197 0
173 196 0
171 195 0
173 196 0
175 198 0
174 197 0
172 195 0
172 195 0
173 197 0
174 196 0
176 197 0
172 195 0
176 198 0
175 198 0
172 195 0
175 197 0
173 196 0
172 194 0
174 196 0
175 196 0
173 196 0
174 195 0
174 195 0
173 195 0
172 194 0
178 199 0
175 197 0
174 196 0
175 197 0
173 196 0
175 196 0
173 195 0
175 197 0
175 196 0
172 193 0
176 197 0
174 195 0
174 195 0
170 190 0
174 194 0
172 192 0
174 194 0
171 191 0
174 195 0
176 196 0
171 192 0
171 192 0
173 193 0
171 192 0
171 192 0
173 193 0
174 195 0
176 195 0
170 191 0
173 193 0
175 195 0
170 190 0
171 191 0
168 188 0
171 191 0
164 183 0
168 189 0
166 186 0
166 185 0
165 185 0
163 184 0
170 190 0
162 182 0
157 177 0
159 179 0
161 181 0
155 174 0
149 169 0
146 166 0
151 172 0
146 167 0
154 175 0
134 154 0
133 152 0
131 150 0
128 148 0
126 146 0
124 143 0
126 146 0
130 150 0
129 148 0
140 159 0
128 148 0
128 147 0
140 158 0
141 162 0
138 160 0
142 164 0
153 174 0
160 182 0
160 184 0
171 195 0
169 193 0
170 193 0
169 192 0
172 195 0
167 191 0
169 192 0
171 195 0
170 193 0
167 190 0
162 186 0
172 196 0
167 191 0
169 192 0
164 189 0
166 189 0
169 193 0
165 189 0
104 129 72
54 85 94
56 89 99
53 85 92
55 88 95
53 85 82
55 87 100
56 89 95
55 88 97
56 89 99
57 90 110
56 88 118
54 86 97
55 88 92
55 88 97
54 86 100
55 88 102
55 88 100
57 90 108
58 91 117
56 89 113
55 88 99
55 88 90
57 90 111
56 89 95
57 89 100
57 89 114
57 90 99
56 88 105
58 91 107
57 90 110
57 90 108
56 89 103
55 88 108
56 88 97
56 89 107
58 91 113
55 88 107
57 91 111
54 87 92
55 88 100
55 88 99
58 90 114
57 90 110
55 86 103
56 89 107
56 88 103
55 87 113
55 88 107
56 89 100
57 89 113
56 88 104
57 90 108
56 90 105
59 92 124
54 85 91
55 86 105
56 88 105
58 90 114
58 90 115
55 87 92
57 90 111
58 91 123
55 87 100
56 88 113
56 87 102
57 89 99
54 85 89
54 86 88
55 87 114
56 87 108
54 85 99
54 85 94
55 86 94
54 85 108
55 86 103
54 84 99
55 85 105
52 81 93
53 82 91
52 81 86
51 80 83
53 81 86
51 79 77
50 77 75
107 127 67
162 183 0
162 184 0
161 183 0
168 190 0
166 188 0
166 188 0
167 188 0
162 183 0
166 188 0
168 188 0
168 191 0
164 185 0
170 192 0
167 190 0
172 194 0
167 189 0
169 191 0
168 190 25
184 193 170
175 179 167
159 163 153
156 160 143
166 169 154
146 151 136
150 153 134
153 157 140
152 156 135
138 141 123
140 143 119
147 150 131
138 143 128
135 138 115
154 159 143
155 157 129
136 139 113
141 143 112
140 143 114
135 137 107
141 141 98
142 143 98
148 148 106
128 129 78
142 143 98
137 138 96
140 139 83
149 148 101
141 140 87
145 145 96
144 144 86
147 145 100
137 137 84
151 152 112
146 146 99
147 144 78
143 141 84
149 147 87
147 146 88
145 143 78
141 138 65
145 142 67
149 148 86
152 150 95
143 140 68
150 147 75
152 147 76
154 150 75
154 151 80
160 157 88
152 147 78
155 151 79
158 154 85
153 150 75
156 151 70
156 152 78
163 160 97
157 154 75
156 153 79
158 156 95
158 154 83
155 151 74
163 159 88
154 150 64
157 153 75
154 152 73
158 156 81
160 156 84
162 158 80
157 152 73
162 158 85
158 153 68
160 156 76
155 151 74
159 156 92
170 168 104
168 165 95
167 164 100
161 156 79
162 156 78
161 159 90
164 159 80
167 162 87
161 157 76
167 163 90
168 165 104
164 160 88
163 161 85
169 164 93
159 155 76
165 161 87
170 168 111
171 167 97
163 160 87
164 163 103
169 165 99
169 164 97
169 166 97
170 166 96
174 171 109
174 172 124
170 166 97
166 163 90
169 165 103
172 170 112
174 171 109
168 165 100
169 166 104
171 167 101
177 176 128
168 165 102
170 166 104
178 177 130
175 172 112
169 166 101
172 169 110
170 168 113
175 172 121
175 172 114
176 174 124
174 172 117
176 175 120
180 179 133
179 176 117
181 179 135
173 171 113
182 182 140
179 178 132
176 174 125
176 174 123
185 183 142
180 179 134
179 176 123
176 173 120
177 175 129
178 174 116
180 179 134
178 175 125
175 171 115
171 195 0
171 195 0
172 196 0
173 196 0
172 197 0
175 198 0
171 194 0
174 197 0
172 195 0
171 195 0
172 196 0
173 196 0
172 196 0
171 194 0
173 197 0
173 197 0
172 196 0
170 194 0
172 196 0
174 197 0
173 196 0
173 196 0
173 197 0
173 196 0
174 197 0
172 194 0
174 198 0
173 197 0
172 196 0
174 197 0
173 196 0
171 194 0
171 195 0
173 196 0
175 198 0
173 196 0
171 194 0
175 198 0
173 196 0
173 196 0
175 197 0
175 197 0
174 196 0
170 193 0
174 196 0
174 197 0
172 194 0
174 197 0
175 198 0
174 197 0
172 195 0
175 197 0
173 195 0
172 195 0
175 197 0
174 197 0
173 195 0
174 195 0
172 194 0
176 197 0
177 198 0
172 195 0
176 198 0
176 197 0
175 197 0
174 195 0
173 195 0
175 196 0
175 196 0
175 197 0
174 196 0
172 193 0
171 193 0
175 196 0
178 198 0
176 197 0
172 193 0
173 194 0
177 198 0
174 195 0
176 196 0
174 195 0
172 193 0
175 195 0
171 191 0
171 190 0
171 191 0
168 188 0
176 195 0
176 197 0
172 192 0
169 190 0
168 189 0
167 187 0
168 187 0
172 192 0
169 189 0
168 189 0
164 184 0
168 188 0
170 190 0
165 185 0
167 187 0
162 183 0
164 184 0
155 176 0
163 183 0
165 184 0
154 173 0
160 179 0
159 178 0
158 178 0
152 172 0
156 177 0
156 176 0
153 173 0
156 176 0
146 165 0
142 163 0
139 160 0
134 155 0
138 158 0
139 159 0
128 149 0
127 146 0
131 151 0
131 152 0
133 155 0
132 152 0
138 158 0
140 160 0
135 155 0
139 160 0
146 167 0
149 170 0
155 178 0
153 175 0
161 183 0
167 191 0
165 189 0
168 191 0
168 191 0
167 191 0
170 193 0
171 194 0
171 195 0
167 190 0
169 193 0
172 195 0
167 190 0
163 186 0
164 188 0
168 192 0
168 192 0
165 189 0
167 191 0
168 191 0
156 180 18
79 106 76
55 88 86
54 86 90
54 86 108
56 89 110
54 86 94
54 87 99
56 88 107
56 88 102
53 85 86
55 88 102
55 87 100
55 87 99
56 89 103
58 91 111
56 89 108
54 85 100
54 87 97
57 91 114
57 90 111
56 89 97
57 90 118
54 86 99
56 89 97
56 89 105
57 89 108
56 89 105
57 90 117
57 90 107
57 90 113
57 90 115
57 89 122
57 90 115
56 89 99
56 89 105
58 92 111
55 88 97
57 89 113
55 87 94
56 88 114
58 91 108
57 90 105
54 86 99
54 86 94
55 86 102
57 90 111
54 86 100
57 91 116
56 88 110
56 89 108
56 88 94
56 88 115
56 89 107
54 86 97
57 89 101
55 87 103
55 88 103
56 88 103
55 86 101
54 85 100
54 85 95
56 88 94
55 87 104
56 88 105
55 88 105
58 91 116
58 90 108
54 85 99
54 85 93
52 83 95
53 84 96
55 86 101
52 81 91
55 86 101
52 82 93
51 81 87
52 81 87
53 82 91
53 83 99
55 84 91
49 78 79
49 76 91
52 81 89
75 98 69
164 187 0
168 190 0
164 186 0
161 183 0
167 188 0
164 186 0
161 181 0
163 184 0
167 189 0
164 184 0
162 184 0
162 184 0
163 184 0
171 192 0
169 190 0
170 192 0
167 190 0
166 185 0
167 188 0
167 189 45
179 185 160
171 175 166
158 162 144
152 157 144
161 164 146
164 167 147
150 153 134
141 143 126
153 156 139
146 149 125
151 154 131
148 152 131
143 147 126
129 129 97
132 134 99
147 149 119
155 156 131
127 130 101
154 158 134
150 152 126
154 156 120
142 142 102
131 131 90
131 132 79
142 144 115
145 145 100
151 150 102
142 143 93
137 137 90
145 143 88
141 140 76
150 149 94
137 133 59
147 143 72
151 149 91
147 146 88
148 147 96
143 141 77
148 147 85
150 148 90
152 150 94
148 146 89
145 142 63
147 147 84
153 150 88
145 143 76
152 148 80
144 141 71
151 147 69
153 149 78
149 146 76
152 151 83
159 155 86
154 148 71
164 161 95
151 148 77
149 145 65
159 155 86
156 152 74
162 158 90
156 151 78
162 158 89
159 153 72
162 159 94
163 159 87
160 156 84
159 153 74
160 157 89
159 155 84
159 153 71
161 154 81
158 154 68
159 155 76
166 161 92
167 163 89
167 162 90
157 152 59
160 156 93
163 159 93
164 159 83
168 166 105
163 157 75
165 160 82
163 159 87
165 160 80
170 167 113
165 162 88
171 169 110
165 161 87
169 164 94
167 162 88
167 164 98
167 164 92
170 166 105
166 160 84
165 162 94
165 162 97
171 169 114
173 167 104
171 168 113
168 164 98
168 166 112
167 165 105
169 164 103
169 166 97
176 175 125
169 166 102
170 165 91
179 178 132
173 170 115
171 169 103
175 172 114
176 174 123
172 168 115
176 174 126
176 172 109
177 175 128
181 180 139
169 166 105
177 174 120
175 173 123
175 170 108
174 171 118
173 170 105
180 179 132
174 173 117
181 179 131
175 174 124
171 169 110
174 171 113
180 178 133
179 177 127
181 179 133
181 180 141
184 186 149
181 179 130
175 175 123
176 175 122
169 194 0
171 195 0
174 198 0
169 193 0
174 198 0
173 197 0
172 197 0
173 197 0
173 196 0
173 196 0
171 194 0
174 197 0
172 194 0
173 197 0
170 193 0
173 196 0
174 198 0
171 195 0
171 194 0
173 197 0
170 194 0
174 197 0
172 195 0
173 197 0
175 198 0
174 197 0
173 195 0
176 199 0
174 197 0
172 195 0
175 198 0
175 197 0
172 196 0
173 197 0
171 195 0
175 197 0
173 197 0
175 198 0
173 196 0
174 197 0
176 198 0
173 196 0
175 196 0
177 199 0
172 195 0
175 197 0
175 198 0
173 196 0
175 197 0
173 196 0
174 196 0
172 195 0
175 196 0
172 195 0
172 194 0
175 197 0
170 193 0
168 190 0
174 196 0
173 195 0
174 196 0
175 196 0
172 194 0
176 197 0
174 196 0
177 198 0
177 198 0
175 196 0
174 195 0
175 196 0
176 197 0
174 195 0
177 198 0
171 192 0
177 197 0
174 193 0
173 194 0
175 196 0
172 192 0
174 194 0
174 195 0
176 196 0
171 192 0
168 188 0
174 194 0
168 188 0
170 190 0
166 186 0
173 193 0
175 195 0
171 190 0
175 194 0
169 190 0
166 186 0
168 188 0
171 191 0
167 187 0
167 186 0
165 185 0
165 185 0
163 183 0
161 181 0
166 186 0
167 187 0
166 185 0
161 180 0
163 182 0
163 182 0
160 180 0
158 177 0
158 179 0
145 165 0
156 176 0
151 171 0
146 166 0
152 172 0
145 165 0
143 164 0
135 155 0
140 162 0
131 152 0
137 157 0
136 156 0
128 146 0
138 157 0
125 145 0
130 150 0
136 157 0
141 162 0
140 160 0
139 159 0
143 163 0
142 163 0
147 168 0
153 174 0
157 181 0
158 181 0
170 193 0
168 192 0
169 194 0
167 190 0
165 189 0
167 191 0
169 192 0
166 189 0
166 189 0
166 190 0
166 189 0
165 189 0
164 187 0
170 194 0
167 190 0
166 189 0
168 192 0
169 192 0
165 188 0
160 183 0
164 187 0
136 159 47
62 91 74
54 85 94
54 86 90
56 89 97
56 88 92
53 84 80
56 89 100
56 88 102
54 86 100
55 87 92
57 90 99
55 88 97
55 88 102
55 86 95
55 87 100
55 88 100
57 90 95
53 85 92
55 87 111
55 88 97
54 87 95
56 88 113
57 90 113
56 89 100
56 89 103
56 89 95
56 89 117
54 86 100
55 87 99
53 84 94
56 89 105
54 86 99
57 91 111
57 90 115
56 88 105
56 88 102
56 88 102
57 91 118
57 90 117
58 91 110
56 89 113
57 89 102
56 88 107
58 91 120
56 88 111
55 87 110
56 88 103
57 90 105
56 88 103
56 88 101
55 88 103
53 84 94
56 88 102
56 88 108
56 88 108
53 84 94
56 88 108
55 87 108
56 89 108
56 88 108
55 87 104
55 87 108
55 86 99
56 87 100
56 88 110
55 87 99
53 84 104
52 82 90
54 85 91
55 87 86
52 82 90
53 83 106
53 83 97
53 83 99
55 86 112
52 80 86
51 80 84
51 80 81
51 80 92
52 80 93
49 76 73
55 83 83
141 161 40
160 180 0
158 180 0
164 186 0
161 183 0
166 188 0
166 186 0
164 185 0
166 188 0
164 184 0
161 182 0
166 188 0
163 185 0
162 182 0
163 183 0
168 189 0
161 182 0
167 188 0
168 189 0
165 187 0
167 187 0
170 186 89
177 179 156
168 173 163
166 170 156
160 164 152
142 146 126
159 161 140
146 148 130
148 150 129
153 155 129
138 141 121
149 152 128
142 143 110
142 145 124
134 134 103
132 134 109
140 140 109
148 148 103
146 148 117
136 138 94
152 154 126
136 137 98
144 146 114
139 139 94
131 130 76
144 145 96
142 143 99
153 155 118
147 148 103
150 148 101
138 135 85
139 138 85
158 158 115
149 150 110
139 138 81
147 144 77
139 139 92
146 146 84
143 140 67
150 148 100
151 148 77
148 146 71
152 148 86
149 148 89
151 149 79
142 139 82
155 152 82
149 146 76
153 149 84
145 142 70
156 153 92
159 156 96
151 147 52
148 144 71
153 150 80
147 145 81
157 153 67
159 157 93
162 157 89
157 154 93
155 150 81
158 152 69
158 153 81
158 153 66
165 161 93
160 157 95
161 157 87
164 161 91
160 157 86
158 155 80
156 152 73
165 163 96
167 164 103
158 154 69
166 164 105
163 158 80
165 160 84
162 159 93
159 156 88
163 160 93
165 161 96
166 163 97
168 164 99
160 156 74
164 161 90
168 166 104
163 159 85
162 156 71
165 162 80
173 170 111
171 167 99
167 165 98
166 162 88
169 165 94
162 159 80
171 169 110
169 164 101
168 166 108
161 159 95
176 172 116
177 175 118
171 167 99
166 163 97
175 172 116
165 161 88
170 168 112
171 169 108
169 167 104
168 165 108
175 174 117
171 169 116
171 168 110
173 170 106
177 174 116
173 171 117
179 180 134
180 180 142
173 172 122
177 176 130
176 175 128
175 173 116
172 168 109
175 174 125
174 170 114
171 168 106
177 176 129
172 170 106
175 174 122
174 172 117
175 173 114
181 179 134
177 176 125
176 173 120
178 176 127
179 179 132
177 177 134
175 173 122
183 182 142
171 195 0
174 197 0
174 197 0
175 198 0
170 195 0
172 196 0
172 195 0
171 196 0
173 196 0
171 195 0
174 197 0
170 194 0
172 196 0
174 197 0
174 197 0
173 197 0
172 195 0
172 196 0
172 195 0
170 194 0
170 195 0
170 193 0
173 196 0
173 197 0
173 196 0
172 195 0
173 196 0
167 191 0
171 194 0
174 197 0
175 198 0
174 196 0
172 195 0
172 195 0
173 196 0
175 197 0
172 196 0
174 197 0
175 197 0
174 197 0
171 194 0
173 196 0
175 198 0
173 196 0
173 195 0
172 195 0
174 197 0
174 197 0
175 198 0
174 195 0
173 196 0
176 198 0
175 197 0
173 195 0
175 197 0
175 196 0
174 195 0
175 196 0
175 196 0
177 198 0
174 195 0
175 197 0
173 195 0
176 197 0
172 193 0
173 194 0
174 195 0
172 193 0
171 192 0
175 195 0
174 194 0
175 195 0
176 197 0
173 194 0
172 192 0
171 191 0
174 195 0
172 192 0
171 191 0
172 192 0
172 192 0
173 192 0
169 189 0
170 191 0
170 190 0
167 187 0
173 192 0
168 188 0
170 190 0
168 187 0
170 189 0
169 187 0
163 184 0
165 185 0
163 183 0
168 187 0
172 192 0
167 187 0
167 186 0
164 185 0
162 181 0
158 179 0
161 180 0
160 181 0
160 180 0
156 175 0
161 181 0
155 174 0
164 183 0
154 173 0
151 171 0
151 171 0
152 172 0
142 162 0
141 161 0
134 154 0
147 167 0
147 168 0
141 162 0
146 167 0
145 165 0
142 161 0
142 163 0
130 150 0
140 160 0
143 163 0
141 160 0
137 158 0
133 154 0
141 161 0
142 164 0
149 170 0
149 171 0
143 163 0
143 166 0
161 183 0
167 190 0
168 192 0
167 190 0
165 189 0
166 189 0
166 190 0
167 191 0
166 190 0
165 188 0
167 190 0
165 188 0
165 188 0
169 192 0
165 189 0
161 185 0
165 189 0
164 187 0
163 187 0
161 185 0
164 188 0
166 190 0
167 190 0
161 185 0
129 152 44
53 84 78
52 83 86
52 84 82
55 86 88
53 85 94
56 89 97
55 87 100
55 88 92
53 84 90
54 86 94
56 89 100
56 88 100
56 88 102
54 86 99
57 90 105
55 88 95
55 88 92
53 85 94
57 90 108
53 85 95
56 89 102
56 89 97
55 87 103
57 89 115
56 88 105
58 92 120
57 90 117
56 88 97
55 87 92
57 90 114
53 85 90
55 88 110
56 89 94
57 89 100
56 88 100
55 87 102
57 89 111
56 88 107
54 85 92
57 90 111
55 87 99
57 89 108
55 87 95
56 88 105
54 86 95
54 86 107
55 87 102
56 88 102
55 87 93
58 91 120
56 88 105
57 89 108
55 87 97
54 85 88
54 85 102
57 89 113
55 87 100
55 87 89
55 86 103
55 86 100
56 88 97
55 87 95
57 89 107
55 87 94
54 85 90
57 90 115
55 87 110
54 85 92
54 84 107
53 83 99
49 79 77
54 84 84
52 81 92
51 80 85
52 81 86
53 82 93
50 78 72
51 79 80
49 77 80
49 76 74
117 138 45
158 178 0
161 181 0
162 182 0
160 181 0
161 182 0
163 184 0
163 184 0
163 183 0
164 184 0
164 185 0
164 185 0
168 190 0
165 185 0
163 184 0
163 182 0
167 188 0
159 181 0
163 183 0
164 185 0
167 187 0
165 186 0
164 184 0
168 184 103
174 178 162
170 173 159
158 162 147
155 158 146
156 158 139
152 155 135
161 165 149
139 142 117
149 152 130
140 142 117
137 140 117
150 153 130
154 155 131
133 134 104
149 150 116
152 155 128
144 146 122
138 141 112
136 137 97
137 139 110
135 134 83
147 149 111
145 148 113
147 149 110
148 146 93
143 142 91
149 148 102
139 139 91
141 141 92
143 141 88
144 142 93
138 134 62
142 138 73
143 143 90
137 136 78
144 144 83
149 148 95
138 138 74
150 149 99
149 148 91
144 142 75
150 149 86
152 149 89
153 151 88
154 152 94
150 146 75
156 153 85
153 151 94
140 137 54
150 147 77
148 146 72
153 150 80
151 148 66
159 156 84
155 152 82
159 154 86
163 160 90
158 154 91
154 151 79
155 151 75
153 148 72
163 161 112
160 158 78
156 152 83
154 150 75
160 156 84
159 156 81
161 159 99
161 156 82
161 157 87
156 151 75
162 159 94
164 159 90
168 166 112
161 157 82
162 158 80
162 158 83
164 161 94
163 160 97
169 166 106
165 161 103
156 152 72
158 154 79
161 158 89
167 163 90
166 160 85
165 162 94
165 162 102
169 165 99
169 167 109
165 161 93
167 160 80
175 171 112
166 163 95
167 163 94
171 166 101
178 176 127
163 160 92
169 165 103
177 176 126
169 165 102
165 160 92
173 169 109
175 173 124
168 163 87
172 169 106
172 169 109
176 174 123
170 168 110
170 169 106
169 166 104
178 176 122
172 171 115
175 174 122
175 171 115
172 169 111
176 174 122
168 166 106
173 171 124
173 171 114
179 179 134
173 170 115
175 173 124
179 178 137
175 172 117
179 177 126
183 183 144
183 184 144
177 176 128
181 179 135
173 168 103
176 173 117
186 185 151
176 173 120
187 185 148
178 178 135
171 195 0
170 193 0
172 196 0
171 195 0
173 196 0
169 193 0
169 193 0
173 197 0
173 197 0
174 197 0
172 196 0
171 194 0
173 197 0
173 197 0
171 194 0
171 195 0
170 193 0
170 194 0
174 197 0
169 193 0
172 195 0
170 193 0
172 195 0
170 194 0
173 197 0
171 193 0
171 195 0
172 195 0
173 196 0
175 198 0
174 197 0
175 198 0
173 195 0
172 196 0
174 198 0
173 196 0
173 195 0
173 197 0
174 196 0
173 196 0
173 196 0
173 195 0
172 195 0
175 198 0
174 197 0
175 197 0
175 197 0
173 196 0
173 196 0
174 196 0
173 195 0
172 194 0
174 195 0
174 196 0
176 197 0
176 197 0
174 196 0
174 196 0
169 191 0
176 197 0
175 196 0
175 196 0
178 198 0
174 195 0
175 196 0
175 196 0
175 195 0
176 196 0
177 196 0
176 195 0
174 193 0
172 192 0
170 190 0
168 189 0
174 194 0
175 195 0
174 194 0
171 192 0
173 193 0
168 187 0
173 193 0
171 191 0
169 188 0
169 189 0
170 190 0
172 191 0
164 183 0
170 190 0
170 188 0
165 184 0
163 183 0
169 188 0
170 189 0
167 186 0
166 185 0
170 189 0
163 182 0
159 179 0
160 179 0
165 184 0
162 181 0
157 177 0
159 178 0
150 168 0
160 179 0
159 178 0
159 178 0
153 173 0
153 173 0
161 180 0
154 173 0
155 174 0
150 171 0
144 165 0
148 168 0
147 168 0
146 167 0
145 167 0
126 147 0
135 156 0
136 157 0
134 154 0
140 160 0
139 159 0
141 161 0
137 158 0
140 160 0
143 163 0
139 158 0
141 162 0
147 168 0
142 163 0
145 166 0
150 171 0
157 179 0
162 186 0
166 191 0
162 186 0
167 190 0
169 192 0
165 189 0
169 192 0
162 185 0
164 188 0
165 188 0
165 189 0
163 187 0
165 188 0
165 188 0
160 184 0
166 189 0
159 182 0
162 185 0
160 184 0
162 185 0
162 186 0
157 180 0
162 185 0
161 184 0
155 179 0
98 121 57
53 85 70
52 82 90
55 87 97
54 86 82
53 85 86
55 87 95
53 84 82
54 87 103
53 84 92
53 84 88
54 86 99
55 87 92
54 86 84
53 84 90
56 89 100
56 89 107
54 85 88
56 88 100
56 88 102
56 88 103
54 86 102
56 88 110
55 87 103
56 88 111
57 90 107
54 85 97
56 88 108
54 86 88
54 86 107
54 86 99
54 86 97
55 87 102
55 87 103
54 86 100
54 85 107
55 87 97
54 86 99
55 87 86
54 86 95
56 88 102
54 86 88
56 87 105
54 86 97
56 88 99
56 88 103
55 86 102
53 85 88
56 88 97
55 87 99
56 89 112
56 88 107
55 87 108
55 86 94
55 86 87
55 87 96
55 87 105
54 85 101
54 85 98
54 85 102
57 89 110
55 86 104
54 85 83
55 86 101
54 86 104
56 87 108
54 85 107
56 87 101
52 81 90
52 81 84
49 77 63
53 83 98
53 83 94
52 81 91
51 79 83
51 80 71
53 82 93
51 79 86
49 75 73
106 126 48
157 179 0
158 178 0
163 184 0
158 180 0
162 183 0
159 180 0
156 177 0
161 181 0
158 177 0
160 179 0
157 175 0
156 177 0
156 175 0
164 185 0
163 184 0
162 184 0
161 180 0
165 185 0
162 182 0
160 179 0
163 183 0
163 183 0
165 186 0
163 183 0
174 188 103
180 185 176
166 167 148
155 158 144
167 170 154
179 184 175
152 153 131
164 169 162
148 150 123
144 148 126
156 159 138
155 159 143
153 157 136
143 145 115
141 142 114
148 149 120
140 142 118
144 146 115
143 144 115
141 143 109
144 145 116
149 149 112
144 146 115
133 131 85
142 143 101
148 147 105
144 144 97
148 149 110
138 138 83
150 149 100
151 150 99
147 146 91
136 133 73
143 142 78
146 146 99
148 148 94
147 146 87
151 148 80
142 139 74
139 138 76
151 150 92
153 150 87
144 141 69
149 146 82
148 146 91
154 151 89
159 156 99
153 150 85
151 150 90
158 155 98
153 149 71
151 148 75
157 155 95
151 148 86
146 141 63
154 151 87
149 144 71
148 144 70
159 156 82
158 154 75
162 159 100
161 157 93
156 152 84
162 158 87
167 163 97
160 156 82
160 156 92
158 157 90
160 158 91
160 156 87
164 161 92
167 164 102
158 156 79
162 157 80
162 158 78
157 154 78
160 156 80
166 164 95
168 164 103
166 162 93
171 166 97
163 159 90
164 161 96
164 160 82
163 159 83
165 162 95
165 160 95
169 167 107
165 161 86
167 164 101
161 157 90
163 160 87
175 173 118
174 172 120
168 166 100
165 162 95
164 160 89
163 159 89
175 174 124
169 166 101
174 171 119
164 162 97
172 173 116
170 166 103
178 177 129
168 165 100
169 165 99
170 165 98
172 169 109
170 168 106
180 178 132
167 163 97
170 168 114
178 177 125
173 170 115
179 178 131
174 173 122
183 184 144
176 175 124
179 176 124
177 175 126
173 173 122
182 181 139
171 168 118
173 172 117
181 182 147
173 171 119
180 179 134
178 176 127
178 177 132
176 173 115
171 169 110
181 177 130
176 173 118
181 182 144
183 184 143
171 195 0
174 197 0
173 196 0
171 195 0
171 194 0
172 195 0
172 196 0
172 195 0
171 195 0
173 196 0
173 196 0
171 195 0
169 192 0
172 196 0
171 194 0
172 195 0
169 193 0
172 195 0
170 193 0
171 194 0
169 193 0
171 194 0
171 195 0
169 193 0
169 192 0
172 196 0
171 194 0
168 190 0
173 197 0
173 196 0
171 194 0
171 194 0
172 195 0
172 194 0
176 197 0
175 197 0
173 196 0
175 196 0
175 198 0
175 197 0
172 195 0
172 194 0
176 197 0
174 197 0
174 196 0
177 198 0
174 195 0
173 195 0
174 196 0
174 195 0
174 195 0
172 194 0
174 195 0
174 196 0
175 196 0
174 195 0
172 194 0
175 196 0
173 194 0
170 191 0
174 195 0
176 196 0
172 192 0
175 196 0
177 197 0
176 196 0
174 194 0
176 196 0
174 195 0
170 191 0
174 193 0
172 192 0
171 190 0
176 195 0
170 191 0
170 189 0
171 190 0
169 189 0
168 188 0
169 189 0
164 183 0
173 192 0
169 188 0
171 191 0
163 182 0
162 183 0
167 187 0
166 185 0
162 182 0
161 180 0
164 183 0
164 182 0
161 179 0
163 183 0
158 179 0
161 181 0
162 181 0
156 175 0
161 180 0
163 182 0
160 181 0
163 182 0
154 174 0
158 177 0
152 171 0
151 171 0
163 181 0
159 179 0
154 174 0
158 178 0
145 163 0
155 175 0
145 166 0
149 170 0
146 167 0
139 159 0
136 158 0
141 162 0
152 172 0
144 164 0
150 170 0
146 167 0
142 162 0
145 164 0
135 155 0
138 158 0
148 168 0
138 158 0
138 159 0
141 161 0
150 171 0
149 171 0
154 175 0
156 179 0
164 186 0
167 191 0
163 186 0
166 190 0
165 187 0
165 188 0
165 188 0
166 189 0
166 188 0
166 189 0
154 177 0
163 186 0
166 190 0
158 182 0
169 192 0
159 183 0
164 188 0
161 183 0
168 191 0
157 180 0
159 183 0
162 185 0
162 185 0
163 186 0
160 182 0
161 184 0
156 180 0
91 115 60
55 87 90
54 86 84
52 82 74
53 84 86
53 85 94
55 88 102
53 84 84
53 84 88
53 84 92
54 85 92
56 89 88
54 86 88
55 87 97
54 86 92
55 88 92
55 88 107
54 86 82
54 87 97
55 87 86
53 85 95
56 88 92
54 86 92
56 89 113
55 87 108
53 84 88
57 89 111
55 87 92
53 85 95
55 86 100
55 86 97
55 88 95
56 89 99
54 86 100
56 88 111
54 85 99
54 86 92
55 87 103
57 91 110
56 89 110
56 89 108
54 85 92
55 88 102
54 86 94
55 87 105
56 88 99
54 85 95
54 86 86
52 84 92
54 86 95
55 87 105
55 87 103
55 87 97
55 87 102
54 85 100
53 84 94
56 88 103
54 85 97
56 88 97
54 85 102
55 87 108
55 87 110
53 83 87
52 82 89
54 84 96
52 80 89
54 84 107
52 82 98
53 83 91
54 82 91
54 84 91
52 81 73
53 84 88
53 83 96
47 73 79
49 76 71
49 76 73
90 112 51
144 165 8
151 170 0
163 184 0
152 171 0
157 179 0
153 171 0
152 171 0
161 182 0
157 177 0
157 177 0
155 175 0
160 181 0
156 176 0
166 186 0
159 179 0
156 176 0
162 183 0
160 179 0
163 182 0
159 178 0
158 176 0
161 182 0
164 184 0
164 185 0
165 185 0
165 185 0
177 187 130
174 178 168
166 169 155
171 176 165
164 166 145
153 157 143
161 165 153
163 165 145
148 150 129
158 163 154
146 147 121
144 146 123
133 134 99
155 156 125
142 145 128
149 150 123
151 153 128
147 149 121
157 160 129
151 153 128
152 153 118
143 142 100
137 136 85
144 144 113
156 157 124
152 151 101
142 141 87
150 151 107
141 141 98
142 141 90
145 143 93
145 143 92
139 139 81
150 148 98
156 156 116
145 142 81
147 144 93
150 146 80
152 150 87
149 149 102
146 143 74
150 148 91
142 139 73
151 150 88
154 149 87
156 153 91
153 151 85
152 147 69
156 153 90
159 157 104
156 153 91
162 159 104
157 152 81
156 153 80
159 156 95
159 157 102
152 148 73
164 160 95
151 148 64
158 153 79
161 160 103
160 157 98
154 151 84
159 154 75
161 160 104
160 156 88
161 157 89
159 157 93
161 158 88
164 161 99
161 157 88
165 160 94
169 166 103
161 158 92
160 156 89
166 162 92
165 163 106
168 163 94
162 161 102
160 155 73
170 167 114
161 158 93
164 160 89
156 154 84
165 160 90
169 167 108
162 159 95
166 163 99
163 160 91
168 167 112
169 164 97
167 163 106
166 162 100
174 171 113
173 170 103
166 164 110
172 170 115
174 171 113
174 173 120
171 169 106
172 168 104
172 169 110
169 168 116
175 174 126
169 165 99
172 171 111
174 171 112
171 168 109
178 174 121
172 169 117
172 169 108
179 178 130
171 169 108
173 172 121
177 173 115
171 169 112
169 167 106
175 173 122
173 168 102
174 172 116
177 174 126
180 180 137
177 175 122
174 173 120
180 178 127
179 177 134
181 182 143
181 181 138
176 175 128
177 175 125
185 186 148
184 183 146
184 182 143
184 183 142
177 179 141
171 195 0
172 196 0
172 195 0
172 196 0
172 195 0
170 195 0
172 195 0
172 195 0
171 195 0
173 197 0
172 196 0
169 193 0
172 195 0
173 196 0
172 195 0
171 194 0
173 196 0
169 192 0
172 195 0
171 195 0
168 191 0
169 191 0
172 196 0
172 195 0
172 195 0
175 198 0
170 193 0
172 196 0
174 196 0
173 196 0
173 196 0
170 193 0
173 196 0
172 194 0
172 195 0
174 196 0
175 197 0
173 194 0
174 196 0
175 197 0
172 195 0
174 197 0
174 197 0
174 195 0
175 197 0
172 193 0
175 197 0
177 199 0
174 196 0
176 197 0
173 195 0
178 199 0
176 197 0
173 195 0
175 197 0
173 193 0
175 196 0
177 197 0
171 192 0
178 198 0
174 195 0
174 195 0
172 192 0
177 197 0
168 190 0
174 194 0
169 190 0
170 191 0
177 197 0
171 191 0
169 190 0
174 193 0
170 189 0
171 191 0
167 187 0
169 189 0
168 187 0
168 187 0
170 189 0
169 189 0
170 189 0
166 185 0
163 182 0
166 186 0
165 184 0
164 183 0
163 182 0
163 183 0
162 182 0
162 181 0
166 185 0
162 181 0
161 181 0
159 180 0
161 181 0
161 180 0
159 178 0
160 180 0
156 176 0
149 169 0
158 177 0
159 179 0
155 174 0
155 175 0
153 172 0
155 174 0
158 179 0
153 173 0
154 174 0
155 174 0
149 170 0
152 172 0
149 170 0
149 170 0
148 168 0
151 172 0
144 164 0
148 169 0
144 165 0
144 164 0
153 174 0
135 155 0
136 157 0
142 162 0
144 165 0
142 162 0
142 162 0
144 164 0
147 168 0
137 157 0
151 172 0
153 174 0
157 178 0
158 181 0
162 185 0
161 185 0
162 186 0
164 187 0
165 188 0
168 191 0
160 182 0
164 188 0
163 186 0
163 185 0
164 187 0
159 183 0
162 184 0
160 182 0
157 180 0
162 184 0
160 183 0
163 186 0
160 183 0
167 190 0
165 188 0
159 182 0
155 178 0
150 174 0
157 180 0
158 180 0
163 186 0
156 179 0
80 104 47
52 83 78
54 86 90
53 84 86
55 87 90
55 87 97
53 84 86
55 87 100
55 88 95
54 86 90
57 90 100
55 87 80
54 86 92
55 87 86
55 87 107
52 83 88
56 88 107
54 85 90
55 87 95
57 90 110
55 88 103
55 88 100
55 87 94
55 87 94
55 88 94
55 87 82
54 86 102
55 87 99
54 86 99
54 85 94
55 87 95
53 85 103
54 86 97
55 88 103
56 90 102
55 87 95
55 87 107
56 88 108
55 88 100
54 86 94
54 86 94
55 87 94
53 85 86
54 86 81
56 88 103
56 88 96
56 88 114
56 88 105
55 87 99
55 86 103
54 85 99
53 84 105
55 87 101
55 87 107
55 87 109
55 87 98
56 88 101
53 83 92
55 86 101
54 86 104
54 86 101
56 86 106
56 88 94
52 83 85
52 81 80
50 80 76
54 85 93
52 82 96
52 81 90
50 79 78
52 82 84
52 80 93
52 81 94
53 82 96
47 73 75
77 98 59
144 163 18
153 175 0
157 176 0
156 178 0
157 175 0
149 167 0
151 171 0
151 171 0
157 176 0
154 173 0
152 172 0
154 172 0
157 177 0
153 171 0
155 175 0
157 178 0
159 177 0
154 173 0
162 182 0
164 185 0
160 180 0
159 178 0
158 177 0
157 175 0
165 185 0
164 181 0
157 175 0
167 185 0
170 181 125
183 186 173
165 169 155
166 168 146
172 177 170
164 168 152
154 157 141
138 140 114
156 158 133
155 157 133
143 144 120
154 155 130
144 144 115
146 146 112
135 137 112
149 151 125
129 128 92
135 137 100
140 140 97
137 138 96
139 139 104
150 150 113
151 150 108
152 153 115
148 148 111
152 150 97
146 146 98
142 141 82
150 150 106
150 150 106
143 142 91
143 141 92
139 136 64
142 141 90
141 140 89
145 141 76
152 151 91
148 147 93
150 149 98
152 150 95
154 151 82
154 151 97
143 139 61
152 149 89
150 145 72
146 145 74
155 150 76
157 155 93
159 156 101
147 143 73
162 158 95
153 151 94
155 152 80
156 153 84
158 156 84
161 158 97
161 158 99
165 161 87
159 156 93
162 158 90
161 157 87
162 159 87
163 159 95
156 151 77
157 155 86
164 162 104
159 156 90
161 158 92
157 152 75
165 163 106
165 162 103
158 153 80
160 156 87
159 155 80
160 157 87
164 158 81
161 157 87
172 170 118
165 162 91
168 164 106
164 162 99
162 157 81
168 165 109
166 163 90
169 165 97
170 166 106
166 161 81
169 166 104
166 164 101
171 170 110
169 164 97
169 165 100
170 167 103
164 162 102
170 166 109
169 167 112
171 168 115
170 167 106
166 162 93
167 162 95
168 163 93
171 167 103
164 159 94
174 172 116
167 164 100
178 176 123
171 168 112
169 166 110
177 174 124
168 167 112
180 178 130
174 172 121
173 170 113
175 172 120
176 174 128
178 177 131
172 172 123
178 178 136
180 180 138
179 178 134
180 180 141
183 184 144
175 171 112
180 178 133
179 181 148
181 178 131
187 188 158
182 180 139
186 187 150
180 178 131
191 192 161
186 187 154
184 184 149
181 181 135
173 197 0
173 197 0
174 197 0
173 197 0
173 197 0
171 194 0
167 190 0
175 198 0
173 197 0
173 196 0
172 196 0
172 195 0
170 194 0
173 196 0
168 192 0
172 195 0
174 197 0
172 195 0
167 191 0
168 192 0
173 196 0
170 194 0
169 192 0
169 193 0
172 196 0
171 193 0
171 194 0
170 193 0
174 197 0
174 196 0
171 194 0
172 195 0
173 196 0
174 196 0
171 195 0
174 197 0
172 194 0
172 194 0
173 195 0
171 192 0
177 199 0
172 192 0
172 193 0
174 196 0
173 194 0
175 197 0
176 198 0
173 195 0
175 196 0
177 198 0
174 195 0
170 191 0
174 195 0
174 196 0
174 194 0
174 194 0
175 195 0
179 199 0
172 193 0
173 193 0
171 191 0
172 192 0
175 195 0
170 190 0
173 192 0
176 195 0
171 191 0
172 191 0
176 195 0
172 192 0
170 190 0
166 186 0
169 189 0
168 187 0
169 188 0
166 186 0
166 187 0
166 185 0
167 187 0
165 185 0
169 188 0
164 184 0
163 183 0
159 178 0
166 185 0
158 177 0
160 179 0
162 182 0
153 173 0
152 171 0
161 181 0
160 180 0
155 176 0
152 172 0
159 179 0
147 167 0
155 175 0
161 181 0
155 174 0
155 175 0
159 178 0
161 180 0
152 171 0
156 176 0
153 172 0
148 168 0
152 172 0
155 175 0
146 166 0
156 176 0
147 169 0
154 176 0
152 174 0
149 169 0
151 173 0
148 169 0
146 166 0
145 166 0
150 171 0
149 169 0
144 165 0
143 164 0
151 172 0
149 170 0
141 161 0
139 159 0
143 163 0
144 165 0
146 166 0
151 172 0
149 169 0
147 168 0
161 183 0
161 184 0
163 187 0
161 183 0
166 189 0
159 182 0
165 188 0
164 187 0
161 185 0
159 182 0
165 188 0
159 181 0
165 188 0
164 187 0
159 182 0
158 181 0
154 177 0
158 180 0
161 184 0
159 182 0
158 180 0
159 181 0
163 185 0
158 182 0
154 177 0
153 176 0
155 178 0
154 177 0
156 178 0
157 179 0
154 177 0
81 107 72
52 83 70
55 88 86
53 85 86
52 82 84
54 86 90
51 82 72
55 88 99
55 86 94
54 86 92
56 88 100
55 87 84
54 86 88
56 89 94
52 83 84
57 90 113
53 84 95
56 88 103
55 87 94
55 87 95
53 84 92
57 90 110
54 85 97
55 87 100
53 85 84
54 87 94
51 82 92
52 83 78
54 86 105
56 89 105
54 85 105
56 88 103
53 84 90
56 89 105
53 84 95
54 86 100
54 85 86
52 83 80
54 85 103
51 82 94
55 87 97
54 85 90
54 86 99
55 87 103
52 83 88
52 83 86
54 86 101
56 88 103
54 85 90
54 86 95
55 87 97
53 84 99
55 86 102
52 83 100
54 86 89
53 83 94
54 86 100
53 84 90
54 85 100
53 84 99
51 82 76
53 84 94
55 86 96
52 82 86
53 84 92
53 84 90
50 77 92
53 83 85
53 83 94
50 79 85
50 79 85
50 78 86
50 79 86
71 92 60
137 155 0
147 167 0
150 168 0
139 160 0
156 175 0
153 171 0
145 163 0
153 173 0
154 172 0
153 173 0
158 176 0
160 177 0
154 172 0
157 175 0
159 178 0
157 175 0
158 176 0
151 170 0
155 174 0
158 176 0
160 177 0
153 171 0
156 176 0
154 171 0
158 176 0
159 176 0
164 184 0
156 171 0
162 181 0
162 178 0
167 175 123
176 180 173
160 163 153
165 167 142
154 158 143
161 164 148
164 168 152
152 156 142
151 154 134
156 158 134
140 142 117
151 153 129
143 143 111
150 151 126
153 155 122
140 141 114
144 144 115
147 149 117
146 147 111
146 147 114
138 139 96
143 142 99
150 149 104
143 144 103
138 135 75
142 140 86
151 151 115
155 155 123
149 147 94
148 149 109
147 146 86
143 142 91
151 152 104
146 145 91
148 145 73
150 148 91
158 159 112
152 150 89
148 146 87
150 148 95
149 147 84
149 145 78
150 146 76
153 153 104
158 154 95
159 158 96
148 145 82
155 153 84
153 150 81
161 159 92
154 152 99
158 154 89
165 164 117
158 156 95
156 153 85
155 153 84
155 151 81
161 159 97
163 159 88
159 157 92
162 159 90
164 160 90
165 161 101
156 153 75
159 155 78
155 151 80
162 158 92
163 158 97
158 154 84
165 163 103
171 169 109
161 158 85
162 158 91
159 156 76
166 163 100
167 163 101
162 157 95
165 162 104
160 155 87
160 156 75
164 162 98
172 170 117
167 166 103
170 166 104
167 163 103
165 164 117
164 160 97
166 163 104
175 171 116
167 162 95
167 166 107
174 171 120
166 164 103
172 171 120
167 165 102
168 165 105
171 166 104
161 157 88
171 170 112
178 175 126
172 169 106
170 167 108
166 165 108
173 171 116
169 166 106
175 173 120
169 166 105
174 172 115
174 172 123
173 171 118
178 176 132
179 177 137
172 172 121
179 178 135
185 185 147
177 175 126
177 175 124
173 170 114
175 172 120
174 173 125
177 174 132
178 176 129
187 189 159
175 174 130
174 172 122
179 179 136
179 177 131
178 178 130
179 178 134
178 176 125
178 176 130
179 179 138
181 180 136
173 197 0
174 197 0
174 197 0
169 193 0
170 193 0
171 194 0
171 194 0
172 196 0
171 195 0
169 194 0
174 197 0
172 195 0
174 197 0
174 197 0
170 193 0
173 196 0
176 198 0
172 195 0
172 196 0
168 191 0
170 193 0
175 197 0
171 194 0
173 196 0
169 193 0
173 196 0
167 191 0
171 195 0
169 193 0
170 193 0
170 193 0
171 193 0
170 194 0
171 194 0
171 195 0
171 194 0
170 193 0
171 192 0
174 197 0
172 194 0
173 195 0
173 196 0
172 194 0
169 192 0
176 198 0
175 197 0
173 196 0
172 194 0
174 196 0
171 192 0
176 198 0
177 197 0
174 195 0
175 195 0
172 194 0
175 196 0
174 194 0
173 194 0
172 192 0
175 194 0
173 193 0
174 194 0
172 191 0
178 198 0
172 192 0
171 191 0
172 192 0
174 193 0
166 186 0
175 193 0
169 189 0
170 190 0
168 187 0
170 190 0
162 183 0
167 186 0
163 182 0
165 184 0
171 190 0
167 186 0
162 182 0
158 177 0
163 183 0
160 179 0
155 175 0
160 180 0
157 177 0
155 175 0
163 183 0
157 177 0
162 182 0
158 177 0
159 177 0
158 178 0
158 177 0
154 174 0
159 178 0
161 180 0
157 177 0
156 174 0
156 176 0
157 176 0
156 174 0
153 173 0
154 173 0
149 168 0
155 174 0
159 180 0
155 176 0
153 175 0
138 160 0
146 167 0
147 168 0
151 171 0
147 168 0
144 166 0
145 166 0
154 175 0
146 167 0
152 172 0
150 171 0
142 163 0
156 176 0
146 166 0
141 161 0
140 160 0
143 163 0
149 170 0
148 168 0
150 171 0
157 179 0
160 181 0
162 184 0
172 195 0
163 187 0
159 182 0
165 187 0
165 187 0
158 180 0
165 188 0
161 184 0
164 188 0
161 184 0
161 183 0
161 184 0
161 184 0
159 182 0
159 182 0
160 183 0
152 174 0
163 186 0
157 180 0
155 177 0
158 181 0
154 176 0
155 178 0
157 179 0
157 180 0
148 171 0
160 183 0
151 173 0
148 170 0
154 176 0
148 171 0
78 103 60
53 84 82
49 79 70
51 82 72
52 82 82
52 83 84
54 86 90
52 83 82
54 85 94
55 87 97
54 86 97
52 84 74
53 85 92
53 84 86
54 86 97
53 85 82
53 85 84
51 82 88
53 85 92
56 88 102
55 87 100
52 83 92
55 87 90
55 88 92
53 85 86
55 87 103
54 86 92
55 87 84
57 90 108
56 89 103
56 89 99
55 87 95
58 90 111
55 86 97
56 89 100
54 86 108
53 84 97
55 87 107
53 83 92
55 87 110
56 88 110
55 86 97
55 86 99
54 86 86
52 83 88
55 87 97
55 87 97
54 85 85
53 83 105
56 88 105
53 83 99
55 87 90
55 87 105
56 89 95
56 87 104
55 86 102
53 83 94
53 83 82
56 87 107
52 82 90
52 82 81
52 82 86
51 80 87
50 79 89
52 82 89
51 81 79
52 81 95
52 81 88
50 77 75
49 78 75
49 77 78
70 93 65
137 155 0
141 160 0
143 161 0
151 170 0
136 152 0
150 170 0
151 171 0
150 170 0
147 163 0
150 168 0
156 175 0
156 174 0
151 168 0
148 167 0
146 163 0
150 168 0
149 167 0
149 166 0
154 171 0
158 176 0
154 172 0
151 169 0
154 169 0
154 170 0
146 163 0
154 172 0
160 177 0
159 178 0
155 169 0
159 176 0
154 166 0
159 176 0
172 179 131
179 182 170
169 171 160
174 179 167
161 163 142
170 173 155
158 162 149
151 154 138
165 168 154
146 145 117
147 149 123
133 134 100
146 149 122
155 158 138
151 151 123
137 139 115
144 146 120
144 144 110
144 142 99
145 146 114
153 154 123
146 147 112
138 138 89
137 136 92
153 154 113
154 153 116
144 143 86
154 154 116
152 150 101
157 157 112
154 153 107
150 147 93
154 154 107
150 149 110
157 157 119
148 148 101
149 146 88
148 147 90
151 149 83
159 159 110
149 146 90
150 146 71
147 144 67
153 152 87
161 160 109
147 144 68
162 157 102
153 151 88
154 151 84
155 152 91
157 155 99
155 151 76
158 153 87
157 155 94
156 152 90
155 153 84
151 148 67
163 159 93
156 154 75
154 152 77
170 168 122
159 156 85
155 152 84
161 158 98
170 169 118
162 158 80
157 153 81
167 165 103
154 151 80
161 159 97
166 162 103
158 154 75
163 158 88
162 160 103
165 162 99
166 163 96
167 165 109
175 174 132
164 160 95
166 163 92
167 165 106
165 163 107
162 160 108
171 167 112
161 157 81
174 172 118
167 163 97
166 161 84
169 166 103
168 165 98
168 166 103
168 165 111
169 165 108
171 168 111
170 169 113
164 160 87
170 167 102
169 165 106
169 168 112
163 158 76
174 172 119
173 169 115
170 168 106
168 164 97
169 167 109
166 163 87
177 176 126
173 172 122
171 167 109
176 174 124
174 172 123
178 178 134
175 173 118
175 172 116
178 178 134
177 175 124
175 173 125
174 174 121
177 176 132
172 168 107
180 179 136
182 182 141
182 180 136
176 174 131
180 181 144
179 179 134
180 179 137
180 178 127
188 189 158
179 177 129
185 185 147
180 177 130
171 195 0
173 196 0
173 197 0
169 192 0
173 197 0
174 197 0
173 196 0
171 194 0
173 196 0
170 193 0
171 193 0
174 197 0
170 194 0
172 195 0
169 192 0
170 192 0
170 194 0
172 195 0
169 192 0
171 195 0
169 193 0
168 192 0
169 192 0
170 194 0
172 195 0
167 191 0
173 195 0
170 193 0
169 192 0
175 197 0
168 192 0
171 194 0
172 194 0
172 194 0
169 192 0
171 194 0
172 194 0
172 194 0
174 196 0
171 193 0
174 197 0
174 196 0
172 194 0
174 196 0
173 195 0
170 191 0
175 195 0
176 197 0
173 194 0
176 197 0
175 196 0
173 194 0
176 198 0
171 193 0
174 195 0
178 197 0
173 194 0
175 195 0
176 196 0
172 192 0
172 192 0
170 191 0
170 189 0
174 193 0
175 195 0
172 192 0
172 192 0
170 190 0
165 185 0
173 192 0
175 195 0
169 189 0
166 185 0
168 187 0
168 187 0
171 190 0
164 183 0
168 187 0
162 181 0
162 182 0
162 182 0
163 181 0
159 180 0
161 180 0
161 181 0
164 183 0
165 185 0
160 179 0
160 179 0
155 174 0
158 178 0
157 176 0
154 173 0
157 178 0
157 177 0
161 180 0
159 178 0
156 176 0
160 180 0
151 170 0
157 176 0
161 179 0
158 178 0
151 171 0
151 171 0
156 177 0
150 171 0
154 177 0
146 166 0
153 173 0
146 167 0
144 164 0
154 175 0
149 169 0
150 170 0
143 162 0
141 162 0
145 165 0
148 167 0
142 162 0
143 163 0
143 163 0
141 160 0
155 175 0
144 164 0
154 173 0
152 172 0
142 162 0
162 182 0
155 175 0
164 187 0
165 187 0
163 186 0
160 183 0
164 186 0
168 191 0
158 180 0
165 188 0
159 181 0
162 184 0
160 184 0
154 175 0
157 180 0
164 187 0
155 177 0
160 182 0
155 177 0
159 182 0
162 184 0
152 175 0
156 179 0
156 179 0
150 172 0
153 175 0
160 182 0
152 174 0
149 171 0
151 174 0
154 177 0
146 168 0
151 172 0
145 166 0
150 172 0
148 170 0
138 159 18
72 97 62
53 83 74
51 82 86
52 83 88
52 83 84
54 85 84
53 83 82
51 82 72
52 83 86
53 85 92
49 79 74
55 88 84
55 87 99
53 84 88
53 85 94
56 88 103
52 82 78
55 86 92
53 85 99
53 84 95
53 85 84
53 84 92
54 85 97
56 89 103
52 83 90
52 83 94
54 85 78
53 85 92
56 88 103
54 86 102
52 82 95
55 87 94
54 86 100
55 86 99
55 86 103
57 89 102
54 86 103
54 85 95
54 86 94
54 86 105
52 83 84
56 88 97
54 85 90
54 86 90
52 83 85
54 86 94
53 84 86
54 86 92
52 82 88
54 85 89
56 89 92
52 82 92
52 83 81
52 82 92
52 82 91
55 86 99
51 80 90
51 80 77
52 82 89
51 80 77
51 80 83
52 82 94
52 81 83
52 81 84
49 78 72
53 84 87
51 78 79
49 77 81
47 73 63
67 89 57
135 153 0
138 156 0
139 156 0
146 165 0
154 172 0
144 162 0
149 169 0
145 163 0
151 170 0
149 167 0
152 171 0
150 168 0
148 166 0
149 167 0
153 168 0
151 168 0
136 152 0
147 163 0
156 174 0
151 168 0
147 162 0
150 167 0
155 173 0
155 172 0
155 172 0
154 171 0
158 174 0
155 172 0
151 169 0
159 176 0
157 174 0
153 171 0
155 169 0
153 167 0
162 173 102
184 187 177
168 169 149
166 170 160
157 159 140
171 175 159
159 162 149
160 163 145
144 145 120
160 161 135
155 155 130
146 146 120
161 164 145
149 150 123
151 150 112
140 139 96
154 153 117
136 137 96
155 155 120
155 157 130
151 151 111
150 150 115
145 145 103
148 147 100
144 144 96
147 148 118
153 154 120
158 158 115
153 154 112
145 142 83
154 154 103
155 153 105
146 145 98
151 149 94
146 142 80
149 148 97
145 144 93
150 146 86
152 151 99
146 142 73
156 154 97
154 152 88
157 156 90
152 149 84
153 152 87
156 153 95
154 151 92
156 154 97
160 159 111
153 151 75
155 151 91
157 153 78
151 148 78
160 157 95
160 158 95
159 156 93
158 156 92
160 155 93
160 157 99
156 153 90
163 158 97
157 155 90
154 150 75
161 160 93
160 157 96
161 157 90
158 156 78
162 159 91
157 154 89
161 156 92
159 156 84
159 153 75
162 158 87
170 168 118
165 162 103
161 155 87
167 165 104
167 165 114
171 170 117
163 159 93
166 163 102
163 159 87
169 168 114
166 164 108
164 162 101
168 166 109
160 156 79
161 156 87
167 165 107
175 174 128
173 171 121
174 173 120
167 163 104
177 177 129
174 171 118
168 165 109
175 175 130
167 163 101
172 170 112
172 168 110
168 165 106
166 163 110
172 173 129
172 171 115
180 180 138
166 164 110
173 171 112
173 169 108
177 176 127
170 167 112
173 172 121
175 172 121
178 175 129
173 172 118
174 172 123
177 176 131
177 176 131
177 177 134
174 172 119
180 179 135
180 177 129
175 173 123
176 176 127
181 181 138
179 178 129
183 183 144
174 172 119
185 185 150
185 185 151
180 179 136
179 178 132
171 195 0
172 195 0
174 197 0
173 196 0
174 197 0
171 195 0
174 197 0
171 194 0
172 196 0
172 195 0
174 197 0
172 195 0
171 194 0
172 196 0
168 192 0
173 197 0
167 191 0
166 189 0
174 197 0
173 197 0
175 197 0
171 194 0
174 197 0
172 195 0
169 191 0
171 195 0
171 195 0
168 191 0
170 193 0
171 194 0
168 191 0
171 194 0
172 195 0
174 197 0
168 191 0
171 194 0
172 194 0
169 192 0
172 193 0
173 195 0
174 196 0
173 195 0
173 195 0
171 194 0
175 196 0
175 196 0
173 195 0
176 196 0
175 196 0
172 193 0
176 197 0
174 195 0
176 197 0
176 196 0
176 196 0
172 193 0
174 194 0
172 193 0
172 192 0
171 191 0
174 194 0
177 196 0
171 192 0
174 193 0
172 191 0
169 188 0
173 192 0
169 190 0
172 191 0
171 190 0
171 191 0
168 187 0
170 189 0
165 185 0
163 183 0
171 190 0
163 183 0
160 180 0
163 184 0
163 183 0
164 184 0
161 182 0
161 181 0
160 179 0
160 180 0
163 182 0
158 177 0
156 175 0
163 183 0
157 177 0
156 176 0
161 180 0
161 181 0
158 177 0
155 175 0
153 172 0
154 173 0
161 181 0
155 174 0
150 170 0
147 167 0
156 175 0
157 178 0
158 178 0
150 171 0
152 174 0
151 171 0
155 177 0
149 170 0
151 173 0
159 181 0
160 181 0
143 163 0
144 165 0
155 175 0
138 159 0
144 165 0
145 166 0
150 171 0
150 171 0
136 155 0
149 168 0
143 163 0
148 168 0
151 171 0
142 163 0
155 175 0
161 181 0
157 178 0
171 193 0
164 186 0
162 184 0
162 183 0
158 180 0
167 189 0
163 185 0
162 184 0
160 182 0
159 181 0
160 183 0
160 181 0
160 181 0
155 177 0
153 175 0
163 186 0
153 175 0
161 182 0
152 174 0
145 168 0
149 170 0
152 174 0
154 176 0
151 173 0
151 173 0
158 179 0
149 170 0
146 168 0
144 166 0
155 177 0
140 162 0
147 169 0
139 161 0
153 175 0
144 166 0
137 157 0
136 157 18
91 114 44
49 78 65
50 80 78
50 81 72
51 80 86
51 81 76
51 82 80
54 86 90
54 86 97
51 81 70
54 85 92
54 86 88
52 83 80
55 88 94
53 84 82
51 81 82
54 85 88
54 86 86
55 86 102
53 83 88
56 88 107
50 80 84
52 82 80
52 83 80
55 87 92
53 85 84
52 83 92
56 89 114
54 85 90
55 87 90
53 84 99
56 88 94
52 82 86
52 83 86
56 88 100
53 84 92
54 86 94
54 86 103
54 85 95
52 82 84
53 84 84
53 84 82
53 84 82
55 87 95
54 85 95
53 84 88
53 83 86
53 84 85
52 83 97
54 85 108
51 80 76
53 82 89
52 82 92
54 85 87
52 81 63
54 85 96
52 82 84
52 82 70
52 82 83
51 80 94
53 84 93
52 80 91
51 80 77
52 82 79
47 74 80
52 80 78
49 76 86
84 103 51
135 154 18
140 158 0
137 156 0
133 152 0
141 161 0
137 152 0
144 161 0
151 167 0
138 155 0
145 162 0
150 167 0
147 163 0
145 162 0
145 162 0
150 168 0
149 167 0
144 160 0
146 163 0
143 160 0
154 172 0
144 161 0
148 162 0
149 163 0
151 167 0
155 172 0
150 168 0
151 168 0
153 169 0
150 165 0
158 174 0
148 162 0
147 162 0
152 166 0
160 177 0
153 169 0
159 174 0
166 176 110
175 175 148
169 171 155
164 167 153
159 160 135
175 178 168
167 170 156
165 167 149
154 156 143
161 163 142
149 152 132
142 142 112
152 152 118
147 146 117
137 136 99
148 150 128
147 146 106
153 155 128
150 148 108
147 148 122
153 155 125
140 141 96
147 147 105
154 154 118
146 145 86
153 152 113
151 150 105
153 152 115
155 156 123
146 144 100
153 152 106
146 145 95
160 159 117
154 151 94
149 149 103
146 143 87
146 142 69
151 148 97
159 159 109
156 153 101
152 150 94
157 154 93
157 157 116
150 148 87
149 149 90
153 152 89
160 159 102
154 153 106
160 159 103
148 144 86
154 153 95
161 159 98
157 155 93
156 156 95
157 155 87
163 159 95
166 166 116
158 155 97
166 162 97
161 160 95
164 162 94
158 154 88
165 161 98
161 158 100
161 159 95
161 158 93
154 150 80
160 158 93
168 167 118
166 164 96
162 159 93
168 167 118
157 154 91
165 162 101
167 166 104
168 165 111
171 168 108
168 165 99
168 164 100
173 172 122
166 163 95
159 157 89
164 161 94
163 161 103
168 166 108
167 165 110
172 171 114
170 167 108
166 162 97
165 164 110
164 163 104
168 165 106
169 168 112
166 162 95
170 168 121
170 167 107
170 168 107
170 168 113
173 173 125
180 177 127
171 167 110
172 169 113
177 175 132
169 166 106
174 173 121
171 169 117
176 173 121
180 178 134
182 180 139
174 172 129
177 175 129
177 175 127
171 168 104
179 178 127
176 176 125
183 182 139
183 182 141
181 180 138
177 174 125
171 169 120
180 181 139
182 181 136
179 178 138
179 178 131
179 178 137
183 182 139
182 182 147
180 182 142
182 181 145
181 181 141
173 197 0
173 196 0
174 197 0
172 195 0
174 198 0
170 194 0
173 197 0
173 195 0
172 195 0
172 195 0
171 194 0
172 196 0
170 194 0
173 196 0
172 195 0
170 194 0
171 195 0
172 195 0
172 194 0
171 195 0
173 195 0
169 192 0
171 195 0
168 191 0
168 193 0
171 192 0
169 192 0
171 194 0
168 192 0
174 197 0
172 196 0
175 197 0
171 194 0
167 191 0
171 194 0
170 193 0
169 193 0
170 192 0
170 194 0
172 194 0
172 195 0
172 194 0
174 196 0
172 194 0
175 196 0
173 194 0
177 197 0
174 194 0
174 195 0
176 198 0
170 192 0
174 195 0
172 193 0
176 196 0
178 197 0
172 193 0
175 195 0
176 196 0
172 192 0
173 193 0
173 193 0
171 191 0
173 193 0
172 191 0
168 189 0
171 190 0
170 189 0
170 190 0
167 187 0
172 192 0
167 187 0
165 184 0
164 184 0
169 188 0
166 185 0
156 176 0
168 188 0
160 179 0
157 177 0
162 181 0
161 180 0
160 179 0
162 182 0
166 185 0
161 180 0
158 179 0
158 177 0
159 179 0
154 175 0
158 177 0
157 177 0
160 180 0
164 184 0
160 180 0
163 182 0
153 172 0
158 177 0
160 179 0
152 173 0
158 179 0
155 177 0
155 176 0
156 178 0
156 177 0
143 165 0
144 165 0
143 164 0
152 173 0
152 172 0
151 173 0
153 175 0
156 176 0
153 173 0
152 173 0
144 165 0
148 169 0
148 168 0
142 162 0
146 166 0
154 173 0
148 168 0
154 174 0
149 169 0
148 168 0
148 167 0
151 170 0
153 173 0
156 176 0
163 186 0
164 186 0
168 189 0
162 184 0
160 181 0
161 182 0
166 188 0
154 176 0
161 184 0
156 178 0
159 180 0
155 177 0
160 181 0
156 177 0
148 171 0
154 176 0
157 179 0
152 174 0
153 175 0
159 180 0
152 174 0
153 175 0
145 167 0
148 169 0
155 177 0
154 176 0
145 166 0
155 177 0
153 175 0
143 164 0
148 169 0
140 162 0
130 151 0
149 171 0
149 172 0
143 164 0
132 153 0
139 159 0
141 162 0
104 126 54
48 77 62
51 81 84
51 81 60
54 85 100
52 83 76
54 85 90
51 81 74
52 83 84
52 84 86
52 83 78
52 83 82
53 84 99
53 84 74
53 84 99
54 86 84
53 85 92
53 84 97
52 83 82
51 82 88
53 85 97
49 79 76
53 84 92
55 86 97
53 84 86
54 85 95
54 86 107
55 87 88
52 82 82
54 85 88
53 85 90
54 85 100
54 85 97
52 83 99
52 83 88
55 87 100
54 86 95
53 83 88
54 86 90
54 85 100
53 85 86
51 81 95
51 81 76
52 83 95
51 81 86
52 83 76
51 82 78
51 80 80
53 84 87
52 81 82
52 83 94
50 80 84
51 81 85
51 81 87
50 79 78
49 77 83
50 78 75
52 82 95
49 77 68
52 81 92
51 80 84
53 82 100
49 77 71
49 76 84
51 78 80
93 113 54
130 146 0
137 154 0
143 162 0
135 152 0
135 153 0
139 155 0
149 168 0
129 144 0
138 156 0
142 159 0
134 151 0
137 154 0
144 162 0
138 155 0
143 160 0
139 155 0
143 160 0
140 155 0
146 162 0
141 156 0
147 161 0
154 169 0
152 168 0
155 169 0
147 161 0
155 175 0
153 170 0
146 160 0
151 166 0
156 171 0
151 167 0
146 163 0
151 166 0
150 164 0
156 170 0
148 160 0
154 169 0
160 173 0
161 170 97
176 180 156
170 171 151
162 162 141
171 172 154
169 173 163
159 162 147
156 158 135
154 156 138
149 150 128
155 156 128
165 167 147
151 153 133
154 156 133
147 150 123
148 149 120
151 152 122
150 150 121
134 133 85
148 147 99
149 149 122
168 170 142
147 148 109
154 155 117
146 146 106
150 149 106
154 154 120
154 152 106
151 151 117
155 152 99
150 149 92
160 160 121
151 150 106
148 146 97
152 150 101
159 159 114
150 149 90
154 153 99
160 160 110
157 157 113
154 153 96
155 153 93
161 159 106
159 157 100
153 150 84
155 152 86
164 162 111
155 151 84
153 151 99
166 164 112
156 153 84
163 162 110
148 144 80
163 160 100
150 146 81
170 169 119
153 151 87
157 153 84
165 162 99
160 158 94
155 151 86
167 164 106
158 156 102
160 155 85
165 164 111
152 146 64
163 160 101
167 167 120
166 164 113
160 157 92
164 161 110
162 159 87
169 167 111
163 160 97
167 165 105
163 161 95
164 160 97
169 167 110
166 163 113
167 163 112
165 161 100
166 163 104
165 162 105
167 164 103
175 173 120
173 174 125
171 168 111
168 166 117
170 166 107
173 170 115
168 166 106
168 165 108
169 167 116
173 169 118
172 169 115
167 163 102
178 176 133
172 168 112
168 165 110
172 169 118
180 181 136
171 168 108
180 180 137
170 168 114
165 161 96
180 178 135
175 172 122
169 165 98
177 176 131
175 172 125
177 176 128
178 175 122
176 175 122
178 178 138
184 184 144
176 175 124
176 175 126
180 181 140
177 177 134
180 179 136
180 179 133
175 173 124
183 183 149
180 179 138
177 176 134
182 182 143
181 182 147
179 177 131
187 188 159
172 196 0
174 197 0
172 194 0
173 196 0
174 197 0
171 195 0
174 197 0
171 195 0
174 197 0
173 196 0
172 196 0
172 195 0
174 196 0
173 196 0
172 195 0
171 195 0
171 194 0
172 196 0
171 194 0
170 193 0
173 196 0
171 194 0
173 196 0
173 196 0
171 195 0
170 193 0
170 193 0
169 192 0
168 192 0
172 195 0
169 192 0
171 195 0
171 194 0
172 195 0
171 193 0
169 192 0
171 194 0
171 194 0
167 190 0
171 194 0
170 192 0
171 193 0
168 190 0
172 196 0
175 197 0
177 198 0
176 198 0
172 193 0
171 193 0
174 194 0
173 194 0
172 194 0
173 194 0
174 195 0
175 196 0
172 193 0
170 190 0
175 196 0
177 197 0
173 193 0
168 189 0
176 196 0
177 196 0
172 192 0
167 186 0
172 191 0
172 192 0
168 189 0
168 187 0
170 189 0
174 193 0
168 189 0
168 188 0
165 184 0
170 189 0
169 189 0
159 179 0
160 180 0
170 190 0
164 182 0
162 181 0
163 183 0
163 184 0
170 189 0
167 186 0
168 186 0
161 180 0
150 169 0
164 184 0
160 180 0
162 182 0
158 178 0
156 175 0
161 180 0
157 178 0
161 181 0
164 185 0
154 174 0
150 171 0
159 180 0
153 173 0
153 174 0
150 172 0
157 179 0
160 182 0
148 169 0
154 176 0
159 180 0
148 169 0
158 178 0
158 179 0
157 177 0
149 169 0
153 174 0
142 163 0
148 167 0
152 173 0
147 168 0
135 156 0
155 176 0
146 165 0
152 171 0
147 167 0
153 173 0
148 167 0
152 172 0
156 177 0
167 188 0
156 177 0
162 184 0
155 177 0
156 178 0
156 178 0
157 178 0
165 186 0
152 174 0
158 181 0
153 175 0
153 175 0
149 170 0
154 176 0
155 177 0
160 181 0
156 178 0
160 182 0
153 174 0
153 175 0
148 170 0
156 177 0
150 172 0
153 176 0
148 169 0
150 171 0
144 165 0
151 173 0
142 162 0
149 171 0
138 159 0
147 169 0
149 170 0
140 161 0
138 159 0
140 160 0
145 167 0
141 161 0
126 148 0
140 161 0
147 167 0
123 143 31
62 90 65
50 80 74
51 80 80
49 78 78
48 77 72
49 78 70
51 82 78
53 84 86
52 83 78
55 88 88
53 84 84
50 81 80
50 80 78
51 81 80
51 81 78
51 81 88
52 83 84
52 83 86
52 82 84
52 82 88
53 84 92
51 81 78
55 87 90
53 84 92
53 84 86
53 84 88
53 85 95
56 88 100
53 85 92
54 85 76
55 86 94
53 84 90
50 80 86
52 83 80
52 82 86
53 84 102
52 83 95
55 87 105
52 82 86
54 85 90
53 85 97
51 81 86
50 80 84
53 85 95
53 85 79
54 84 92
53 83 100
52 83 99
49 78 72
52 83 80
52 82 88
49 78 80
52 81 82
51 79 89
49 77 68
51 80 81
49 77 85
47 74 70
52 81 96
48 76 84
48 75 75
54 78 60
97 113 26
126 143 0
129 146 0
119 136 0
123 138 0
125 142 0
141 158 0
138 154 0
137 154 0
131 146 0
134 148 0
141 158 0
138 157 0
127 145 0
138 155 0
138 154 0
142 160 0
136 149 0
134 148 0
152 171 0
148 163 0
136 150 0
138 153 0
149 166 0
138 153 0
145 161 0
142 159 0
151 165 0
150 163 0
144 158 0
145 157 0
151 166 0
148 163 0
147 161 0
147 161 0
151 165 0
148 163 0
149 161 0
141 153 0
148 162 0
156 169 0
161 172 82
178 182 156
174 178 174
167 169 150
169 171 154
154 155 132
168 169 150
166 167 151
157 159 142
163 165 147
149 149 117
155 157 130
154 155 130
144 144 114
165 169 151
146 149 123
158 158 131
155 157 133
145 145 108
147 145 102
148 147 106
150 150 118
147 147 99
146 144 102
148 148 111
147 146 102
153 152 96
150 149 108
145 142 78
156 155 99
155 152 99
156 155 113
158 157 113
148 145 82
147 146 99
150 147 104
153 151 83
165 162 104
144 142 75
148 147 100
157 155 97
147 146 97
166 164 112
147 146 90
148 146 86
161 160 112
158 158 112
157 155 103
163 160 102
154 151 87
163 162 109
152 149 91
165 165 118
162 159 104
160 157 89
162 159 108
155 151 88
156 152 86
158 155 91
166 163 105
163 162 112
159 158 103
159 155 87
156 153 87
165 160 103
163 160 99
159 156 92
155 150 75
163 160 92
167 166 110
162 161 108
170 169 118
164 161 104
167 165 101
166 163 103
169 168 116
171 170 118
167 163 97
166 163 94
172 170 116
158 155 82
166 163 100
174 174 132
172 171 117
174 171 119
173 172 119
168 168 117
169 165 115
168 164 109
174 174 121
168 165 105
174 171 119
171 169 113
173 172 122
166 163 104
169 166 103
172 171 118
173 171 124
168 165 104
176 175 130
171 168 106
182 182 142
177 175 127
173 171 120
171 169 123
174 172 115
169 165 104
177 175 132
181 180 144
176 175 134
176 175 130
182 183 150
173 170 115
179 180 139
180 179 137
177 175 126
181 181 145
181 179 134
176 174 129
178 178 135
180 179 139
178 176 127
177 176 125
176 175 134
187 187 154
183 183 140
184 185 150
183 183 143
174 198 0
171 195 0
171 195 0
173 196 0
169 193 0
174 198 0
174 197 0
170 194 0
172 195 0
173 197 0
172 194 0
176 198 0
173 197 0
175 198 0
173 196 0
172 196 0
173 197 0
169 192 0
170 193 0
171 194 0
166 190 0
169 192 0
169 191 0
171 194 0
171 194 0
171 195 0
171 194 0
167 190 0
171 193 0
173 195 0
168 191 0
170 193 0
170 192 0
170 192 0
169 192 0
167 190 0
170 193 0
170 193 0
169 192 0
168 191 0
169 192 0
169 192 0
175 198 0
173 195 0
167 189 0
169 190 0
174 196 0
174 195 0
169 191 0
172 194 0
171 192 0
173 194 0
175 196 0
173 194 0
172 193 0
177 197 0
177 197 0
171 192 0
171 191 0
173 193 0
174 194 0
169 189 0
172 192 0
177 197 0
170 190 0
175 194 0
167 186 0
173 192 0
165 185 0
170 191 0
172 191 0
170 189 0
165 184 0
172 192 0
165 184 0
164 183 0
166 186 0
165 184 0
164 183 0
161 180 0
166 186 0
166 185 0
162 182 0
170 190 0
168 187 0
156 175 0
166 185 0
162 181 0
166 186 0
160 179 0
162 183 0
166 185 0
156 176 0
158 178 0
160 180 0
154 175 0
157 178 0
149 171 0
154 176 0
150 172 0
150 171 0
161 182 0
155 176 0
156 177 0
155 176 0
154 174 0
150 172 0
164 184 0
153 175 0
152 173 0
145 166 0
151 171 0
154 175 0
152 173 0
150 171 0
142 163 0
150 170 0
154 174 0
146 166 0
148 168 0
156 175 0
161 181 0
151 171 0
148 167 0
149 170 0
158 178 0
159 181 0
162 183 0
156 177 0
156 177 0
158 179 0
156 178 0
160 181 0
160 181 0
152 172 0
159 180 0
159 180 0
154 175 0
150 171 0
153 173 0
156 177 0
160 182 0
152 174 0
148 169 0
143 165 0
158 181 0
147 168 0
157 178 0
154 175 0
157 179 0
146 169 0
142 164 0
143 164 0
148 170 0
136 158 0
139 160 0
154 175 0
140 160 0
140 161 0
137 158 0
132 152 0
139 159 0
134 154 0
142 163 0
131 151 0
124 144 0
139 158 0
134 155 0
134 153 0
115 136 0
74 97 60
49 78 67
48 78 62
50 81 72
52 82 88
52 82 74
50 79 72
49 79 76
52 82 74
52 83 86
54 85 94
53 83 90
49 78 70
51 81 72
53 84 86
53 85 88
51 81 72
54 86 102
54 85 94
54 85 100
51 82 84
53 85 90
51 81 84
52 83 97
51 80 88
53 83 92
52 82 88
54 85 88
52 83 90
52 83 92
52 83 86
53 83 82
54 85 94
55 87 102
50 80 80
51 81 94
53 85 88
52 82 82
52 83 82
53 84 88
52 82 83
51 81 86
52 82 86
54 85 94
48 77 75
49 78 68
51 81 80
51 81 95
51 81 84
49 78 74
52 82 80
48 76 75
52 81 82
51 81 81
50 78 70
51 81 94
49 76 77
48 76 70
44 70 60
66 89 57
115 132 0
126 140 0
113 130 0
122 136 0
131 146 0
122 136 0
135 151 0
125 142 0
133 150 0
124 138 0
133 150 0
134 150 0
128 143 0
133 149 0
135 150 0
140 157 0
135 151 0
131 147 0
144 159 0
131 147 0
134 146 0
140 156 0
130 144 0
133 146 0
133 148 0
145 161 0
135 149 0
147 161 0
136 150 0
147 163 0
138 153 0
146 158 0
145 158 0
139 152 0
142 154 0
150 163 0
151 163 0
142 152 0
148 160 0
147 158 0
144 157 0
143 154 0
152 163 0
146 154 25
172 177 138
181 183 169
173 175 164
167 170 160
166 167 145
166 169 158
174 175 155
157 158 142
157 156 133
168 171 157
155 156 125
161 162 135
155 155 130
148 150 120
163 165 140
150 149 115
150 150 120
153 151 108
148 147 106
143 141 100
154 153 108
156 155 114
154 153 109
156 154 111
160 161 125
152 151 108
155 154 114
162 160 120
162 160 120
156 156 115
146 144 88
152 151 105
156 154 105
151 149 88
151 150 94
158 158 111
154 153 99
160 158 106
155 153 90
150 147 93
157 157 106
164 162 121
152 149 90
148 145 72
158 156 92
161 157 94
160 158 106
154 152 104
161 157 104
158 155 98
163 162 105
163 163 115
161 158 101
160 158 99
165 165 124
163 161 99
162 159 100
164 162 113
165 162 99
154 152 91
157 154 95
164 162 97
164 161 100
163 161 98
169 168 122
158 155 86
161 159 99
162 158 92
164 160 99
161 158 95
165 161 97
166 164 106
155 151 86
161 156 90
162 159 87
166 163 102
162 159 97
171 169 118
166 162 104
173 171 118
163 160 93
172 170 123
165 161 100
170 168 112
174 173 122
170 168 116
173 170 110
174 173 122
171 168 109
179 178 140
175 175 129
165 161 101
178 177 137
173 171 125
166 164 104
170 168 121
174 172 121
173 169 111
174 172 121
177 176 132
173 172 126
180 179 138
179 176 129
174 172 121
180 180 140
173 171 117
173 172 124
174 174 134
181 180 134
175 175 130
178 177 134
180 180 142
182 180 140
171 169 118
175 173 122
185 186 153
182 181 138
178 176 128
181 182 143
183 185 151
176 174 129
182 180 140
191 191 161
187 186 151
188 190 162
179 177 132
173 196 0
171 195 0
172 195 0
171 195 0
172 195 0
176 198 0
171 194 0
173 197 0
172 196 0
171 195 0
172 195 0
172 195 0
172 196 0
171 195 0
174 197 0
173 196 0
171 194 0
171 195 0
173 196 0
173 196 0
169 192 0
173 196 0
172 195 0
167 189 0
169 192 0
170 194 0
172 194 0
168 192 0
168 191 0
174 196 0
167 190 0
170 193 0
171 194 0
172 195 0
167 191 0
171 194 0
171 194 0
169 192 0
166 190 0
167 190 0
171 193 0
171 193 0
170 192 0
168 191 0
171 192 0
167 190 0
168 191 0
172 195 0
171 193 0
169 190 0
170 192 0
170 191 0
172 193 0
173 193 0
174 195 0
173 193 0
169 190 0
173 194 0
173 193 0
170 190 0
177 196 0
173 193 0
173 193 0
173 193 0
172 192 0
170 189 0
172 191 0
171 191 0
176 196 0
166 186 0
170 190 0
173 193 0
164 184 0
167 186 0
173 192 0
168 187 0
167 186 0
163 183 0
167 186 0
168 187 0
171 190 0
168 188 0
165 185 0
163 184 0
162 182 0
164 184 0
163 183 0
153 174 0
160 179 0
169 189 0
163 184 0
164 184 0
166 188 0
155 177 0
158 179 0
159 181 0
160 183 0
155 176 0
152 172 0
155 176 0
156 178 0
153 174 0
145 166 0
156 177 0
155 177 0
152 173 0
153 174 0
158 179 0
150 169 0
144 165 0
155 175 0
156 176 0
144 165 0
153 174 0
156 176 0
147 168 0
148 168 0
152 172 0
156 175 0
159 179 0
148 168 0
156 175 0
154 174 0
149 168 0
158 179 0
161 181 0
161 182 0
154 176 0
166 186 0
151 172 0
153 174 0
153 174 0
157 177 0
166 187 0
155 175 0
149 170 0
159 180 0
153 175 0
152 173 0
150 172 0
155 176 0
156 178 0
153 174 0
151 173 0
151 172 0
149 170 0
148 170 0
144 165 0
152 173 0
148 170 0
151 172 0
151 172 0
141 161 0
144 164 0
141 162 0
150 171 0
141 163 0
140 161 0
136 157 0
132 152 0
134 155 0
154 176 0
138 159 0
132 152 0
142 162 0
122 142 0
124 145 0
131 151 0
134 153 0
117 137 0
109 127 0
85 105 31
47 74 54
48 77 70
47 76 80
48 77 62
53 84 94
52 83 82
50 80 60
51 82 76
49 78 65
50 80 62
51 82 88
52 82 84
52 83 97
49 79 74
50 79 78
51 82 62
52 83 84
51 81 74
52 83 92
53 84 86
50 80 65
54 85 82
51 82 78
54 85 103
50 79 82
52 82 90
53 84 80
54 85 103
53 84 90
52 82 72
51 81 74
49 77 78
51 80 80
53 84 88
52 81 79
51 81 86
51 82 76
51 81 83
54 84 95
52 83 90
50 79 90
51 81 84
50 79 79
52 82 97
48 76 73
48 77 87
51 81 84
48 76 76
51 81 81
48 76 80
49 77 57
48 77 60
48 76 60
48 76 66
47 74 70
49 74 75
92 109 18
114 132 18
128 144 0
114 129 0
126 143 0
135 152 0
123 138 0
123 136 0
122 137 0
126 141 0
128 144 0
124 139 0
135 151 0
131 148 0
130 145 0
123 136 0
131 146 0
132 149 0
133 150 0
136 153 0
138 155 0
130 145 0
128 144 0
137 154 0
136 149 0
139 153 0
138 152 0
143 158 0
136 148 0
142 158 0
145 159 0
134 146 0
141 154 0
140 152 0
142 155 0
152 165 0
143 157 0
145 156 0
148 161 0
145 155 0
146 156 0
140 149 0
148 160 0
144 156 0
143 151 0
151 160 0
146 156 0
168 174 117
177 181 167
170 171 157
169 170 154
171 173 158
182 186 179
176 178 168
168 169 155
163 165 144
166 167 145
160 161 135
162 163 137
163 162 133
156 157 135
153 152 128
160 160 130
152 150 111
163 163 133
151 150 114
148 149 111
142 143 109
152 151 117
143 143 92
151 150 109
150 149 103
153 150 111
152 151 105
158 158 125
152 152 111
145 145 105
149 148 96
144 141 88
158 158 115
154 153 103
158 156 106
161 159 108
158 155 108
160 158 112
147 144 77
161 161 116
160 157 96
157 155 100
162 160 110
160 157 105
152 150 84
172 172 132
161 158 99
157 155 104
158 155 99
159 159 109
165 163 106
160 158 101
164 161 104
166 165 121
164 161 105
161 159 110
157 155 97
159 158 115
162 160 107
164 162 109
164 163 108
160 157 94
163 162 103
171 169 120
166 164 115
163 159 93
164 162 108
161 160 111
169 166 112
162 159 99
170 168 117
170 170 119
165 161 97
159 155 90
169 168 116
162 157 94
161 157 104
165 164 122
170 168 120
162 158 95
171 169 121
172 169 108
170 169 123
172 170 118
170 167 110
170 167 107
173 173 127
167 163 101
172 170 120
177 175 130
173 171 124
174 174 130
170 168 117
173 172 130
172 170 117
175 174 133
174 170 106
167 163 98
167 165 112
180 180 146
177 176 128
178 176 131
177 175 125
172 170 110
175 174 131
176 175 124
182 181 139
169 166 107
179 177 132
177 176 131
180 177 131
179 178 130
174 173 125
175 174 127
175 173 128
177 176 131
179 178 132
183 183 145
176 174 127
186 187 154
174 170 117
181 181 140
181 182 144
186 187 158
182 181 137
175 198 0
171 195 0
175 198 0
171 195 0
172 195 0
173 196 0
172 195 0
174 196 0
171 195 0
173 196 0
169 192 0
170 193 0
173 196 0
172 196 0
170 193 0
172 195 0
174 197 0
172 195 0
170 193 0
172 195 0
170 193 0
170 192 0
171 193 0
168 191 0
167 190 0
173 196 0
170 194 0
170 194 0
172 194 0
169 192 0
171 193 0
171 194 0
169 192 0
169 191 0
170 192 0
172 194 0
169 192 0
170 194 0
172 194 0
170 193 0
167 190 0
169 192 0
172 194 0
169 192 0
171 193 0
167 189 0
167 190 0
170 193 0
166 188 0
168 191 0
166 188 0
171 193 0
168 190 0
168 190 0
168 189 0
171 193 0
172 192 0
171 192 0
175 195 0
168 189 0
172 193 0
171 192 0
171 192 0
171 192 0
171 191 0
172 193 0
172 193 0
170 190 0
163 184 0
177 197 0
166 186 0
164 184 0
172 192 0
167 188 0
167 186 0
166 186 0
167 187 0
163 183 0
171 191 0
165 185 0
164 184 0
157 178 0
165 185 0
160 180 0
168 189 0
165 187 0
163 185 0
161 183 0
156 177 0
154 175 0
159 182 0
160 181 0
158 179 0
161 183 0
165 186 0
154 174 0
148 169 0
153 174 0
155 176 0
161 181 0
158 180 0
163 184 0
156 176 0
148 168 0
152 171 0
156 177 0
154 174 0
152 173 0
145 164 0
148 168 0
161 181 0
156 176 0
149 171 0
153 173 0
145 165 0
146 165 0
135 155 0
151 172 0
146 166 0
153 173 0
142 162 0
147 167 0
155 175 0
163 183 0
164 185 0
166 186 0
158 179 0
156 177 0
163 184 0
152 173 0
161 181 0
158 179 0
151 172 0
156 177 0
160 181 0
155 175 0
161 182 0
151 172 0
147 169 0
150 171 0
154 174 0
145 166 0
151 173 0
154 176 0
155 177 0
153 175 0
145 166 0
147 168 0
150 171 0
141 162 0
142 164 0
155 177 0
149 170 0
144 164 0
140 160 0
143 165 0
133 154 0
149 170 0
129 149 0
147 167 0
129 148 0
126 146 0
133 154 0
129 149 0
131 151 0
128 147 0
127 147 0
134 154 0
107 127 0
137 156 0
122 141 0
127 146 0
120 139 31
70 93 54
45 72 57
48 77 78
47 75 51
49 79 86
50 80 65
50 80 72
52 82 74
47 76 76
51 81 78
51 82 78
47 75 67
51 81 88
51 81 78
49 79 82
46 75 62
50 80 78
50 79 72
50 80 84
51 82 80
52 82 92
51 81 84
53 85 88
52 83 90
52 82 97
49 79 84
52 82 74
51 81 80
54 85 92
50 80 74
53 84 88
49 78 74
52 83 84
52 82 86
50 80 84
52 82 86
48 78 67
50 79 72
53 84 82
50 80 81
52 82 94
48 76 70
50 80 78
51 80 80
47 74 65
47 75 72
47 75 74
49 77 82
46 73 68
48 76 80
46 73 72
46 72 63
46 74 48
71 91 72
101 116 18
106 118 0
104 119 0
108 122 0
113 128 0
116 131 0
114 130 0
108 122 0
113 127 0
117 134 0
117 132 0
121 135 0
123 138 0
131 148 0
124 138 0
131 146 0
130 144 0
123 136 0
129 143 0
132 148 0
135 149 0
127 141 0
140 153 0
129 143 0
141 156 0
141 154 0
135 148 0
132 145 0
135 148 0
127 139 0
138 150 0
136 148 0
131 143 0
130 143 0
136 148 0
131 146 0
131 141 0
137 148 0
145 155 0
142 154 0
140 150 0
144 153 0
135 146 0
142 153 0
149 158 0
146 158 0
139 146 0
144 155 0
144 156 0
156 165 81
173 178 156
176 178 163
175 178 167
170 172 156
154 156 133
162 164 149
155 156 135
150 151 122
149 150 131
159 161 143
150 149 114
168 171 153
157 154 120
157 156 122
154 154 125
161 160 130
157 158 130
160 162 135
149 147 99
168 168 138
148 147 108
159 160 128
154 153 120
159 159 120
161 161 133
154 152 109
155 155 114
148 145 88
153 152 99
157 156 111
162 162 128
161 160 123
165 166 133
156 155 103
164 164 125
162 161 114
149 145 82
169 168 125
155 152 100
161 160 114
148 145 78
162 161 117
157 157 112
154 152 95
152 150 93
151 146 77
167 166 128
165 161 108
164 163 109
151 149 79
162 161 115
159 157 108
155 153 101
158 155 98
167 164 115
159 157 97
162 162 112
164 160 106
161 157 90
161 159 100
155 152 84
158 153 93
171 169 125
157 153 95
165 161 97
165 163 105
166 164 109
155 151 87
165 162 102
167 164 110
166 163 109
160 157 93
169 167 114
172 170 121
172 170 122
170 167 111
164 159 98
171 166 113
168 164 109
164 161 106
172 170 120
171 168 111
170 168 115
169 167 109
170 167 110
171 169 116
169 168 120
174 172 126
178 178 134
167 166 114
173 172 118
172 171 120
181 178 136
166 163 101
174 172 122
173 171 119
177 176 132
177 176 134
177 176 132
176 174 127
180 179 138
181 181 142
173 171 126
179 178 132
182 181 144
176 174 120
185 185 151
175 173 127
178 178 139
182 180 139
179 177 132
181 181 145
183 182 145
180 180 140
181 182 141
183 184 150
174 172 125
185 186 151
183 180 135
180 179 136
181 179 142
182 182 147
182 183 148
174 197 0
174 197 0
173 196 0
174 196 0
172 195 0
173 196 0
172 195 0
173 195 0
174 196 0
173 196 0
173 196 0
174 196 0
175 198 0
171 194 0
169 193 0
169 192 0
173 195 0
174 196 0
174 197 0
171 194 0
170 193 0
170 192 0
173 196 0
171 193 0
169 191 0
168 190 0
170 193 0
173 196 0
171 193 0
170 193 0
171 193 0
166 190 0
169 192 0
167 190 0
175 197 0
169 192 0
170 192 0
170 193 0
171 194 0
168 191 0
168 191 0
167 189 0
172 194 0
172 194 0
168 191 0
168 190 0
168 190 0
165 187 0
173 196 0
167 189 0
170 192 0
167 189 0
170 192 0
165 188 0
171 193 0
174 196 0
167 189 0
165 187 0
173 194 0
167 188 0
164 186 0
165 186 0
169 190 0
173 194 0
167 188 0
169 191 0
172 193 0
167 187 0
166 187 0
168 189 0
166 187 0
172 192 0
170 190 0
166 186 0
169 189 0
160 181 0
167 188 0
160 181 0
162 183 0
166 187 0
165 186 0
161 182 0
169 189 0
166 187 0
163 185 0
157 179 0
167 188 0
162 185 0
160 181 0
162 183 0
159 180 0
157 179 0
156 178 0
164 184 0
152 173 0
161 182 0
157 178 0
157 178 0
155 175 0
157 178 0
150 171 0
156 177 0
158 178 0
149 170 0
150 170 0
150 170 0
153 174 0
161 182 0
154 173 0
151 172 0
154 174 0
157 176 0
145 165 0
145 164 0
154 173 0
156 175 0
151 171 0
146 165 0
141 161 0
147 167 0
151 171 0
154 175 0
154 174 0
166 186 0
157 176 0
155 176 0
164 184 0
161 181 0
156 176 0
163 183 0
161 181 0
158 178 0
160 181 0
150 171 0
161 182 0
162 182 0
151 172 0
165 186 0
145 166 0
156 177 0
150 172 0
154 175 0
146 167 0
147 168 0
153 173 0
147 168 0
145 165 0
150 171 0
145 166 0
141 162 0
143 163 0
151 172 0
143 163 0
143 164 0
150 171 0
133 154 0
133 152 0
146 167 0
134 154 0
141 161 0
144 165 0
123 143 0
138 159 0
133 152 0
126 145 0
121 140 0
113 132 0
119 139 0
124 142 0
133 152 0
117 136 0
125 143 0
116 135 0
133 152 0
89 107 31
55 78 44
46 74 67
49 78 76
53 83 82
48 77 54
47 75 57
48 78 76
49 79 70
52 83 76
49 79 72
50 80 62
50 80 74
49 78 82
49 78 67
49 78 72
52 82 82
48 78 62
50 80 86
52 83 86
50 79 78
53 84 84
50 79 84
49 78 74
51 81 86
49 79 76
49 79 74
48 77 65
53 83 84
47 75 57
49 78 88
51 80 95
49 78 82
49 78 80
51 81 92
51 81 88
50 80 74
52 81 87
50 79 74
50 79 80
49 77 70
48 77 74
49 77 70
49 78 78
49 77 72
45 71 68
47 74 78
48 76 72
45 71 65
45 70 60
52 75 51
93 108 31
102 116 0
107 120 0
111 123 0
104 120 0
118 133 0
112 126 0
108 122 0
115 128 0
118 133 0
117 132 0
115 129 0
107 123 0
117 131 0
125 142 0
132 147 0
117 132 0
119 132 0
125 141 0
130 145 0
124 140 0
129 143 0
125 140 0
136 150 0
138 151 0
130 143 0
135 148 0
129 141 0
129 141 0
142 156 0
130 142 0
141 156 0
134 147 0
141 151 0
131 146 0
134 144 0
128 140 0
134 146 0
142 153 0
137 149 0
136 146 0
143 153 0
136 146 0
138 150 0
141 151 0
143 152 0
140 151 0
143 153 0
143 152 0
139 149 0
142 151 0
141 149 0
139 148 26
151 156 111
172 173 159
177 180 166
165 166 151
162 161 139
171 172 152
162 161 136
162 162 142
159 160 133
167 166 140
161 162 142
167 166 135
155 155 130
155 155 128
145 146 125
159 160 133
157 158 135
164 167 144
143 143 114
160 159 122
156 156 125
160 159 122
156 156 120
163 163 125
160 157 114
165 166 135
161 160 117
165 166 133
157 154 111
164 163 125
156 153 105
156 155 117
158 158 117
155 154 114
148 145 99
158 157 115
159 157 109
157 155 109
157 155 102
158 155 106
157 154 102
160 155 97
158 155 99
152 148 93
152 149 89
159 156 103
161 159 106
167 166 125
162 159 103
159 157 100
155 153 106
171 169 123
164 163 115
164 164 120
152 149 77
164 162 106
160 158 108
163 160 108
162 159 103
162 161 109
163 160 101
163 160 97
161 160 101
166 165 112
159 155 87
158 154 96
168 167 113
169 166 110
164 160 97
169 165 101
174 172 125
161 159 98
167 164 109
168 166 111
167 166 117
175 173 126
172 172 125
170 167 117
169 165 109
168 165 116
169 166 120
173 170 123
174 172 123
175 173 121
171 168 116
169 167 118
171 170 117
170 167 108
169 166 107
174 174 138
178 175 131
177 176 134
177 173 119
173 171 124
173 172 122
171 168 112
176 173 118
173 171 122
174 172 122
176 176 130
178 177 133
169 167 116
177 176 135
180 178 133
177 176 133
184 184 148
180 179 132
177 176 130
181 181 142
181 181 140
181 182 148
178 177 133
183 184 141
177 176 127
182 182 146
181 182 149
180 178 140
187 187 159
183 181 137
176 175 126
181 180 136
181 180 135
172 195 0
170 195 0
174 197 0
176 199 0
174 196 0
174 197 0
173 197 0
172 196 0
173 196 0
171 195 0
174 196 0
172 195 0
171 194 0
170 193 0
172 196 0
170 192 0
172 194 0
173 195 0
172 195 0
175 197 0
171 194 0
172 194 0
172 194 0
173 194 0
169 191 0
174 196 0
171 193 0
170 193 0
173 197 0
172 195 0
174 197 0
173 196 0
172 195 0
173 195 0
163 186 0
171 194 0
173 196 0
172 195 0
166 188 0
169 191 0
172 194 0
167 191 0
166 188 0
173 195 0
168 192 0
171 194 0
169 193 0
168 190 0
170 192 0
165 188 0
169 191 0
169 192 0
168 190 0
168 190 0
166 189 0
164 188 0
174 197 0
168 190 0
169 191 0
169 191 0
170 192 0
166 189 0
164 186 0
168 189 0
166 188 0
162 184 0
167 189 0
163 185 0
169 192 0
165 187 0
165 187 0
165 187 0
168 190 0
161 182 0
161 183 0
158 179 0
160 182 0
161 182 0
164 185 0
163 185 0
163 184 0
160 182 0
165 187 0
157 179 0
156 178 0
160 181 0
167 189 0
164 185 0
162 182 0
160 180 0
159 181 0
157 178 0
157 178 0
157 178 0
164 184 0
160 181 0
155 176 0
158 179 0
151 172 0
156 177 0
152 172 0
156 177 0
145 166 0
152 172 0
154 175 0
154 175 0
156 176 0
155 176 0
153 172 0
149 169 0
154 173 0
151 172 0
149 168 0
152 171 0
146 166 0
152 172 0
151 170 0
159 179 0
155 174 0
156 174 0
155 175 0
160 180 0
160 180 0
158 179 0
157 177 0
155 175 0
159 178 0
160 179 0
157 177 0
152 172 0
164 184 0
151 171 0
159 179 0
157 176 0
152 172 0
147 167 0
151 171 0
153 173 0
152 173 0
152 172 0
153 174 0
145 166 0
146 167 0
139 160 0
143 164 0
146 167 0
140 161 0
149 170 0
142 163 0
141 161 0
144 166 0
134 155 0
142 162 0
137 156 0
139 160 0
142 162 0
136 157 0
136 157 0
134 154 0
138 158 0
129 149 0
129 148 0
129 148 0
133 152 0
116 135 0
137 157 0
121 141 0
127 147 0
108 125 0
120 138 0
115 134 0
114 131 0
109 126 0
105 122 0
118 137 0
114 130 0
90 109 31
45 72 62
48 77 67
44 71 44
46 74 70
49 79 65
47 75 67
46 75 65
48 77 72
48 77 67
49 78 72
49 79 82
47 76 76
48 77 72
52 82 82
47 76 72
49 79 74
49 78 72
49 78 80
49 79 84
50 80 90
48 77 72
51 81 88
48 77 72
51 80 78
52 82 76
50 80 70
48 78 74
51 81 70
51 81 92
50 79 82
51 82 74
48 76 72
49 78 88
49 78 75
49 79 72
47 75 79
50 79 80
46 74 74
46 73 82
50 78 92
47 74 57
47 74 70
47 74 57
45 71 65
43 69 54
50 73 60
76 93 41
90 102 0
93 105 0
98 110 0
98 111 0
112 127 0
106 122 0
109 124 0
111 127 0
121 134 0
115 127 0
115 129 0
107 122 0
123 138 0
112 125 0
105 119 0
111 122 0
121 133 0
112 128 0
125 140 0
130 144 0
127 140 0
132 147 0
124 138 0
122 135 0
137 153 0
128 142 0
125 136 0
131 146 0
131 146 0
124 137 0
127 139 0
136 148 0
138 151 0
134 147 0
134 147 0
126 139 0
126 135 0
134 147 0
128 140 0
134 147 0
139 151 0
138 147 0
131 140 0
140 149 0
140 150 0
133 140 0
135 142 0
143 151 0
136 145 0
143 152 0
142 150 0
136 141 0
143 150 0
143 151 0
134 143 0
154 158 99
173 175 154
179 181 172
172 173 156
176 178 170
166 166 149
166 167 154
160 161 140
166 169 147
166 168 155
166 167 144
164 165 149
170 170 151
161 162 137
156 156 128
155 153 122
164 165 140
157 156 130
150 149 117
171 173 149
159 158 128
157 155 122
162 161 130
160 159 114
152 151 108
148 147 95
155 154 111
157 156 117
155 155 114
161 159 117
152 151 105
148 145 92
149 148 105
151 149 102
153 151 105
161 160 115
155 152 103
156 155 109
158 156 99
159 156 105
161 160 122
156 152 80
159 156 109
166 165 125
160 159 106
156 154 103
156 154 96
160 158 106
163 162 121
168 168 118
161 159 104
167 165 113
164 164 115
160 158 102
165 163 109
158 156 99
166 165 118
168 166 114
167 165 110
164 162 108
166 164 118
172 171 130
158 154 93
169 169 116
164 161 108
171 169 117
165 164 109
166 165 122
167 164 106
171 168 124
165 163 109
164 159 91
163 160 95
172 171 120
173 171 126
174 172 129
171 170 121
172 172 123
170 168 115
174 172 122
170 168 118
173 172 126
174 172 124
168 166 113
172 168 116
170 169 117
172 171 124
175 174 124
183 184 148
176 175 128
177 175 131
171 168 115
180 177 129
175 176 139
173 173 125
177 175 128
172 170 117
172 170 124
175 174 128
174 172 129
177 174 124
188 189 158
183 183 148
176 174 123
179 179 141
179 180 145
183 182 147
177 176 130
178 176 134
180 180 137
190 192 166
177 176 136
176 175 135
177 176 134
173 172 123
181 182 146
185 187 156
184 185 150
186 185 149
184 185 151
183 183 146
172 195 0
174 198 0
174 196 0
172 195 0
174 197 0
172 196 0
174 196 0
172 195 0
172 196 0
173 196 0
172 195 0
170 193 0
173 196 0
173 195 0
171 195 0
171 195 0
172 196 0
175 197 0
173 195 0
172 194 0
175 197 0
172 195 0
169 192 0
168 191 0
171 194 0
173 196 0
169 192 0
171 195 0
173 195 0
170 192 0
172 196 0
173 196 0
172 195 0
166 189 0
174 196 0
170 193 0
173 195 0
170 193 0
167 191 0
170 192 0
170 192 0
170 193 0
170 192 0
169 190 0
173 195 0
171 193 0
165 188 0
166 188 0
167 189 0
168 189 0
169 192 0
170 191 0
171 194 0
171 193 0
168 190 0
168 190 0
167 189 0
167 189 0
167 189 0
168 189 0
166 188 0
167 189 0
170 192 0
169 192 0
168 190 0
164 186 0
164 186 0
166 188 0
167 189 0
161 184 0
167 190 0
165 187 0
162 183 0
163 185 0
163 185 0
161 183 0
164 185 0
169 190 0
164 186 0
170 191 0
160 182 0
161 182 0
156 178 0
161 183 0
165 185 0
158 180 0
167 188 0
158 178 0
164 185 0
160 181 0
161 183 0
162 182 0
163 184 0
158 179 0
159 179 0
153 175 0
157 177 0
159 180 0
158 179 0
157 178 0
158 179 0
151 172 0
149 170 0
154 174 0
154 174 0
148 169 0
162 183 0
149 170 0
142 162 0
149 168 0
154 175 0
156 175 0
152 172 0
144 164 0
159 179 0
154 173 0
154 174 0
151 171 0
152 173 0
162 181 0
161 180 0
153 174 0
162 183 0
164 184 0
161 182 0
157 177 0
155 175 0
165 184 0
153 173 0
151 171 0
152 173 0
149 168 0
154 175 0
155 176 0
148 168 0
146 165 0
157 178 0
153 173 0
149 170 0
150 169 0
143 163 0
155 175 0
151 171 0
149 169 0
148 170 0
143 164 0
150 170 0
148 168 0
145 166 0
138 159 0
144 164 0
141 162 0
147 168 0
141 162 0
139 160 0
148 169 0
132 152 0
125 146 0
137 156 0
133 154 0
134 154 0
137 156 0
115 135 0
133 153 0
132 151 0
116 135 0
124 143 0
120 138 0
121 139 0
127 145 0
111 129 0
113 130 0
119 136 0
108 126 0
114 131 0
112 129 0
108 124 0
106 122 0
77 94 36
63 83 57
46 73 60
46 73 67
45 72 40
44 72 60
46 74 62
48 76 78
46 74 65
47 76 51
51 81 82
49 80 65
43 69 47
46 74 72
46 75 57
49 78 65
47 76 70
49 79 70
48 77 62
48 77 72
48 76 67
47 75 76
45 72 65
49 77 82
49 78 82
49 78 74
48 77 80
49 78 72
48 76 80
51 81 76
49 77 78
49 77 90
49 78 68
45 73 51
48 76 72
44 71 65
46 74 70
47 74 62
45 71 70
43 69 54
46 73 60
47 74 68
47 70 48
76 90 47
87 99 0
93 104 0
78 90 0
103 116 0
94 106 0
90 104 0
99 111 0
106 118 0
118 132 0
110 124 0
104 117 0
112 125 0
99 112 0
119 134 0
121 135 0
125 140 0
122 137 0
117 130 0
128 143 0
118 135 0
123 139 0
116 128 0
123 137 0
129 144 0
120 135 0
123 136 0
130 145 0
123 135 0
133 145 0
124 137 0
132 148 0
115 129 0
135 146 0
143 158 0
132 145 0
134 147 0
130 142 0
131 144 0
131 144 0
131 147 0
130 141 0
131 140 0
143 156 0
136 148 0
139 149 0
139 148 0
137 146 0
137 145 0
134 144 0
133 141 0
137 142 0
141 146 0
135 144 0
139 149 0
140 148 0
142 151 0
134 140 0
144 149 0
139 143 25
148 149 114
192 197 192
174 176 164
175 176 158
180 182 167
160 161 142
162 163 145
169 169 151
156 155 130
163 162 137
158 158 135
152 149 111
165 164 128
166 164 133
157 157 133
162 164 142
160 160 128
154 152 120
170 171 151
163 162 130
160 160 130
157 156 128
153 153 125
157 157 128
162 162 125
141 137 80
173 173 142
158 158 117
160 158 111
163 162 125
158 156 114
153 150 105
164 163 120
155 154 111
149 148 95
158 157 111
161 158 102
158 157 114
163 159 108
151 149 93
161 159 106
155 153 99
158 155 109
148 144 88
153 149 80
159 157 115
151 150 97
157 152 87
162 161 113
162 158 102
157 153 94
159 157 110
168 167 125
161 158 93
170 169 123
165 163 119
161 160 109
160 157 101
166 163 106
167 164 113
165 163 113
163 161 107
168 166 116
164 162 103
177 178 142
163 162 106
168 166 113
165 162 107
164 161 107
168 165 112
164 161 100
170 168 110
165 163 108
169 167 131
169 168 120
163 160 106
172 171 125
168 165 109
169 165 110
168 167 120
174 173 131
174 170 114
179 179 139
168 166 112
176 177 139
175 173 128
175 174 134
181 181 142
176 176 130
171 169 122
172 171 123
172 170 120
174 173 129
177 175 122
176 174 131
184 183 146
182 181 140
179 179 142
180 180 142
179 178 141
174 173 133
174 174 127
181 180 138
187 186 155
179 179 144
182 181 142
176 174 134
182 181 142
182 179 139
186 185 151
183 184 149
187 189 159
189 190 163
183 183 145
185 186 157
185 185 152
183 184 153
184 185 153
185 185 153
176 198 0
174 197 0
173 196 0
174 198 0
171 194 0
171 195 0
173 196 0
173 197 0
172 194 0
173 196 0
170 193 0
174 197 0
172 196 0
172 195 0
174 197 0
173 195 0
170 193 0
171 193 0
173 195 0
170 194 0
171 193 0
172 195 0
175 198 0
173 196 0
171 193 0
171 193 0
171 193 0
175 197 0
174 196 0
172 195 0
171 193 0
172 194 0
173 196 0
171 193 0
172 195 0
175 197 0
173 195 0
172 194 0
170 192 0
170 191 0
172 194 0
165 187 0
171 194 0
164 187 0
170 193 0
172 194 0
166 190 0
170 192 0
169 192 0
168 191 0
170 192 0
169 191 0
173 195 0
171 193 0
165 187 0
166 188 0
167 189 0
166 189 0
168 191 0
168 190 0
165 187 0
168 190 0
167 188 0
167 189 0
164 186 0
164 184 0
168 189 0
173 194 0
168 189 0
165 187 0
164 185 0
164 185 0
161 183 0
160 180 0
166 187 0
157 178 0
169 190 0
167 188 0
161 182 0
160 181 0
165 186 0
157 177 0
160 182 0
159 180 0
155 176 0
163 184 0
159 180 0
162 183 0
161 182 0
161 183 0
159 180 0
163 184 0
153 175 0
152 173 0
162 183 0
160 181 0
163 184 0
157 176 0
156 175 0
161 180 0
156 176 0
144 165 0
151 171 0
155 175 0
155 174 0
154 173 0
153 173 0
153 173 0
154 174 0
153 173 0
153 172 0
150 170 0
153 173 0
159 178 0
157 177 0
151 170 0
164 184 0
155 174 0
156 176 0
156 176 0
155 175 0
156 176 0
154 174 0
165 186 0
151 170 0
148 168 0
152 171 0
152 172 0
160 179 0
152 171 0
142 162 0
153 172 0
154 174 0
151 171 0
151 171 0
150 170 0
151 170 0
153 174 0
145 166 0
145 166 0
147 167 0
141 162 0
153 173 0
138 158 0
154 174 0
145 166 0
139 159 0
133 154 0
141 162 0
144 163 0
143 163 0
133 154 0
142 163 0
135 155 0
147 168 0
129 149 0
126 147 0
142 162 0
143 163 0
129 150 0
121 140 0
129 148 0
140 160 0
118 138 0
125 144 0
128 147 0
123 142 0
117 134 0
124 143 0
119 137 0
119 136 0
110 128 0
111 129 0
115 131 0
101 117 0
106 122 0
101 116 0
99 113 0
93 108 0
83 98 0
84 101 18
47 69 47
52 77 67
47 75 70
46 73 62
47 76 67
45 72 65
48 76 80
44 72 47
49 78 78
49 79 74
48 76 57
47 75 51
47 75 70
48 76 72
47 75 76
44 72 57
46 73 67
47 75 65
46 74 70
46 73 70
46 74 70
50 79 76
47 75 80
47 75 51
49 78 70
48 76 78
45 73 62
46 74 65
48 76 78
49 78 78
48 76 72
47 75 62
47 75 70
45 72 60
48 75 68
42 67 54
42 66 67
57 76 47
62 75 25
90 102 0
96 106 0
95 107 0
93 105 0
76 86 0
82 93 0
93 107 0
101 113 0
106 120 0
102 116 0
106 120 0
114 127 0
96 109 0
106 120 0
119 133 0
119 135 0
111 124 0
108 122 0
116 127 0
118 132 0
118 134 0
115 128 0
121 136 0
118 133 0
114 126 0
133 147 0
125 139 0
127 141 0
130 145 0
137 151 0
130 143 0
120 133 0
129 144 0
116 127 0
126 140 0
116 129 0
124 135 0
131 143 0
131 145 0
128 139 0
137 149 0
132 142 0
130 138 0
126 135 0
131 143 0
132 141 0
131 140 0
134 143 0
129 136 0
133 144 0
136 145 0
137 146 0
133 142 0
133 141 0
132 138 0
135 142 0
133 141 0
132 136 0
136 143 0
134 141 0
132 132 0
137 142 0
139 143 51
172 176 137
172 174 160
183 185 172
164 165 147
176 178 168
178 180 167
167 167 145
157 155 125
169 169 144
170 171 151
165 165 137
160 158 135
160 158 135
155 154 128
162 162 137
158 157 128
168 168 144
154 153 125
150 147 99
159 156 120
164 163 128
153 152 114
156 157 128
151 150 108
160 159 120
162 158 114
166 165 125
161 161 122
156 155 111
166 165 128
153 151 105
155 153 105
161 161 122
157 156 108
161 160 117
159 157 108
152 148 92
159 159 117
162 160 113
158 154 100
163 161 112
162 161 114
160 158 100
156 152 100
161 159 112
162 160 106
158 156 99
166 165 123
156 153 102
168 167 123
167 165 112
166 165 124
169 168 121
172 170 133
157 154 86
160 159 109
159 156 106
169 167 119
163 160 104
168 168 123
165 163 112
169 167 113
167 166 117
171 170 121
161 158 106
176 175 134
164 162 109
173 171 129
171 171 123
171 169 123
172 169 116
168 166 116
165 162 107
171 168 121
167 166 112
167 166 116
174 173 132
177 177 132
165 163 109
182 183 147
176 174 129
177 177 138
172 169 124
176 174 129
171 170 115
172 171 126
182 183 152
178 178 139
176 175 133
174 173 123
172 170 118
172 172 122
173 170 116
179 178 132
180 180 143
175 172 124
180 180 135
177 175 129
177 176 135
175 175 137
175 173 120
178 178 138
185 186 151
182 181 146
175 176 132
177 176 130
184 184 153
177 178 136
181 180 147
180 179 142
182 182 144
182 182 150
181 182 146
193 196 170
182 182 146
182 181 141
183 184 147
171 195 0
171 195 0
173 197 0
172 195 0
171 194 0
173 196 0
173 195 0
169 192 0
172 195 0
170 193 0
174 196 0
173 197 0
172 195 0
169 191 0
173 196 0
171 194 0
170 194 0
172 195 0
174 196 0
168 191 0
170 192 0
175 197 0
169 193 0
173 196 0
173 195 0
172 194 0
169 191 0
171 195 0
170 192 0
171 194 0
173 196 0
169 191 0
170 193 0
166 189 0
172 194 0
176 198 0
176 197 0
171 193 0
170 192 0
169 192 0
172 194 0
171 193 0
171 194 0
171 194 0
171 193 0
172 193 0
167 189 0
169 191 0
166 188 0
169 191 0
172 195 0
169 192 0
169 191 0
168 189 0
168 191 0
174 195 0
165 187 0
168 189 0
168 190 0
168 191 0
160 183 0
168 190 0
168 190 0
168 189 0
167 188 0
167 188 0
164 185 0
169 191 0
167 189 0
164 185 0
166 188 0
158 180 0
170 191 0
165 185 0
163 185 0
168 189 0
160 181 0
166 187 0
160 180 0
158 180 0
164 185 0
164 186 0
163 185 0
160 181 0
165 187 0
167 188 0
159 180 0
160 182 0
160 181 0
161 181 0
157 178 0
158 179 0
160 182 0
161 182 0
161 182 0
163 183 0
154 175 0
153 173 0
160 180 0
159 179 0
161 182 0
157 177 0
158 179 0
148 168 0
163 183 0
156 176 0
152 171 0
153 173 0
157 177 0
161 180 0
153 172 0
158 178 0
161 181 0
148 168 0
147 166 0
164 183 0
155 174 0
160 179 0
160 179 0
163 181 0
162 182 0
151 170 0
159 178 0
153 172 0
158 179 0
153 173 0
147 167 0
153 173 0
152 172 0
150 170 0
150 170 0
154 174 0
153 175 0
144 164 0
143 164 0
158 179 0
154 175 0
153 173 0
141 162 0
149 169 0
144 165 0
150 170 0
145 165 0
143 163 0
144 164 0
143 164 0
140 160 0
148 168 0
134 155 0
137 157 0
132 152 0
144 164 0
140 160 0
132 152 0
140 161 0
132 153 0
136 155 0
135 155 0
127 148 0
127 147 0
131 151 0
131 150 0
106 125 0
120 139 0
123 143 0
127 145 0
128 146 0
124 143 0
113 131 0
109 127 0
119 137 0
111 129 0
102 118 0
107 125 0
105 120 0
110 127 0
108 124 0
95 110 0
92 106 0
90 107 0
84 97 0
81 95 0
69 82 0
71 86 44
63 82 47
48 73 51
42 68 51
44 70 62
43 69 60
41 67 60
50 80 67
44 71 51
45 72 57
48 77 80
46 73 65
46 74 74
46 74 65
41 67 47
45 72 62
44 70 54
47 76 72
46 74 72
43 70 62
48 76 76
48 76 67
47 74 62
48 76 77
45 72 62
45 72 74
47 75 76
44 70 57
44 70 67
40 64 44
42 66 47
45 67 51
53 72 51
59 73 18
77 87 0
66 74 0
82 94 0
85 94 0
80 92 0
88 98 0
92 102 0
95 107 0
89 101 0
105 118 0
91 104 0
95 109 0
99 110 0
102 115 0
118 131 0
101 114 0
115 128 0
118 130 0
120 135 0
102 116 0
111 126 0
107 119 0
107 123 0
115 129 0
116 130 0
114 128 0
121 135 0
122 137 0
114 129 0
131 142 0
123 136 0
123 137 0
118 134 0
117 131 0
116 129 0
129 145 0
127 137 0
135 150 0
121 133 0
137 151 0
131 145 0
122 132 0
128 141 0
141 155 0
126 136 0
139 152 0
132 146 0
132 144 0
135 145 0
129 139 0
136 148 0
136 147 0
124 134 0
133 142 0
132 141 0
136 146 0
137 144 0
134 144 0
131 138 0
133 140 0
129 134 0
123 130 0
129 138 0
135 141 0
143 148 0
134 138 0
124 126 0
141 142 80
167 170 154
183 184 169
178 179 167
167 169 151
170 170 147
166 169 155
180 181 165
167 168 145
167 167 147
161 160 140
148 145 111
172 173 155
161 161 133
162 162 142
160 160 133
168 169 149
160 159 128
166 166 144
155 155 125
156 154 125
164 163 133
156 156 122
155 153 120
162 163 133
157 154 105
150 146 95
158 155 114
166 164 122
154 151 108
155 154 114
162 162 128
160 159 117
164 162 118
165 164 125
168 165 125
159 158 109
158 156 111
152 149 95
151 148 93
167 165 128
165 163 113
163 163 120
148 145 89
164 161 120
156 152 105
166 165 118
163 162 115
163 159 112
159 157 103
165 164 115
169 169 126
167 166 116
169 167 123
165 164 116
159 158 109
168 168 129
165 161 115
168 167 116
163 161 108
166 165 116
165 161 109
167 164 117
169 169 126
173 171 132
163 161 117
164 161 106
173 173 132
183 184 152
168 166 119
173 172 127
174 174 135
175 172 127
176 176 139
169 167 123
165 162 110
171 171 126
176 175 135
175 174 135
167 168 126
182 182 150
173 172 126
178 177 132
182 181 142
178 176 137
185 186 154
178 176 132
177 176 131
180 179 136
173 171 123
175 173 129
179 177 134
176 174 135
176 173 133
170 168 116
178 176 133
179 179 135
174 172 127
183 183 148
180 180 142
174 171 118
181 180 141
182 183 152
182 182 147
179 179 141
176 177 130
180 180 141
183 181 143
183 183 151
186 187 159
196 198 174
185 185 146
190 193 168
181 180 142
184 184 151
190 190 164
173 195 0
173 196 0
172 194 0
171 194 0
174 197 0
172 195 0
173 196 0
171 194 0
173 196 0
174 196 0
171 193 0
173 196 0
172 195 0
173 197 0
173 195 0
173 196 0
172 195 0
169 192 0
170 192 0
170 194 0
172 195 0
171 194 0
171 195 0
167 190 0
171 193 0
172 194 0
172 195 0
172 195 0
174 196 0
169 192 0
171 193 0
168 192 0
172 194 0
170 194 0
173 195 0
172 194 0
168 191 0
171 192 0
172 195 0
171 193 0
172 194 0
168 191 0
171 193 0
167 189 0
171 193 0
170 191 0
172 195 0
170 192 0
172 194 0
171 192 0
170 192 0
170 192 0
167 190 0
173 194 0
168 190 0
169 190 0
169 191 0
169 190 0
169 190 0
170 192 0
168 189 0
163 184 0
167 189 0
170 191 0
168 191 0
167 188 0
163 184 0
169 190 0
165 187 0
170 192 0
166 188 0
166 188 0
166 187 0
170 191 0
163 184 0
162 183 0
163 184 0
162 183 0
163 183 0
168 188 0
169 189 0
171 192 0
171 192 0
160 181 0
160 183 0
161 182 0
164 185 0
165 187 0
164 185 0
162 182 0
156 176 0
161 181 0
162 183 0
161 181 0
162 182 0
160 179 0
158 177 0
163 182 0
158 178 0
161 181 0
160 180 0
162 181 0
159 179 0
157 176 0
154 174 0
150 169 0
156 176 0
154 174 0
142 162 0
149 169 0
151 172 0
145 164 0
154 173 0
157 177 0
161 180 0
157 176 0
158 179 0
159 178 0
151 171 0
146 166 0
159 179 0
160 179 0
159 179 0
157 177 0
157 177 0
163 182 0
146 166 0
149 169 0
141 161 0
148 168 0
163 183 0
152 172 0
149 170 0
148 169 0
144 163 0
155 175 0
149 169 0
149 169 0
148 169 0
144 164 0
145 166 0
144 164 0
146 166 0
144 164 0
147 168 0
145 165 0
152 172 0
136 157 0
138 159 0
139 158 0
133 152 0
140 160 0
134 154 0
132 152 0
141 161 0
136 156 0
122 141 0
133 153 0
128 148 0
137 157 0
123 143 0
144 164 0
132 152 0
121 141 0
130 149 0
119 138 0
126 145 0
115 133 0
115 134 0
113 131 0
122 139 0
102 119 0
108 125 0
116 132 0
110 127 0
99 115 0
100 115 0
102 117 0
94 110 0
77 90 0
72 87 0
81 93 0
82 97 0
84 97 0
77 90 0
72 83 0
64 77 0
58 74 40
42 60 40
46 71 51
43 69 44
40 65 44
45 72 57
45 71 60
43 70 57
47 75 54
42 69 65
45 72 57
47 74 62
44 71 60
44 71 60
41 67 47
43 69 51
44 70 70
44 70 72
40 65 36
44 71 60
45 71 76
43 70 54
37 60 57
48 72 65
51 70 44
51 65 31
66 77 40
71 83 18
82 92 0
68 78 0
73 83 0
70 79 0
85 96 0
81 93 0
80 91 0
85 96 0
91 102 0
97 108 0
95 107 0
93 107 0
100 112 0
108 121 0
94 107 0
110 123 0
96 108 0
111 123 0
107 120 0
98 109 0
96 107 0
102 114 0
115 129 0
107 121 0
117 130 0
120 133 0
121 135 0
117 131 0
121 135 0
122 135 0
115 127 0
135 152 0
116 131 0
120 132 0
122 136 0
127 139 0
111 123 0
123 138 0
121 136 0
115 127 0
128 143 0
126 139 0
130 142 0
117 128 0
119 129 0
132 145 0
131 143 0
138 152 0
130 142 0
123 133 0
133 141 0
135 148 0
124 133 0
137 146 0
139 150 0
126 134 0
127 136 0
127 136 0
122 130 0
126 133 0
132 138 0
124 129 0
135 139 0
129 132 0
129 134 0
128 131 0
131 137 0
135 141 0
122 121 0
129 133 0
133 135 36
164 167 128
172 175 164
186 188 181
175 177 165
164 164 144
172 172 153
172 173 155
153 153 128
155 154 133
163 161 133
173 174 147
164 161 130
163 162 135
172 171 149
168 167 142
162 161 125
173 173 151
165 164 133
159 157 125
164 161 128
158 157 122
167 165 137
161 161 130
155 153 117
162 159 128
160 157 111
173 173 144
164 163 133
167 168 140
160 156 114
154 152 108
163 161 123
162 161 122
155 152 106
158 155 111
156 153 108
156 152 99
160 158 111
170 169 135
174 173 137
162 160 114
160 156 110
166 166 130
169 169 131
166 163 109
163 161 115
166 163 126
171 171 131
171 170 130
167 167 122
165 162 113
177 177 142
164 163 117
161 159 113
165 162 113
172 171 136
170 168 117
169 167 120
170 168 123
173 172 137
163 161 106
175 175 136
173 172 126
167 166 116
163 160 110
171 167 117
169 167 113
168 166 114
176 176 132
160 160 107
167 165 120
166 163 112
173 172 130
176 175 135
173 171 125
171 168 109
182 182 146
174 172 125
171 169 124
172 169 115
180 180 137
170 167 116
179 178 142
174 173 130
176 174 129
178 176 131
181 181 143
176 175 137
176 176 134
177 176 130
185 186 153
175 174 138
189 191 165
186 189 162
181 180 144
181 181 147
182 183 154
175 173 128
178 177 133
186 187 152
182 183 147
185 187 155
176 175 132
176 174 132
188 189 159
186 187 159
182 182 145
190 191 166
186 186 160
183 183 148
188 190 162
182 182 149
181 181 142
185 185 155
173 196 0
175 197 0
172 195 0
170 194 0
174 197 0
175 198 0
174 197 0
171 194 0
168 191 0
175 197 0
174 196 0
173 196 0
172 195 0
175 198 0
174 197 0
171 194 0
172 194 0
174 197 0
175 197 0
172 195 0
169 192 0
172 195 0
170 193 0
173 196 0
173 196 0
169 192 0
171 193 0
175 197 0
169 191 0
172 194 0
173 195 0
171 193 0
170 192 0
172 193 0
171 193 0
173 195 0
170 193 0
172 194 0
171 193 0
171 193 0
170 192 0
170 191 0
169 191 0
173 194 0
165 187 0
170 191 0
168 190 0
169 192 0
170 193 0
173 195 0
171 193 0
165 187 0
168 189 0
172 194 0
167 188 0
168 189 0
162 184 0
168 191 0
170 191 0
172 194 0
169 190 0
168 188 0
164 184 0
170 191 0
167 188 0
167 189 0
164 186 0
164 185 0
162 184 0
170 191 0
172 193 0
168 188 0
173 194 0
161 182 0
168 189 0
166 187 0
161 182 0
165 186 0
158 180 0
165 185 0
163 183 0
168 189 0
166 186 0
154 175 0
164 184 0
165 186 0
165 186 0
158 179 0
157 178 0
165 185 0
167 186 0
165 185 0
158 179 0
161 181 0
158 179 0
154 173 0
160 179 0
164 185 0
155 175 0
157 176 0
156 176 0
152 171 0
159 179 0
147 167 0
154 173 0
152 172 0
157 176 0
154 172 0
152 172 0
149 168 0
161 181 0
159 178 0
157 176 0
155 175 0
160 179 0
157 176 0
152 171 0
157 177 0
159 178 0
157 176 0
154 173 0
143 162 0
158 177 0
149 169 0
151 170 0
156 176 0
148 167 0
151 170 0
151 170 0
146 166 0
143 162 0
144 164 0
146 166 0
159 178 0
151 171 0
146 166 0
156 176 0
141 162 0
153 173 0
148 168 0
147 167 0
146 166 0
141 162 0
147 168 0
136 156 0
137 157 0
149 170 0
146 166 0
141 161 0
146 165 0
146 165 0
138 158 0
128 148 0
139 158 0
130 150 0
135 155 0
124 144 0
140 160 0
116 136 0
125 144 0
127 146 0
132 151 0
122 142 0
118 137 0
126 144 0
129 147 0
124 142 0
121 140 0
115 132 0
107 125 0
110 128 0
105 123 0
106 124 0
100 115 0
110 127 0
111 127 0
89 106 0
99 114 0
97 112 0
97 112 0
76 90 0
91 104 0
87 101 0
87 101 0
84 95 0
71 82 0
73 84 0
70 82 0
57 68 0
49 58 0
70 82 0
52 66 25
39 55 36
43 62 60
37 60 54
49 69 60
45 67 67
40 65 57
36 58 44
42 67 70
39 63 44
41 66 51
42 67 67
38 61 44
45 65 47
45 62 31
39 59 47
34 50 40
47 58 18
84 94 25
70 78 0
67 78 0
61 69 0
68 78 0
70 80 0
83 94 0
82 94 0
76 87 0
90 102 0
61 73 0
78 89 0
76 88 0
86 96 0
87 98 0
91 105 0
90 102 0
96 110 0
108 119 0
108 121 0
104 115 0
103 116 0
106 120 0
102 116 0
107 121 0
104 117 0
107 119 0
102 114 0
108 123 0
106 121 0
108 123 0
129 144 0
112 126 0
111 127 0
123 137 0
124 140 0
115 128 0
124 139 0
121 135 0
119 133 0
128 141 0
131 147 0
125 140 0
130 142 0
121 132 0
124 139 0
127 141 0
131 145 0
139 152 0
126 139 0
126 138 0
133 147 0
117 127 0
120 129 0
127 138 0
128 141 0
135 144 0
123 133 0
130 138 0
121 133 0
128 140 0
122 131 0
131 141 0
135 143 0
133 142 0
126 134 0
133 141 0
131 138 0
136 142 0
126 129 0
138 143 0
124 128 0
137 143 0
134 140 0
136 140 0
130 135 0
127 129 0
133 134 0
130 128 28
146 147 109
172 172 155
184 186 170
171 171 161
173 174 159
163 163 147
172 174 159
160 158 130
166 168 147
160 159 135
154 153 122
155 154 125
165 165 142
168 169 142
153 153 130
158 158 133
166 164 135
163 164 133
165 163 130
174 175 157
164 163 135
162 161 122
163 162 140
157 155 120
169 168 137
168 167 128
165 164 133
170 169 137
159 157 120
152 150 114
166 165 130
166 165 137
169 169 135
166 166 135
156 154 105
165 161 115
163 163 117
170 170 133
172 170 133
169 169 135
159 156 114
168 166 123
165 164 123
168 168 131
168 167 121
176 176 139
175 176 142
161 157 112
170 170 134
169 167 131
168 168 120
174 174 141
166 165 116
166 164 124
171 168 121
174 174 137
164 162 112
171 170 129
161 159 110
168 168 127
172 171 131
173 172 125
169 167 127
168 165 119
170 169 127
170 168 125
177 178 140
170 167 120
169 167 122
172 170 128
160 154 91
170 167 118
167 165 113
169 168 126
174 172 132
178 177 138
169 165 116
173 171 125
176 174 133
169 167 125
171 170 128
177 176 134
181 181 147
183 184 148
180 180 144
174 174 137
182 182 145
176 173 130
177 177 141
179 177 134
172 169 122
182 183 147
180 180 141
181 180 143
179 178 140
182 182 150
185 185 151
181 181 142
177 177 136
180 180 135
175 174 130
180 179 141
189 190 163
173 171 130
185 185 158
182 181 141
179 178 138
187 189 163
193 195 170
184 185 152
185 185 153
178 178 138
173 196 0
171 195 0
174 197 0
173 196 0
174 197 0
174 197 0
174 196 0
175 196 0
171 195 0
173 196 0
172 194 0
172 195 0
175 197 0
171 194 0
172 194 0
174 196 0
171 194 0
173 196 0
173 195 0
169 192 0
173 195 0
172 194 0
174 196 0
174 196 0
171 194 0
170 193 0
173 194 0
171 193 0
173 195 0
174 196 0
174 196 0
171 194 0
173 194 0
170 193 0
170 193 0
170 192 0
171 193 0
172 194 0
170 192 0
167 188 0
171 193 0
165 187 0
166 188 0
170 191 0
171 193 0
170 192 0
172 195 0
173 194 0
170 192 0
174 195 0
172 193 0
169 190 0
169 191 0
169 191 0
167 188 0
167 189 0
173 194 0
167 188 0
169 190 0
166 188 0
172 194 0
169 191 0
168 188 0
164 185 0
168 189 0
163 184 0
167 188 0
166 187 0
167 188 0
166 187 0
164 185 0
166 187 0
164 185 0
167 187 0
167 188 0
167 188 0
164 185 0
161 182 0
168 189 0
169 189 0
168 189 0
156 177 0
167 187 0
166 186 0
151 172 0
158 179 0
160 181 0
161 182 0
165 185 0
161 181 0
158 177 0
165 185 0
162 183 0
166 186 0
166 185 0
157 176 0
160 179 0
161 180 0
160 179 0
159 179 0
154 175 0
160 179 0
155 174 0
155 175 0
157 176 0
153 172 0
152 170 0
156 175 0
157 175 0
155 174 0
157 176 0
148 167 0
158 178 0
150 170 0
153 173 0
153 173 0
146 166 0
144 163 0
154 173 0
153 172 0
153 173 0
154 174 0
153 173 0
156 176 0
144 163 0
150 170 0
147 167 0
151 171 0
146 166 0
146 166 0
147 167 0
147 167 0
147 167 0
147 167 0
147 167 0
149 168 0
155 176 0
148 168 0
143 162 0
146 167 0
140 161 0
148 168 0
146 165 0
154 174 0
128 149 0
140 161 0
146 166 0
133 153 0
125 145 0
134 154 0
139 160 0
140 160 0
144 164 0
121 140 0
138 159 0
137 157 0
144 164 0
133 153 0
130 149 0
121 141 0
126 145 0
122 141 0
123 143 0
127 146 0
140 159 0
122 140 0
123 142 0
118 136 0
106 124 0
108 126 0
117 133 0
115 132 0
112 130 0
114 132 0
112 129 0
101 116 0
109 125 0
101 117 0
102 117 0
79 94 0
95 110 0
86 101 0
86 100 0
88 102 0
82 96 0
90 103 0
58 69 0
69 82 0
75 86 0
75 87 0
59 72 0
74 85 0
69 80 0
67 76 0
60 69 0
62 72 0
50 58 0
57 65 0
64 72 0
36 44 18
48 56 0
60 68 0
57 66 0
62 69 0
63 71 0
61 69 0
47 56 0
63 73 0
70 78 0
70 79 0
48 58 0
59 69 0
80 89 0
67 77 0
77 89 0
63 73 0
69 80 0
75 83 0
81 93 0
86 98 0
76 87 0
95 107 0
92 104 0
92 105 0
95 109 0
94 105 0
93 107 0
87 100 0
100 113 0
110 123 0
104 118 0
112 125 0
103 115 0
107 119 0
103 116 0
108 123 0
119 133 0
132 146 0
110 123 0
116 129 0
122 137 0
119 132 0
122 135 0
117 130 0
119 129 0
117 131 0
118 132 0
126 140 0
119 131 0
114 129 0
130 145 0
120 132 0
118 135 0
128 142 0
121 133 0
137 151 0
126 137 0
122 135 0
132 145 0
131 144 0
132 147 0
124 133 0
130 143 0
126 137 0
129 142 0
126 135 0
134 145 0
125 133 0
120 130 0
134 145 0
124 133 0
138 145 0
128 135 0
130 136 0
131 141 0
126 133 0
126 130 0
127 136 0
134 143 0
128 136 0
126 134 0
126 131 0
122 126 0
135 141 0
126 129 0
121 123 0
129 134 0
130 132 0
132 133 0
139 140 57
165 167 137
180 182 171
174 175 163
174 175 166
179 182 173
172 172 149
172 174 163
160 158 131
168 167 144
169 168 142
158 156 130
165 163 135
161 160 133
160 159 133
163 162 130
168 168 142
154 153 125
167 165 137
161 160 123
154 151 105
175 175 147
163 163 133
174 173 151
167 165 130
171 171 135
169 168 140
165 164 128
165 162 125
153 150 108
170 170 140
162 161 122
170 170 137
173 174 144
153 151 109
162 161 128
161 159 115
165 162 117
169 167 130
168 166 128
163 161 123
169 167 123
173 172 138
163 161 120
163 162 120
171 170 132
178 179 153
168 165 117
166 162 112
171 170 129
174 173 140
168 166 116
175 175 143
161 158 109
164 161 107
175 175 143
171 170 130
167 162 113
172 172 131
169 168 128
175 174 136
171 171 130
171 169 122
165 161 108
173 170 129
167 165 125
166 164 116
168 167 125
166 165 121
172 170 122
176 176 137
177 176 135
169 166 118
180 179 140
177 176 136
176 175 139
171 168 120
181 179 144
183 185 155
178 177 133
176 176 136
174 173 126
176 175 128
179 178 139
176 175 128
179 178 142
182 182 143
178 176 133
171 170 122
188 189 157
175 174 130
184 183 153
174 172 120
177 178 140
183 184 150
186 188 161
182 181 146
176 173 130
180 180 140
179 179 141
186 187 154
182 181 140
184 183 151
181 181 147
188 189 159
187 187 153
190 192 168
188 186 152
186 187 157
194 196 173
191 192 170
173 196 0
172 195 0
173 196 0
173 196 0
173 196 0
172 195 0
173 196 0
171 193 0
173 195 0
174 198 0
173 195 0
175 197 0
173 196 0
174 196 0
174 197 0
171 193 0
174 197 0
173 196 0
172 194 0
176 198 0
172 195 0
174 196 0
173 196 0
173 195 0
174 197 0
171 194 0
175 197 0
173 196 0
175 196 0
172 194 0
172 193 0
175 197 0
170 192 0
172 195 0
171 192 0
170 192 0
171 194 0
171 192 0
173 195 0
171 193 0
171 194 0
171 194 0
172 194 0
173 195 0
170 192 0
172 194 0
172 194 0
171 192 0
173 195 0
169 191 0
169 190 0
163 185 0
173 194 0
170 192 0
167 188 0
165 187 0
171 193 0
169 190 0
166 187 0
172 193 0
170 192 0
168 188 0
169 190 0
163 185 0
163 185 0
164 186 0
165 186 0
167 188 0
160 182 0
160 180 0
159 179 0
167 188 0
168 190 0
166 188 0
171 192 0
163 184 0
168 188 0
167 187 0
165 185 0
166 187 0
164 185 0
170 191 0
163 183 0
168 188 0
163 184 0
162 183 0
169 189 0
166 187 0
159 179 0
158 178 0
158 178 0
163 183 0
169 188 0
163 182 0
156 175 0
164 185 0
161 181 0
153 173 0
159 179 0
161 181 0
153 173 0
161 181 0
155 173 0
160 179 0
164 183 0
157 177 0
151 170 0
149 168 0
158 177 0
149 168 0
155 175 0
155 174 0
163 183 0
151 170 0
153 171 0
157 176 0
157 176 0
155 175 0
157 177 0
147 167 0
158 178 0
152 171 0
154 174 0
153 173 0
143 164 0
150 169 0
150 171 0
144 164 0
155 175 0
145 165 0
155 176 0
143 164 0
153 173 0
150 170 0
138 158 0
145 165 0
154 175 0
146 167 0
133 153 0
143 163 0
148 168 0
148 168 0
141 160 0
139 159 0
145 166 0
142 163 0
140 160 0
132 153 0
133 153 0
142 162 0
144 164 0
135 155 0
128 147 0
135 155 0
125 145 0
124 144 0
136 156 0
143 163 0
124 144 0
125 144 0
137 156 0
134 153 0
128 148 0
120 139 0
125 144 0
126 144 0
116 136 0
107 125 0
125 144 0
117 135 0
98 115 0
102 119 0
112 130 0
96 114 0
106 123 0
114 131 0
103 120 0
103 119 0
81 97 0
98 113 0
85 99 0
95 110 0
83 97 0
85 98 0
80 94 0
82 96 0
74 87 0
70 83 0
94 108 0
87 99 0
77 88 0
70 82 0
63 74 0
62 74 0
65 74 0
55 66 0
62 73 0
76 85 0
67 76 0
65 77 0
66 76 0
68 77 0
51 62 0
54 63 0
78 89 0
66 75 0
64 75 0
59 69 0
82 92 0
64 75 0
67 78 0
66 78 0
70 81 0
75 85 0
73 83 0
73 84 0
83 94 0
92 106 0
87 99 0
86 98 0
84 94 0
82 94 0
94 105 0
95 110 0
102 112 0
105 117 0
89 101 0
86 100 0
106 121 0
110 123 0
107 120 0
100 114 0
98 110 0
99 114 0
117 131 0
103 116 0
107 120 0
118 131 0
115 128 0
108 124 0
112 124 0
122 133 0
110 124 0
109 124 0
117 130 0
124 137 0
121 137 0
129 146 0
121 137 0
123 138 0
115 128 0
133 146 0
128 141 0
130 144 0
130 142 0
119 130 0
138 151 0
124 138 0
135 148 0
131 144 0
132 145 0
133 145 0
129 144 0
126 138 0
135 146 0
123 134 0
125 134 0
134 145 0
127 135 0
132 143 0
130 139 0
127 137 0
121 130 0
138 145 0
124 130 0
129 135 0
131 138 0
129 134 0
122 131 0
142 149 0
131 138 0
130 137 0
131 136 0
133 138 0
135 139 0
132 134 0
123 124 0
119 121 0
127 131 0
129 130 0
121 120 0
123 124 36
147 149 112
181 183 179
180 181 173
173 174 163
168 168 151
169 169 151
174 175 161
176 176 157
162 160 135
176 175 155
168 168 147
161 160 130
184 186 175
173 173 149
161 158 128
163 161 130
150 148 117
168 165 133
166 165 140
160 159 130
177 178 153
152 148 105
168 167 135
163 161 125
170 169 140
162 160 125
166 163 120
163 160 117
158 155 117
168 167 133
170 169 135
164 165 133
166 162 125
159 157 117
164 162 120
176 175 142
174 175 144
166 162 123
171 171 138
161 159 125
170 169 129
168 165 128
164 162 117
161 158 109
167 166 123
163 161 112
156 155 112
169 169 138
158 154 103
166 163 120
171 169 123
170 168 124
178 177 142
165 164 123
165 162 115
178 179 144
166 165 121
169 167 126
165 163 116
175 174 135
175 173 129
174 173 130
168 165 117
168 166 117
178 177 142
178 178 142
175 174 131
175 175 133
179 179 145
171 171 127
177 176 136
176 174 134
169 167 118
181 183 152
169 167 114
177 177 136
174 172 132
179 178 143
174 173 127
174 172 129
184 184 152
171 169 121
172 169 121
172 171 124
178 178 141
181 182 144
183 184 151
180 179 140
179 177 137
177 176 137
175 173 129
185 185 152
181 181 153
190 193 168
190 192 168
185 186 154
185 186 157
183 181 144
188 188 164
182 180 142
186 187 159
184 186 157
189 189 161
195 199 183
192 194 172
184 184 148
194 194 170
190 191 164
171 194 0
174 197 0
176 197 0
174 196 0
173 195 0
169 191 0
172 195 0
173 196 0
175 197 0
175 198 0
175 197 0
174 196 0
175 197 0
173 196 0
173 195 0
175 198 0
174 196 0
174 196 0
172 193 0
169 190 0
174 196 0
175 197 0
171 194 0
176 197 0
171 194 0
174 196 0
175 197 0
175 197 0
173 194 0
171 194 0
174 195 0
169 191 0
173 196 0
172 194 0
174 197 0
173 195 0
172 193 0
168 190 0
173 195 0
171 193 0
173 194 0
172 194 0
172 193 0
173 194 0
174 195 0
169 190 0
173 194 0
173 194 0
169 190 0
173 194 0
173 194 0
170 191 0
165 186 0
172 193 0
173 194 0
167 189 0
166 188 0
168 189 0
168 190 0
169 189 0
165 186 0
168 188 0
172 193 0
163 184 0
166 187 0
162 184 0
164 187 0
165 186 0
164 185 0
168 189 0
172 192 0
168 187 0
166 187 0
170 190 0
160 181 0
164 185 0
168 188 0
164 184 0
164 184 0
169 189 0
169 188 0
158 178 0
164 185 0
158 179 0
160 181 0
165 185 0
158 179 0
165 186 0
162 182 0
166 186 0
167 186 0
161 181 0
164 185 0
160 180 0
161 180 0
162 182 0
155 175 0
158 179 0
158 178 0
158 178 0
158 178 0
157 178 0
154 175 0
158 177 0
154 174 0
151 169 0
152 172 0
152 172 0
158 177 0
148 167 0
153 172 0
158 178 0
155 175 0
151 170 0
156 175 0
150 170 0
147 167 0
151 170 0
151 171 0
151 171 0
157 176 0
156 177 0
160 180 0
150 169 0
151 170 0
152 172 0
154 174 0
156 176 0
150 170 0
151 171 0
144 164 0
152 173 0
145 165 0
154 175 0
149 168 0
152 171 0
154 176 0
136 157 0
139 159 0
153 174 0
145 166 0
139 159 0
145 166 0
149 169 0
134 154 0
143 163 0
137 157 0
140 161 0
140 161 0
137 157 0
135 155 0
138 158 0
133 152 0
120 140 0
132 152 0
128 148 0
134 154 0
129 149 0
139 158 0
130 150 0
130 150 0
126 144 0
112 129 0
120 139 0
128 147 0
124 143 0
123 141 0
126 144 0
122 141 0
103 122 0
123 141 0
126 144 0
120 138 0
116 132 0
114 131 0
87 106 0
108 125 0
102 116 0
91 107 0
94 108 0
103 118 0
99 114 0
93 109 0
96 109 0
92 108 0
73 87 0
90 104 0
89 103 0
71 84 0
65 78 0
87 100 0
66 79 0
75 86 0
81 91 0
82 94 0
72 84 0
61 71 0
76 87 0
65 75 0
69 80 0
69 79 0
63 76 0
70 79 0
72 83 0
71 82 0
74 86 0
63 73 0
68 80 0
71 83 0
71 84 0
79 89 0
71 83 0
97 110 0
80 90 0
79 89 0
85 98 0
85 97 0
86 98 0
83 96 0
83 96 0
95 108 0
82 94 0
99 114 0
101 113 0
97 108 0
96 106 0
96 108 0
103 116 0
100 115 0
112 125 0
104 119 0
109 124 0
109 123 0
110 125 0
107 119 0
107 122 0
123 136 0
115 129 0
113 126 0
106 121 0
115 126 0
127 142 0
125 139 0
114 128 0
118 132 0
121 136 0
113 127 0
115 130 0
124 137 0
118 131 0
129 143 0
131 147 0
124 140 0
129 144 0
120 133 0
124 138 0
125 139 0
139 152 0
119 133 0
122 135 0
139 152 0
134 148 0
127 140 0
129 140 0
128 141 0
126 137 0
139 148 0
128 138 0
128 141 0
133 141 0
132 142 0
138 147 0
129 139 0
123 132 0
135 145 0
128 138 0
125 132 0
135 141 0
127 135 0
121 127 0
122 128 0
128 135 0
123 127 0
132 136 0
127 130 0
122 124 0
121 124 0
117 119 0
118 120 0
126 126 0
125 127 0
124 126 0
123 125 0
117 115 0
153 155 117
166 167 151
180 180 173
172 174 163
189 190 179
177 178 167
163 162 137
176 179 169
179 181 167
166 164 135
165 162 140
164 164 140
158 154 125
164 163 137
172 171 144
168 169 144
172 174 153
170 169 144
152 147 111
168 166 137
171 171 149
168 167 144
163 160 114
164 162 130
159 155 108
167 165 130
175 175 142
162 160 128
159 157 122
170 168 135
166 164 130
166 164 128
169 169 145
173 171 134
165 163 123
172 172 142
173 172 138
158 155 103
162 159 115
168 168 131
162 157 100
160 156 109
162 159 109
170 169 137
168 165 121
170 169 131
164 163 121
167 165 113
171 171 133
171 169 131
167 167 125
171 171 131
173 173 143
168 166 123
173 171 137
173 173 137
173 171 130
180 180 150
172 169 130
177 176 141
173 170 130
176 175 138
174 172 134
173 171 137
176 176 142
172 171 134
183 182 147
176 174 139
178 177 145
178 178 142
178 177 140
179 180 146
178 177 142
177 177 143
175 173 136
179 179 142
172 170 118
179 179 143
185 186 155
177 176 138
180 180 145
187 188 159
180 179 137
175 173 131
178 176 131
182 180 140
182 181 144
177 174 131
182 180 140
170 168 124
176 174 135
186 188 159
183 184 156
184 184 153
188 189 156
176 176 135
193 195 172
191 192 168
183 184 156
178 176 139
191 192 166
188 188 154
188 191 167
193 195 171
185 185 153
192 193 168
174 197 0
173 196 0
170 193 0
173 196 0
173 196 0
173 196 0
174 196 0
174 197 0
174 197 0
172 194 0
173 196 0
174 197 0
175 197 0
173 195 0
169 192 0
175 196 0
172 194 0
176 198 0
171 193 0
171 193 0
174 196 0
174 196 0
174 196 0
173 195 0
174 196 0
174 195 0
170 191 0
170 192 0
173 195 0
172 195 0
168 190 0
172 193 0
173 193 0
171 193 0
173 195 0
169 191 0
173 195 0
170 193 0
170 191 0
173 195 0
175 197 0
172 193 0
174 196 0
168 190 0
173 194 0
170 191 0
168 190 0
175 197 0
169 190 0
171 193 0
173 195 0
171 191 0
172 194 0
171 192 0
173 195 0
168 189 0
168 190 0
166 187 0
169 189 0
171 193 0
166 186 0
171 192 0
168 189 0
166 187 0
171 192 0
167 188 0
169 190 0
171 192 0
158 179 0
167 187 0
170 190 0
166 187 0
166 186 0
166 186 0
169 188 0
163 184 0
164 183 0
165 185 0
165 186 0
160 181 0
164 184 0
160 179 0
159 179 0
166 186 0
165 185 0
163 181 0
164 183 0
165 185 0
158 178 0
163 183 0
162 182 0
159 179 0
161 182 0
164 184 0
162 181 0
158 177 0
162 181 0
159 179 0
165 184 0
158 179 0
161 180 0
159 179 0
155 175 0
153 173 0
158 176 0
163 183 0
156 175 0
162 181 0
148 167 0
151 171 0
156 175 0
154 174 0
160 181 0
159 178 0
150 170 0
150 170 0
151 171 0
150 169 0
161 180 0
154 173 0
150 170 0
147 167 0
159 179 0
152 172 0
149 169 0
151 171 0
145 166 0
147 167 0
154 175 0
146 166 0
156 175 0
148 169 0
149 170 0
149 170 0
148 168 0
149 169 0
151 172 0
147 168 0
147 167 0
143 163 0
144 164 0
132 153 0
148 169 0
141 162 0
137 158 0
146 167 0
149 169 0
142 162 0
153 173 0
134 154 0
132 152 0
132 152 0
129 149 0
132 152 0
136 155 0
136 156 0
132 150 0
127 147 0
124 144 0
136 156 0
131 151 0
139 158 0
127 147 0
124 143 0
121 140 0
108 127 0
128 146 0
123 141 0
115 133 0
119 138 0
110 127 0
100 117 0
123 140 0
108 125 0
124 143 0
112 129 0
87 103 0
87 102 0
104 121 0
97 113 0
100 116 0
99 113 0
99 114 0
93 108 0
95 110 0
86 100 0
86 100 0
87 101 0
84 97 0
78 92 0
84 98 0
83 97 0
84 98 0
78 91 0
80 94 0
82 95 0
71 85 0
68 79 0
70 83 0
90 102 0
79 90 0
80 91 0
83 95 0
71 81 0
72 86 0
80 91 0
69 80 0
82 93 0
80 92 0
79 89 0
75 87 0
74 86 0
82 95 0
59 71 0
79 91 0
86 98 0
93 106 0
96 108 0
95 105 0
101 111 0
102 116 0
100 114 0
83 96 0
94 106 0
103 119 0
102 115 0
99 113 0
103 116 0
103 117 0
99 110 0
110 122 0
117 131 0
103 117 0
112 126 0
100 114 0
113 125 0
121 135 0
107 121 0
116 132 0
116 130 0
110 124 0
127 143 0
120 134 0
117 132 0
120 136 0
131 145 0
121 135 0
129 143 0
116 131 0
117 132 0
115 128 0
126 141 0
124 137 0
123 139 0
135 150 0
122 136 0
138 151 0
128 141 0
126 136 0
141 154 0
136 149 0
125 137 0
124 136 0
135 148 0
131 143 0
132 144 0
130 140 0
129 139 0
126 136 0
133 140 0
129 141 0
135 144 0
121 133 0
130 141 0
125 135 0
132 140 0
137 147 0
133 140 0
126 134 0
129 133 0
135 144 0
128 135 0
122 127 0
132 138 0
123 125 0
136 142 0
131 136 0
127 128 0
132 135 0
124 127 0
116 116 0
131 134 0
124 125 0
128 130 0
114 112 0
115 112 0
131 131 76
168 169 137
181 183 177
186 190 184
166 165 147
167 167 151
166 166 153
171 170 149
174 175 153
170 169 147
164 162 137
164 164 144
163 163 142
173 172 147
176 176 157
170 169 140
168 168 142
170 168 144
164 163 133
162 159 130
166 165 137
178 177 153
162 159 122
170 169 140
168 167 135
167 165 133
167 167 137
162 160 122
165 163 125
169 168 131
173 172 137
171 171 137
165 163 128
161 158 115
168 167 135
173 172 137
170 167 128
162 159 123
163 162 123
166 165 123
170 168 131
177 178 151
172 171 133
166 165 126
169 167 126
178 178 147
173 172 136
174 173 138
172 171 131
175 175 142
169 168 128
179 178 144
173 174 139
178 179 145
176 174 140
176 176 145
167 164 122
172 170 127
174 171 132
177 176 138
178 178 149
179 180 149
178 178 143
175 172 133
175 174 136
175 174 134
180 178 142
183 182 156
171 169 122
180 178 141
177 176 136
178 178 147
177 176 138
179 178 140
172 171 126
186 186 158
181 181 145
179 177 139
180 179 151
185 184 152
178 177 141
180 180 148
176 176 136
181 182 150
182 182 147
175 173 131
180 179 146
178 176 137
183 182 151
185 187 159
194 195 175
189 191 165
183 184 154
194 197 177
181 181 144
192 194 174
180 178 138
191 194 172
184 184 155
192 194 176
194 196 176
193 196 174
192 193 165
192 193 169
172 196 0
175 198 0
174 197 0
177 199 0
174 197 0
173 196 0
172 195 0
173 196 0
174 196 0
173 196 0
175 197 0
176 198 0
171 194 0
173 195 0
175 197 0
174 196 0
170 192 0
176 197 0
177 199 0
175 196 0
173 196 0
176 197 0
171 194 0
173 196 0
173 195 0
172 194 0
174 195 0
175 196 0
174 196 0
174 195 0
173 194 0
173 195 0
170 191 0
171 193 0
173 195 0
170 191 0
170 192 0
172 193 0
171 192 0
166 187 0
172 193 0
173 194 0
173 196 0
173 194 0
173 194 0
171 191 0
168 189 0
170 191 0
170 191 0
171 192 0
167 188 0
173 194 0
170 191 0
170 190 0
170 191 0
174 195 0
167 188 0
168 189 0
170 190 0
172 192 0
169 190 0
172 192 0
173 193 0
173 194 0
167 187 0
172 193 0
167 188 0
168 189 0
167 189 0
165 185 0
166 187 0
171 191 0
170 190 0
165 185 0
167 187 0
165 185 0
170 190 0
161 182 0
165 186 0
170 190 0
162 183 0
165 184 0
168 188 0
170 189 0
168 188 0
162 182 0
164 184 0
165 185 0
164 183 0
165 185 0
166 186 0
154 174 0
163 183 0
156 175 0
160 181 0
155 176 0
163 183 0
156 175 0
158 178 0
156 175 0
154 174 0
163 183 0
160 179 0
166 185 0
160 180 0
160 180 0
161 182 0
151 170 0
157 176 0
159 178 0
159 179 0
153 172 0
152 172 0
151 170 0
149 169 0
158 176 0
153 172 0
146 166 0
153 172 0
153 175 0
147 168 0
156 175 0
157 176 0
153 172 0
154 174 0
151 171 0
150 171 0
151 171 0
147 168 0
150 170 0
142 162 0
140 161 0
143 164 0
138 158 0
147 168 0
144 165 0
145 165 0
133 153 0
143 164 0
136 156 0
146 167 0
144 164 0
139 160 0
151 172 0
142 163 0
140 161 0
137 156 0
137 157 0
143 164 0
134 153 0
144 164 0
140 160 0
135 155 0
130 150 0
141 160 0
110 130 0
137 156 0
136 155 0
120 140 0
135 155 0
126 145 0
128 147 0
128 147 0
132 150 0
125 144 0
116 135 0
124 144 0
114 133 0
114 133 0
117 135 0
116 134 0
122 139 0
101 120 0
112 131 0
106 123 0
109 127 0
103 120 0
102 118 0
108 123 0
109 126 0
110 126 0
109 125 0
106 123 0
102 117 0
100 116 0
83 97 0
93 107 0
108 122 0
108 124 0
98 113 0
97 111 0
93 105 0
90 105 0
91 104 0
98 113 0
81 94 0
83 97 0
82 95 0
73 86 0
71 84 0
79 92 0
88 100 0
90 102 0
76 88 0
84 97 0
86 100 0
79 93 0
92 105 0
77 89 0
85 98 0
80 93 0
78 92 0
87 100 0
93 109 0
74 87 0
85 99 0
92 107 0
95 108 0
91 103 0
96 111 0
90 103 0
103 116 0
88 101 0
91 106 0
107 121 0
103 116 0
102 118 0
109 123 0
98 112 0
105 118 0
113 126 0
104 117 0
110 123 0
109 122 0
116 128 0
118 132 0
112 126 0
123 138 0
108 125 0
123 141 0
123 139 0
117 132 0
123 139 0
123 137 0
119 134 0
122 137 0
119 133 0
134 151 0
128 144 0
126 141 0
127 140 0
132 149 0
127 142 0
133 147 0
123 137 0
126 139 0
123 136 0
129 142 0
127 141 0
124 134 0
128 143 0
128 140 0
124 136 0
129 143 0
128 141 0
125 137 0
124 136 0
137 149 0
125 138 0
131 140 0
130 142 0
123 131 0
128 137 0
126 138 0
133 144 0
131 141 0
131 137 0
127 133 0
132 139 0
127 136 0
129 134 0
118 123 0
131 138 0
121 127 0
132 138 0
124 128 0
137 143 0
127 130 0
130 133 0
123 129 0
133 136 0
124 127 0
130 131 0
127 130 0
126 129 0
128 131 0
113 114 0
130 131 0
132 133 36
147 145 108
172 172 151
170 170 158
183 184 172
184 184 173
174 173 159
180 179 159
168 169 151
166 166 144
171 169 153
174 173 155
171 170 149
162 160 135
172 171 144
174 173 153
175 175 153
167 164 135
166 164 140
163 162 135
172 173 147
168 165 133
168 166 130
175 174 147
171 169 137
181 180 153
171 171 142
173 171 143
161 160 128
169 167 133
172 171 133
172 171 135
173 173 142
177 177 149
168 164 128
169 169 133
170 168 133
167 164 128
172 171 135
170 169 135
167 165 131
173 172 143
164 162 121
171 171 137
173 171 131
170 168 129
173 174 140
171 170 131
171 169 126
178 178 150
177 177 149
176 174 130
175 174 134
182 183 156
178 178 143
170 168 126
179 179 148
170 168 126
181 182 153
178 177 143
183 183 150
183 183 155
180 180 144
176 173 128
178 178 143
181 180 152
174 173 136
187 188 162
182 181 151
180 180 146
181 181 147
177 176 143
178 177 136
189 191 168
183 183 151
180 179 142
175 174 137
185 185 150
184 185 159
188 190 165
186 185 155
187 188 158
182 182 149
182 182 149
184 184 154
185 185 156
176 173 137
186 187 163
181 180 150
185 186 160
193 195 172
190 192 165
187 188 157
191 193 174
192 194 172
195 198 180
189 191 163
188 189 164
195 198 180
196 198 176
191 193 170
196 205 171
174 197 0
173 196 0
173 196 0
175 198 0
171 194 0
173 195 0
175 197 0
175 197 0
171 193 0
173 196 0
174 196 0
173 195 0
175 197 0
175 197 0
174 196 0
173 195 0
177 198 0
173 195 0
177 197 0
172 194 0
173 194 0
175 197 0
168 191 0
173 195 0
174 195 0
169 189 0
172 194 0
176 197 0
175 196 0
173 195 0
174 196 0
173 195 0
166 189 0
176 198 0
171 192 0
170 191 0
172 194 0
174 194 0
168 189 0
171 193 0
174 196 0
173 195 0
170 191 0
172 193 0
174 195 0
174 195 0
169 191 0
170 191 0
168 189 0
168 188 0
173 194 0
170 191 0
174 194 0
167 188 0
169 190 0
168 190 0
170 191 0
175 195 0
168 189 0
170 190 0
168 188 0
168 188 0
167 189 0
169 189 0
170 192 0
171 191 0
170 191 0
168 188 0
170 189 0
168 189 0
170 191 0
172 193 0
164 184 0
169 189 0
170 191 0
159 179 0
167 187 0
164 184 0
160 180 0
167 186 0
163 184 0
167 187 0
167 186 0
161 180 0
154 174 0
163 183 0
161 182 0
170 190 0
160 181 0
162 182 0
159 180 0
160 180 0
164 183 0
164 183 0
158 178 0
161 181 0
155 175 0
158 178 0
159 179 0
159 179 0
159 178 0
158 177 0
159 179 0
164 185 0
157 176 0
160 180 0
159 179 0
157 177 0
157 177 0
155 174 0
157 177 0
152 172 0
157 176 0
142 162 0
153 172 0
155 174 0
160 179 0
150 170 0
152 171 0
153 172 0
150 170 0
154 174 0
153 174 0
146 166 0
139 158 0
145 165 0
150 170 0
144 165 0
157 177 0
150 170 0
147 167 0
148 168 0
152 173 0
148 168 0
144 165 0
143 163 0
151 171 0
141 161 0
140 161 0
144 165 0
145 165 0
151 171 0
135 156 0
152 173 0
141 161 0
141 161 0
140 161 0
136 157 0
140 161 0
141 161 0
141 160 0
141 161 0
133 153 0
131 151 0
136 155 0
128 148 0
133 152 0
126 148 0
132 151 0
133 152 0
119 139 0
132 152 0
118 137 0
132 152 0
122 141 0
119 139 0
118 136 0
128 147 0
121 140 0
112 131 0
121 139 0
115 132 0
118 136 0
118 136 0
115 132 0
119 137 0
112 128 0
105 123 0
110 128 0
110 128 0
109 128 0
108 125 0
98 115 0
105 121 0
101 117 0
91 108 0
109 124 0
92 107 0
89 104 0
107 123 0
93 108 0
97 111 0
98 114 0
75 89 0
95 109 0
88 100 0
69 82 0
89 102 0
85 100 0
79 92 0
101 114 0
88 102 0
92 105 0
95 107 0
92 105 0
88 102 0
78 92 0
81 94 0
102 114 0
91 104 0
85 101 0
97 110 0
91 103 0
101 114 0
100 113 0
102 117 0
93 109 0
93 105 0
99 112 0
91 103 0
89 103 0
112 127 0
117 133 0
107 121 0
105 121 0
113 128 0
105 121 0
102 118 0
99 116 0
112 128 0
112 126 0
98 112 0
107 122 0
128 145 0
113 128 0
121 134 0
121 135 0
113 128 0
110 125 0
117 132 0
130 147 0
116 131 0
123 139 0
131 150 0
114 127 0
121 135 0
116 131 0
130 145 0
137 153 0
126 140 0
123 138 0
126 142 0
124 140 0
123 135 0
125 139 0
132 148 0
118 128 0
130 142 0
133 146 0
137 150 0
128 138 0
138 150 0
127 140 0
126 138 0
135 147 0
130 143 0
133 145 0
126 138 0
135 146 0
128 140 0
129 142 0
130 140 0
137 146 0
130 141 0
118 124 0
135 147 0
129 139 0
123 132 0
125 131 0
130 137 0
135 142 0
125 132 0
130 139 0
117 122 0
125 130 0
134 142 0
123 127 0
127 131 0
127 134 0
125 128 0
123 127 0
126 130 0
117 117 0
119 121 0
124 124 0
128 127 0
132 133 0
130 130 0
131 132 0
125 126 0
114 112 0
122 119 62
154 154 122
177 178 161
179 180 171
172 171 161
181 182 169
176 175 161
179 177 157
187 188 177
173 170 142
170 169 147
164 162 140
173 173 149
173 170 147
173 171 142
164 161 125
174 176 157
176 174 153
165 163 135
172 171 144
179 179 157
159 156 117
170 171 149
169 165 128
155 150 99
176 177 153
175 172 144
168 166 137
173 171 140
160 156 118
172 172 149
176 174 147
179 178 149
173 172 140
180 182 163
178 179 158
177 176 147
183 184 160
174 173 145
172 169 131
168 166 126
175 173 142
174 173 141
182 182 152
180 180 156
178 178 152
175 173 134
178 177 150
177 176 145
180 180 152
169 167 130
177 176 139
179 177 142
173 172 137
178 177 144
176 177 143
179 179 147
180 179 146
175 175 134
179 179 145
180 179 147
175 173 137
183 182 154
179 178 145
180 179 142
179 178 145
175 173 140
184 185 158
181 181 146
185 185 151
178 178 142
177 177 143
178 179 147
181 180 145
191 192 169
174 173 137
177 175 138
191 193 167
178 177 147
185 186 159
185 186 156
191 193 175
191 192 169
187 187 160
187 187 159
186 188 160
187 187 157
188 190 167
188 186 156
192 194 172
193 195 168
194 197 181
185 185 156
190 190 160
198 202 186
193 197 168
185 195 131
174 191 62
175 194 0
173 196 0
173 196 0
172 195 0
174 198 0
172 195 0
175 198 0
173 196 0
175 197 0
175 197 0
173 195 0
174 196 0
174 196 0
174 196 0
173 196 0
172 195 0
172 194 0
175 196 0
176 197 0
173 195 0
171 193 0
173 195 0
174 196 0
175 196 0
175 196 0
174 195 0
175 196 0
175 197 0
173 194 0
172 193 0
170 192 0
174 195 0
172 193 0
172 194 0
168 190 0
173 194 0
174 195 0
171 192 0
171 192 0
167 188 0
170 191 0
172 193 0
172 193 0
172 192 0
173 194 0
173 194 0
170 191 0
170 191 0
168 189 0
171 192 0
173 193 0
167 188 0
172 192 0
170 191 0
172 193 0
164 185 0
173 194 0
168 189 0
170 190 0
166 187 0
173 193 0
171 190 0
170 190 0
169 190 0
170 190 0
172 192 0
167 187 0
171 191 0
166 186 0
169 190 0
169 188 0
161 181 0
159 181 0
165 186 0
165 184 0
172 192 0
164 182 0
174 193 0
167 185 0
164 184 0
171 190 0
170 190 0
160 180 0
166 186 0
166 184 0
162 182 0
171 189 0
165 184 0
167 186 0
160 178 0
164 183 0
163 182 0
164 184 0
161 181 0
154 173 0
156 175 0
152 172 0
154 174 0
160 179 0
162 180 0
161 181 0
162 182 0
152 171 0
153 172 0
155 174 0
155 174 0
155 175 0
158 177 0
154 174 0
148 167 0
156 176 0
151 171 0
148 169 0
154 173 0
151 171 0
148 168 0
146 167 0
152 170 0
147 167 0
146 166 0
152 171 0
152 171 0
154 175 0
146 166 0
146 168 0
144 165 0
151 171 0
150 171 0
148 168 0
156 177 0
152 173 0
147 168 0
148 169 0
146 167 0
151 172 0
144 164 0
146 167 0
151 171 0
143 163 0
146 167 0
143 164 0
154 175 0
142 162 0
133 153 0
145 166 0
144 164 0
140 160 0
137 157 0
138 159 0
140 160 0
142 164 0
136 155 0
129 149 0
140 161 0
138 158 0
142 162 0
144 165 0
145 165 0
138 158 0
138 158 0
141 162 0
135 156 0
129 149 0
138 156 0
115 135 0
134 153 0
135 155 0
123 143 0
123 141 0
124 144 0
117 135 0
122 140 0
112 130 0
115 133 0
114 133 0
120 138 0
115 132 0
119 137 0
103 121 0
104 122 0
114 131 0
103 120 0
124 142 0
111 128 0
113 130 0
102 120 0
96 112 0
99 114 0
95 110 0
100 117 0
88 104 0
110 127 0
111 128 0
91 106 0
99 114 0
103 119 0
92 107 0
97 113 0
110 125 0
95 108 0
103 118 0
98 112 0
94 108 0
82 95 0
100 117 0
76 89 0
79 92 0
92 105 0
95 111 0
96 110 0
100 115 0
97 112 0
95 108 0
95 108 0
99 113 0
95 108 0
104 119 0
106 121 0
84 99 0
94 107 0
106 120 0
105 121 0
96 111 0
110 126 0
99 112 0
109 124 0
106 121 0
118 133 0
106 123 0
112 128 0
116 132 0
106 122 0
115 129 0
100 116 0
117 131 0
107 121 0
109 125 0
122 136 0
119 134 0
118 132 0
117 132 0
125 141 0
126 140 0
123 138 0
133 147 0
121 136 0
125 140 0
125 141 0
127 142 0
124 137 0
121 135 0
128 142 0
128 141 0
129 144 0
120 136 0
121 135 0
130 144 0
122 136 0
129 143 0
131 145 0
121 134 0
135 148 0
126 139 0
131 146 0
139 151 0
135 147 0
135 147 0
123 134 0
132 145 0
124 136 0
122 133 0
134 145 0
130 138 0
125 135 0
129 140 0
134 145 0
125 133 0
124 135 0
139 149 0
134 144 0
139 150 0
132 141 0
133 139 0
130 138 0
135 143 0
133 141 0
131 138 0
127 130 0
137 142 0
129 132 0
131 137 0
128 134 0
129 134 0
126 127 0
121 125 0
129 131 0
122 121 0
126 129 0
130 131 0
118 117 0
134 140 0
128 133 0
118 119 0
118 117 0
126 121 0
139 137 84
157 158 128
172 173 155
173 174 161
180 181 165
170 166 142
174 171 153
176 176 161
177 178 163
161 159 133
173 173 153
175 174 151
169 167 142
158 155 128
170 168 140
174 174 155
168 166 137
178 178 157
170 168 142
160 157 122
179 179 159
177 177 151
172 171 147
173 172 147
176 174 149
180 180 155
178 178 151
177 178 151
170 169 131
172 170 142
177 177 149
174 172 139
173 172 140
167 166 131
167 165 128
170 167 132
178 177 147
167 163 121
170 168 135
172 169 139
164 162 125
180 180 154
177 176 145
175 173 140
178 178 151
181 182 158
179 180 150
175 174 145
179 178 147
178 177 142
177 176 136
184 186 158
175 176 145
174 173 140
183 182 151
176 173 140
178 178 148
175 171 126
181 181 149
179 180 147
180 179 143
180 179 148
178 176 136
179 177 145
178 177 142
181 180 145
176 174 142
178 179 147
178 179 151
186 186 161
179 179 144
190 192 172
195 197 175
187 188 161
174 172 133
188 189 163
186 188 161
185 185 153
192 192 168
188 190 164
182 182 153
186 185 156
194 197 178
187 187 159
188 190 162
192 194 177
183 183 150
191 192 167
189 190 161
197 203 176
182 193 126
176 189 85
173 192 0
172 192 0
170 189 0
170 192 0
174 197 0
173 196 0
175 198 0
171 195 0
174 196 0
174 198 0
175 198 0
174 197 0
173 196 0
174 196 0
175 197 0
174 196 0
174 196 0
172 195 0
173 195 0
174 197 0
177 198 0
174 195 0
174 196 0
175 197 0
177 198 0
175 196 0
170 193 0
175 197 0
175 197 0
174 196 0
174 195 0
173 194 0
176 197 0
174 195 0
172 194 0
171 192 0
172 194 0
173 194 0
173 195 0
168 189 0
172 192 0
174 195 0
170 192 0
171 192 0
171 192 0
174 196 0
173 194 0
171 191 0
168 189 0
176 197 0
170 191 0
169 189 0
171 192 0
171 191 0
173 194 0
166 186 0
171 192 0
177 197 0
170 191 0
171 192 0
173 193 0
172 193 0
174 195 0
170 190 0
168 188 0
167 186 0
172 192 0
169 189 0
171 192 0
175 195 0
171 191 0
163 184 0
165 185 0
167 187 0
171 191 0
167 188 0
166 186 0
165 186 0
165 185 0
168 188 0
161 181 0
166 185 0
164 183 0
165 185 0
167 187 0
164 184 0
160 178 0
159 178 0
161 181 0
164 184 0
164 184 0
163 182 0
160 179 0
166 186 0
156 175 0
163 182 0
157 176 0
157 176 0
155 175 0
154 174 0
154 174 0
162 182 0
156 175 0
153 171 0
156 176 0
156 174 0
158 177 0
158 177 0
157 177 0
154 173 0
159 178 0
152 172 0
155 174 0
158 177 0
157 176 0
153 173 0
158 178 0
157 176 0
152 170 0
150 169 0
157 177 0
153 173 0
151 171 0
152 171 0
152 173 0
153 173 0
148 168 0
154 174 0
151 171 0
160 180 0
152 172 0
154 173 0
149 169 0
143 164 0
155 176 0
159 180 0
151 171 0
143 163 0
147 169 0
139 160 0
145 165 0
146 167 0
152 171 0
141 163 0
140 161 0
135 156 0
140 161 0
142 162 0
144 164 0
145 166 0
148 169 0
138 158 0
143 163 0
146 167 0
134 154 0
130 150 0
140 160 0
135 156 0
141 161 0
129 149 0
134 155 0
139 160 0
122 143 0
132 153 0
131 151 0
117 135 0
127 146 0
128 148 0
133 153 0
127 147 0
122 141 0
123 143 0
121 141 0
122 142 0
112 131 0
120 139 0
110 129 0
114 133 0
111 129 0
128 145 0
112 130 0
119 137 0
117 136 0
114 132 0
121 138 0
111 128 0
110 126 0
117 133 0
115 132 0
110 127 0
100 118 0
88 103 0
101 117 0
111 127 0
106 123 0
109 125 0
95 111 0
107 122 0
99 116 0
98 115 0
107 123 0
87 104 0
98 113 0
99 114 0
89 104 0
93 109 0
87 102 0
105 120 0
83 98 0
89 104 0
100 115 0
90 103 0
101 116 0
95 110 0
111 126 0
102 116 0
106 121 0
100 115 0
93 106 0
102 118 0
99 114 0
108 122 0
99 114 0
92 108 0
110 126 0
110 127 0
106 120 0
112 127 0
110 124 0
103 118 0
110 124 0
105 120 0
109 124 0
108 124 0
117 133 0
113 128 0
119 133 0
122 138 0
121 138 0
114 130 0
123 136 0
109 123 0
114 130 0
124 140 0
116 131 0
126 140 0
123 136 0
117 130 0
120 135 0
121 136 0
117 131 0
127 141 0
124 137 0
128 144 0
125 139 0
128 143 0
135 149 0
127 143 0
136 150 0
131 146 0
127 142 0
131 146 0
138 153 0
136 151 0
128 140 0
134 146 0
136 150 0
135 150 0
135 150 0
127 141 0
127 141 0
133 145 0
135 150 0
125 139 0
129 140 0
139 151 0
130 140 0
147 161 0
123 135 0
133 143 0
124 132 0
136 142 0
128 136 0
136 145 0
133 142 0
120 130 0
136 144 0
123 128 0
142 152 0
126 130 0
131 139 0
137 144 0
121 126 0
132 136 0
129 134 0
135 142 0
123 126 0
133 137 0
130 135 0
131 135 0
131 136 0
121 123 0
128 127 0
132 133 0
124 127 0
124 124 0
128 126 0
125 125 0
123 122 0
117 113 0
124 123 0
134 132 72
151 150 120
175 176 161
188 190 181
186 187 177
179 180 163
191 192 179
182 183 179
177 177 161
176 177 167
176 177 163
189 191 179
180 179 159
184 185 165
180 178 155
180 180 159
175 172 147
176 177 156
174 172 144
178 179 164
169 167 133
172 173 147
179 178 155
177 177 151
180 180 156
167 165 134
183 184 166
176 176 149
183 184 164
164 162 130
175 174 145
169 167 138
170 169 137
168 164 126
178 177 140
180 179 147
172 172 138
184 185 160
180 178 146
167 163 120
175 173 148
177 175 140
171 168 126
170 168 127
176 174 137
175 175 142
179 178 144
173 171 133
186 185 161
184 185 159
186 186 161
172 169 124
181 180 148
185 185 162
174 173 139
181 181 155
171 170 132
177 177 151
190 190 165
182 181 153
177 175 143
182 182 146
185 185 151
187 189 166
185 185 163
181 179 142
176 176 142
177 176 136
181 180 151
185 187 161
182 182 152
184 184 160
181 181 151
188 190 167
189 192 171
189 190 166
194 196 177
185 185 160
187 188 165
185 184 153
198 201 185
190 192 169
195 197 178
185 189 151
179 190 105
177 193 82
169 189 0
170 190 0
170 189 0
171 190 0
173 192 0
169 187 0
172 192 0
174 197 0
173 197 0
175 198 0
173 197 0
174 198 0
174 197 0
171 195 0
172 196 0
172 195 0
172 195 0
173 196 0
172 195 0
173 196 0
172 195 0
175 197 0
175 197 0
174 196 0
177 198 0
173 196 0
173 195 0
173 194 0
175 197 0
175 196 0
176 197 0
173 195 0
174 196 0
177 198 0
175 196 0
173 194 0
176 196 0
174 195 0
173 194 0
173 194 0
174 195 0
172 194 0
176 196 0
172 193 0
172 193 0
176 197 0
174 195 0
174 194 0
174 194 0
174 194 0
173 194 0
170 190 0
170 190 0
170 192 0
170 190 0
175 196 0
173 194 0
171 191 0
168 189 0
169 190 0
171 192 0
173 194 0
172 193 0
168 188 0
169 190 0
169 189 0
174 193 0
173 193 0
170 190 0
168 188 0
168 188 0
168 188 0
164 183 0
173 194 0
169 189 0
173 193 0
170 190 0
169 189 0
168 188 0
163 183 0
165 185 0
167 187 0
165 183 0
165 185 0
166 186 0
164 184 0
167 186 0
165 185 0
166 187 0
165 184 0
165 185 0
165 185 0
160 180 0
160 180 0
156 175 0
157 178 0
166 184 0
159 179 0
158 177 0
160 179 0
157 177 0
157 176 0
159 178 0
157 176 0
165 184 0
154 173 0
155 175 0
160 180 0
155 174 0
158 177 0
160 179 0
161 180 0
149 170 0
157 176 0
159 178 0
162 182 0
149 170 0
159 179 0
154 174 0
161 181 0
158 177 0
151 172 0
142 162 0
151 171 0
158 178 0
153 172 0
152 172 0
156 176 0
151 171 0
150 169 0
146 166 0
149 169 0
150 170 0
156 177 0
150 170 0
148 168 0
147 167 0
154 175 0
144 164 0
146 168 0
146 167 0
153 174 0
149 170 0
146 167 0
146 166 0
149 170 0
144 166 0
145 165 0
142 163 0
140 160 0
139 159 0
145 166 0
143 164 0
143 164 0
141 162 0
137 158 0
135 154 0
133 153 0
141 161 0
126 146 0
142 162 0
122 141 0
135 155 0
123 143 0
132 152 0
136 156 0
133 153 0
134 154 0
128 148 0
134 154 0
127 147 0
137 157 0
129 148 0
135 154 0
124 143 0
135 154 0
114 134 0
129 148 0
122 141 0
129 148 0
122 142 0
121 139 0
119 137 0
109 127 0
113 130 0
124 141 0
125 143 0
103 121 0
111 129 0
117 134 0
112 130 0
111 129 0
107 125 0
108 126 0
102 119 0
100 117 0
110 128 0
107 124 0
93 110 0
104 121 0
102 120 0
110 126 0
104 121 0
95 109 0
102 118 0
105 122 0
103 118 0
105 120 0
106 120 0
106 121 0
109 125 0
102 117 0
91 106 0
95 110 0
99 113 0
100 115 0
116 132 0
91 104 0
103 117 0
96 111 0
99 115 0
106 121 0
102 117 0
105 123 0
117 131 0
109 125 0
99 115 0
109 125 0
110 124 0
107 123 0
110 126 0
109 124 0
98 113 0
107 125 0
115 129 0
113 130 0
114 129 0
111 126 0
115 131 0
110 126 0
121 136 0
124 138 0
126 142 0
127 143 0
124 139 0
122 138 0
121 137 0
126 142 0
119 134 0
123 138 0
134 150 0
118 134 0
125 139 0
128 142 0
126 139 0
125 136 0
128 143 0
119 133 0
135 148 0
124 141 0
130 143 0
121 136 0
129 143 0
124 137 0
130 144 0
137 152 0
126 139 0
130 144 0
129 145 0
138 153 0
145 159 0
134 148 0
135 149 0
131 144 0
133 148 0
129 142 0
136 149 0
130 141 0
134 147 0
124 134 0
130 142 0
121 132 0
129 140 0
136 146 0
129 138 0
139 149 0
133 145 0
132 139 0
136 144 0
137 146 0
126 134 0
132 139 0
142 150 0
129 135 0
124 131 0
124 129 0
134 141 0
131 137 0
130 135 0
128 135 0
127 129 0
131 139 0
128 131 0
128 133 0
130 132 0
115 115 0
132 137 0
125 125 0
130 130 0
120 120 0
134 136 0
130 128 0
123 121 0
119 118 0
121 118 0
122 121 0
121 119 0
133 132 51
141 141 84
165 163 142
174 174 155
176 175 157
186 187 179
169 167 153
176 177 159
188 189 179
175 174 158
173 170 147
191 193 181
173 172 147
171 168 144
181 181 161
174 174 155
175 174 151
175 174 157
179 180 165
181 178 154
173 171 144
173 170 145
177 176 151
174 171 145
173 171 138
185 185 163
173 172 147
175 174 144
179 179 156
173 171 138
175 174 151
184 183 158
188 188 163
172 170 135
171 170 134
170 166 128
183 183 156
177 177 153
175 173 143
179 179 154
177 176 147
176 175 145
181 180 151
178 177 141
180 180 154
173 171 130
174 172 137
175 175 143
180 179 150
183 183 157
185 185 157
185 186 163
186 187 165
180 180 145
177 175 140
182 180 147
179 179 148
180 178 151
179 178 147
185 186 159
177 175 133
180 180 154
185 186 159
178 178 147
192 193 173
191 193 170
191 191 169
184 184 155
188 189 165
182 182 153
189 189 167
191 193 174
196 197 182
187 187 161
193 195 174
190 192 174
189 192 166
187 195 149
183 195 110
174 189 72
170 187 0
170 188 0
171 191 0
171 192 0
172 191 0
173 192 0
171 190 0
172 192 0
173 194 0
171 191 0
175 198 0
172 195 0
172 195 0
171 195 0
173 196 0
174 197 0
175 198 0
171 195 0
175 198 0
173 195 0
174 197 0
173 196 0
173 195 0
173 197 0
173 196 0
171 194 0
175 196 0
173 195 0
171 193 0
178 199 0
171 193 0
176 198 0
176 198 0
175 196 0
173 194 0
173 195 0
174 195 0
172 193 0
172 192 0
175 196 0
175 196 0
175 195 0
174 195 0
173 194 0
173 194 0
173 194 0
173 194 0
176 196 0
175 195 0
175 196 0
176 196 0
174 195 0
170 190 0
170 191 0
176 196 0
172 194 0
174 195 0
173 193 0
176 196 0
172 192 0
169 189 0
171 192 0
172 193 0
169 190 0
171 191 0
167 188 0
180 199 0
170 191 0
171 191 0
172 191 0
166 187 0
172 192 0
171 191 0
170 189 0
169 188 0
165 184 0
165 184 0
170 189 0
170 189 0
167 187 0
163 183 0
167 188 0
170 189 0
157 177 0
167 187 0
168 187 0
168 186 0
164 184 0
162 182 0
168 188 0
168 186 0
172 191 0
165 184 0
154 173 0
164 183 0
159 179 0
155 175 0
162 182 0
157 177 0
154 174 0
163 183 0
161 180 0
163 182 0
164 182 0
162 182 0
156 175 0
160 179 0
154 174 0
160 179 0
161 181 0
163 183 0
152 171 0
158 177 0
158 178 0
159 178 0
154 173 0
158 178 0
163 182 0
156 176 0
154 173 0
154 174 0
153 173 0
152 172 0
156 176 0
148 169 0
149 169 0
155 175 0
156 176 0
155 175 0
154 173 0
150 171 0
145 165 0
151 172 0
153 173 0
153 174 0
152 171 0
147 167 0
149 170 0
158 179 0
146 168 0
146 167 0
158 179 0
141 162 0
142 164 0
151 171 0
144 166 0
149 169 0
141 160 0
141 162 0
147 168 0
145 166 0
152 173 0
155 176 0
130 150 0
137 157 0
140 162 0
144 165 0
144 165 0
148 169 0
139 158 0
132 152 0
135 156 0
139 160 0
148 169 0
135 155 0
140 161 0
134 153 0
135 156 0
121 141 0
134 153 0
121 142 0
130 150 0
136 156 0
133 153 0
127 147 0
136 156 0
135 155 0
127 146 0
112 131 0
128 147 0
118 138 0
117 137 0
117 137 0
113 131 0
115 134 0
119 138 0
127 145 0
112 128 0
115 133 0
122 140 0
122 140 0
116 135 0
120 138 0
117 135 0
118 135 0
110 128 0
117 134 0
107 124 0
115 132 0
101 118 0
109 127 0
108 127 0
110 127 0
107 125 0
111 127 0
113 130 0
100 118 0
98 114 0
119 137 0
107 124 0
101 117 0
105 122 0
99 115 0
98 113 0
105 121 0
115 130 0
96 112 0
97 113 0
110 127 0
103 119 0
110 127 0
114 130 0
104 120 0
107 123 0
109 126 0
121 138 0
111 129 0
100 113 0
106 122 0
125 142 0
115 131 0
123 140 0
102 120 0
104 120 0
118 136 0
132 148 0
124 141 0
116 132 0
116 131 0
117 132 0
112 128 0
110 126 0
123 138 0
129 145 0
116 130 0
123 138 0
117 133 0
124 140 0
119 135 0
130 146 0
116 133 0
122 137 0
124 139 0
128 143 0
131 149 0
126 142 0
123 139 0
131 147 0
132 148 0
126 143 0
129 143 0
126 141 0
134 149 0
126 140 0
131 146 0
131 147 0
141 158 0
135 150 0
129 145 0
138 155 0
128 142 0
132 147 0
139 153 0
126 140 0
131 144 0
125 139 0
140 152 0
130 143 0
135 149 0
141 155 0
131 142 0
121 130 0
138 152 0
132 143 0
134 146 0
134 145 0
125 135 0
134 144 0
126 138 0
130 141 0
128 137 0
142 152 0
137 146 0
135 144 0
128 139 0
128 136 0
130 138 0
136 143 0
133 141 0
131 139 0
127 131 0
128 133 0
137 145 0
133 140 0
127 128 0
126 129 0
138 143 0
134 135 0
128 132 0
129 132 0
123 123 0
139 142 0
135 136 0
125 124 0
131 132 0
130 130 0
124 121 0
132 134 0
130 130 0
122 118 0
129 129 0
124 123 0
138 141 0
131 131 0
144 145 67
154 154 108
174 175 149
181 181 167
188 189 179
177 175 158
176 176 164
185 187 175
179 179 155
185 186 175
180 180 163
178 178 161
182 182 165
177 176 153
187 188 173
182 180 155
176 175 157
167 163 125
192 194 183
184 185 168
175 175 155
185 185 168
185 185 167
180 179 156
189 189 173
176 176 152
187 188 167
183 183 165
181 180 154
181 180 157
175 175 142
179 177 149
175 173 141
182 182 159
167 164 131
181 180 152
181 181 156
177 177 144
176 175 147
184 185 161
179 179 156
190 190 174
192 195 175
180 179 148
177 177 152
183 182 151
183 184 160
183 182 153
183 183 152
187 187 162
179 179 151
188 188 165
184 185 156
191 192 170
195 196 174
188 189 166
190 191 172
185 185 158
187 188 160
190 192 168
188 188 165
194 196 175
196 199 181
189 191 164
195 197 180
193 195 175
198 200 186
193 195 176
187 192 157
189 196 147
179 187 125
172 184 53
172 189 0
172 189 0
171 189 0
168 186 0
169 188 0
169 187 0
168 186 0
170 190 0
170 189 0
169 188 0
171 189 0
168 187 0
169 187 0
172 190 0
174 197 0
173 196 0
172 196 0
173 196 0
176 198 0
174 197 0
174 196 0
172 195 0
172 195 0
173 195 0
174 197 0
174 197 0
176 198 0
174 196 0
170 192 0
176 197 0
173 196 0
175 198 0
173 196 0
176 197 0
174 195 0
173 195 0
175 196 0
176 197 0
173 194 0
172 194 0
174 195 0
176 197 0
171 192 0
175 196 0
177 197 0
174 194 0
170 190 0
172 192 0
173 193 0
173 193 0
173 194 0
174 195 0
174 194 0
175 195 0
172 192 0
171 191 0
172 192 0
171 191 0
175 196 0
174 194 0
169 189 0
167 188 0
166 186 0
175 195 0
173 193 0
175 196 0
169 189 0
170 190 0
167 188 0
168 188 0
165 186 0
172 193 0
171 191 0
166 186 0
171 192 0
169 188 0
171 191 0
168 189 0
166 187 0
168 188 0
167 186 0
168 188 0
167 186 0
173 192 0
173 193 0
171 190 0
168 187 0
165 185 0
164 183 0
164 183 0
169 188 0
166 185 0
167 186 0
159 178 0
163 182 0
161 181 0
159 179 0
161 181 0
161 180 0
159 178 0
157 177 0
164 183 0
161 181 0
160 181 0
163 183 0
160 180 0
156 175 0
156 176 0
159 179 0
161 181 0
158 178 0
164 184 0
163 183 0
160 179 0
163 182 0
165 184 0
152 171 0
153 172 0
153 173 0
163 182 0
156 175 0
153 173 0
150 169 0
159 179 0
148 168 0
158 177 0
157 177 0
145 165 0
157 177 0
153 173 0
153 174 0
154 174 0
151 171 0
156 175 0
147 168 0
152 173 0
146 167 0
150 171 0
147 167 0
147 168 0
150 170 0
143 163 0
136 157 0
148 168 0
150 170 0
142 162 0
148 168 0
150 170 0
152 172 0
156 177 0
142 164 0
142 163 0
146 167 0
140 161 0
149 171 0
141 163 0
140 161 0
137 158 0
135 155 0
148 168 0
149 169 0
131 152 0
144 165 0
139 160 0
136 157 0
139 160 0
129 149 0
130 151 0
138 159 0
140 161 0
127 148 0
134 154 0
135 154 0
143 164 0
127 147 0
139 160 0
120 140 0
136 155 0
133 153 0
128 148 0
129 148 0
123 142 0
114 133 0
135 156 0
131 148 0
133 152 0
121 139 0
122 143 0
112 131 0
124 144 0
125 144 0
120 140 0
133 152 0
133 152 0
112 130 0
119 139 0
121 140 0
123 142 0
125 142 0
106 124 0
115 134 0
120 135 0
119 137 0
115 132 0
110 127 0
102 120 0
110 128 0
104 120 0
122 140 0
114 131 0
104 120 0
113 130 0
106 123 0
116 132 0
110 127 0
113 129 0
120 138 0
108 123 0
104 120 0
102 119 0
120 137 0
105 123 0
101 118 0
111 128 0
109 126 0
112 129 0
101 118 0
113 130 0
107 124 0
108 124 0
109 122 0
102 118 0
113 129 0
112 129 0
121 137 0
116 130 0
115 132 0
108 123 0
110 128 0
112 129 0
123 138 0
118 136 0
118 133 0
115 130 0
121 138 0
115 132 0
106 121 0
115 131 0
121 138 0
127 144 0
126 140 0
117 132 0
121 137 0
116 135 0
123 139 0
125 140 0
131 150 0
125 141 0
107 123 0
120 135 0
133 149 0
131 146 0
131 148 0
132 147 0
132 149 0
134 150 0
128 144 0
131 145 0
127 143 0
129 144 0
139 154 0
126 141 0
128 143 0
134 149 0
139 154 0
135 148 0
132 147 0
140 155 0
140 154 0
137 153 0
138 153 0
125 137 0
137 149 0
130 145 0
134 147 0
141 156 0
136 148 0
140 150 0
141 153 0
133 144 0
133 147 0
131 142 0
138 151 0
132 143 0
137 147 0
135 144 0
146 158 0
135 143 0
145 153 0
136 146 0
132 140 0
134 144 0
130 137 0
138 147 0
138 145 0
144 153 0
136 144 0
142 152 0
140 147 0
135 141 0
138 143 0
131 133 0
134 139 0
134 137 0
127 128 0
130 132 0
129 131 0
135 140 0
128 127 0
135 136 0
126 126 0
128 128 0
132 135 0
129 131 0
134 138 0
133 132 0
124 124 0
129 125 0
140 140 0
128 125 0
127 124 0
126 122 0
134 131 57
147 146 88
154 156 111
174 174 153
173 171 149
166 163 142
183 183 163
182 181 167
187 189 179
169 168 144
182 182 171
186 187 177
171 167 140
182 181 165
186 186 173
176 176 155
179 179 159
178 177 153
176 174 142
172 169 142
185 186 172
178 177 154
178 177 150
186 186 170
189 191 174
185 185 167
187 187 170
179 178 153
170 166 127
182 181 157
174 172 134
181 179 154
178 176 140
178 177 144
182 180 157
185 186 170
187 187 169
184 183 156
174 172 141
190 193 176
190 191 169
190 191 172
178 177 150
192 193 176
183 183 159
187 187 166
188 189 170
189 188 165
191 193 174
192 194 174
187 188 162
186 186 161
193 194 175
190 191 170
189 191 178
180 179 151
189 191 174
189 190 170
195 198 185
192 194 172
192 197 162
179 187 121
170 182 67
169 184 45
168 184 0
164 181 0
168 184 0
166 182 0
170 186 0
170 189 0
169 185 0
169 188 0
169 186 0
171 189 0
170 188 0
169 187 0
169 188 0
166 184 0
169 185 0
170 189 0
168 186 0
172 190 0
173 196 0
175 198 0
172 195 0
173 196 0
174 197 0
172 195 0
173 196 0
175 197 0
173 195 0
173 195 0
170 193 0
175 197 0
173 196 0
175 197 0
172 195 0
174 196 0
174 195 0
171 193 0
173 196 0
173 195 0
176 198 0
172 194 0
173 195 0
175 197 0
174 195 0
174 196 0
176 198 0
177 198 0
178 198 0
175 196 0
175 196 0
174 195 0
172 193 0
176 196 0
176 197 0
172 192 0
175 196 0
174 194 0
172 192 0
171 192 0
175 195 0
177 197 0
173 193 0
170 189 0
172 192 0
173 193 0
172 191 0
170 190 0
171 191 0
173 193 0
166 187 0
173 193 0
175 194 0
172 192 0
172 191 0
171 191 0
176 196 0
169 188 0
169 188 0
171 190 0
172 191 0
171 190 0
169 189 0
167 187 0
169 189 0
165 185 0
169 189 0
171 190 0
174 193 0
171 190 0
171 191 0
169 190 0
162 182 0
166 184 0
163 183 0
166 186 0
160 179 0
159 179 0
163 182 0
162 181 0
162 181 0
162 182 0
163 183 0
165 184 0
162 182 0
166 186 0
167 187 0
160 179 0
162 181 0
162 181 0
164 184 0
162 181 0
159 179 0
153 173 0
163 182 0
160 180 0
163 182 0
158 179 0
162 182 0
167 188 0
164 184 0
165 185 0
156 176 0
154 174 0
161 181 0
156 176 0
147 167 0
156 176 0
161 181 0
153 173 0
165 186 0
150 170 0
160 180 0
156 177 0
149 169 0
148 168 0
157 177 0
149 170 0
148 168 0
156 176 0
151 172 0
155 175 0
148 168 0
158 179 0
156 176 0
144 165 0
148 168 0
147 167 0
149 171 0
149 169 0
157 177 0
148 169 0
144 165 0
147 168 0
150 171 0
149 170 0
139 160 0
148 170 0
143 162 0
140 161 0
144 165 0
140 161 0
146 167 0
148 170 0
139 159 0
142 163 0
150 171 0
136 157 0
146 168 0
145 165 0
144 165 0
143 164 0
128 150 0
129 150 0
132 154 0
135 155 0
137 157 0
141 162 0
138 160 0
130 151 0
137 158 0
134 154 0
139 158 0
128 147 0
135 155 0
135 154 0
131 151 0
130 150 0
118 137 0
130 150 0
122 140 0
123 142 0
142 161 0
114 133 0
118 137 0
131 149 0
122 140 0
119 139 0
117 136 0
126 145 0
120 139 0
122 140 0
119 138 0
116 135 0
121 141 0
114 133 0
115 134 0
111 129 0
119 137 0
118 137 0
110 127 0
115 131 0
105 122 0
113 132 0
119 137 0
110 127 0
112 129 0
118 136 0
113 130 0
110 126 0
118 136 0
114 130 0
105 122 0
116 134 0
114 131 0
104 122 0
98 113 0
112 128 0
97 113 0
120 136 0
112 128 0
115 133 0
111 127 0
120 136 0
98 113 0
113 128 0
112 128 0
120 135 0
117 131 0
120 137 0
117 134 0
100 117 0
111 129 0
118 134 0
120 137 0
108 125 0
104 120 0
122 140 0
127 144 0
124 142 0
124 140 0
119 134 0
132 150 0
118 135 0
129 146 0
126 143 0
127 144 0
130 146 0
126 144 0
115 131 0
129 144 0
121 135 0
138 153 0
129 146 0
119 133 0
133 147 0
133 150 0
121 139 0
128 145 0
127 144 0
129 144 0
131 147 0
128 144 0
124 139 0
131 148 0
136 153 0
138 154 0
125 140 0
128 142 0
139 155 0
132 147 0
135 154 0
129 143 0
133 145 0
140 152 0
135 149 0
137 149 0
131 145 0
130 143 0
138 151 0
139 152 0
138 153 0
138 150 0
135 148 0
141 155 0
140 153 0
142 155 0
125 136 0
145 156 0
131 142 0
140 152 0
136 146 0
135 145 0
129 135 0
139 150 0
133 141 0
132 143 0
131 141 0
140 149 0
133 139 0
127 133 0
139 144 0
140 147 0
131 140 0
134 139 0
137 144 0
139 147 0
139 145 0
134 138 0
133 137 0
133 137 0
131 134 0
133 139 0
133 135 0
133 134 0
134 135 0
124 123 0
132 132 0
134 138 0
129 132 0
137 137 0
131 132 0
131 133 0
133 135 0
128 127 0
120 117 0
129 125 0
125 123 0
130 127 0
129 126 0
137 137 0
137 136 0
124 118 0
135 134 62
139 138 57
164 164 122
168 168 140
166 163 140
186 186 171
181 180 167
186 187 177
183 183 168
183 181 164
195 196 186
179 177 158
183 182 161
179 177 156
171 170 150
183 184 170
179 179 159
195 198 188
179 178 154
189 190 179
187 186 167
177 176 153
182 182 162
180 180 158
187 187 170
182 180 157
187 187 173
187 187 166
193 194 177
189 190 173
182 180 156
181 182 162
189 190 165
191 193 173
181 180 156
178 176 145
190 190 173
186 187 166
188 189 172
183 182 163
177 177 156
187 187 161
190 192 177
175 173 142
193 194 175
187 188 167
190 190 172
182 181 154
185 188 160
186 190 155
181 187 138
176 183 108
177 187 109
169 179 57
164 177 0
168 184 0
165 179 0
170 184 0
166 180 0
168 182 0
170 186 0
166 182 0
168 183 0
167 184 0
172 190 0
170 187 0
170 186 0
167 183 0
169 186 0
169 185 0
171 189 0
171 190 0
167 185 0
167 185 0
169 187 0
169 187 0
170 187 0
177 199 0
176 198 0
175 197 0
172 196 0
173 195 0
175 198 0
171 194 0
175 197 0
173 196 0
173 196 0
173 196 0
174 197 0
171 194 0
172 195 0
176 198 0
173 195 0
173 196 0
174 196 0
176 197 0
177 198 0
174 196 0
174 196 0
174 195 0
174 196 0
176 198 0
173 194 0
176 197 0
175 196 0
171 193 0
174 195 0
174 195 0
175 196 0
171 192 0
173 194 0
175 195 0
176 196 0
174 194 0
174 194 0
175 195 0
175 196 0
176 196 0
174 195 0
174 194 0
171 191 0
169 190 0
174 194 0
176 196 0
172 192 0
173 192 0
174 194 0
173 192 0
170 189 0
170 190 0
168 187 0
169 188 0
171 192 0
171 191 0
169 189 0
170 190 0
174 193 0
176 196 0
169 189 0
167 187 0
172 191 0
167 187 0
162 183 0
167 186 0
169 187 0
164 183 0
168 189 0
165 184 0
165 184 0
163 182 0
167 186 0
162 181 0
168 186 0
165 183 0
163 183 0
164 183 0
164 183 0
165 184 0
160 179 0
161 182 0
160 179 0
165 184 0
168 188 0
167 186 0
160 180 0
159 178 0
165 183 0
156 177 0
159 179 0
164 184 0
162 181 0
164 184 0
161 179 0
165 184 0
159 178 0
158 177 0
157 176 0
155 174 0
157 177 0
159 179 0
153 173 0
149 169 0
160 180 0
156 175 0
154 174 0
149 169 0
154 175 0
162 182 0
155 175 0
154 174 0
147 167 0
158 178 0
152 172 0
143 164 0
152 173 0
151 172 0
153 174 0
148 169 0
148 168 0
145 164 0
155 176 0
150 171 0
138 158 0
149 169 0
144 165 0
148 169 0
151 172 0
152 172 0
155 176 0
151 171 0
144 165 0
146 167 0
149 170 0
139 161 0
147 167 0
147 168 0
155 176 0
149 169 0
148 169 0
149 170 0
138 160 0
140 160 0
144 166 0
143 164 0
142 163 0
137 158 0
140 160 0
141 161 0
146 166 0
138 159 0
139 160 0
133 153 0
139 161 0
133 154 0
134 155 0
140 160 0
140 161 0
132 153 0
134 155 0
130 150 0
142 163 0
120 139 0
126 145 0
139 158 0
125 144 0
125 145 0
126 147 0
129 149 0
131 151 0
135 155 0
126 145 0
131 151 0
134 153 0
119 139 0
126 145 0
124 144 0
117 134 0
118 138 0
139 157 0
119 138 0
113 132 0
120 139 0
116 135 0
112 130 0
122 141 0
122 141 0
121 140 0
125 143 0
103 122 0
136 154 0
111 130 0
108 127 0
117 135 0
112 131 0
114 130 0
118 136 0
110 128 0
116 133 0
111 128 0
109 124 0
119 137 0
102 119 0
103 119 0
119 137 0
104 120 0
114 131 0
110 126 0
107 123 0
110 127 0
111 129 0
125 139 0
109 126 0
117 133 0
117 134 0
121 137 0
111 127 0
119 137 0
118 135 0
123 139 0
123 140 0
123 139 0
118 133 0
121 139 0
117 135 0
120 136 0
122 139 0
131 148 0
119 136 0
122 136 0
129 144 0
130 147 0
111 128 0
118 136 0
131 147 0
133 150 0
106 123 0
128 143 0
125 141 0
135 154 0
123 141 0
134 149 0
125 141 0
133 152 0
126 140 0
126 143 0
129 147 0
127 141 0
137 154 0
131 146 0
133 151 0
134 150 0
141 157 0
121 137 0
138 154 0
133 148 0
134 151 0
129 145 0
138 153 0
127 143 0
135 149 0
132 146 0
138 152 0
134 148 0
127 140 0
135 150 0
133 147 0
144 160 0
139 152 0
140 156 0
130 146 0
139 153 0
138 151 0
139 151 0
140 153 0
133 144 0
129 139 0
134 143 0
138 147 0
136 147 0
131 142 0
133 144 0
139 146 0
138 147 0
134 141 0
129 138 0
132 144 0
138 147 0
140 149 0
132 140 0
131 135 0
144 155 0
132 141 0
134 136 0
137 147 0
144 150 0
129 138 0
140 145 0
137 144 0
130 134 0
137 143 0
130 133 0
139 142 0
140 144 0
131 134 0
135 136 0
140 143 0
132 133 0
125 125 0
131 131 0
130 129 0
129 130 0
139 140 0
131 130 0
131 129 0
128 126 0
130 132 0
137 138 0
138 137 0
136 136 0
128 127 0
134 132 0
130 127 0
131 127 0
139 140 0
130 128 0
138 138 0
139 138 51
142 140 72
154 153 99
158 157 111
167 167 128
166 163 131
171 171 142
172 172 144
184 184 171
190 191 175
192 193 183
185 184 169
186 187 171
187 188 174
189 190 175
177 176 161
193 194 183
182 182 161
175 173 144
189 189 177
179 177 156
194 195 184
188 187 168
182 181 157
192 192 173
185 185 172
193 194 176
193 195 180
192 193 175
190 191 174
191 192 179
196 197 181
192 192 176
190 191 170
188 188 164
182 184 154
182 183 144
185 189 145
173 178 106
175 183 108
163 173 44
161 171 36
161 170 0
166 180 0
165 178 0
161 170 0
164 175 0
166 181 0
163 173 0
164 179 0
163 175 0
167 181 0
168 182 0
169 185 0
168 185 0
169 184 0
168 185 0
167 182 0
169 186 0
163 176 0
168 184 0
168 185 0
167 184 0
168 185 0
168 183 0
170 190 0
168 185 0
171 190 0
168 187 0
169 188 0
167 185 0
176 198 0
174 197 0
174 196 0
173 196 0
175 198 0
174 197 0
170 194 0
173 196 0
175 196 0
176 198 0
172 195 0
174 196 0
174 196 0
176 197 0
176 197 0
175 196 0
176 198 0
175 197 0
177 199 0
172 194 0
175 196 0
174 196 0
171 193 0
177 198 0
173 194 0
175 197 0
174 195 0
178 199 0
175 197 0
176 197 0
173 194 0
176 197 0
174 194 0
171 192 0
176 196 0
178 198 0
176 196 0
174 194 0
178 198 0
175 195 0
173 193 0
173 193 0
173 193 0
176 196 0
174 194 0
177 197 0
174 194 0
174 193 0
171 191 0
169 188 0
176 195 0
166 186 0
176 195 0
169 188 0
171 190 0
168 186 0
171 191 0
172 192 0
166 185 0
167 188 0
169 187 0
164 184 0
167 186 0
169 188 0
164 184 0
169 189 0
170 189 0
165 186 0
161 181 0
164 183 0
168 187 0
166 186 0
165 185 0
167 186 0
162 181 0
164 183 0
163 182 0
161 180 0
163 183 0
170 189 0
164 184 0
163 181 0
160 179 0
159 179 0
162 181 0
160 180 0
160 180 0
167 187 0
165 184 0
150 170 0
156 176 0
152 172 0
158 178 0
161 180 0
160 180 0
168 187 0
160 180 0
146 165 0
162 182 0
160 181 0
156 176 0
150 169 0
160 180 0
159 179 0
163 183 0
157 177 0
149 168 0
155 175 0
165 185 0
152 172 0
153 173 0
160 180 0
157 177 0
156 176 0
157 178 0
157 177 0
157 178 0
155 176 0
149 170 0
157 178 0
145 166 0
151 172 0
151 172 0
145 165 0
152 172 0
153 175 0
153 175 0
153 175 0
149 170 0
147 168 0
153 175 0
147 169 0
153 176 0
145 166 0
143 166 0
149 170 0
152 172 0
143 165 0
147 168 0
149 171 0
146 167 0
150 171 0
149 170 0
141 163 0
142 163 0
145 167 0
151 172 0
147 169 0
147 168 0
148 169 0
143 163 0
142 163 0
137 158 0
142 163 0
141 162 0
133 155 0
139 160 0
143 163 0
138 159 0
127 147 0
140 160 0
135 154 0
134 154 0
134 154 0
131 152 0
132 151 0
139 160 0
137 157 0
130 150 0
121 140 0
132 151 0
126 147 0
137 157 0
129 149 0
131 150 0
125 145 0
116 136 0
130 150 0
129 148 0
130 151 0
115 133 0
126 145 0
130 150 0
130 149 0
125 145 0
111 131 0
118 137 0
128 146 0
110 128 0
116 135 0
108 126 0
121 139 0
121 139 0
120 137 0
123 139 0
124 142 0
101 118 0
113 131 0
123 142 0
104 123 0
115 133 0
119 138 0
120 138 0
122 140 0
115 131 0
120 139 0
121 138 0
105 122 0
111 129 0
114 131 0
107 124 0
119 136 0
117 134 0
128 146 0
122 140 0
120 138 0
108 126 0
117 134 0
128 147 0
128 147 0
119 137 0
111 127 0
119 138 0
134 151 0
126 144 0
124 142 0
124 142 0
128 145 0
122 139 0
136 154 0
129 147 0
120 136 0
121 135 0
137 155 0
124 141 0
128 145 0
120 137 0
120 138 0
126 141 0
126 142 0
122 139 0
120 137 0
134 151 0
123 140 0
133 150 0
118 136 0
132 149 0
142 159 0
131 148 0
128 144 0
126 141 0
132 148 0
134 151 0
130 147 0
121 138 0
133 150 0
133 149 0
123 136 0
138 155 0
133 149 0
144 160 0
132 148 0
125 140 0
128 142 0
133 148 0
129 143 0
130 144 0
138 154 0
124 139 0
128 141 0
133 149 0
138 152 0
125 140 0
147 163 0
144 156 0
141 156 0
135 148 0
140 153 0
146 156 0
133 146 0
139 151 0
133 143 0
149 162 0
142 152 0
142 155 0
135 145 0
133 143 0
140 153 0
140 148 0
142 152 0
129 136 0
141 150 0
135 144 0
147 157 0
146 156 0
136 145 0
141 147 0
138 144 0
134 141 0
130 138 0
134 140 0
136 139 0
138 145 0
139 145 0
141 146 0
140 144 0
140 144 0
143 147 0
131 134 0
138 143 0
136 137 0
141 147 0
139 142 0
140 140 0
136 136 0
139 142 0
138 140 0
136 134 0
133 134 0
144 145 0
135 135 0
129 129 0
129 125 0
128 124 0
130 124 0
136 134 0
129 125 0
138 139 0
141 143 0
131 127 0
137 136 0
142 142 0
137 136 0
134 132 0
136 134 0
147 149 0
138 136 0
141 141 0
143 141 36
144 144 62
156 158 67
160 161 85
156 154 89
164 164 109
166 166 107
170 172 120
164 166 108
161 162 105
151 148 69
160 158 95
168 169 117
164 164 109
173 176 128
166 170 108
162 163 93
163 165 99
169 174 106
168 171 112
170 175 92
163 171 72
163 170 60
162 172 0
156 163 0
157 164 0
161 169 0
156 163 0
159 169 0
157 163 0
162 172 0
163 175 0
163 171 0
163 174 0
167 181 0
166 181 0
165 177 0
164 175 0
168 180 0
167 181 0
166 179 0
166 180 0
166 179 0
168 181 0
169 184 0
166 180 0
167 184 0
164 178 0
167 182 0
165 179 0
167 182 0
170 187 0
167 181 0
168 186 0
168 184 0
169 185 0
167 182 0
170 188 0
169 185 0
169 187 0
170 186 0
171 190 0
171 195 0
173 196 0
171 194 0
173 196 0
173 196 0
173 195 0
171 193 0
175 198 0
175 197 0
175 197 0
174 197 0
173 195 0
178 200 0
175 197 0
174 196 0
176 198 0
175 196 0
173 194 0
173 195 0
175 197 0
174 196 0
177 198 0
174 196 0
177 198 0
174 196 0
177 197 0
171 193 0
175 196 0
168 189 0
176 197 0
174 195 0
171 193 0
175 196 0
176 196 0
175 196 0
174 194 0
174 195 0
172 193 0
175 194 0
173 193 0
172 193 0
173 193 0
177 197 0
175 195 0
174 194 0
175 194 0
175 195 0
176 196 0
170 190 0
167 187 0
174 193 0
177 197 0
172 192 0
167 187 0
172 192 0
169 188 0
170 191 0
171 190 0
167 186 0
168 188 0
164 184 0
167 186 0
169 189 0
170 189 0
171 191 0
167 188 0
167 186 0
164 185 0
167 187 0
163 182 0
167 185 0
167 187 0
164 184 0
164 183 0
166 185 0
163 181 0
169 188 0
168 187 0
161 180 0
166 186 0
165 184 0
163 182 0
159 178 0
169 188 0
157 176 0
166 185 0
167 187 0
164 183 0
164 184 0
159 179 0
160 179 0
159 179 0
164 183 0
159 179 0
161 181 0
162 181 0
160 180 0
161 181 0
153 173 0
158 178 0
155 175 0
153 174 0
164 184 0
154 174 0
160 180 0
156 177 0
156 177 0
156 176 0
152 173 0
160 180 0
156 177 0
148 168 0
160 180 0
158 178 0
154 175 0
150 171 0
149 171 0
146 167 0
153 173 0
148 169 0
149 170 0
155 175 0
144 164 0
149 170 0
146 167 0
143 165 0
152 173 0
155 177 0
153 172 0
147 169 0
149 170 0
149 171 0
150 171 0
149 170 0
145 166 0
146 168 0
155 176 0
150 171 0
147 169 0
132 153 0
139 160 0
140 161 0
146 167 0
143 163 0
140 161 0
141 163 0
146 167 0
141 163 0
146 167 0
134 155 0
138 159 0
144 165 0
147 168 0
135 156 0
142 164 0
125 146 0
142 163 0
134 155 0
137 157 0
146 167 0
139 159 0
131 153 0
140 159 0
132 153 0
133 152 0
131 151 0
139 158 0
131 150 0
127 147 0
148 169 0
132 152 0
129 149 0
136 156 0
124 144 0
128 146 0
131 152 0
130 149 0
134 154 0
125 144 0
122 141 0
130 150 0
131 151 0
129 148 0
124 145 0
111 131 0
124 144 0
117 137 0
118 137 0
118 138 0
126 145 0
134 153 0
107 124 0
115 133 0
117 135 0
123 143 0
122 141 0
120 138 0
124 141 0
113 130 0
106 123 0
110 127 0
122 138 0
118 136 0
121 140 0
113 132 0
117 135 0
112 129 0
116 134 0
122 139 0
118 136 0
131 150 0
113 128 0
117 134 0
116 133 0
116 131 0
122 142 0
123 139 0
121 139 0
122 140 0
120 138 0
127 146 0
127 145 0
117 133 0
135 153 0
129 148 0
118 134 0
117 134 0
133 149 0
139 156 0
129 148 0
120 138 0
125 144 0
136 153 0
130 147 0
133 149 0
127 144 0
132 150 0
129 146 0
134 149 0
127 144 0
129 145 0
138 156 0
137 154 0
128 145 0
131 149 0
136 154 0
137 155 0
142 159 0
129 146 0
134 152 0
136 153 0
132 150 0
134 151 0
140 155 0
131 149 0
133 151 0
133 150 0
136 154 0
144 163 0
142 159 0
139 156 0
135 151 0
141 158 0
133 149 0
140 157 0
125 141 0
134 151 0
142 155 0
145 161 0
139 153 0
132 146 0
138 153 0
133 148 0
140 154 0
139 151 0
139 154 0
139 153 0
130 144 0
133 147 0
140 154 0
139 151 0
133 147 0
141 152 0
131 141 0
136 144 0
140 148 0
139 150 0
141 152 0
136 146 0
137 148 0
137 147 0
131 138 0
140 147 0
137 145 0
140 147 0
137 144 0
138 150 0
141 150 0
139 146 0
137 144 0
128 134 0
135 142 0
138 144 0
131 136 0
133 139 0
145 150 0
139 144 0
134 139 0
131 134 0
143 150 0
136 139 0
140 145 0
135 138 0
127 126 0
135 135 0
138 141 0
133 133 0
137 137 0
140 142 0
140 141 0
137 139 0
137 139 0
137 138 0
146 149 0
135 135 0
138 140 0
133 131 0
136 134 0
147 151 0
145 149 0
138 137 0
143 140 0
141 139 0
138 134 0
142 142 0
148 150 0
136 133 0
144 144 0
146 146 0
147 147 0
146 147 0
148 151 0
143 142 0
147 147 0
152 154 0
141 140 0
150 155 0
151 154 0
152 156 0
158 165 0
148 150 0
153 157 0
150 154 0
155 157 0
152 156 0
155 159 0
155 161 0
152 157 0
153 158 0
157 163 0
159 164 0
156 160 0
158 165 0
157 164 0
160 165 0
161 169 0
164 174 0
164 174 0
160 168 0
162 174 0
159 169 0
163 174 0
165 175 0
162 172 0
161 172 0
164 173 0
166 177 0
164 177 0
165 179 0
163 173 0
162 175 0
166 180 0
164 177 0
164 177 0
169 183 0
166 180 0
170 185 0
166 181 0
171 187 0
169 185 0
169 185 0
165 179 0
167 184 0
168 185 0
169 185 0
165 183 0
168 185 0
169 187 0
167 181 0
168 185 0
173 196 0
175 198 0
174 196 0
175 197 0
176 198 0
174 196 0
172 194 0
176 198 0
174 196 0
170 192 0
174 197 0
175 197 0
174 196 0
175 197 0
174 196 0
171 194 0
175 197 0
173 195 0
173 194 0
173 195 0
172 195 0
177 197 0
174 195 0
174 195 0
172 194 0
176 197 0
175 196 0
172 193 0
174 195 0
177 197 0
171 192 0
177 199 0
174 195 0
175 194 0
176 197 0
174 194 0
174 195 0
176 197 0
174 194 0
176 196 0
176 196 0
167 187 0
173 194 0
173 193 0
174 194 0
173 193 0
170 190 0
173 193 0
173 193 0
171 190 0
166 186 0
172 192 0
170 189 0
168 188 0
173 192 0
170 190 0
167 187 0
165 186 0
169 189 0
167 187 0
169 187 0
170 189 0
167 186 0
170 189 0
170 189 0
166 185 0
169 189 0
164 182 0
170 189 0
168 188 0
165 184 0
164 184 0
168 187 0
165 185 0
167 187 0
159 179 0
164 184 0
165 185 0
162 180 0
162 182 0
164 184 0
162 182 0
167 187 0
161 181 0
161 181 0
169 188 0
166 186 0
164 185 0
158 177 0
163 184 0
161 181 0
160 179 0
169 190 0
163 184 0
159 179 0
159 180 0
155 173 0
158 178 0
163 183 0
154 175 0
158 178 0
155 174 0
159 180 0
158 178 0
155 175 0
160 181 0
156 177 0
157 177 0
159 180 0
157 177 0
148 169 0
157 178 0
147 167 0
160 181 0
153 174 0
157 177 0
154 175 0
150 170 0
153 173 0
151 173 0
149 169 0
149 171 0
147 168 0
151 172 0
147 167 0
148 169 0
152 173 0
149 170 0
151 172 0
153 174 0
155 176 0
155 177 0
144 165 0
145 166 0
144 165 0
145 166 0
153 174 0
149 170 0
152 173 0
152 173 0
147 168 0
143 164 0
152 173 0
131 152 0
149 169 0
147 168 0
148 169 0
138 159 0
135 156 0
148 169 0
136 156 0
143 165 0
139 159 0
141 161 0
149 170 0
135 155 0
139 161 0
137 158 0
145 167 0
136 157 0
139 159 0
132 153 0
135 155 0
141 161 0
131 152 0
133 153 0
137 156 0
135 157 0
130 151 0
135 156 0
123 143 0
127 146 0
130 149 0
133 153 0
130 150 0
133 152 0
121 140 0
129 149 0
128 148 0
135 154 0
126 146 0
123 143 0
129 148 0
120 138 0
122 141 0
129 148 0
131 151 0
132 151 0
126 144 0
117 137 0
114 132 0
119 138 0
116 132 0
123 143 0
112 131 0
122 141 0
122 141 0
117 135 0
122 142 0
132 150 0
109 128 0
122 139 0
113 131 0
115 134 0
132 151 0
120 138 0
116 136 0
119 139 0
127 147 0
128 146 0
128 146 0
120 139 0
111 127 0
106 123 0
122 141 0
128 146 0
127 143 0
117 136 0
114 132 0
117 134 0
124 141 0
125 142 0
125 144 0
124 141 0
120 137 0
116 134 0
120 138 0
134 153 0
121 138 0
122 138 0
136 153 0
128 147 0
127 145 0
128 146 0
122 136 0
134 150 0
128 146 0
126 142 0
133 151 0
123 139 0
143 161 0
127 145 0
138 154 0
138 155 0
128 147 0
135 153 0
133 150 0
140 156 0
141 159 0
121 139 0
139 156 0
140 157 0
133 151 0
135 153 0
127 143 0
141 158 0
136 152 0
138 154 0
136 152 0
136 151 0
138 153 0
138 154 0
135 151 0
135 152 0
140 155 0
136 153 0
147 164 0
133 149 0
130 145 0
133 145 0
145 159 0
136 153 0
137 147 0
139 156 0
136 150 0
142 156 0
140 154 0
134 147 0
137 151 0
141 155 0
142 155 0
140 153 0
142 156 0
133 146 0
135 149 0
135 146 0
140 149 0
138 149 0
136 148 0
132 141 0
146 158 0
136 147 0
142 155 0
144 155 0
141 150 0
137 146 0
138 145 0
142 151 0
139 148 0
139 145 0
131 139 0
131 137 0
140 147 0
136 143 0
133 139 0
141 146 0
140 145 0
143 148 0
148 154 0
134 139 0
142 149 0
139 145 0
144 149 0
140 141 0
145 150 0
138 140 0
141 143 0
135 138 0
130 127 0
135 137 0
134 138 0
134 134 0
141 141 0
146 146 0
137 138 0
143 144 0
139 138 0
142 140 0
139 139 0
149 152 0
136 134 0
141 141 0
139 141 0
144 143 0
135 134 0
144 145 0
130 126 0
142 142 0
133 128 0
140 136 0
142 141 0
144 145 0
144 144 0
148 147 0
150 153 0
150 152 0
150 151 0
148 151 0
148 152 0
149 151 0
154 156 0
150 152 0
149 149 0
147 150 0
153 157 0
155 157 0
156 164 0
156 162 0
154 159 0
158 165 0
158 164 0
156 162 0
156 162 0
156 163 0
159 166 0
159 168 0
159 168 0
160 166 0
162 170 0
161 168 0
161 170 0
159 167 0
164 174 0
167 181 0
165 178 0
162 172 0
159 168 0
166 179 0
163 173 0
163 176 0
165 179 0
168 182 0
168 181 0
165 178 0
164 177 0
163 178 0
166 180 0
169 181 0
165 179 0
167 182 0
165 179 0
167 180 0
167 183 0
171 185 0
166 182 0
168 186 0
169 187 0
168 184 0
165 181 0
169 187 0
169 192 0
175 198 0
175 198 0
175 197 0
172 195 0
174 197 0
177 199 0
172 195 0
175 196 0
176 198 0
174 196 0
176 197 0
173 195 0
174 196 0
174 196 0
177 199 0
176 197 0
178 198 0
170 193 0
175 196 0
174 195 0
175 196 0
175 196 0
173 194 0
177 197 0
176 197 0
175 196 0
175 195 0
176 197 0
176 196 0
176 196 0
175 195 0
172 193 0
176 196 0
175 195 0
174 193 0
174 194 0
175 195 0
173 193 0
176 195 0
167 188 0
168 188 0
170 190 0
173 194 0
173 194 0
169 189 0
170 190 0
172 192 0
176 195 0
169 189 0
169 190 0
170 190 0
174 194 0
171 191 0
169 188 0
171 191 0
167 187 0
167 187 0
171 190 0
169 190 0
169 189 0
169 187 0
164 184 0
173 192 0
167 186 0
172 191 0
164 184 0
170 190 0
166 186 0
166 185 0
163 183 0
169 188 0
167 186 0
164 183 0
166 187 0
167 188 0
168 188 0
164 184 0
161 181 0
164 185 0
168 187 0
169 189 0
165 185 0
165 185 0
163 184 0
162 182 0
160 180 0
164 184 0
164 184 0
153 172 0
156 176 0
158 178 0
164 183 0
165 185 0
158 178 0
161 181 0
155 175 0
158 179 0
159 178 0
161 181 0
155 174 0
158 178 0
155 176 0
153 173 0
155 175 0
160 181 0
154 175 0
162 183 0
150 170 0
158 179 0
160 181 0
153 174 0
159 180 0
149 169 0
152 173 0
157 177 0
154 174 0
154 174 0
154 176 0
159 181 0
149 170 0
148 169 0
157 179 0
152 172 0
146 168 0
156 178 0
149 170 0
159 180 0
142 164 0
150 170 0
149 170 0
153 175 0
145 167 0
146 168 0
145 167 0
145 168 0
152 174 0
145 167 0
147 169 0
146 166 0
150 172 0
145 166 0
144 165 0
142 163 0
148 169 0
151 172 0
146 167 0
141 161 0
139 160 0
145 167 0
147 168 0
145 166 0
140 160 0
135 156 0
138 159 0
147 169 0
131 153 0
136 158 0
140 161 0
139 160 0
129 150 0
138 158 0
146 167 0
130 150 0
130 150 0
139 160 0
131 151 0
129 148 0
133 154 0
132 152 0
135 156 0
124 143 0
127 147 0
140 160 0
134 155 0
126 147 0
131 151 0
128 148 0
127 148 0
128 148 0
127 147 0
129 150 0
113 133 0
137 155 0
127 146 0
131 151 0
135 154 0
132 150 0
128 146 0
127 147 0
126 144 0
121 139 0
126 145 0
126 145 0
130 150 0
128 147 0
142 161 0
119 138 0
121 140 0
118 137 0
115 134 0
112 130 0
125 142 0
112 130 0
107 124 0
127 145 0
123 142 0
119 136 0
115 132 0
116 134 0
126 145 0
129 147 0
116 136 0
123 142 0
130 148 0
127 145 0
115 133 0
122 140 0
129 146 0
114 132 0
126 146 0
127 144 0
122 141 0
126 145 0
116 135 0
126 144 0
127 144 0
127 144 0
133 151 0
134 151 0
129 148 0
135 153 0
124 142 0
133 150 0
138 154 0
118 136 0
122 139 0
128 145 0
134 150 0
138 155 0
136 154 0
137 153 0
137 155 0
134 151 0
130 148 0
132 150 0
134 153 0
138 152 0
130 148 0
127 145 0
133 150 0
145 162 0
138 156 0
141 159 0
146 162 0
141 160 0
137 154 0
131 149 0
146 163 0
138 153 0
140 155 0
136 152 0
137 154 0
139 156 0
142 157 0
145 161 0
134 148 0
141 156 0
137 153 0
135 148 0
125 138 0
137 152 0
134 147 0
140 155 0
136 149 0
140 154 0
142 156 0
136 151 0
132 145 0
138 151 0
142 157 0
147 162 0
153 167 0
137 150 0
132 145 0
140 152 0
150 161 0
133 144 0
137 150 0
148 158 0
145 155 0
142 151 0
138 151 0
149 160 0
142 153 0
139 148 0
143 151 0
135 143 0
143 154 0
138 147 0
142 151 0
148 157 0
141 149 0
136 141 0
143 152 0
139 147 0
136 142 0
140 147 0
143 149 0
144 151 0
141 144 0
141 146 0
149 153 0
146 150 0
143 147 0
144 149 0
134 139 0
146 151 0
148 155 0
143 146 0
138 140 0
140 144 0
142 146 0
139 140 0
146 144 0
141 143 0
143 146 0
138 139 0
143 142 0
139 138 0
146 148 0
142 145 0
142 142 0
153 155 0
145 148 0
141 139 0
140 137 0
146 148 0
150 153 0
141 140 0
150 153 0
145 148 0
151 152 0
150 150 0
146 147 0
146 145 0
138 140 0
151 153 0
150 153 0
156 160 0
152 155 0
150 151 0
158 161 0
151 155 0
152 157 0
156 162 0
154 159 0
154 158 0
152 156 0
154 157 0
155 160 0
156 160 0
160 165 0
162 172 0
161 169 0
157 166 0
158 163 0
157 163 0
158 166 0
163 174 0
162 170 0
162 170 0
161 171 0
162 173 0
161 167 0
167 178 0
161 170 0
165 175 0
162 172 0
163 176 0
164 174 0
166 179 0
165 175 0
168 180 0
167 180 0
167 181 0
166 178 0
166 179 0
164 176 0
163 176 0
166 182 0
167 181 0
167 181 0
168 183 0
165 180 0
170 185 0
167 181 0
170 186 0
169 187 0
166 181 0
172 195 0
171 194 0
174 197 0
169 191 0
174 196 0
172 195 0
173 195 0
173 196 0
175 196 0
174 196 0
176 197 0
170 191 0
176 198 0
174 196 0
172 194 0
174 196 0
175 196 0
175 197 0
173 195 0
175 197 0
174 196 0
174 195 0
171 193 0
171 192 0
174 195 0
173 193 0
175 195 0
175 195 0
175 196 0
174 195 0
177 197 0
173 194 0
175 196 0
175 196 0
170 190 0
173 193 0
172 192 0
174 193 0
179 198 0
172 193 0
173 193 0
170 190 0
172 192 0
175 194 0
176 195 0
172 191 0
171 191 0
167 187 0
172 192 0
170 191 0
172 192 0
170 189 0
171 191 0
174 194 0
168 187 0
164 184 0
168 189 0
173 193 0
167 188 0
166 185 0
171 192 0
169 188 0
169 188 0
168 187 0
164 183 0
168 188 0
168 187 0
164 185 0
168 187 0
164 184 0
162 182 0
168 188 0
165 184 0
165 186 0
166 185 0
162 181 0
162 182 0
168 187 0
167 186 0
159 179 0
164 184 0
164 185 0
167 186 0
165 185 0
157 178 0
164 184 0
162 182 0
161 181 0
159 178 0
165 185 0
156 176 0
158 179 0
162 182 0
163 183 0
160 180 0
164 184 0
151 172 0
154 175 0
166 186 0
162 181 0
154 174 0
159 180 0
149 168 0
155 176 0
156 176 0
161 182 0
160 182 0
158 178 0
147 167 0
160 179 0
157 178 0
158 178 0
149 169 0
149 168 0
157 177 0
154 174 0
156 178 0
151 172 0
154 175 0
147 168 0
152 174 0
151 172 0
149 170 0
159 180 0
151 171 0
149 171 0
152 172 0
158 179 0
154 175 0
155 176 0
155 176 0
153 175 0
145 167 0
153 175 0
154 176 0
146 167 0
154 175 0
153 175 0
149 170 0
150 172 0
148 170 0
139 160 0
152 174 0
134 156 0
142 163 0
145 167 0
148 170 0
147 169 0
139 162 0
146 167 0
140 160 0
146 167 0
137 158 0
140 161 0
146 168 0
143 163 0
140 161 0
139 160 0
145 166 0
146 168 0
135 156 0
131 152 0
137 157 0
141 163 0
135 156 0
136 156 0
132 152 0
136 158 0
146 166 0
132 153 0
132 152 0
139 160 0
135 154 0
132 152 0
129 149 0
121 142 0
139 160 0
128 148 0
130 150 0
132 152 0
129 149 0
129 149 0
131 150 0
125 144 0
132 151 0
133 152 0
126 144 0
122 142 0
118 137 0
120 138 0
128 147 0
116 134 0
122 142 0
127 145 0
130 149 0
123 141 0
134 152 0
121 139 0
133 153 0
123 143 0
124 143 0
124 140 0
131 149 0
114 132 0
130 149 0
127 145 0
118 138 0
123 143 0
141 160 0
135 153 0
122 140 0
125 144 0
129 145 0
125 143 0
128 146 0
120 137 0
131 151 0
126 143 0
122 138 0
121 140 0
125 142 0
123 142 0
124 143 0
133 152 0
118 136 0
137 156 0
131 149 0
121 140 0
134 154 0
126 146 0
137 153 0
126 145 0
124 141 0
128 147 0
120 138 0
126 144 0
122 139 0
130 148 0
131 149 0
137 155 0
133 150 0
128 147 0
139 157 0
143 161 0
136 154 0
134 148 0
136 154 0
134 152 0
132 150 0
136 153 0
135 153 0
141 158 0
145 164 0
134 150 0
138 154 0
137 154 0
139 155 0
144 161 0
131 149 0
133 149 0
140 157 0
131 145 0
129 144 0
138 155 0
143 158 0
135 148 0
136 151 0
134 147 0
133 150 0
137 152 0
142 154 0
142 159 0
148 163 0
135 150 0
141 157 0
140 154 0
146 157 0
140 155 0
141 157 0
139 154 0
139 154 0
131 144 0
141 157 0
138 150 0
143 156 0
141 153 0
147 157 0
139 151 0
150 161 0
133 143 0
132 144 0
139 151 0
144 155 0
145 156 0
134 143 0
139 152 0
138 150 0
146 155 0
144 155 0
137 147 0
145 155 0
142 153 0
139 148 0
143 153 0
144 154 0
149 156 0
141 149 0
148 155 0
136 140 0
145 152 0
137 143 0
149 158 0
139 143 0
138 142 0
141 147 0
146 151 0
133 138 0
149 155 0
148 154 0
144 148 0
138 139 0
140 145 0
143 147 0
141 143 0
147 150 0
144 146 0
145 148 0
140 141 0
145 146 0
144 145 0
141 143 0
138 138 0
142 145 0
135 131 0
141 141 0
139 140 0
146 146 0
144 143 0
141 142 0
144 145 0
147 151 0
141 142 0
143 145 0
145 146 0
146 147 0
146 146 0
153 156 0
149 152 0
145 150 0
148 149 0
152 157 0
147 150 0
153 156 0
155 161 0
153 158 0
150 153 0
150 151 0
152 155 0
156 161 0
150 155 0
152 156 0
152 155 0
156 160 0
154 158 0
158 164 0
157 163 0
156 163 0
154 161 0
164 174 0
166 177 0
162 171 0
160 169 0
162 171 0
160 167 0
163 174 0
164 176 0
164 174 0
162 172 0
164 178 0
158 168 0
165 177 0
164 179 0
164 178 0
164 176 0
161 173 0
168 179 0
165 177 0
167 181 0
165 180 0
166 180 0
166 181 0
165 179 0
168 183 0
167 182 0
167 184 0
168 182 0
168 184 0
168 183 0
166 180 0
165 182 0
170 193 0
175 197 0
174 196 0
172 194 0
174 196 0
174 196 0
172 194 0
172 194 0
175 197 0
174 196 0
172 194 0
173 195 0
174 195 0
172 193 0
173 195 0
170 192 0
175 196 0
175 196 0
172 194 0
175 196 0
175 196 0
171 193 0
175 196 0
175 196 0
175 196 0
174 194 0
176 196 0
175 195 0
178 198 0
171 192 0
176 197 0
175 195 0
175 196 0
173 194 0
173 193 0
175 194 0
174 194 0
175 194 0
174 194 0
173 192 0
175 194 0
171 191 0
174 194 0
169 190 0
176 196 0
169 189 0
172 191 0
167 187 0
169 189 0
174 193 0
173 192 0
170 190 0
168 188 0
172 193 0
169 189 0
168 189 0
168 188 0
169 188 0
170 190 0
170 190 0
171 190 0
169 188 0
164 185 0
169 190 0
170 190 0
163 183 0
171 190 0
167 186 0
166 186 0
163 182 0
170 190 0
163 183 0
168 188 0
171 191 0
167 185 0
165 186 0
166 186 0
155 175 0
163 183 0
163 182 0
164 184 0
166 186 0
165 184 0
166 186 0
164 183 0
160 180 0
168 187 0
164 184 0
163 183 0
156 176 0
165 185 0
161 181 0
161 181 0
151 171 0
162 182 0
165 185 0
161 181 0
156 176 0
163 183 0
156 177 0
159 179 0
156 177 0
157 178 0
159 179 0
159 180 0
154 174 0
157 178 0
154 175 0
153 174 0
155 176 0
158 179 0
163 184 0
158 178 0
148 168 0
153 173 0
150 172 0
150 172 0
151 172 0
155 176 0
151 171 0
158 180 0
159 181 0
152 174 0
148 170 0
149 171 0
153 175 0
152 173 0
154 176 0
153 174 0
151 172 0
146 167 0
147 168 0
156 178 0
153 174 0
145 166 0
146 167 0
147 169 0
140 162 0
149 171 0
137 158 0
155 176 0
143 164 0
149 170 0
150 173 0
153 173 0
142 163 0
142 163 0
141 163 0
142 164 0
138 158 0
139 160 0
134 155 0
142 162 0
139 161 0
134 154 0
151 172 0
138 160 0
139 159 0
141 162 0
136 156 0
142 164 0
138 160 0
143 163 0
142 163 0
141 161 0
140 161 0
139 160 0
137 157 0
134 153 0
139 159 0
137 158 0
137 157 0
134 155 0
136 157 0
132 153 0
136 156 0
127 147 0
134 154 0
122 142 0
136 156 0
125 144 0
123 143 0
123 144 0
135 154 0
122 142 0
139 158 0
133 153 0
130 149 0
122 140 0
129 149 0
135 154 0
129 148 0
128 147 0
125 145 0
121 140 0
123 142 0
123 142 0
127 146 0
117 135 0
131 151 0
110 127 0
131 150 0
134 153 0
136 157 0
136 153 0
131 150 0
127 146 0
128 146 0
130 149 0
132 150 0
133 151 0
127 145 0
126 145 0
133 151 0
127 146 0
129 149 0
121 140 0
129 148 0
134 154 0
126 145 0
126 144 0
126 143 0
132 151 0
136 154 0
130 148 0
122 138 0
132 152 0
131 149 0
126 145 0
140 158 0
125 143 0
132 151 0
126 143 0
138 155 0
133 150 0
139 156 0
139 158 0
136 153 0
133 150 0
130 146 0
136 154 0
126 143 0
133 150 0
135 154 0
126 143 0
134 150 0
136 154 0
134 150 0
127 145 0
136 153 0
134 150 0
131 146 0
134 151 0
141 160 0
128 145 0
134 149 0
132 149 0
136 153 0
130 147 0
134 151 0
141 158 0
134 150 0
133 150 0
138 155 0
140 158 0
137 155 0
144 159 0
141 157 0
145 161 0
130 146 0
137 152 0
145 160 0
138 152 0
146 160 0
145 160 0
143 157 0
145 161 0
138 152 0
138 152 0
144 160 0
151 167 0
140 155 0
146 163 0
142 156 0
140 153 0
144 158 0
141 153 0
142 154 0
132 146 0
143 156 0
141 151 0
145 157 0
140 152 0
140 151 0
140 151 0
144 155 0
140 149 0
137 147 0
138 147 0
133 140 0
141 152 0
136 146 0
146 156 0
154 164 0
140 148 0
145 156 0
140 149 0
137 145 0
144 153 0
145 152 0
138 145 0
143 147 0
149 156 0
140 146 0
141 147 0
145 153 0
139 143 0
145 150 0
144 148 0
144 151 0
149 155 0
147 151 0
142 144 0
142 146 0
147 151 0
140 143 0
147 153 0
140 142 0
139 140 0
147 150 0
144 148 0
147 146 0
150 153 0
145 146 0
137 137 0
147 149 0
138 139 0
145 147 0
138 136 0
151 153 0
138 140 0
146 148 0
146 149 0
148 151 0
145 146 0
152 156 0
150 151 0
147 148 0
149 151 0
152 156 0
153 156 0
146 149 0
149 151 0
149 152 0
152 157 0
156 163 0
152 156 0
155 160 0
150 155 0
148 152 0
155 158 0
157 163 0
157 163 0
153 156 0
160 168 0
158 164 0
156 163 0
157 162 0
159 169 0
156 163 0
160 167 0
158 166 0
163 171 0
161 171 0
163 175 0
162 172 0
161 171 0
161 170 0
162 171 0
165 178 0
167 178 0
162 173 0
160 169 0
164 178 0
168 181 0
165 176 0
166 181 0
163 178 0
166 177 0
167 179 0
165 180 0
172 186 0
166 180 0
164 179 0
167 183 0
166 181 0
164 178 0
165 181 0
168 186 0
165 181 0
173 196 0
173 195 0
174 195 0
174 195 0
171 193 0
175 196 0
177 199 0
176 197 0
175 196 0
174 196 0
172 194 0
175 197 0
177 199 0
174 196 0
175 196 0
176 198 0
172 193 0
173 194 0
174 196 0
175 196 0
177 198 0
177 197 0
175 196 0
174 195 0
175 195 0
176 196 0
175 195 0
174 195 0
177 197 0
176 196 0
171 192 0
173 194 0
176 196 0
174 194 0
172 192 0
178 197 0
173 193 0
174 194 0
175 196 0
172 192 0
174 193 0
173 193 0
168 188 0
172 191 0
174 194 0
170 189 0
171 191 0
170 189 0
172 192 0
173 192 0
171 190 0
174 194 0
169 190 0
173 192 0
171 190 0
174 193 0
170 190 0
166 185 0
174 192 0
172 192 0
169 188 0
168 187 0
168 187 0
168 188 0
165 185 0
169 188 0
169 190 0
170 190 0
166 186 0
169 188 0
169 189 0
169 189 0
169 189 0
164 185 0
167 186 0
167 186 0
167 187 0
163 183 0
167 187 0
164 184 0
161 181 0
166 186 0
168 188 0
162 181 0
163 184 0
160 180 0
170 190 0
164 184 0
167 187 0
162 181 0
162 181 0
157 178 0
157 178 0
166 186 0
155 175 0
164 184 0
158 179 0
155 175 0
157 177 0
164 185 0
156 176 0
160 182 0
158 179 0
159 180 0
149 169 0
153 173 0
152 173 0
157 178 0
158 179 0
151 172 0
154 175 0
149 170 0
145 165 0
158 179 0
154 175 0
149 170 0
156 177 0
145 165 0
145 167 0
148 169 0
157 179 0
148 169 0
147 169 0
148 170 0
154 176 0
152 173 0
149 171 0
149 171 0
146 167 0
150 171 0
147 168 0
149 170 0
156 179 0
154 174 0
155 177 0
143 164 0
146 167 0
150 171 0
154 175 0
145 166 0
144 166 0
143 165 0
149 170 0
144 165 0
140 161 0
149 171 0
132 152 0
146 167 0
151 171 0
145 166 0
154 176 0
146 168 0
140 162 0
145 166 0
150 172 0
147 168 0
143 164 0
145 165 0
146 167 0
142 164 0
136 156 0
147 168 0
140 161 0
134 156 0
130 152 0
150 171 0
132 153 0
139 161 0
146 167 0
146 168 0
148 168 0
131 152 0
131 152 0
140 161 0
128 149 0
142 163 0
124 145 0
131 151 0
128 149 0
120 140 0
133 152 0
145 166 0
130 150 0
136 157 0
135 155 0
127 147 0
139 158 0
128 148 0
123 142 0
135 154 0
140 160 0
129 149 0
131 151 0
135 155 0
133 152 0
130 149 0
131 150 0
138 157 0
133 152 0
135 155 0
118 137 0
127 145 0
118 138 0
131 150 0
131 149 0
127 147 0
130 150 0
120 140 0
127 147 0
118 137 0
121 140 0
126 145 0
127 146 0
134 153 0
122 142 0
127 144 0
127 146 0
125 143 0
116 134 0
131 151 0
133 150 0
127 143 0
127 146 0
132 149 0
135 152 0
127 145 0
131 149 0
130 149 0
135 153 0
146 164 0
133 151 0
122 142 0
134 152 0
128 144 0
138 157 0
127 147 0
125 144 0
121 137 0
140 157 0
141 160 0
124 142 0
141 160 0
135 153 0
131 149 0
129 147 0
138 156 0
132 147 0
136 153 0
141 160 0
133 151 0
139 158 0
141 158 0
135 154 0
140 158 0
142 160 0
141 158 0
128 145 0
139 155 0
144 162 0
149 167 0
136 155 0
134 150 0
141 157 0
132 149 0
143 160 0
135 152 0
138 157 0
136 153 0
140 157 0
136 152 0
138 155 0
137 153 0
134 148 0
142 160 0
141 157 0
143 159 0
145 160 0
133 147 0
147 163 0
145 161 0
140 155 0
139 150 0
140 154 0
142 157 0
137 148 0
147 162 0
145 159 0
143 155 0
127 141 0
141 155 0
150 162 0
143 156 0
143 157 0
146 161 0
141 154 0
152 168 0
144 154 0
146 157 0
141 151 0
149 161 0
139 151 0
145 157 0
140 151 0
138 148 0
144 154 0
144 153 0
149 158 0
148 157 0
144 153 0
137 146 0
145 152 0
148 156 0
143 148 0
145 152 0
146 155 0
147 153 0
149 157 0
145 153 0
150 158 0
149 152 0
143 150 0
147 152 0
141 146 0
144 148 0
142 149 0
149 153 0
142 145 0
140 141 0
145 149 0
147 151 0
144 147 0
144 148 0
146 147 0
143 147 0
145 147 0
147 149 0
151 152 0
148 152 0
144 148 0
144 147 0
145 149 0
147 149 0
148 150 0
148 149 0
145 146 0
151 153 0
153 158 0
152 158 0
156 162 0
152 156 0
151 155 0
153 158 0
155 157 0
149 151 0
154 160 0
153 155 0
153 157 0
158 163 0
154 158 0
151 155 0
154 156 0
155 160 0
153 158 0
157 164 0
157 164 0
156 161 0
158 164 0
158 165 0
153 155 0
159 166 0
157 163 0
160 168 0
161 171 0
163 173 0
167 174 0
163 171 0
162 174 0
164 173 0
160 169 0
165 176 0
162 172 0
160 169 0
163 175 0
163 173 0
165 177 0
161 170 0
167 179 0
164 176 0
164 175 0
168 182 0
163 176 0
161 174 0
168 182 0
167 181 0
170 183 0
163 176 0
164 176 0
167 181 0
166 181 0
170 185 0
175 197 0
177 198 0
172 195 0
174 196 0
171 193 0
170 192 0
172 194 0
175 197 0
173 195 0
173 195 0
175 197 0
172 193 0
174 196 0
175 196 0
174 196 0
175 196 0
173 194 0
172 192 0
172 192 0
175 196 0
174 195 0
174 195 0
174 195 0
175 195 0
176 196 0
174 195 0
179 199 0
176 197 0
173 193 0
173 193 0
171 191 0
174 195 0
174 194 0
175 195 0
174 194 0
173 193 0
174 194 0
174 194 0
172 192 0
172 192 0
169 188 0
173 192 0
173 193 0
171 191 0
172 192 0
174 193 0
174 194 0
168 188 0
173 193 0
172 192 0
170 190 0
170 190 0
168 188 0
171 191 0
173 192 0
170 190 0
171 190 0
165 184 0
169 189 0
169 189 0
172 192 0
166 186 0
170 190 0
174 194 0
173 193 0
170 189 0
167 187 0
170 190 0
169 188 0
163 183 0
165 185 0
168 187 0
171 190 0
167 186 0
167 187 0
164 184 0
159 178 0
157 178 0
171 191 0
166 186 0
164 184 0
160 180 0
167 187 0
164 182 0
169 188 0
159 179 0
162 181 0
162 182 0
159 179 0
164 183 0
160 181 0
169 189 0
164 184 0
162 182 0
160 181 0
158 178 0
160 179 0
152 172 0
153 175 0
167 187 0
151 172 0
163 184 0
156 177 0
163 184 0
158 178 0
157 178 0
159 180 0
155 176 0
153 175 0
152 173 0
159 180 0
150 170 0
158 180 0
153 175 0
157 178 0
151 171 0
149 171 0
153 175 0
149 170 0
156 177 0
155 177 0
155 176 0
152 174 0
158 180 0
151 173 0
149 169 0
153 175 0
146 167 0
143 165 0
157 178 0
146 168 0
155 177 0
149 171 0
147 169 0
154 175 0
147 170 0
150 172 0
150 172 0
144 167 0
156 179 0
144 166 0
144 166 0
148 170 0
153 174 0
144 166 0
149 170 0
152 174 0
144 166 0
155 176 0
139 158 0
141 162 0
146 167 0
150 171 0
147 169 0
142 163 0
145 166 0
147 169 0
150 171 0
135 156 0
140 161 0
146 167 0
138 159 0
139 161 0
137 158 0
125 146 0
138 158 0
138 159 0
140 161 0
138 160 0
148 167 0
136 157 0
145 166 0
141 161 0
130 152 0
129 151 0
131 151 0
124 145 0
138 159 0
135 157 0
132 152 0
139 159 0
134 154 0
130 149 0
136 157 0
127 149 0
139 160 0
137 158 0
135 154 0
127 147 0
129 147 0
132 152 0
132 152 0
132 152 0
125 145 0
131 150 0
126 145 0
119 139 0
131 151 0
113 132 0
134 152 0
122 142 0
133 154 0
132 151 0
130 147 0
136 155 0
129 148 0
133 152 0
122 140 0
129 148 0
132 152 0
136 154 0
130 147 0
140 160 0
126 145 0
129 149 0
139 158 0
127 146 0
124 140 0
117 137 0
118 137 0
138 156 0
131 150 0
134 151 0
129 147 0
129 147 0
135 155 0
129 149 0
130 149 0
144 163 0
132 151 0
126 144 0
129 146 0
121 139 0
128 146 0
133 151 0
133 151 0
134 152 0
131 151 0
133 151 0
132 149 0
136 156 0
143 161 0
138 155 0
140 159 0
142 159 0
138 157 0
135 152 0
140 155 0
137 155 0
138 154 0
140 158 0
141 158 0
137 152 0
133 150 0
133 150 0
141 157 0
140 159 0
136 154 0
138 153 0
141 160 0
142 157 0
144 162 0
136 153 0
143 161 0
138 157 0
147 165 0
147 165 0
137 153 0
137 152 0
143 159 0
135 150 0
140 156 0
135 151 0
142 159 0
142 156 0
148 163 0
147 163 0
137 152 0
144 160 0
141 158 0
138 152 0
145 160 0
138 148 0
139 153 0
135 151 0
142 155 0
145 159 0
142 155 0
149 164 0
139 152 0
147 161 0
149 163 0
138 149 0
148 160 0
142 154 0
143 152 0
144 158 0
147 161 0
152 165 0
148 160 0
144 155 0
150 161 0
141 151 0
150 162 0
149 161 0
142 155 0
146 157 0
153 161 0
139 148 0
145 154 0
137 146 0
143 150 0
144 151 0
148 156 0
137 140 0
145 152 0
142 148 0
145 153 0
147 153 0
147 151 0
147 152 0
142 148 0
155 165 0
144 147 0
151 157 0
159 167 0
147 153 0
144 147 0
144 152 0
144 148 0
144 149 0
140 142 0
145 149 0
149 151 0
144 149 0
147 150 0
145 149 0
144 148 0
145 149 0
151 156 0
152 156 0
143 147 0
150 154 0
146 147 0
145 147 0
152 156 0
149 153 0
148 152 0
151 151 0
151 154 0
152 153 0
153 156 0
157 162 0
156 162 0
152 155 0
155 160 0
156 161 0
148 150 0
155 159 0
157 160 0
156 163 0
156 160 0
155 161 0
157 162 0
159 163 0
157 164 0
159 166 0
157 162 0
160 168 0
162 171 0
161 169 0
157 164 0
160 169 0
160 168 0
158 165 0
161 168 0
164 175 0
158 167 0
160 167 0
164 176 0
163 174 0
161 172 0
163 174 0
165 176 0
163 175 0
165 179 0
168 180 0
166 179 0
163 177 0
164 177 0
165 176 0
164 176 0
166 180 0
164 174 0
166 179 0
165 178 0
169 184 0
169 184 0
164 178 0
167 182 0
174 195 0
173 195 0
174 196 0
176 197 0
173 195 0
173 194 0
175 196 0
173 194 0
172 194 0
174 195 0
174 195 0
173 195 0
175 197 0
175 196 0
174 195 0
173 194 0
177 197 0
176 197 0
175 196 0
174 195 0
177 197 0
173 194 0
170 190 0
174 194 0
173 193 0
172 194 0
175 196 0
178 199 0
177 197 0
174 193 0
174 194 0
172 193 0
178 199 0
174 195 0
175 194 0
170 191 0
176 196 0
175 195 0
171 191 0
175 195 0
167 187 0
173 193 0
173 192 0
172 192 0
170 190 0
169 189 0
170 190 0
171 191 0
175 194 0
171 191 0
173 193 0
170 190 0
172 192 0
168 188 0
173 192 0
167 188 0
171 190 0
170 190 0
170 189 0
169 189 0
169 189 0
172 191 0
171 191 0
169 189 0
170 188 0
167 187 0
165 184 0
169 189 0
166 185 0
163 183 0
161 181 0
169 189 0
170 190 0
167 187 0
163 183 0
170 191 0
165 186 0
167 186 0
168 188 0
162 183 0
158 178 0
166 186 0
160 180 0
165 185 0
164 184 0
159 180 0
160 181 0
160 180 0
160 180 0
160 181 0
160 180 0
166 186 0
157 178 0
160 180 0
161 181 0
159 180 0
153 174 0
161 182 0
158 178 0
158 179 0
157 178 0
152 172 0
157 179 0
153 174 0
152 174 0
151 173 0
153 175 0
156 177 0
156 177 0
148 170 0
163 183 0
150 171 0
158 179 0
150 171 0
159 181 0
156 177 0
156 177 0
155 175 0
156 177 0
149 170 0
152 172 0
140 161 0
146 169 0
150 170 0
150 171 0
158 180 0
150 172 0
147 169 0
151 173 0
154 176 0
148 169 0
150 171 0
145 168 0
144 166 0
154 175 0
148 170 0
148 168 0
152 174 0
152 172 0
153 174 0
149 171 0
151 173 0
156 178 0
141 163 0
138 158 0
144 166 0
151 173 0
154 176 0
147 168 0
147 168 0
150 171 0
146 168 0
152 174 0
144 165 0
145 166 0
151 173 0
146 168 0
139 161 0
139 160 0
150 171 0
145 167 0
150 171 0
132 153 0
146 167 0
142 162 0
137 157 0
144 165 0
138 159 0
141 162 0
132 154 0
146 168 0
135 155 0
130 151 0
139 160 0
141 162 0
136 157 0
132 152 0
141 162 0
128 148 0
139 159 0
137 157 0
138 159 0
126 145 0
138 158 0
135 154 0
134 154 0
137 157 0
132 153 0
129 150 0
129 148 0
140 161 0
130 149 0
134 155 0
134 155 0
132 152 0
133 153 0
128 145 0
135 155 0
135 155 0
130 150 0
123 142 0
118 138 0
136 155 0
135 156 0
134 154 0
125 146 0
130 148 0
131 151 0
129 147 0
133 153 0
135 154 0
132 152 0
139 159 0
126 146 0
130 152 0
135 155 0
135 154 0
129 147 0
138 159 0
131 149 0
135 154 0
137 156 0
142 162 0
132 149 0
136 155 0
131 148 0
139 157 0
127 145 0
138 156 0
137 158 0
135 156 0
134 153 0
133 151 0
127 144 0
141 160 0
136 155 0
125 143 0
137 155 0
139 158 0
135 155 0
139 157 0
137 156 0
137 156 0
142 161 0
145 162 0
137 153 0
133 149 0
135 152 0
138 156 0
144 161 0
135 151 0
134 151 0
136 152 0
140 156 0
144 160 0
141 158 0
140 158 0
138 156 0
135 154 0
141 156 0
144 164 0
139 157 0
144 162 0
146 165 0
135 149 0
143 160 0
141 156 0
139 156 0
145 163 0
133 148 0
139 157 0
147 166 0
142 158 0
142 158 0
142 157 0
145 161 0
142 160 0
141 155 0
143 160 0
144 162 0
143 158 0
144 159 0
142 159 0
139 155 0
147 162 0
143 157 0
146 162 0
151 164 0
146 158 0
144 155 0
145 160 0
152 166 0
144 159 0
145 159 0
143 153 0
144 158 0
144 154 0
142 156 0
140 153 0
145 156 0
145 155 0
147 159 0
143 154 0
152 161 0
142 150 0
143 153 0
146 159 0
144 154 0
147 158 0
146 158 0
151 158 0
139 146 0
145 155 0
149 159 0
156 166 0
145 154 0
144 150 0
141 148 0
155 164 0
143 147 0
144 150 0
151 156 0
152 159 0
148 153 0
147 154 0
147 152 0
151 158 0
145 152 0
142 145 0
148 151 0
150 156 0
144 149 0
140 142 0
144 147 0
147 153 0
147 151 0
148 154 0
149 151 0
154 161 0
147 150 0
148 152 0
150 153 0
150 154 0
151 157 0
147 153 0
152 156 0
147 150 0
155 162 0
148 150 0
157 162 0
151 155 0
150 153 0
150 154 0
158 165 0
152 155 0
152 157 0
152 157 0
146 148 0
150 154 0
155 160 0
154 161 0
158 165 0
157 164 0
156 161 0
157 165 0
155 163 0
156 161 0
162 168 0
161 170 0
162 169 0
161 171 0
158 166 0
162 172 0
162 171 0
153 159 0
161 170 0
155 161 0
159 167 0
164 175 0
161 171 0
168 179 0
163 175 0
161 172 0
167 179 0
158 167 0
163 175 0
163 175 0
165 176 0
164 175 0
165 178 0
163 175 0
163 175 0
170 186 0
170 186 0
170 186 0
169 183 0
162 174 0
165 177 0
168 183 0
166 180 0
172 194 0
173 195 0
175 197 0
175 197 0
174 196 0
172 195 0
174 195 0
176 197 0
175 196 0
172 193 0
177 198 0
175 197 0
177 198 0
173 195 0
173 194 0
177 198 0
171 192 0
172 192 0
176 197 0
175 196 0
174 195 0
173 193 0
176 196 0
177 197 0
177 197 0
177 197 0
172 193 0
175 195 0
175 195 0
173 193 0
174 194 0
171 192 0
171 192 0
173 194 0
177 197 0
173 194 0
176 196 0
174 194 0
177 197 0
171 192 0
171 191 0
173 193 0
172 193 0
168 188 0
171 191 0
170 190 0
171 191 0
169 189 0
165 186 0
170 190 0
170 189 0
174 194 0
169 188 0
172 192 0
173 192 0
169 189 0
172 191 0
172 192 0
167 187 0
164 185 0
169 189 0
170 191 0
172 191 0
164 184 0
167 187 0
165 184 0
169 188 0
171 189 0
166 186 0
166 186 0
167 187 0
164 184 0
170 190 0
169 189 0
165 186 0
169 190 0
168 188 0
163 183 0
170 190 0
160 180 0
163 184 0
162 182 0
166 186 0
163 183 0
163 182 0
161 181 0
160 181 0
155 175 0
157 178 0
161 182 0
155 175 0
157 178 0
163 183 0
161 182 0
159 179 0
159 180 0
152 173 0
155 175 0
157 179 0
163 185 0
160 180 0
163 184 0
158 179 0
158 179 0
158 180 0
169 189 0
155 177 0
150 171 0
155 176 0
151 172 0
160 181 0
155 176 0
154 176 0
152 173 0
156 177 0
153 175 0
159 180 0
145 166 0
148 169 0
149 170 0
154 176 0
144 165 0
145 167 0
150 171 0
140 162 0
150 171 0
155 177 0
155 177 0
150 172 0
144 165 0
150 171 0
156 179 0
147 168 0
159 180 0
148 169 0
154 176 0
143 165 0
153 175 0
149 172 0
146 168 0
148 171 0
151 172 0
148 170 0
147 168 0
148 171 0
151 174 0
147 169 0
139 163 0
141 162 0
145 166 0
146 168 0
142 164 0
136 158 0
140 161 0
148 169 0
140 161 0
149 171 0
141 163 0
148 170 0
147 167 0
143 165 0
141 162 0
143 164 0
137 159 0
144 165 0
135 157 0
129 151 0
143 164 0
142 163 0
126 146 0
136 158 0
130 150 0
138 159 0
138 159 0
136 158 0
123 144 0
133 153 0
140 160 0
140 160 0
135 156 0
139 158 0
134 155 0
133 154 0
139 159 0
134 154 0
137 157 0
141 160 0
140 161 0
138 159 0
129 150 0
130 150 0
129 150 0
143 163 0
131 151 0
138 156 0
131 150 0
131 150 0
135 154 0
125 146 0
128 148 0
134 153 0
128 148 0
140 161 0
129 146 0
142 162 0
133 152 0
129 149 0
129 148 0
139 159 0
123 141 0
132 151 0
134 154 0
146 166 0
133 152 0
128 146 0
125 144 0
130 149 0
142 161 0
139 157 0
138 159 0
133 151 0
132 152 0
129 149 0
133 153 0
130 147 0
130 148 0
131 149 0
147 166 0
140 158 0
144 164 0
118 135 0
131 151 0
135 155 0
134 152 0
134 153 0
138 157 0
136 155 0
136 156 0
142 161 0
129 147 0
141 159 0
127 144 0
143 164 0
134 153 0
142 162 0
134 152 0
129 149 0
138 156 0
133 151 0
142 160 0
143 159 0
136 155 0
135 154 0
148 167 0
147 165 0
139 158 0
139 155 0
144 160 0
143 162 0
139 157 0
146 164 0
130 147 0
129 145 0
154 172 0
132 150 0
143 160 0
143 159 0
147 165 0
148 165 0
150 170 0
145 162 0
144 161 0
143 160 0
148 166 0
150 165 0
144 160 0
142 160 0
148 162 0
147 165 0
147 163 0
138 153 0
146 162 0
142 155 0
149 164 0
146 162 0
151 166 0
138 152 0
142 157 0
138 151 0
141 154 0
143 158 0
143 154 0
144 158 0
138 152 0
149 165 0
148 161 0
149 163 0
149 163 0
148 160 0
145 157 0
144 155 0
140 153 0
143 156 0
143 153 0
137 147 0
143 154 0
148 159 0
143 156 0
148 159 0
144 151 0
150 163 0
141 150 0
137 147 0
148 158 0
149 160 0
146 154 0
138 147 0
148 156 0
147 155 0
144 152 0
143 151 0
150 158 0
153 160 0
148 157 0
144 153 0
148 155 0
147 152 0
144 149 0
152 159 0
151 158 0
153 160 0
146 151 0
155 158 0
149 154 0
148 157 0
144 149 0
145 149 0
149 152 0
154 159 0
146 149 0
151 155 0
151 156 0
144 148 0
149 152 0
154 161 0
151 153 0
151 157 0
149 153 0
150 153 0
149 151 0
142 142 0
153 157 0
150 154 0
154 160 0
149 151 0
154 160 0
153 162 0
152 157 0
150 154 0
150 154 0
149 154 0
159 166 0
156 163 0
149 155 0
162 170 0
160 169 0
160 170 0
159 165 0
153 159 0
157 165 0
159 166 0
160 169 0
157 166 0
166 177 0
162 171 0
161 168 0
162 170 0
161 170 0
162 169 0
155 163 0
162 172 0
164 174 0
165 175 0
162 172 0
161 170 0
161 173 0
163 174 0
168 180 0
160 169 0
163 173 0
161 170 0
164 175 0
165 178 0
164 177 0
166 178 0
166 178 0
166 181 0
167 181 0
160 174 0
168 182 0
175 197 0
176 198 0
174 196 0
175 196 0
179 199 0
173 195 0
171 192 0
175 196 0
177 198 0
177 198 0
175 197 0
175 196 0
176 197 0
175 196 0
177 198 0
174 195 0
175 196 0
173 195 0
171 192 0
172 193 0
174 194 0
175 195 0
175 195 0
174 195 0
176 196 0
174 195 0
173 194 0
174 195 0
175 196 0
171 191 0
173 192 0
178 198 0
175 195 0
172 192 0
174 194 0
176 196 0
175 195 0
174 194 0
175 195 0
172 192 0
176 195 0
172 192 0
174 194 0
171 191 0
172 192 0
171 192 0
170 191 0
173 193 0
170 190 0
169 190 0
170 190 0
172 192 0
170 191 0
167 187 0
171 190 0
171 190 0
169 189 0
167 187 0
169 189 0
163 184 0
170 189 0
173 192 0
171 190 0
166 186 0
170 190 0
167 187 0
171 191 0
167 188 0
166 185 0
163 182 0
163 184 0
164 184 0
167 185 0
163 182 0
160 181 0
167 188 0
169 190 0
168 189 0
166 187 0
166 186 0
164 184 0
167 187 0
160 180 0
165 185 0
165 187 0
160 181 0
164 184 0
157 178 0
165 185 0
160 181 0
159 180 0
160 182 0
154 175 0
154 175 0
161 182 0
158 179 0
162 183 0
161 181 0
161 182 0
156 177 0
157 178 0
159 181 0
155 176 0
156 177 0
159 180 0
157 179 0
155 177 0
158 180 0
153 174 0
158 179 0
157 177 0
162 183 0
153 175 0
150 172 0
161 182 0
152 173 0
154 176 0
153 174 0
153 175 0
149 170 0
151 173 0
145 167 0
148 170 0
158 179 0
153 176 0
159 181 0
154 176 0
149 171 0
148 169 0
157 179 0
151 173 0
147 169 0
144 166 0
150 171 0
154 175 0
147 169 0
149 170 0
145 166 0
141 162 0
154 176 0
140 162 0
142 163 0
137 160 0
144 165 0
151 172 0
143 165 0
156 178 0
142 163 0
150 172 0
142 164 0
139 160 0
144 166 0
140 162 0
137 158 0
140 161 0
143 165 0
147 169 0
146 167 0
135 156 0
148 169 0
137 158 0
140 162 0
145 166 0
131 152 0
130 153 0
131 151 0
121 143 0
147 168 0
132 154 0
143 165 0
139 160 0
141 162 0
141 162 0
135 155 0
139 160 0
136 157 0
143 165 0
131 151 0
133 153 0
143 165 0
134 155 0
130 152 0
141 162 0
130 152 0
132 152 0
135 156 0
132 153 0
133 154 0
137 158 0
122 143 0
130 151 0
125 144 0
126 148 0
142 162 0
139 160 0
131 151 0
142 162 0
131 152 0
142 161 0
129 149 0
137 157 0
138 158 0
127 145 0
119 138 0
125 145 0
141 160 0
125 145 0
136 156 0
128 146 0
126 145 0
129 149 0
136 154 0
138 157 0
134 154 0
133 154 0
129 149 0
121 141 0
131 150 0
136 155 0
127 147 0
138 158 0
133 152 0
135 154 0
123 144 0
142 162 0
135 154 0
127 145 0
142 161 0
140 158 0
145 164 0
135 154 0
135 153 0
142 162 0
131 148 0
134 153 0
146 165 0
135 152 0
138 157 0
135 153 0
142 162 0
143 161 0
132 149 0
135 152 0
139 160 0
135 156 0
145 162 0
140 158 0
132 150 0
136 155 0
147 164 0
141 158 0
133 152 0
141 160 0
141 158 0
142 159 0
134 154 0
135 150 0
149 169 0
143 160 0
144 161 0
148 166 0
139 155 0
144 162 0
145 163 0
142 159 0
137 154 0
142 156 0
136 154 0
147 162 0
144 161 0
148 166 0
146 165 0
146 164 0
151 169 0
144 160 0
138 154 0
142 162 0
137 152 0
146 161 0
141 157 0
149 165 0
145 160 0
140 155 0
142 158 0
151 168 0
142 156 0
141 155 0
139 153 0
138 148 0
146 161 0
145 157 0
143 158 0
148 165 0
143 157 0
152 166 0
146 160 0
149 162 0
146 159 0
154 167 0
147 161 0
144 157 0
147 157 0
146 156 0
145 158 0
147 158 0
145 158 0
138 150 0
148 160 0
143 157 0
145 154 0
146 159 0
140 150 0
149 161 0
143 153 0
145 158 0
138 148 0
149 160 0
149 158 0
149 156 0
146 157 0
153 162 0
142 150 0
154 163 0
149 155 0
152 159 0
147 152 0
147 155 0
139 147 0
156 166 0
146 154 0
146 153 0
147 152 0
151 160 0
145 151 0
153 159 0
149 155 0
151 156 0
148 152 0
148 150 0
152 156 0
150 156 0
149 155 0
153 160 0
152 157 0
151 152 0
149 153 0
152 159 0
151 154 0
152 158 0
148 150 0
157 163 0
153 159 0
157 163 0
157 163 0
152 157 0
146 149 0
155 159 0
152 156 0
156 163 0
155 159 0
155 159 0
156 164 0
150 153 0
164 172 0
151 155 0
157 164 0
157 165 0
157 164 0
160 167 0
156 161 0
162 170 0
159 169 0
161 172 0
157 167 0
157 163 0
160 169 0
159 166 0
163 172 0
161 170 0
161 172 0
161 170 0
161 171 0
160 169 0
161 173 0
168 183 0
162 172 0
159 168 0
164 176 0
163 174 0
160 171 0
164 176 0
159 166 0
164 177 0
166 178 0
164 178 0
166 180 0
164 177 0
166 181 0
164 174 0
167 181 0
175 197 0
169 191 0
172 194 0
174 196 0
175 197 0
174 195 0
175 197 0
172 193 0
175 197 0
176 197 0
175 196 0
170 192 0
173 194 0
175 195 0
177 198 0
170 191 0
178 198 0
176 196 0
172 193 0
176 196 0
175 195 0
174 194 0
173 194 0
177 197 0
176 196 0
175 195 0
176 197 0
171 191 0
174 195 0
176 197 0
172 192 0
173 194 0
176 195 0
177 196 0
173 193 0
175 195 0
172 192 0
172 191 0
172 192 0
171 192 0
172 192 0
173 194 0
174 194 0
170 190 0
173 193 0
177 196 0
170 191 0
175 195 0
177 196 0
169 189 0
171 191 0
170 190 0
171 190 0
175 195 0
167 188 0
172 193 0
169 189 0
171 191 0
171 192 0
164 185 0
170 191 0
167 187 0
170 190 0
167 187 0
170 190 0
169 189 0
170 190 0
168 188 0
170 191 0
163 183 0
171 191 0
165 186 0
168 188 0
167 188 0
164 184 0
162 181 0
163 184 0
168 189 0
162 182 0
164 184 0
162 184 0
167 188 0
164 184 0
157 178 0
156 175 0
164 185 0
160 180 0
166 186 0
158 179 0
158 179 0
161 182 0
160 180 0
159 179 0
165 187 0
157 178 0
147 169 0
152 173 0
161 182 0
162 184 0
157 178 0
157 178 0
160 181 0
157 178 0
154 174 0
160 182 0
157 179 0
155 177 0
154 176 0
152 175 0
155 178 0
152 174 0
162 184 0
149 170 0
160 182 0
159 181 0
154 176 0
152 173 0
152 173 0
153 175 0
147 169 0
156 179 0
154 176 0
161 183 0
154 177 0
152 175 0
161 183 0
156 177 0
157 180 0
155 176 0
153 174 0
146 168 0
150 171 0
149 172 0
141 162 0
149 170 0
147 167 0
147 170 0
147 168 0
143 165 0
142 164 0
146 168 0
153 174 0
153 175 0
140 162 0
149 170 0
150 173 0
150 172 0
139 160 0
148 169 0
152 174 0
150 171 0
144 165 0
149 170 0
142 163 0
142 162 0
154 176 0
154 175 0
139 162 0
141 163 0
152 173 0
146 168 0
144 165 0
133 155 0
143 165 0
148 170 0
148 170 0
142 164 0
142 164 0
140 160 0
137 157 0
138 158 0
142 163 0
133 155 0
140 160 0
137 158 0
132 153 0
133 153 0
145 168 0
140 160 0
140 160 0
138 159 0
142 163 0
133 154 0
144 166 0
136 158 0
129 150 0
142 163 0
128 147 0
140 161 0
139 160 0
147 169 0
145 164 0
142 162 0
134 153 0
139 160 0
143 164 0
132 150 0
134 153 0
137 157 0
137 157 0
133 153 0
133 153 0
138 158 0
135 156 0
135 155 0
134 154 0
129 148 0
127 146 0
134 154 0
136 155 0
138 158 0
134 155 0
142 162 0
138 158 0
136 157 0
135 155 0
128 146 0
136 157 0
141 160 0
146 166 0
136 155 0
136 156 0
133 154 0
135 155 0
143 163 0
140 160 0
137 157 0
132 152 0
131 150 0
140 158 0
134 154 0
132 150 0
144 165 0
134 155 0
136 155 0
126 145 0
130 150 0
143 161 0
137 156 0
137 156 0
136 155 0
135 154 0
140 158 0
138 156 0
142 160 0
141 160 0
130 147 0
142 160 0
144 163 0
134 155 0
139 158 0
146 165 0
143 161 0
142 161 0
142 161 0
144 161 0
146 164 0
142 162 0
137 157 0
139 156 0
143 164 0
137 156 0
145 162 0
144 162 0
145 164 0
139 154 0
138 155 0
142 161 0
148 166 0
140 157 0
145 161 0
146 163 0
146 160 0
146 162 0
141 158 0
145 162 0
137 152 0
147 164 0
148 165 0
145 161 0
140 156 0
140 152 0
136 152 0
144 161 0
147 161 0
146 159 0
138 153 0
147 163 0
150 166 0
152 167 0
147 162 0
150 166 0
144 161 0
143 159 0
152 169 0
148 163 0
144 157 0
141 157 0
141 154 0
137 149 0
142 154 0
150 164 0
151 163 0
143 156 0
147 159 0
147 161 0
152 165 0
148 159 0
143 152 0
142 152 0
148 158 0
152 163 0
146 158 0
148 162 0
142 153 0
139 149 0
152 164 0
148 156 0
147 155 0
141 150 0
148 158 0
141 148 0
140 147 0
150 162 0
149 160 0
151 159 0
148 156 0
152 160 0
148 156 0
148 155 0
151 156 0
147 153 0
157 165 0
152 161 0
152 160 0
153 162 0
149 154 0
150 157 0
150 153 0
150 156 0
152 158 0
158 166 0
153 159 0
154 161 0
154 161 0
153 158 0
155 163 0
151 155 0
155 161 0
153 160 0
157 165 0
151 157 0
150 155 0
150 153 0
155 161 0
156 163 0
150 153 0
154 158 0
148 151 0
153 158 0
156 160 0
149 153 0
154 159 0
157 164 0
155 160 0
157 165 0
154 161 0
155 160 0
155 161 0
161 172 0
159 165 0
163 172 0
160 168 0
155 162 0
158 166 0
160 167 0
157 162 0
160 168 0
159 166 0
160 170 0
160 170 0
162 172 0
162 172 0
161 170 0
161 172 0
164 178 0
163 174 0
163 175 0
162 172 0
164 176 0
163 175 0
164 174 0
161 168 0
171 185 0
163 170 0
163 179 0
161 173 0
166 181 0
164 176 0
165 177 0
174 196 0
174 195 0
174 196 0
176 197 0
173 195 0
172 194 0
174 195 0
174 195 0
175 197 0
173 194 0
176 196 0
175 196 0
174 196 0
178 197 0
174 195 0
175 195 0
173 193 0
175 196 0
173 194 0
174 195 0
178 198 0
177 198 0
174 195 0
173 194 0
177 197 0
175 196 0
172 192 0
174 194 0
176 196 0
175 195 0
172 192 0
171 192 0
175 196 0
176 197 0
172 193 0
173 193 0
174 194 0
172 192 0
172 193 0
170 190 0
168 187 0
171 190 0
174 194 0
172 193 0
172 192 0
174 193 0
170 190 0
172 193 0
171 192 0
173 193 0
165 184 0
170 190 0
167 187 0
167 187 0
170 191 0
176 196 0
171 190 0
171 190 0
165 184 0
173 193 0
175 195 0
168 188 0
164 184 0
166 186 0
168 187 0
166 186 0
164 183 0
168 187 0
171 192 0
170 191 0
163 184 0
165 186 0
170 191 0
167 187 0
161 181 0
159 179 0
163 184 0
164 185 0
165 185 0
164 185 0
160 180 0
161 182 0
159 179 0
160 182 0
166 187 0
164 184 0
155 176 0
160 180 0
162 183 0
164 185 0
164 185 0
159 180 0
152 174 0
156 178 0
160 182 0
164 185 0
157 179 0
157 178 0
154 175 0
161 183 0
159 180 0
153 174 0
160 180 0
160 181 0
152 174 0
159 180 0
158 179 0
151 172 0
154 175 0
155 176 0
155 176 0
154 176 0
161 183 0
147 169 0
153 175 0
151 174 0
149 171 0
156 178 0
157 179 0
153 175 0
161 183 0
157 181 0
154 178 0
149 171 0
151 174 0
146 168 0
151 173 0
155 177 0
151 173 0
147 168 0
155 177 0
156 179 0
146 167 0
152 173 0
153 175 0
146 168 0
154 175 0
152 173 0
149 171 0
146 168 0
154 175 0
145 167 0
147 169 0
152 174 0
151 173 0
143 165 0
143 165 0
145 167 0
145 166 0
144 166 0
155 177 0
149 171 0
141 163 0
144 166 0
141 164 0
147 168 0
147 167 0
141 161 0
145 166 0
141 162 0
140 161 0
148 169 0
143 165 0
139 160 0
140 162 0
145 167 0
140 162 0
142 164 0
147 169 0
140 161 0
144 166 0
139 158 0
141 162 0
148 169 0
137 157 0
143 165 0
135 157 0
137 158 0
138 159 0
135 155 0
143 164 0
137 156 0
139 160 0
135 155 0
142 163 0
133 154 0
142 163 0
137 157 0
140 160 0
141 162 0
127 148 0
138 158 0
137 159 0
133 153 0
132 153 0
137 157 0
142 162 0
130 152 0
140 159 0
141 160 0
129 149 0
145 166 0
138 157 0
132 151 0
138 158 0
143 162 0
130 149 0
135 154 0
138 159 0
134 154 0
132 150 0
137 157 0
136 157 0
132 153 0
141 160 0
139 160 0
136 157 0
140 159 0
132 152 0
134 154 0
140 160 0
135 155 0
134 154 0
145 167 0
136 155 0
141 162 0
142 163 0
132 152 0
147 166 0
146 165 0
134 152 0
138 157 0
138 157 0
144 163 0
143 162 0
135 155 0
139 157 0
149 169 0
139 159 0
136 156 0
137 156 0
143 160 0
135 154 0
136 155 0
134 152 0
139 159 0
147 167 0
136 154 0
141 160 0
142 160 0
141 160 0
148 167 0
148 165 0
140 158 0
134 154 0
136 153 0
148 166 0
141 160 0
149 166 0
142 162 0
143 160 0
141 159 0
140 158 0
144 161 0
133 148 0
146 162 0
146 162 0
145 162 0
128 145 0
149 166 0
143 159 0
145 164 0
144 161 0
143 160 0
144 162 0
146 163 0
145 161 0
147 163 0
146 163 0
139 155 0
142 156 0
146 162 0
143 159 0
151 167 0
138 151 0
150 166 0
144 161 0
141 157 0
144 158 0
152 169 0
142 157 0
153 170 0
140 153 0
150 164 0
144 157 0
143 156 0
145 158 0
143 158 0
153 168 0
145 159 0
147 162 0
145 160 0
148 163 0
153 168 0
144 158 0
149 161 0
151 164 0
152 165 0
150 163 0
147 161 0
149 162 0
144 152 0
145 156 0
147 157 0
142 151 0
149 162 0
146 159 0
147 158 0
153 164 0
159 170 0
152 163 0
144 150 0
153 165 0
144 153 0
149 159 0
148 157 0
149 160 0
145 152 0
152 159 0
152 161 0
146 153 0
155 167 0
151 159 0
151 158 0
147 153 0
153 157 0
151 156 0
150 160 0
149 157 0
157 166 0
151 159 0
154 160 0
146 147 0
153 157 0
146 152 0
154 160 0
158 166 0
159 167 0
158 165 0
154 159 0
145 147 0
155 163 0
151 159 0
155 161 0
159 167 0
157 164 0
154 159 0
156 165 0
156 163 0
153 159 0
147 151 0
159 167 0
152 158 0
150 156 0
158 165 0
157 163 0
159 167 0
158 164 0
153 158 0
156 162 0
158 167 0
160 169 0
164 172 0
159 170 0
162 172 0
158 164 0
155 161 0
162 171 0
156 161 0
157 165 0
162 173 0
165 173 0
158 166 0
159 169 0
160 169 0
160 170 0
162 170 0
163 175 0
164 173 0
162 172 0
162 173 0
165 178 0
163 174 0
162 173 0
162 173 0
164 175 0
167 180 0
163 174 0
162 173 0
164 179 0
177 197 0
174 195 0
173 195 0
171 193 0
174 196 0
176 198 0
173 195 0
175 196 0
173 194 0
174 195 0
176 197 0
172 194 0
172 193 0
173 195 0
172 194 0
172 193 0
177 198 0
173 194 0
174 195 0
174 195 0
175 195 0
175 196 0
173 194 0
174 195 0
173 193 0
169 189 0
172 192 0
175 195 0
173 194 0
175 195 0
174 195 0
172 193 0
173 193 0
171 190 0
174 195 0
172 192 0
169 189 0
173 193 0
172 193 0
173 193 0
171 191 0
175 194 0
171 191 0
168 189 0
170 190 0
170 190 0
174 194 0
172 193 0
172 191 0
172 192 0
172 191 0
173 192 0
170 191 0
167 186 0
173 193 0
169 189 0
168 189 0
168 187 0
171 191 0
170 190 0
171 191 0
171 192 0
167 187 0
167 187 0
171 191 0
167 188 0
166 186 0
172 193 0
170 189 0
161 181 0
172 192 0
161 181 0
164 184 0
169 190 0
165 184 0
168 188 0
160 181 0
168 189 0
160 181 0
167 186 0
164 184 0
160 181 0
160 181 0
163 185 0
160 182 0
161 182 0
166 187 0
163 185 0
159 179 0
158 179 0
165 187 0
157 179 0
160 180 0
161 181 0
160 182 0
159 181 0
159 180 0
155 176 0
164 186 0
163 185 0
155 177 0
148 171 0
162 183 0
156 177 0
159 180 0
154 176 0
158 180 0
149 171 0
154 176 0
154 176 0
157 177 0
153 174 0
151 173 0
153 175 0
152 174 0
163 185 0
154 177 0
157 179 0
150 172 0
155 178 0
149 172 0
148 170 0
155 177 0
151 172 0
156 177 0
151 173 0
150 172 0
158 181 0
160 182 0
144 166 0
153 175 0
154 176 0
158 180 0
149 171 0
150 172 0
150 172 0
147 169 0
145 167 0
146 168 0
155 176 0
147 169 0
153 176 0
154 175 0
152 173 0
150 171 0
150 172 0
154 176 0
150 172 0
148 168 0
146 167 0
144 166 0
144 166 0
146 168 0
144 166 0
149 169 0
149 171 0
150 171 0
140 163 0
148 169 0
140 162 0
148 171 0
141 162 0
144 165 0
138 160 0
140 162 0
149 170 0
149 171 0
145 166 0
142 164 0
138 158 0
144 166 0
144 166 0
144 167 0
139 160 0
141 163 0
144 166 0
144 165 0
138 159 0
137 157 0
149 170 0
148 170 0
139 160 0
141 162 0
137 157 0
140 161 0
145 165 0
136 157 0
135 156 0
145 166 0
138 158 0
137 157 0
138 158 0
126 148 0
144 164 0
137 157 0
130 150 0
147 168 0
141 162 0
131 150 0
134 154 0
139 161 0
137 157 0
142 162 0
142 162 0
143 164 0
136 156 0
130 150 0
143 163 0
132 152 0
136 156 0
135 155 0
137 157 0
143 163 0
129 149 0
131 149 0
137 157 0
141 161 0
131 151 0
134 153 0
139 159 0
143 164 0
130 149 0
142 163 0
140 161 0
141 160 0
138 157 0
133 153 0
128 147 0
130 148 0
139 159 0
145 165 0
135 154 0
149 168 0
141 160 0
138 157 0
127 146 0
140 159 0
149 170 0
145 165 0
138 156 0
147 168 0
144 163 0
137 156 0
142 162 0
144 164 0
140 158 0
147 165 0
143 162 0
136 156 0
138 155 0
151 168 0
142 163 0
145 162 0
152 171 0
142 160 0
143 162 0
139 158 0
139 155 0
149 167 0
143 161 0
138 155 0
148 166 0
143 161 0
144 164 0
141 158 0
152 170 0
150 169 0
146 164 0
147 166 0
153 170 0
148 167 0
135 151 0
148 164 0
138 154 0
138 154 0
144 161 0
143 162 0
137 152 0
147 163 0
141 157 0
143 162 0
141 158 0
150 168 0
145 161 0
145 160 0
140 155 0
151 168 0
142 157 0
144 159 0
152 169 0
144 159 0
145 159 0
145 161 0
152 168 0
143 157 0
145 160 0
150 164 0
153 168 0
145 156 0
143 155 0
150 165 0
149 164 0
152 167 0
148 161 0
146 160 0
147 160 0
149 164 0
145 157 0
143 158 0
151 164 0
148 163 0
152 165 0
145 156 0
150 160 0
149 161 0
148 158 0
144 154 0
150 160 0
153 164 0
141 149 0
144 155 0
145 153 0
147 157 0
153 161 0
149 159 0
152 163 0
154 166 0
149 156 0
152 162 0
154 165 0
150 158 0
146 152 0
159 171 0
152 160 0
145 154 0
157 164 0
151 158 0
151 158 0
148 157 0
156 166 0
143 149 0
154 160 0
151 157 0
153 160 0
145 152 0
156 162 0
149 155 0
152 159 0
151 158 0
154 161 0
155 161 0
154 162 0
152 157 0
153 159 0
149 155 0
149 153 0
151 156 0
158 166 0
158 165 0
155 163 0
162 172 0
156 163 0
156 164 0
156 161 0
158 166 0
161 170 0
154 161 0
159 167 0
159 169 0
161 168 0
156 161 0
154 158 0
159 167 0
155 163 0
158 167 0
159 166 0
161 169 0
160 170 0
164 174 0
159 166 0
160 166 0
161 170 0
162 172 0
166 178 0
159 166 0
162 168 0
165 174 0
163 174 0
166 178 0
163 174 0
162 174 0
160 171 0
164 177 0
161 170 0
159 168 0
162 174 0
163 173 0
167 179 0
166 180 0
165 179 0
178 199 0
176 198 0
171 192 0
175 196 0
172 194 0
173 194 0
176 197 0
178 199 0
172 194 0
175 196 0
176 196 0
175 196 0
173 194 0
179 199 0
175 195 0
173 193 0
171 191 0
174 195 0
173 193 0
177 196 0
172 193 0
172 193 0
176 196 0
172 192 0
177 196 0
174 194 0
175 195 0
174 195 0
177 197 0
176 196 0
175 195 0
174 194 0
173 194 0
175 195 0
176 197 0
173 194 0
171 192 0
168 189 0
170 189 0
174 195 0
170 190 0
173 193 0
177 197 0
172 192 0
171 192 0
174 194 0
171 192 0
174 194 0
165 184 0
173 194 0
174 194 0
167 188 0
171 190 0
173 194 0
169 189 0
171 191 0
167 187 0
168 187 0
173 194 0
170 191 0
167 189 0
168 186 0
168 189 0
173 193 0
165 184 0
164 184 0
156 177 0
164 184 0
168 188 0
168 187 0
168 189 0
169 190 0
165 185 0
166 186 0
162 182 0
160 181 0
168 189 0
162 184 0
164 185 0
164 185 0
165 186 0
163 183 0
165 186 0
159 179 0
161 182 0
163 184 0
169 190 0
153 174 0
156 176 0
157 178 0
165 186 0
164 184 0
161 182 0
163 185 0
154 176 0
160 181 0
158 180 0
159 180 0
153 175 0
158 179 0
155 176 0
155 176 0
163 185 0
162 184 0
157 178 0
158 180 0
158 180 0
155 176 0
158 180 0
158 181 0
156 179 0
157 179 0
164 187 0
157 180 0
156 178 0
156 177 0
153 175 0
157 178 0
158 179 0
159 180 0
147 169 0
152 173 0
145 167 0
154 177 0
153 176 0
154 176 0
162 185 0
157 179 0
156 178 0
151 173 0
138 160 0
149 170 0
149 170 0
155 178 0
151 173 0
152 175 0
148 170 0
150 173 0
143 165 0
149 172 0
158 180 0
148 171 0
148 170 0
148 171 0
150 171 0
147 170 0
136 158 0
141 162 0
148 171 0
149 170 0
152 173 0
153 174 0
147 170 0
147 169 0
149 171 0
147 170 0
140 162 0
148 171 0
145 167 0
142 164 0
145 165 0
145 167 0
150 172 0
145 167 0
151 173 0
145 167 0
142 164 0
148 168 0
149 170 0
139 160 0
142 164 0
139 161 0
146 168 0
132 153 0
133 153 0
149 170 0
138 158 0
145 166 0
135 156 0
137 158 0
134 155 0
138 158 0
140 160 0
132 153 0
135 157 0
143 164 0
147 169 0
138 159 0
142 163 0
141 163 0
139 159 0
141 161 0
139 159 0
127 148 0
139 160 0
141 161 0
131 151 0
139 160 0
140 162 0
138 159 0
140 160 0
143 164 0
137 157 0
148 169 0
133 154 0
142 163 0
141 161 0
141 160 0
146 166 0
142 164 0
130 151 0
140 159 0
140 160 0
137 158 0
137 157 0
141 162 0
139 159 0
138 158 0
138 157 0
141 160 0
136 156 0
142 162 0
128 149 0
144 163 0
134 154 0
133 152 0
133 153 0
143 162 0
133 153 0
145 167 0
133 152 0
140 158 0
138 157 0
134 153 0
138 158 0
147 166 0
137 156 0
139 158 0
140 160 0
140 161 0
138 157 0
132 149 0
138 155 0
137 157 0
142 159 0
145 161 0
145 165 0
147 165 0
140 160 0
141 160 0
139 155 0
135 154 0
136 155 0
143 162 0
140 159 0
147 165 0
141 159 0
145 164 0
142 162 0
149 168 0
145 164 0
145 163 0
134 152 0
150 168 0
145 165 0
141 157 0
148 164 0
143 160 0
144 160 0
149 167 0
146 163 0
139 156 0
150 169 0
143 159 0
148 164 0
149 165 0
146 164 0
145 163 0
144 160 0
148 164 0
154 170 0
145 162 0
150 167 0
153 171 0
150 166 0
151 167 0
145 162 0
142 156 0
147 164 0
138 151 0
143 157 0
148 163 0
154 172 0
139 154 0
149 165 0
137 152 0
149 164 0
148 162 0
152 166 0
146 161 0
148 162 0
148 161 0
144 159 0
151 167 0
152 168 0
153 166 0
145 158 0
154 169 0
147 160 0
147 159 0
153 166 0
144 154 0
148 159 0
145 155 0
147 160 0
144 157 0
152 163 0
153 166 0
152 165 0
144 159 0
148 159 0
152 159 0
152 162 0
154 166 0
139 149 0
144 154 0
150 160 0
155 167 0
151 160 0
152 161 0
153 161 0
149 157 0
154 166 0
147 156 0
143 149 0
149 155 0
149 157 0
151 157 0
148 156 0
150 157 0
157 165 0
155 165 0
151 157 0
149 153 0
152 160 0
156 164 0
156 164 0
152 161 0
152 161 0
157 164 0
154 159 0
154 160 0
155 164 0
155 162 0
156 162 0
156 164 0
156 164 0
159 165 0
156 163 0
156 163 0
164 174 0
159 167 0
157 163 0
151 156 0
158 165 0
158 165 0
155 161 0
158 166 0
156 159 0
157 167 0
161 169 0
157 164 0
158 164 0
161 171 0
159 165 0
160 168 0
159 167 0
163 173 0
167 179 0
159 166 0
160 169 0
162 171 0
161 171 0
164 174 0
157 165 0
162 174 0
161 170 0
162 172 0
156 163 0
162 172 0
162 174 0
164 175 0
163 175 0
162 172 0
169 181 0
167 180 0
163 173 0
164 177 0
162 172 0
167 179 0
174 196 0
175 196 0
173 194 0
176 198 0
172 193 0
175 196 0
171 192 0
174 195 0
178 199 0
174 195 0
175 196 0
175 197 0
173 194 0
172 192 0
177 198 0
174 195 0
173 194 0
177 197 0
173 193 0
175 196 0
176 197 0
176 195 0
174 195 0
173 194 0
178 198 0
175 195 0
171 192 0
176 197 0
175 195 0
173 194 0
172 192 0
169 189 0
174 194 0
172 192 0
172 192 0
174 194 0
172 193 0
172 192 0
168 188 0
175 196 0
173 193 0
174 195 0
168 189 0
168 189 0
176 197 0
172 192 0
174 194 0
172 192 0
168 188 0
166 186 0
172 192 0
169 189 0
175 195 0
171 192 0
169 190 0
168 189 0
164 184 0
171 192 0
168 188 0
165 185 0
171 191 0
169 190 0
164 186 0
169 189 0
169 189 0
167 188 0
161 181 0
167 188 0
164 184 0
164 185 0
164 185 0
168 188 0
164 184 0
164 185 0
165 186 0
164 184 0
167 187 0
161 183 0
161 182 0
163 183 0
159 180 0
163 184 0
168 190 0
169 190 0
160 181 0
161 183 0
160 182 0
165 187 0
164 185 0
153 174 0
160 181 0
163 185 0
160 181 0
159 181 0
160 182 0
160 182 0
157 179 0
153 174 0
156 178 0
167 189 0
156 178 0
162 184 0
162 183 0
153 175 0
159 180 0
155 177 0
164 187 0
157 180 0
156 178 0
152 173 0
148 170 0
159 181 0
154 177 0
156 178 0
147 169 0
148 170 0
155 177 0
157 179 0
159 181 0
150 173 0
158 180 0
158 181 0
149 172 0
151 171 0
153 176 0
151 173 0
158 180 0
154 177 0
152 174 0
151 174 0
153 175 0
154 176 0
148 170 0
148 170 0
152 174 0
150 172 0
152 173 0
155 177 0
145 167 0
152 174 0
143 167 0
158 180 0
153 176 0
157 179 0
146 169 0
154 175 0
149 169 0
153 175 0
146 169 0
141 163 0
148 169 0
146 168 0
145 166 0
148 170 0
140 163 0
149 170 0
149 170 0
144 165 0
149 171 0
132 153 0
145 165 0
150 172 0
148 169 0
147 168 0
145 166 0
145 166 0
148 169 0
142 163 0
140 161 0
142 163 0
147 168 0
150 172 0
144 165 0
134 155 0
142 163 0
143 163 0
139 161 0
143 164 0
137 158 0
148 170 0
143 165 0
141 162 0
136 157 0
134 155 0
142 163 0
135 157 0
140 162 0
142 163 0
134 156 0
141 161 0
133 154 0
139 160 0
140 161 0
141 162 0
136 157 0
132 153 0
132 153 0
140 160 0
140 161 0
133 153 0
135 154 0
141 163 0
135 154 0
148 168 0
132 152 0
141 162 0
135 157 0
144 164 0
139 159 0
139 159 0
144 165 0
146 165 0
146 167 0
136 156 0
136 157 0
145 167 0
140 161 0
145 166 0
131 152 0
133 152 0
142 161 0
132 153 0
134 154 0
135 156 0
133 153 0
138 159 0
140 160 0
136 156 0
139 157 0
144 164 0
140 161 0
140 159 0
144 164 0
137 156 0
142 162 0
147 167 0
138 157 0
137 157 0
143 162 0
139 158 0
138 158 0
132 150 0
145 165 0
145 166 0
140 159 0
137 156 0
141 161 0
136 155 0
145 164 0
151 171 0
144 162 0
145 164 0
148 167 0
141 162 0
146 165 0
153 172 0
141 161 0
143 162 0
151 171 0
145 164 0
141 159 0
140 159 0
138 155 0
147 167 0
135 152 0
147 166 0
150 169 0
141 161 0
138 156 0
141 158 0
148 166 0
146 165 0
150 167 0
158 176 0
146 164 0
141 157 0
147 165 0
146 163 0
145 163 0
155 171 0
148 168 0
144 159 0
150 167 0
147 165 0
148 167 0
154 170 0
143 159 0
145 161 0
144 160 0
151 169 0
155 173 0
147 161 0
142 159 0
149 163 0
139 151 0
148 164 0
152 170 0
146 159 0
152 166 0
150 164 0
148 163 0
148 163 0
154 169 0
151 166 0
147 162 0
148 164 0
151 163 0
152 167 0
151 164 0
151 164 0
154 168 0
156 171 0
148 161 0
153 165 0
149 162 0
141 154 0
155 168 0
154 169 0
153 167 0
150 159 0
155 168 0
148 158 0
153 165 0
156 170 0
152 163 0
148 156 0
149 157 0
155 165 0
152 163 0
145 155 0
145 153 0
153 162 0
150 161 0
149 157 0
150 160 0
152 163 0
155 163 0
154 161 0
157 170 0
149 155 0
149 156 0
152 161 0
150 162 0
153 160 0
151 160 0
152 159 0
158 167 0
153 160 0
147 152 0
155 162 0
153 161 0
156 166 0
153 161 0
152 159 0
152 160 0
152 159 0
158 166 0
154 160 0
155 162 0
155 160 0
151 158 0
150 156 0
157 164 0
157 163 0
158 167 0
161 169 0
156 163 0
157 163 0
156 163 0
156 164 0
156 166 0
161 169 0
161 169 0
157 166 0
164 173 0
157 165 0
161 170 0
157 164 0
155 160 0
155 162 0
162 171 0
162 171 0
164 174 0
160 166 0
162 172 0
162 172 0
162 173 0
164 175 0
164 173 0
162 172 0
156 164 0
164 173 0
164 176 0
162 176 0
165 176 0
168 180 0
157 167 0
163 174 0
161 169 0
163 174 0
173 195 0
174 196 0
176 196 0
177 199 0
176 197 0
177 197 0
174 196 0
176 197 0
176 197 0
174 195 0
173 194 0
172 193 0
176 197 0
174 195 0
173 194 0
174 195 0
174 194 0
171 192 0
176 196 0
175 195 0
175 196 0
171 192 0
175 195 0
174 195 0
173 193 0
171 192 0
172 192 0
171 192 0
174 194 0
172 193 0
172 193 0
171 192 0
167 188 0
171 192 0
172 193 0
175 195 0
171 191 0
171 192 0
169 189 0
172 193 0
171 191 0
170 189 0
170 191 0
170 190 0
175 195 0
172 192 0
168 189 0
171 191 0
164 184 0
171 191 0
170 191 0
165 186 0
170 190 0
171 191 0
173 194 0
170 191 0
170 190 0
164 185 0
166 186 0
168 189 0
167 188 0
169 189 0
169 189 0
164 185 0
162 183 0
166 187 0
166 187 0
164 186 0
167 188 0
162 184 0
165 185 0
165 186 0
163 183 0
165 187 0
163 184 0
169 190 0
166 187 0
164 185 0
163 184 0
169 190 0
163 186 0
163 184 0
157 178 0
158 179 0
160 182 0
161 183 0
167 188 0
168 189 0
159 180 0
164 186 0
158 180 0
164 185 0
159 181 0
160 181 0
159 181 0
157 179 0
157 179 0
158 180 0
159 181 0
157 178 0
160 183 0
157 179 0
154 176 0
155 177 0
165 187 0
164 186 0
154 177 0
156 178 0
161 182 0
150 171 0
153 175 0
158 180 0
153 175 0
159 181 0
161 183 0
154 177 0
150 173 0
158 179 0
161 184 0
158 180 0
155 178 0
151 174 0
151 173 0
155 177 0
156 178 0
148 170 0
159 181 0
153 174 0
153 176 0
155 178 0
155 178 0
159 182 0
153 175 0
152 173 0
157 179 0
154 176 0
155 177 0
155 176 0
143 165 0
149 171 0
149 170 0
150 171 0
155 177 0
160 182 0
148 170 0
149 171 0
150 172 0
147 169 0
147 169 0
153 175 0
153 174 0
141 164 0
152 175 0
155 177 0
149 171 0
137 159 0
149 171 0
143 164 0
150 173 0
146 168 0
138 160 0
146 167 0
147 169 0
151 172 0
146 167 0
145 168 0
149 170 0
149 170 0
142 163 0
141 163 0
143 165 0
141 162 0
143 166 0
141 163 0
148 170 0
136 157 0
148 170 0
145 167 0
141 161 0
143 163 0
151 173 0
150 171 0
144 166 0
142 165 0
148 169 0
136 157 0
140 162 0
134 153 0
151 173 0
148 169 0
136 156 0
135 155 0
131 153 0
143 164 0
135 155 0
138 157 0
142 164 0
140 161 0
142 164 0
142 163 0
137 158 0
142 163 0
130 150 0
141 162 0
127 147 0
144 165 0
136 156 0
134 156 0
140 160 0
141 161 0
137 158 0
138 157 0
139 158 0
142 163 0
139 160 0
133 153 0
140 160 0
145 165 0
140 162 0
141 162 0
148 169 0
139 160 0
152 173 0
132 151 0
142 162 0
141 162 0
134 154 0
139 160 0
148 167 0
150 170 0
141 161 0
141 160 0
140 159 0
143 162 0
140 160 0
142 162 0
142 164 0
134 153 0
142 162 0
149 169 0
139 158 0
148 169 0
146 165 0
147 166 0
145 164 0
143 162 0
150 167 0
135 153 0
149 170 0
135 155 0
139 156 0
144 164 0
145 162 0
142 160 0
149 169 0
150 168 0
144 162 0
151 170 0
150 170 0
152 171 0
143 160 0
143 161 0
148 167 0
147 164 0
142 160 0
150 167 0
146 162 0
155 175 0
145 163 0
142 160 0
142 159 0
141 161 0
151 169 0
143 162 0
151 168 0
147 165 0
145 164 0
150 168 0
149 166 0
146 164 0
141 158 0
155 172 0
146 165 0
153 170 0
150 168 0
142 161 0
152 166 0
148 165 0
144 162 0
150 167 0
154 170 0
156 171 0
148 163 0
148 163 0
151 167 0
147 163 0
149 164 0
152 165 0
150 165 0
144 159 0
146 160 0
146 160 0
142 156 0
154 169 0
155 169 0
151 168 0
157 171 0
143 158 0
153 167 0
153 170 0
152 167 0
148 162 0
152 165 0
149 162 0
140 152 0
148 162 0
149 161 0
144 157 0
144 156 0
145 157 0
148 159 0
151 165 0
156 169 0
155 168 0
147 157 0
150 164 0
148 160 0
150 162 0
155 165 0
151 161 0
152 164 0
152 160 0
149 159 0
157 167 0
154 162 0
152 163 0
154 163 0
152 164 0
149 159 0
157 169 0
153 164 0
145 150 0
156 166 0
151 157 0
148 156 0
149 157 0
154 162 0
155 165 0
154 163 0
150 156 0
154 163 0
147 158 0
154 161 0
157 165 0
153 159 0
155 163 0
156 163 0
148 153 0
154 162 0
157 167 0
157 165 0
158 166 0
158 164 0
157 165 0
153 159 0
158 166 0
157 165 0
157 164 0
154 161 0
157 167 0
162 172 0
155 163 0
158 166 0
162 171 0
160 170 0
158 167 0
162 171 0
162 170 0
161 171 0
161 172 0
161 170 0
160 170 0
159 168 0
157 167 0
160 168 0
158 169 0
160 169 0
161 171 0
162 172 0
161 173 0
164 175 0
166 176 0
163 174 0
166 179 0
167 178 0
166 178 0
164 179 0
165 177 0
165 176 0
165 176 0
175 196 0
174 195 0
173 195 0
176 197 0
177 198 0
176 197 0
175 196 0
173 194 0
173 193 0
173 193 0
173 195 0
175 196 0
172 193 0
178 199 0
176 197 0
172 194 0
172 193 0
174 195 0
171 191 0
178 199 0
174 195 0
171 192 0
171 192 0
175 196 0
173 193 0
171 191 0
169 189 0
171 191 0
176 196 0
169 191 0
173 193 0
173 193 0
172 193 0
169 190 0
172 191 0
172 192 0
171 192 0
174 194 0
171 192 0
173 193 0
168 189 0
169 189 0
171 191 0
172 193 0
174 194 0
170 190 0
174 194 0
172 192 0
172 192 0
168 189 0
170 190 0
168 189 0
174 194 0
168 189 0
162 183 0
172 193 0
167 188 0
167 189 0
164 185 0
168 188 0
169 189 0
168 189 0
166 187 0
166 187 0
165 186 0
162 183 0
160 182 0
170 191 0
164 185 0
160 181 0
165 186 0
162 183 0
161 182 0
162 184 0
163 185 0
161 182 0
163 185 0
165 186 0
163 184 0
159 180 0
159 181 0
156 178 0
161 183 0
166 187 0
162 184 0
156 178 0
164 185 0
164 186 0
162 183 0
167 189 0
157 178 0
159 180 0
160 181 0
157 178 0
161 183 0
159 181 0
162 183 0
158 180 0
156 178 0
157 179 0
155 178 0
158 180 0
151 173 0
156 178 0
154 176 0
159 181 0
162 185 0
151 173 0
151 173 0
156 179 0
152 173 0
154 176 0
153 176 0
156 177 0
151 172 0
159 182 0
153 175 0
154 177 0
148 170 0
159 182 0
158 180 0
147 169 0
153 176 0
150 172 0
147 169 0
155 177 0
152 175 0
156 178 0
156 179 0
150 173 0
147 169 0
149 170 0
143 165 0
152 173 0
147 170 0
154 176 0
153 175 0
145 168 0
153 175 0
147 170 0
152 174 0
155 177 0
151 174 0
154 177 0
149 172 0
144 166 0
144 166 0
148 170 0
153 175 0
146 168 0
154 175 0
147 167 0
148 170 0
153 175 0
152 173 0
139 162 0
155 178 0
153 175 0
159 181 0
155 176 0
144 166 0
145 167 0
148 170 0
145 166 0
151 173 0
147 169 0
146 168 0
156 178 0
141 163 0
150 172 0
142 164 0
143 163 0
143 165 0
141 162 0
142 164 0
135 157 0
138 160 0
147 168 0
145 167 0
141 163 0
139 161 0
144 165 0
141 162 0
144 166 0
138 159 0
137 159 0
148 169 0
147 166 0
139 159 0
145 166 0
145 166 0
140 161 0
132 152 0
149 170 0
147 168 0
141 163 0
144 165 0
137 156 0
150 171 0
148 168 0
142 162 0
143 162 0
142 163 0
139 160 0
133 151 0
146 166 0
145 165 0
145 165 0
147 167 0
143 164 0
144 165 0
138 160 0
148 170 0
146 166 0
144 165 0
132 152 0
130 151 0
139 157 0
138 158 0
132 151 0
138 157 0
140 160 0
136 155 0
141 160 0
136 157 0
145 167 0
137 156 0
142 162 0
144 163 0
138 157 0
138 157 0
149 169 0
147 167 0
145 164 0
141 163 0
140 159 0
151 171 0
145 166 0
144 164 0
141 162 0
141 160 0
140 160 0
141 159 0
149 170 0
143 162 0
140 159 0
137 156 0
141 159 0
143 162 0
138 157 0
133 154 0
144 163 0
145 166 0
148 167 0
143 162 0
148 167 0
145 165 0
150 170 0
151 171 0
145 163 0
151 171 0
150 170 0
144 161 0
140 159 0
143 160 0
151 169 0
146 164 0
147 164 0
143 163 0
152 171 0
144 159 0
153 171 0
145 164 0
139 157 0
150 167 0
137 154 0
150 169 0
151 170 0
152 170 0
150 168 0
152 168 0
151 170 0
151 168 0
149 166 0
155 171 0
147 163 0
147 164 0
149 163 0
151 166 0
145 160 0
157 174 0
149 165 0
151 166 0
147 163 0
148 164 0
156 174 0
140 156 0
145 156 0
148 164 0
146 162 0
142 157 0
145 161 0
148 165 0
144 156 0
155 171 0
148 162 0
159 173 0
144 156 0
150 164 0
156 171 0
143 156 0
154 168 0
147 162 0
154 167 0
158 170 0
153 166 0
156 172 0
152 166 0
151 165 0
143 156 0
151 163 0
146 157 0
154 168 0
153 165 0
152 164 0
149 161 0
147 157 0
160 173 0
156 167 0
155 168 0
149 158 0
151 160 0
153 166 0
151 162 0
156 167 0
151 163 0
151 158 0
151 159 0
151 161 0
156 166 0
154 165 0
155 166 0
154 163 0
154 166 0
154 163 0
149 158 0
158 168 0
154 168 0
156 166 0
155 165 0
154 158 0
158 168 0
162 172 0
151 159 0
154 162 0
157 165 0
158 168 0
163 174 0
150 156 0
154 163 0
155 165 0
153 162 0
158 169 0
157 164 0
155 163 0
157 169 0
154 163 0
153 161 0
161 170 0
160 170 0
159 167 0
161 168 0
161 169 0
156 165 0
157 166 0
158 167 0
155 160 0
157 164 0
157 164 0
160 170 0
156 162 0
163 174 0
158 168 0
161 169 0
164 176 0
161 169 0
159 166 0
161 171 0
163 173 0
165 176 0
161 171 0
162 173 0
164 174 0
165 179 0
161 170 0
165 175 0
161 171 0
163 176 0
166 177 0
166 178 0
175 196 0
171 193 0
172 193 0
172 195 0
176 198 0
176 196 0
173 194 0
174 195 0
175 196 0
174 194 0
173 193 0
176 196 0
176 197 0
175 196 0
172 193 0
175 195 0
176 197 0
171 191 0
174 194 0
175 196 0
173 194 0
176 196 0
173 194 0
170 191 0
173 193 0
175 196 0
173 194 0
175 195 0
174 195 0
168 188 0
175 196 0
171 192 0
172 193 0
176 196 0
171 192 0
172 193 0
174 195 0
168 189 0
170 191 0
172 192 0
169 190 0
169 189 0
172 194 0
175 195 0
172 192 0
169 189 0
167 189 0
171 193 0
169 190 0
172 193 0
168 187 0
172 191 0
169 190 0
164 184 0
168 189 0
172 194 0
167 188 0
169 190 0
167 188 0
164 185 0
171 191 0
168 188 0
169 190 0
167 187 0
167 188 0
165 186 0
172 193 0
167 188 0
162 183 0
162 183 0
163 184 0
162 183 0
168 189 0
162 183 0
162 183 0
166 187 0
165 187 0
156 177 0
156 178 0
155 177 0
159 182 0
166 187 0
157 179 0
159 181 0
158 180 0
155 177 0
163 185 0
156 177 0
162 185 0
158 180 0
153 175 0
159 181 0
162 184 0
156 177 0
157 179 0
154 176 0
154 177 0
162 184 0
161 182 0
155 177 0
156 178 0
161 183 0
158 181 0
163 185 0
160 183 0
157 180 0
150 173 0
159 180 0
158 180 0
154 177 0
155 178 0
158 180 0
154 177 0
159 181 0
160 183 0
152 175 0
155 177 0
153 175 0
161 183 0
163 184 0
163 185 0
163 185 0
156 178 0
157 180 0
149 172 0
154 177 0
151 174 0
155 177 0
159 181 0
157 179 0
154 175 0
153 175 0
153 175 0
151 174 0
156 178 0
154 177 0
145 165 0
150 172 0
150 172 0
153 175 0
152 175 0
147 169 0
147 168 0
148 169 0
154 175 0
142 164 0
151 173 0
152 174 0
154 176 0
146 167 0
150 173 0
146 169 0
149 171 0
149 170 0
142 165 0
156 177 0
150 173 0
152 173 0
151 172 0
141 162 0
147 169 0
154 175 0
146 168 0
149 171 0
146 169 0
137 159 0
148 171 0
143 165 0
139 160 0
137 158 0
148 170 0
151 171 0
148 170 0
143 164 0
143 165 0
139 160 0
150 170 0
145 165 0
146 168 0
150 172 0
143 164 0
141 161 0
152 172 0
149 169 0
152 173 0
144 165 0
144 166 0
142 163 0
146 167 0
138 159 0
138 158 0
134 156 0
128 150 0
141 163 0
139 159 0
147 168 0
144 165 0
137 158 0
142 162 0
138 158 0
147 169 0
140 160 0
144 164 0
144 165 0
132 154 0
139 159 0
148 168 0
139 159 0
140 160 0
148 169 0
145 165 0
150 170 0
142 164 0
143 164 0
138 158 0
129 149 0
146 167 0
140 160 0
141 162 0
146 167 0
139 158 0
144 164 0
146 164 0
151 171 0
144 163 0
143 164 0
140 159 0
144 163 0
146 165 0
135 155 0
151 172 0
146 167 0
147 167 0
147 167 0
144 164 0
141 160 0
143 162 0
140 160 0
142 161 0
143 162 0
147 167 0
140 160 0
146 166 0
138 157 0
145 166 0
145 164 0
144 164 0
150 170 0
143 162 0
143 161 0
136 155 0
143 162 0
140 158 0
148 166 0
147 167 0
143 163 0
145 163 0
153 170 0
139 158 0
146 166 0
145 165 0
146 166 0
147 166 0
145 165 0
137 155 0
149 168 0
148 165 0
149 169 0
140 159 0
144 162 0
142 161 0
152 169 0
149 168 0
151 170 0
153 169 0
151 169 0
147 165 0
145 161 0
151 170 0
151 168 0
149 167 0
153 169 0
143 159 0
140 159 0
151 166 0
150 166 0
155 172 0
149 166 0
148 167 0
151 170 0
153 171 0
152 168 0
146 163 0
151 169 0
149 166 0
149 166 0
152 169 0
150 166 0
150 166 0
148 164 0
155 170 0
149 165 0
152 168 0
144 159 0
151 167 0
151 167 0
153 170 0
154 168 0
155 170 0
150 163 0
153 166 0
150 164 0
153 168 0
151 162 0
148 163 0
149 161 0
148 161 0
153 166 0
150 162 0
146 159 0
151 166 0
157 168 0
153 167 0
150 162 0
150 163 0
152 163 0
153 164 0
150 162 0
153 166 0
152 163 0
157 167 0
157 171 0
151 163 0
147 157 0
150 160 0
157 169 0
151 161 0
160 172 0
156 166 0
156 168 0
154 162 0
153 164 0
158 172 0
156 167 0
146 155 0
154 167 0
153 165 0
152 164 0
153 164 0
157 169 0
152 163 0
158 169 0
158 169 0
154 162 0
156 161 0
155 163 0
159 169 0
158 169 0
155 164 0
159 168 0
158 167 0
158 168 0
158 166 0
159 169 0
153 160 0
160 169 0
157 165 0
160 170 0
164 173 0
158 168 0
158 167 0
158 164 0
160 169 0
160 170 0
160 168 0
160 169 0
159 169 0
162 174 0
156 164 0
162 173 0
158 165 0
159 169 0
162 169 0
161 170 0
162 172 0
160 171 0
158 168 0
158 168 0
165 178 0
162 171 0
159 166 0
162 170 0
167 181 0
164 176 0
162 173 0
164 175 0
166 179 0
164 176 0
164 177 0
165 177 0
172 193 0
178 199 0
172 193 0
173 195 0
173 193 0
171 192 0
176 198 0
175 196 0
174 195 0
172 193 0
172 194 0
174 196 0
171 191 0
175 195 0
175 196 0
173 192 0
172 193 0
171 193 0
170 190 0
173 194 0
174 196 0
170 191 0
170 191 0
171 192 0
175 195 0
169 191 0
175 196 0
175 194 0
172 193 0
169 190 0
171 193 0
172 193 0
177 197 0
172 193 0
179 198 0
172 192 0
173 193 0
172 192 0
171 192 0
171 191 0
169 189 0
171 193 0
170 191 0
171 192 0
171 191 0
169 190 0
174 194 0
166 188 0
169 190 0
170 191 0
172 193 0
166 187 0
172 194 0
166 186 0
167 187 0
169 190 0
160 182 0
166 187 0
172 192 0
165 186 0
165 186 0
162 182 0
170 191 0
166 186 0
163 184 0
169 190 0
164 185 0
160 181 0
164 185 0
165 187 0
168 189 0
162 183 0
169 190 0
160 182 0
168 189 0
165 186 0
161 183 0
155 177 0
158 180 0
164 185 0
165 187 0
164 187 0
165 187 0
164 186 0
161 182 0
158 179 0
159 181 0
158 180 0
163 183 0
161 183 0
164 186 0
164 185 0
156 178 0
162 184 0
164 185 0
160 182 0
156 178 0
151 172 0
154 176 0
158 179 0
155 177 0
160 183 0
156 178 0
156 179 0
150 172 0
156 178 0
156 179 0
151 174 0
161 184 0
155 176 0
160 182 0
161 182 0
155 176 0
160 183 0
155 177 0
155 178 0
151 172 0
155 176 0
157 179 0
159 181 0
158 182 0
154 176 0
155 178 0
157 178 0
146 168 0
150 173 0
150 172 0
152 173 0
151 174 0
160 181 0
158 179 0
149 171 0
149 171 0
159 182 0
149 170 0
160 183 0
157 180 0
148 171 0
151 173 0
145 167 0
152 174 0
154 175 0
143 165 0
148 170 0
149 171 0
144 165 0
153 176 0
156 179 0
144 165 0
147 168 0
146 168 0
154 177 0
149 170 0
142 163 0
149 170 0
147 170 0
148 171 0
145 167 0
144 166 0
143 165 0
144 166 0
148 168 0
148 169 0
151 172 0
143 164 0
149 172 0
147 169 0
151 172 0
149 171 0
145 166 0
146 167 0
150 172 0
142 163 0
141 162 0
139 158 0
145 167 0
146 168 0
143 164 0
133 156 0
148 170 0
154 174 0
144 164 0
141 164 0
144 166 0
135 155 0
147 168 0
150 171 0
135 157 0
136 155 0
143 163 0
144 165 0
138 159 0
151 171 0
137 159 0
139 160 0
136 156 0
144 165 0
141 161 0
139 161 0
141 163 0
137 156 0
145 166 0
145 166 0
140 159 0
140 160 0
150 172 0
138 159 0
136 157 0
139 159 0
150 171 0
143 163 0
151 172 0
137 157 0
143 163 0
139 160 0
138 158 0
136 158 0
140 160 0
141 162 0
139 158 0
142 163 0
146 166 0
150 170 0
141 162 0
144 163 0
139 161 0
146 166 0
144 165 0
145 166 0
137 157 0
141 161 0
152 171 0
150 170 0
147 168 0
145 165 0
140 160 0
143 163 0
137 158 0
138 159 0
148 167 0
142 162 0
145 165 0
147 168 0
144 164 0
147 167 0
147 167 0
150 170 0
138 155 0
149 169 0
141 161 0
144 164 0
147 168 0
146 165 0
148 168 0
146 165 0
152 170 0
143 163 0
144 163 0
150 169 0
146 166 0
145 165 0
148 168 0
150 167 0
150 170 0
152 170 0
155 175 0
146 165 0
148 167 0
139 156 0
148 165 0
146 164 0
148 167 0
146 163 0
150 168 0
144 164 0
145 162 0
144 163 0
155 174 0
150 167 0
150 167 0
148 165 0
149 166 0
152 171 0
159 177 0
151 167 0
154 172 0
149 165 0
146 162 0
152 171 0
154 172 0
144 159 0
146 164 0
145 162 0
155 172 0
156 173 0
157 175 0
150 167 0
147 163 0
149 163 0
147 164 0
145 160 0
152 167 0
156 174 0
151 164 0
152 167 0
151 167 0
146 159 0
150 164 0
147 159 0
149 166 0
152 167 0
149 165 0
156 171 0
152 164 0
152 168 0
155 168 0
145 157 0
151 166 0
155 169 0
149 163 0
156 172 0
149 161 0
160 175 0
148 162 0
158 172 0
146 159 0
154 166 0
150 164 0
153 167 0
149 160 0
156 169 0
151 162 0
154 166 0
149 162 0
151 159 0
158 166 0
155 167 0
153 168 0
155 168 0
156 166 0
156 168 0
152 163 0
150 161 0
153 163 0
151 161 0
155 163 0
158 169 0
153 164 0
157 168 0
155 165 0
159 170 0
156 165 0
153 162 0
162 176 0
158 170 0
158 169 0
162 173 0
154 162 0
154 162 0
157 166 0
160 172 0
160 169 0
152 157 0
149 156 0
156 164 0
157 165 0
157 168 0
154 160 0
160 169 0
157 164 0
157 165 0
157 166 0
155 165 0
156 163 0
161 171 0
155 165 0
158 169 0
160 169 0
158 165 0
157 166 0
161 171 0
163 174 0
162 172 0
161 173 0
161 173 0
165 176 0
161 171 0
161 169 0
161 171 0
163 172 0
166 179 0
163 175 0
161 173 0
164 175 0
165 177 0
164 177 0
164 175 0
162 175 0
158 168 0
164 177 0
172 193 0
170 191 0
173 195 0
172 193 0
172 194 0
176 197 0
170 192 0
175 196 0
172 194 0
175 196 0
175 197 0
172 192 0
175 196 0
173 193 0
174 195 0
176 197 0
175 196 0
175 195 0
174 195 0
173 194 0
172 192 0
171 191 0
173 195 0
174 195 0
168 188 0
170 192 0
172 192 0
177 197 0
167 189 0
168 188 0
173 193 0
174 194 0
173 194 0
168 188 0
172 192 0
163 184 0
174 195 0
170 191 0
169 190 0
170 191 0
172 193 0
168 188 0
169 189 0
170 191 0
172 194 0
171 192 0
172 192 0
169 190 0
165 187 0
167 188 0
162 184 0
168 190 0
162 183 0
173 194 0
166 188 0
166 187 0
167 188 0
161 183 0
162 183 0
170 191 0
171 192 0
158 179 0
163 184 0
162 184 0
164 184 0
161 182 0
172 193 0
156 176 0
167 190 0
160 181 0
162 184 0
167 188 0
163 185 0
166 188 0
171 192 0
163 184 0
165 186 0
164 185 0
162 184 0
159 180 0
166 188 0
167 189 0
165 186 0
161 183 0
156 178 0
158 179 0
159 180 0
165 187 0
162 184 0
153 175 0
158 180 0
157 180 0
162 184 0
159 181 0
153 176 0
159 181 0
153 175 0
161 183 0
163 186 0
156 178 0
165 187 0
162 185 0
157 179 0
154 176 0
153 177 0
155 178 0
161 183 0
154 176 0
160 183 0
152 174 0
154 176 0
157 179 0
153 174 0
151 173 0
151 173 0
159 182 0
154 176 0
152 173 0
156 180 0
157 179 0
150 172 0
153 176 0
156 177 0
159 182 0
160 183 0
160 182 0
158 180 0
159 182 0
154 177 0
141 163 0
153 174 0
154 176 0
152 175 0
152 175 0
153 175 0
157 179 0
149 172 0
151 173 0
153 174 0
153 176 0
150 172 0
151 173 0
149 171 0
149 171 0
149 171 0
153 175 0
157 178 0
154 177 0
154 176 0
148 170 0
154 177 0
150 172 0
148 170 0
148 171 0
151 173 0
145 167 0
150 171 0
147 169 0
154 177 0
148 169 0
151 172 0
141 164 0
149 169 0
144 165 0
149 172 0
141 163 0
153 174 0
147 169 0
151 173 0
145 167 0
159 180 0
147 169 0
149 170 0
152 173 0
143 164 0
148 170 0
150 172 0
149 171 0
136 158 0
147 168 0
148 168 0
148 169 0
144 166 0
144 166 0
142 163 0
143 165 0
149 171 0
147 167 0
139 158 0
142 162 0
148 171 0
143 164 0
137 158 0
144 166 0
140 160 0
144 165 0
141 162 0
147 167 0
145 166 0
144 166 0
144 166 0
142 164 0
147 168 0
131 151 0
147 168 0
135 155 0
142 163 0
142 163 0
136 155 0
135 155 0
135 155 0
154 176 0
140 161 0
142 164 0
148 169 0
143 165 0
143 164 0
138 159 0
138 158 0
144 164 0
136 155 0
135 155 0
137 156 0
137 156 0
149 171 0
134 153 0
146 166 0
139 158 0
135 155 0
141 163 0
144 166 0
142 162 0
145 165 0
144 164 0
139 159 0
147 169 0
152 172 0
148 167 0
149 167 0
153 174 0
145 165 0
150 169 0
141 160 0
144 165 0
145 165 0
145 165 0
139 158 0
145 165 0
146 168 0
149 169 0
142 161 0
139 160 0
142 162 0
155 175 0
146 163 0
152 171 0
153 173 0
149 169 0
148 167 0
140 158 0
146 167 0
150 169 0
148 167 0
146 164 0
150 167 0
140 156 0
149 168 0
144 163 0
150 170 0
152 171 0
153 171 0
151 170 0
153 168 0
155 173 0
154 173 0
145 163 0
143 160 0
146 162 0
143 158 0
149 168 0
151 169 0
149 169 0
147 165 0
146 164 0
146 163 0
152 168 0
149 167 0
142 160 0
152 171 0
144 162 0
144 159 0
157 174 0
141 156 0
146 162 0
149 165 0
155 172 0
148 166 0
150 168 0
146 164 0
153 170 0
150 167 0
149 165 0
151 168 0
150 168 0
153 169 0
148 163 0
146 161 0
149 165 0
156 170 0
148 164 0
148 162 0
153 169 0
149 163 0
151 166 0
152 166 0
148 159 0
156 173 0
158 174 0
144 156 0
147 160 0
154 168 0
154 166 0
150 164 0
154 168 0
149 160 0
154 167 0
144 154 0
154 166 0
157 172 0
156 168 0
149 161 0
149 162 0
153 166 0
152 162 0
153 167 0
149 161 0
151 163 0
157 169 0
154 165 0
155 168 0
158 171 0
156 164 0
160 170 0
156 167 0
154 164 0
155 166 0
152 161 0
157 167 0
151 162 0
159 169 0
153 165 0
156 167 0
156 168 0
157 167 0
158 169 0
152 161 0
156 166 0
158 168 0
154 162 0
161 171 0
156 167 0
156 165 0
157 167 0
159 169 0
154 162 0
158 168 0
158 167 0
155 165 0
150 160 0
158 167 0
158 167 0
155 164 0
153 160 0
161 172 0
157 167 0
159 167 0
157 166 0
160 169 0
162 174 0
160 170 0
162 174 0
161 170 0
164 175 0
162 174 0
162 172 0
162 174 0
162 173 0
156 163 0
162 170 0
163 175 0
168 181 0
164 171 0
160 172 0
161 173 0
164 175 0
161 172 0
159 170 0
164 178 0
164 176 0
168 182 0
173 195 0
171 192 0
175 196 0
173 194 0
172 193 0
172 193 0
173 195 0
170 192 0
172 193 0
174 195 0
172 193 0
173 195 0
176 197 0
174 195 0
173 193 0
173 194 0
174 195 0
178 198 0
175 196 0
177 198 0
173 194 0
172 192 0
173 193 0
172 193 0
172 193 0
170 191 0
172 193 0
171 191 0
171 192 0
175 195 0
171 192 0
172 192 0
175 196 0
169 189 0
172 193 0
167 188 0
173 193 0
169 190 0
174 194 0
171 191 0
168 189 0
171 191 0
172 192 0
170 191 0
166 187 0
172 192 0
171 192 0
173 194 0
169 191 0
168 190 0
166 186 0
167 188 0
174 195 0
164 186 0
168 190 0
170 190 0
169 190 0
170 191 0
165 187 0
162 183 0
169 189 0
161 183 0
165 186 0
164 185 0
168 190 0
169 190 0
164 186 0
157 178 0
166 187 0
162 183 0
164 185 0
163 185 0
159 180 0
163 184 0
163 185 0
157 179 0
164 187 0
163 186 0
165 187 0
167 189 0
164 186 0
161 183 0
163 185 0
157 179 0
161 183 0
155 177 0
159 181 0
160 183 0
162 184 0
155 177 0
158 180 0
162 184 0
153 174 0
163 184 0
156 178 0
163 185 0
160 182 0
152 174 0
152 174 0
160 183 0
155 177 0
156 178 0
156 177 0
153 175 0
157 179 0
160 182 0
155 177 0
154 175 0
158 181 0
152 175 0
157 179 0
164 186 0
155 177 0
162 184 0
156 178 0
157 180 0
154 176 0
157 179 0
155 177 0
158 179 0
156 179 0
155 178 0
156 178 0
155 177 0
154 176 0
152 174 0
143 165 0
156 180 0
152 174 0
155 178 0
151 174 0
150 172 0
148 171 0
151 173 0
156 177 0
155 177 0
154 177 0
159 181 0
155 177 0
152 173 0
155 178 0
153 176 0
154 176 0
146 170 0
145 167 0
153 176 0
155 177 0
151 173 0
156 178 0
139 162 0
144 165 0
148 169 0
149 170 0
151 174 0
151 172 0
147 169 0
147 169 0
154 176 0
145 168 0
146 168 0
144 165 0
152 173 0
142 164 0
148 170 0
147 168 0
147 170 0
146 168 0
146 168 0
144 166 0
150 172 0
151 173 0
149 171 0
147 169 0
149 171 0
141 164 0
142 164 0
146 167 0
148 168 0
155 178 0
146 167 0
151 173 0
143 163 0
148 169 0
144 164 0
140 161 0
141 161 0
144 166 0
149 171 0
136 157 0
143 165 0
147 168 0
138 159 0
137 159 0
145 166 0
150 171 0
145 167 0
129 150 0
140 162 0
151 173 0
151 172 0
149 171 0
145 165 0
146 168 0
144 165 0
145 166 0
152 175 0
146 167 0
143 165 0
154 177 0
140 162 0
147 168 0
139 160 0
148 169 0
143 164 0
143 165 0
142 162 0
147 167 0
144 164 0
144 165 0
143 163 0
146 168 0
144 164 0
143 164 0
139 160 0
147 167 0
144 164 0
150 172 0
145 166 0
144 164 0
143 162 0
143 164 0
146 168 0
140 160 0
149 169 0
137 157 0
151 171 0
146 167 0
141 162 0
144 164 0
138 160 0
142 160 0
146 166 0
150 171 0
148 166 0
147 166 0
146 166 0
149 168 0
150 168 0
152 173 0
149 171 0
147 167 0
149 168 0
148 167 0
147 167 0
146 166 0
151 170 0
148 168 0
137 154 0
143 162 0
152 173 0
151 171 0
155 176 0
149 167 0
141 160 0
153 173 0
149 170 0
145 164 0
152 172 0
148 167 0
152 171 0
148 165 0
149 167 0
136 153 0
147 163 0
154 173 0
147 164 0
150 169 0
140 158 0
149 169 0
151 171 0
149 168 0
155 174 0
148 165 0
146 166 0
150 167 0
151 169 0
153 171 0
152 171 0
155 175 0
142 159 0
151 167 0
151 169 0
149 166 0
148 166 0
151 168 0
150 168 0
148 165 0
149 166 0
153 169 0
149 164 0
153 170 0
152 169 0
156 173 0
148 164 0
151 167 0
150 166 0
140 156 0
157 174 0
153 170 0
153 171 0
151 166 0
154 167 0
144 158 0
153 166 0
146 161 0
157 173 0
144 157 0
158 171 0
156 169 0
145 157 0
154 167 0
149 163 0
149 162 0
152 168 0
154 170 0
159 175 0
150 163 0
158 171 0
150 163 0
154 169 0
152 165 0
152 167 0
151 162 0
154 169 0
153 165 0
147 157 0
152 165 0
156 166 0
154 166 0
159 174 0
161 174 0
153 164 0
156 170 0
159 172 0
158 170 0
157 167 0
158 168 0
156 168 0
156 168 0
150 156 0
156 166 0
153 165 0
157 168 0
158 169 0
150 159 0
153 163 0
158 168 0
158 169 0
160 168 0
153 164 0
157 168 0
159 169 0
157 168 0
157 166 0
161 171 0
159 170 0
156 168 0
159 169 0
160 172 0
157 166 0
163 175 0
160 170 0
160 172 0
158 166 0
159 166 0
158 166 0
157 169 0
159 170 0
160 171 0
160 170 0
156 163 0
158 168 0
158 171 0
160 170 0
160 170 0
160 170 0
158 168 0
160 171 0
162 171 0
158 167 0
162 174 0
166 179 0
160 171 0
161 171 0
162 171 0
162 175 0
165 177 0
165 176 0
163 174 0
162 173 0
173 195 0
173 195 0
176 197 0
172 194 0
170 191 0
173 195 0
172 193 0
169 191 0
173 193 0
173 195 0
174 195 0
172 193 0
174 196 0
170 191 0
174 195 0
175 196 0
176 197 0
170 191 0
175 195 0
168 189 0
172 193 0
171 192 0
170 191 0
170 191 0
169 190 0
171 192 0
171 191 0
173 194 0
173 194 0
170 191 0
167 188 0
169 189 0
176 196 0
167 188 0
170 191 0
170 191 0
170 191 0
173 194 0
171 193 0
168 190 0
170 191 0
166 186 0
167 188 0
167 188 0
173 194 0
166 187 0
171 192 0
166 186 0
166 188 0
170 191 0
166 186 0
167 188 0
169 189 0
169 190 0
160 182 0
168 190 0
162 183 0
170 191 0
165 186 0
166 187 0
161 182 0
164 187 0
165 186 0
164 186 0
169 189 0
164 186 0
168 190 0
166 186 0
166 187 0
161 182 0
158 178 0
164 185 0
161 182 0
162 184 0
163 185 0
166 188 0
158 180 0
164 185 0
157 178 0
160 182 0
154 176 0
162 183 0
162 185 0
157 179 0
159 180 0
159 180 0
164 187 0
161 183 0
154 177 0
163 184 0
158 180 0
159 181 0
158 181 0
161 184 0
157 180 0
156 178 0
158 180 0
156 178 0
156 178 0
161 184 0
157 180 0
155 177 0
158 180 0
153 176 0
163 185 0
149 171 0
157 179 0
155 177 0
160 183 0
156 177 0
153 175 0
154 176 0
158 181 0
156 179 0
155 177 0
158 180 0
153 175 0
156 178 0
160 182 0
152 174 0
152 174 0
154 177 0
155 178 0
151 174 0
150 172 0
156 179 0
155 177 0
150 173 0
158 180 0
153 175 0
161 183 0
159 181 0
152 175 0
146 168 0
152 174 0
154 177 0
153 175 0
149 172 0
149 171 0
154 175 0
151 173 0
149 171 0
145 168 0
150 172 0
146 168 0
151 173 0
155 177 0
143 164 0
154 176 0
150 173 0
154 177 0
150 172 0
156 176 0
149 171 0
152 175 0
148 170 0
155 178 0
150 173 0
145 168 0
144 166 0
148 171 0
150 172 0
147 169 0
149 172 0
157 178 0
150 170 0
152 174 0
148 170 0
156 178 0
143 165 0
143 165 0
152 173 0
153 175 0
151 173 0
145 168 0
135 157 0
148 170 0
149 171 0
147 168 0
135 155 0
144 163 0
145 166 0
145 167 0
149 169 0
156 178 0
142 164 0
141 164 0
142 163 0
146 168 0
138 159 0
139 160 0
143 165 0
145 166 0
146 167 0
148 169 0
147 170 0
148 170 0
139 161 0
143 163 0
150 172 0
139 160 0
136 158 0
147 168 0
146 167 0
143 165 0
141 162 0
150 172 0
140 160 0
143 164 0
149 170 0
138 158 0
153 172 0
144 165 0
139 159 0
149 170 0
151 171 0
139 159 0
143 164 0
149 170 0
145 167 0
142 163 0
143 163 0
142 162 0
143 162 0
143 163 0
142 161 0
153 173 0
141 161 0
142 162 0
143 164 0
140 160 0
142 162 0
147 167 0
146 166 0
150 170 0
146 166 0
153 174 0
147 169 0
147 167 0
149 169 0
152 172 0
139 159 0
138 158 0
147 164 0
148 169 0
146 167 0
144 165 0
148 169 0
141 161 0
147 168 0
147 166 0
157 177 0
140 159 0
152 172 0
152 173 0
142 162 0
143 163 0
147 166 0
149 168 0
148 168 0
149 167 0
144 162 0
152 170 0
152 174 0
140 160 0
150 169 0
149 168 0
159 178 0
152 172 0
145 163 0
149 167 0
157 175 0
144 162 0
151 169 0
152 171 0
147 167 0
154 173 0
149 169 0
147 166 0
152 171 0
147 167 0
147 165 0
150 168 0
147 164 0
151 171 0
158 174 0
151 168 0
161 180 0
152 170 0
153 172 0
157 175 0
151 169 0
150 166 0
154 172 0
153 172 0
150 168 0
150 166 0
146 161 0
152 168 0
145 159 0
153 172 0
148 167 0
147 163 0
150 165 0
156 173 0
144 158 0
153 170 0
148 168 0
148 163 0
146 161 0
153 171 0
149 164 0
158 175 0
151 164 0
154 173 0
151 166 0
152 169 0
151 166 0
156 173 0
150 166 0
152 165 0
150 166 0
147 159 0
154 170 0
150 166 0
155 171 0
159 173 0
153 168 0
155 170 0
155 167 0
152 165 0
151 165 0
151 164 0
160 173 0
154 169 0
153 165 0
152 163 0
151 164 0
155 169 0
153 165 0
147 157 0
157 169 0
154 166 0
149 157 0
152 165 0
154 166 0
154 165 0
161 172 0
153 164 0
156 169 0
158 171 0
156 166 0
160 172 0
153 162 0
157 168 0
150 159 0
154 165 0
154 165 0
157 166 0
159 169 0
156 167 0
161 174 0
157 168 0
150 160 0
158 168 0
161 172 0
155 167 0
155 164 0
156 164 0
160 172 0
160 173 0
156 167 0
160 170 0
161 172 0
159 169 0
161 172 0
159 166 0
156 166 0
155 163 0
160 172 0
155 165 0
159 172 0
160 170 0
160 167 0
160 170 0
157 166 0
159 168 0
158 169 0
162 173 0
163 176 0
159 170 0
167 178 0
163 176 0
163 176 0
161 171 0
163 177 0
159 167 0
158 168 0
165 178 0
163 175 0
171 193 0
175 196 0
175 196 0
173 194 0
171 192 0
174 196 0
173 194 0
173 194 0
174 195 0
172 193 0
172 193 0
176 197 0
173 194 0
172 194 0
172 193 0
170 191 0
170 192 0
171 193 0
172 194 0
173 193 0
173 194 0
175 195 0
172 193 0
172 193 0
167 188 0
174 195 0
173 195 0
167 188 0
170 191 0
171 192 0
170 192 0
171 192 0
173 194 0
172 192 0
172 193 0
170 190 0
172 193 0
172 192 0
170 190 0
171 192 0
165 186 0
170 190 0
170 190 0
170 192 0
170 192 0
168 190 0
162 183 0
163 184 0
174 195 0
172 193 0
169 190 0
168 189 0
167 188 0
173 194 0
168 189 0
165 187 0
168 190 0
166 189 0
166 188 0
163 185 0
161 183 0
166 187 0
167 189 0
170 192 0
155 178 0
174 195 0
162 184 0
163 186 0
162 184 0
164 186 0
158 181 0
165 186 0
160 181 0
156 177 0
164 186 0
162 184 0
156 178 0
158 180 0
162 184 0
163 184 0
167 189 0
159 181 0
157 178 0
165 187 0
160 182 0
163 185 0
162 185 0
158 179 0
163 185 0
159 182 0
158 180 0
162 184 0
162 184 0
158 180 0
161 183 0
163 185 0
151 173 0
156 177 0
160 183 0
160 183 0
161 183 0
160 182 0
161 185 0
161 183 0
160 181 0
160 183 0
156 177 0
160 183 0
159 182 0
155 178 0
152 175 0
152 174 0
166 188 0
154 177 0
159 181 0
158 180 0
159 180 0
158 182 0
151 173 0
150 172 0
155 179 0
156 178 0
155 178 0
159 180 0
156 178 0
154 177 0
156 178 0
150 172 0
156 178 0
156 178 0
145 167 0
151 173 0
157 179 0
159 182 0
152 174 0
151 174 0
157 179 0
148 171 0
151 172 0
153 174 0
153 173 0
154 177 0
151 174 0
152 174 0
150 172 0
149 172 0
151 174 0
162 184 0
152 174 0
156 177 0
151 174 0
149 173 0
153 176 0
145 168 0
152 173 0
156 178 0
138 159 0
149 171 0
150 173 0
141 162 0
155 177 0
151 172 0
145 167 0
145 167 0
145 167 0
146 168 0
140 162 0
144 165 0
138 160 0
145 166 0
155 177 0
150 171 0
143 163 0
141 162 0
139 160 0
143 164 0
156 177 0
148 169 0
145 166 0
146 167 0
152 173 0
149 171 0
149 171 0
150 171 0
146 168 0
143 164 0
142 163 0
147 168 0
141 164 0
149 170 0
149 171 0
144 166 0
151 173 0
143 164 0
142 162 0
149 168 0
147 168 0
150 171 0
149 171 0
143 163 0
138 159 0
141 162 0
141 163 0
147 168 0
145 166 0
146 166 0
140 160 0
144 164 0
145 167 0
139 160 0
146 167 0
150 171 0
148 168 0
144 166 0
149 171 0
145 167 0
149 168 0
148 170 0
146 166 0
147 167 0
142 163 0
141 161 0
146 168 0
145 168 0
151 172 0
149 170 0
137 158 0
151 172 0
148 169 0
140 161 0
155 175 0
146 167 0
139 160 0
147 166 0
148 169 0
142 163 0
144 164 0
152 172 0
146 166 0
149 171 0
140 161 0
149 169 0
142 164 0
147 167 0
149 170 0
151 172 0
144 164 0
148 167 0
147 167 0
150 171 0
146 166 0
146 165 0
150 170 0
147 168 0
143 162 0
142 160 0
152 172 0
151 172 0
143 163 0
139 157 0
146 166 0
146 165 0
153 172 0
151 170 0
154 173 0
149 169 0
147 165 0
154 176 0
150 171 0
146 164 0
152 171 0
144 163 0
150 169 0
156 174 0
151 170 0
151 169 0
148 167 0
147 165 0
148 168 0
150 168 0
151 168 0
153 172 0
149 165 0
147 165 0
153 172 0
154 173 0
152 169 0
151 166 0
154 173 0
163 182 0
150 166 0
154 172 0
153 172 0
152 168 0
149 167 0
154 174 0
154 173 0
147 161 0
153 172 0
153 169 0
157 175 0
151 168 0
144 161 0
149 168 0
151 169 0
147 163 0
154 171 0
157 172 0
146 160 0
146 161 0
149 165 0
147 162 0
152 167 0
155 171 0
144 159 0
153 169 0
156 171 0
152 165 0
153 168 0
150 162 0
158 173 0
157 174 0
155 169 0
146 160 0
153 167 0
153 168 0
149 160 0
152 167 0
154 167 0
152 165 0
152 166 0
154 168 0
156 168 0
151 165 0
156 167 0
157 171 0
153 166 0
154 167 0
155 167 0
156 171 0
152 165 0
156 168 0
156 170 0
152 162 0
157 168 0
154 166 0
152 162 0
157 166 0
155 169 0
158 169 0
155 166 0
156 167 0
154 164 0
159 170 0
155 166 0
160 171 0
160 174 0
158 168 0
161 176 0
154 164 0
149 157 0
161 174 0
158 169 0
156 163 0
159 173 0
156 168 0
164 175 0
160 170 0
155 165 0
160 172 0
160 172 0
163 174 0
158 168 0
155 163 0
159 171 0
163 176 0
158 169 0
158 169 0
157 164 0
161 170 0
157 168 0
160 172 0
159 167 0
160 170 0
163 173 0
161 171 0
162 172 0
161 172 0
156 164 0
161 170 0
163 175 0
158 170 0
162 174 0
165 177 0
158 171 0
160 172 0
159 170 0
164 177 0
160 171 0
164 177 0
177 198 0
174 196 0
176 196 0
171 193 0
178 199 0
170 190 0
177 197 0
170 192 0
176 197 0
174 195 0
173 194 0
176 196 0
170 192 0
173 194 0
173 194 0
174 195 0
175 196 0
171 191 0
169 190 0
165 186 0
171 192 0
173 194 0
173 193 0
171 191 0
173 194 0
173 194 0
174 194 0
167 189 0
173 193 0
173 193 0
170 192 0
171 192 0
168 189 0
171 193 0
170 190 0
171 191 0
174 194 0
170 192 0
174 194 0
173 194 0
167 188 0
169 189 0
169 191 0
165 186 0
168 188 0
167 189 0
169 190 0
170 191 0
165 186 0
166 187 0
167 188 0
170 191 0
170 191 0
170 191 0
162 184 0
167 188 0
168 190 0
169 191 0
157 178 0
168 189 0
170 192 0
164 186 0
168 190 0
165 186 0
158 179 0
159 181 0
166 187 0
163 185 0
161 183 0
161 183 0
153 175 0
159 181 0
161 183 0
168 190 0
161 183 0
157 179 0
160 181 0
162 183 0
161 181 0
158 180 0
156 178 0
160 182 0
160 182 0
163 185 0
160 183 0
160 182 0
163 185 0
166 189 0
152 175 0
160 183 0
162 184 0
162 184 0
160 182 0
157 180 0
163 185 0
161 183 0
158 181 0
152 174 0
151 172 0
157 179 0
150 173 0
155 176 0
159 182 0
149 171 0
154 176 0
148 171 0
154 177 0
158 179 0
158 180 0
157 179 0
160 182 0
161 184 0
159 182 0
153 175 0
143 165 0
153 174 0
162 185 0
163 186 0
161 184 0
155 177 0
157 179 0
152 175 0
150 172 0
157 179 0
155 177 0
155 177 0
152 174 0
154 176 0
154 176 0
146 168 0
155 177 0
155 177 0
153 175 0
155 178 0
158 181 0
147 168 0
157 179 0
151 174 0
147 168 0
154 177 0
154 175 0
146 168 0
143 164 0
153 173 0
157 178 0
149 172 0
149 171 0
157 180 0
151 173 0
153 176 0
159 181 0
141 163 0
144 166 0
146 168 0
153 175 0
149 172 0
151 173 0
152 174 0
146 169 0
149 169 0
146 167 0
151 173 0
150 173 0
140 162 0
150 172 0
152 174 0
146 168 0
152 173 0
147 168 0
146 168 0
153 175 0
151 173 0
151 173 0
153 175 0
144 165 0
150 172 0
145 167 0
150 172 0
143 165 0
152 174 0
140 161 0
139 159 0
148 171 0
154 175 0
149 170 0
144 164 0
151 172 0
150 171 0
142 163 0
142 164 0
154 176 0
140 163 0
152 174 0
145 167 0
146 168 0
146 167 0
147 168 0
149 170 0
143 165 0
146 169 0
147 168 0
138 159 0
144 163 0
149 170 0
141 163 0
145 166 0
139 160 0
142 162 0
151 173 0
148 169 0
150 171 0
146 167 0
151 171 0
147 167 0
144 164 0
149 171 0
150 169 0
150 171 0
146 166 0
145 167 0
150 171 0
153 175 0
146 165 0
147 166 0
143 163 0
144 164 0
143 164 0
142 162 0
144 164 0
144 162 0
149 170 0
144 166 0
147 167 0
136 156 0
142 161 0
139 159 0
145 163 0
148 167 0
145 166 0
148 169 0
146 164 0
148 168 0
145 164 0
140 160 0
141 162 0
150 169 0
146 165 0
151 172 0
142 162 0
152 174 0
154 173 0
144 164 0
156 178 0
146 166 0
147 168 0
144 164 0
147 166 0
140 160 0
154 174 0
148 168 0
151 169 0
154 173 0
150 168 0
148 167 0
143 161 0
145 163 0
142 162 0
154 175 0
152 170 0
149 168 0
155 174 0
155 173 0
151 171 0
149 168 0
153 173 0
152 171 0
149 168 0
151 172 0
149 168 0
156 177 0
149 166 0
153 173 0
156 173 0
156 175 0
148 165 0
147 165 0
144 163 0
146 162 0
148 167 0
154 172 0
154 172 0
152 170 0
154 173 0
153 171 0
151 168 0
154 174 0
151 169 0
149 166 0
152 170 0
150 166 0
152 169 0
154 171 0
144 160 0
153 170 0
154 172 0
154 170 0
157 174 0
148 162 0
149 166 0
154 170 0
153 170 0
152 170 0
145 160 0
157 173 0
154 169 0
154 169 0
155 171 0
151 167 0
154 169 0
149 166 0
157 172 0
151 166 0
157 172 0
151 168 0
156 170 0
154 170 0
153 166 0
142 153 0
156 170 0
155 171 0
150 164 0
145 157 0
148 162 0
150 163 0
152 165 0
145 157 0
154 168 0
156 169 0
154 168 0
155 168 0
155 169 0
155 168 0
156 170 0
150 163 0
155 165 0
153 165 0
159 172 0
164 178 0
154 167 0
154 165 0
149 160 0
157 172 0
156 168 0
149 158 0
156 170 0
159 173 0
160 171 0
160 173 0
157 169 0
157 170 0
162 174 0
160 174 0
159 171 0
159 172 0
160 173 0
154 165 0
161 173 0
159 169 0
157 168 0
161 174 0
159 170 0
158 166 0
156 167 0
156 165 0
157 171 0
160 169 0
161 171 0
155 166 0
163 174 0
160 172 0
157 167 0
159 172 0
162 174 0
163 173 0
157 166 0
162 172 0
166 177 0
162 174 0
157 167 0
160 172 0
161 174 0
163 176 0
161 173 0
165 177 0
163 174 0
163 174 0
160 172 0
161 175 0
162 175 0
164 175 0
176 196 0
176 197 0
174 195 0
175 197 0
175 195 0
175 196 0
170 191 0
177 198 0
171 193 0
172 193 0
172 194 0
170 191 0
173 194 0
171 192 0
173 194 0
171 193 0
172 193 0
175 196 0
168 190 0
175 195 0
173 194 0
174 195 0
169 190 0
169 189 0
168 189 0
174 195 0
169 190 0
170 191 0
172 194 0
172 193 0
173 194 0
175 196 0
173 193 0
172 193 0
171 192 0
169 191 0
170 191 0
167 189 0
173 195 0
167 188 0
169 191 0
166 188 0
165 187 0
166 188 0
173 195 0
165 188 0
168 189 0
166 189 0
166 187 0
165 186 0
167 189 0
166 188 0
169 191 0
169 191 0
171 192 0
164 186 0
163 185 0
166 188 0
169 189 0
170 191 0
163 185 0
166 188 0
164 186 0
166 188 0
163 183 0
161 183 0
162 184 0
167 190 0
164 186 0
165 188 0
158 181 0
158 180 0
159 181 0
167 189 0
161 182 0
157 179 0
161 183 0
158 181 0
160 182 0
161 184 0
164 187 0
156 178 0
154 177 0
152 175 0
159 181 0
160 182 0
163 185 0
162 184 0
168 190 0
162 184 0
155 178 0
154 177 0
160 183 0
161 183 0
161 184 0
159 181 0
160 182 0
165 187 0
154 177 0
156 179 0
163 185 0
161 183 0
159 182 0
158 181 0
157 179 0
170 191 0
152 175 0
164 186 0
150 172 0
156 178 0
163 185 0
152 175 0
153 176 0
146 170 0
154 177 0
155 179 0
150 172 0
159 180 0
147 170 0
162 184 0
160 182 0
158 180 0
150 173 0
154 177 0
159 181 0
151 174 0
155 179 0
154 176 0
157 179 0
154 177 0
156 179 0
154 176 0
151 172 0
144 167 0
154 177 0
155 177 0
151 173 0
152 173 0
158 180 0
154 177 0
152 173 0
155 177 0
147 169 0
151 173 0
145 165 0
148 171 0
151 174 0
151 173 0
155 177 0
156 178 0
151 173 0
147 169 0
153 175 0
154 175 0
150 173 0
157 179 0
155 177 0
149 170 0
157 179 0
143 166 0
149 171 0
147 170 0
155 177 0
149 171 0
146 168 0
146 168 0
149 171 0
149 171 0
141 163 0
144 167 0
151 173 0
155 178 0
144 167 0
150 173 0
143 164 0
151 172 0
145 166 0
155 176 0
153 173 0
145 167 0
149 171 0
155 177 0
148 169 0
148 167 0
149 171 0
142 163 0
146 166 0
151 174 0
154 176 0
145 166 0
142 163 0
149 170 0
142 163 0
140 161 0
144 166 0
145 167 0
150 172 0
144 165 0
149 170 0
139 159 0
147 168 0
146 167 0
146 168 0
140 162 0
140 160 0
146 166 0
149 171 0
140 161 0
143 164 0
143 164 0
153 176 0
145 167 0
150 171 0
156 177 0
148 169 0
150 171 0
146 166 0
152 175 0
152 172 0
143 164 0
144 165 0
144 165 0
147 168 0
147 168 0
152 171 0
145 166 0
144 165 0
142 161 0
147 169 0
151 172 0
144 164 0
144 164 0
147 168 0
148 168 0
155 176 0
150 170 0
150 172 0
148 169 0
154 173 0
143 164 0
152 173 0
153 173 0
142 161 0
148 168 0
144 164 0
152 173 0
152 171 0
148 168 0
147 167 0
143 164 0
146 167 0
151 171 0
142 161 0
157 176 0
148 167 0
143 164 0
152 172 0
144 166 0
147 166 0
149 169 0
151 171 0
148 167 0
142 161 0
151 173 0
153 171 0
147 165 0
151 170 0
150 169 0
144 164 0
153 174 0
153 170 0
151 170 0
149 168 0
150 171 0
145 166 0
154 176 0
148 166 0
149 167 0
144 163 0
148 168 0
151 170 0
149 167 0
156 174 0
151 171 0
149 167 0
141 160 0
149 167 0
152 170 0
153 171 0
149 168 0
155 173 0
147 165 0
153 170 0
153 172 0
145 163 0
155 172 0
152 169 0
151 168 0
148 165 0
152 171 0
145 163 0
155 173 0
155 174 0
154 170 0
151 168 0
145 162 0
152 168 0
155 173 0
153 169 0
156 172 0
155 170 0
155 170 0
151 168 0
151 167 0
155 171 0
150 164 0
154 173 0
153 169 0
154 169 0
156 172 0
151 167 0
149 165 0
155 170 0
156 170 0
154 168 0
154 170 0
157 173 0
147 165 0
157 174 0
149 162 0
154 171 0
154 171 0
152 166 0
157 172 0
154 168 0
158 169 0
157 171 0
160 176 0
154 170 0
157 171 0
154 166 0
162 177 0
156 170 0
159 174 0
155 169 0
155 167 0
155 169 0
155 165 0
150 163 0
152 162 0
158 171 0
151 162 0
150 159 0
158 171 0
156 169 0
158 171 0
151 162 0
154 165 0
155 166 0
155 166 0
158 170 0
156 166 0
156 163 0
163 177 0
155 168 0
160 172 0
157 169 0
158 169 0
159 174 0
160 173 0
159 172 0
159 170 0
154 163 0
159 169 0
164 175 0
158 166 0
157 169 0
161 172 0
160 172 0
159 168 0
163 176 0
162 174 0
159 167 0
163 173 0
163 175 0
166 179 0
159 170 0
162 174 0
158 166 0
163 175 0
164 176 0
155 166 0
167 179 0
158 171 0
160 171 0
160 171 0
159 169 0
167 181 0
163 174 0
159 171 0
172 193 0
174 195 0
171 192 0
175 196 0
171 192 0
172 194 0
169 190 0
174 196 0
173 195 0
171 192 0
173 194 0
173 194 0
174 195 0
169 190 0
172 192 0
171 192 0
171 192 0
172 194 0
173 194 0
172 193 0
175 196 0
173 194 0
170 191 0
169 190 0
169 190 0
165 187 0
165 186 0
171 193 0
173 194 0
172 193 0
169 190 0
173 195 0
173 193 0
170 191 0
172 192 0
172 193 0
168 189 0
169 190 0
172 192 0
168 188 0
164 186 0
170 192 0
166 188 0
171 191 0
166 187 0
169 190 0
169 191 0
171 193 0
162 185 0
167 188 0
165 187 0
166 188 0
164 186 0
163 184 0
165 187 0
164 185 0
165 186 0
163 183 0
165 186 0
165 188 0
164 186 0
163 185 0
161 183 0
170 191 0
164 187 0
160 182 0
160 183 0
159 181 0
156 177 0
161 183 0
163 186 0
162 184 0
160 182 0
163 184 0
162 183 0
166 187 0
164 186 0
159 183 0
164 185 0
161 183 0
165 186 0
162 184 0
161 184 0
161 183 0
160 182 0
162 185 0
159 182 0
162 184 0
158 179 0
157 180 0
157 179 0
158 180 0
159 181 0
153 176 0
161 183 0
161 183 0
160 182 0
168 189 0
160 181 0
160 182 0
159 182 0
151 174 0
150 172 0
157 180 0
155 178 0
160 182 0
153 175 0
146 168 0
157 179 0
154 177 0
155 178 0
158 180 0
158 180 0
155 178 0
157 181 0
158 181 0
157 179 0
158 179 0
152 175 0
150 172 0
156 180 0
154 175 0
156 178 0
156 178 0
156 179 0
160 183 0
154 177 0
155 178 0
156 178 0
154 177 0
162 184 0
156 179 0
158 181 0
151 173 0
148 171 0
146 169 0
151 173 0
158 181 0
147 168 0
155 178 0
150 172 0
151 174 0
148 171 0
153 176 0
151 173 0
159 181 0
148 170 0
152 174 0
149 172 0
154 176 0
147 169 0
148 171 0
144 165 0
148 170 0
155 177 0
153 175 0
152 173 0
147 169 0
153 175 0
147 169 0
146 169 0
140 163 0
146 167 0
150 172 0
147 169 0
141 163 0
145 168 0
139 159 0
152 174 0
149 171 0
148 170 0
151 175 0
150 171 0
147 168 0
158 179 0
140 162 0
152 173 0
143 165 0
142 163 0
153 175 0
155 178 0
150 173 0
145 167 0
146 169 0
144 164 0
154 176 0
149 170 0
146 167 0
149 170 0
147 167 0
139 161 0
137 158 0
143 164 0
149 171 0
146 168 0
149 169 0
153 173 0
148 171 0
145 164 0
149 170 0
150 173 0
145 166 0
143 165 0
144 165 0
146 168 0
143 164 0
152 173 0
142 164 0
150 173 0
142 164 0
145 166 0
148 169 0
147 168 0
153 173 0
148 169 0
146 167 0
151 173 0
152 172 0
148 170 0
151 173 0
145 167 0
151 171 0
140 158 0
147 166 0
148 170 0
141 162 0
149 169 0
145 165 0
144 165 0
145 165 0
141 162 0
146 166 0
146 167 0
147 168 0
150 170 0
149 169 0
142 161 0
142 162 0
145 165 0
149 170 0
149 170 0
147 166 0
148 168 0
148 168 0
150 171 0
154 175 0
153 173 0
148 169 0
146 167 0
149 170 0
151 168 0
150 171 0
143 161 0
144 163 0
149 169 0
149 168 0
142 163 0
153 174 0
151 170 0
157 178 0
153 173 0
151 171 0
142 160 0
150 172 0
147 168 0
152 170 0
153 173 0
149 168 0
141 159 0
156 177 0
146 165 0
149 169 0
149 167 0
147 167 0
151 170 0
154 174 0
147 167 0
149 169 0
148 165 0
154 174 0
150 168 0
148 167 0
149 168 0
154 174 0
153 174 0
149 169 0
149 167 0
157 176 0
147 163 0
150 168 0
153 169 0
149 168 0
151 168 0
144 161 0
149 168 0
153 170 0
158 178 0
155 173 0
153 172 0
152 171 0
150 166 0
150 168 0
157 176 0
158 178 0
153 171 0
149 165 0
146 161 0
156 172 0
151 169 0
158 172 0
155 172 0
151 167 0
151 165 0
153 170 0
160 176 0
148 163 0
148 164 0
149 166 0
150 165 0
151 166 0
147 161 0
158 175 0
150 163 0
155 168 0
153 172 0
157 172 0
154 169 0
160 176 0
154 167 0
149 164 0
155 170 0
157 173 0
156 171 0
157 173 0
157 171 0
156 169 0
149 163 0
156 171 0
153 166 0
154 168 0
158 172 0
155 168 0
152 167 0
145 156 0
161 176 0
154 168 0
158 169 0
156 169 0
158 172 0
152 164 0
156 168 0
155 165 0
158 174 0
159 172 0
158 172 0
156 167 0
158 170 0
160 173 0
153 164 0
160 171 0
159 173 0
162 177 0
157 168 0
160 171 0
162 175 0
162 175 0
163 177 0
153 162 0
161 172 0
159 171 0
161 172 0
159 170 0
156 167 0
155 168 0
156 169 0
163 174 0
159 170 0
162 175 0
158 170 0
162 173 0
159 171 0
160 170 0
161 171 0
163 175 0
158 169 0
158 169 0
163 176 0
159 169 0
165 178 0
162 171 0
161 174 0
160 170 0
160 173 0
165 178 0
159 170 0
161 173 0
163 176 0
159 167 0
162 173 0
162 172 0
173 195 0
175 196 0
170 191 0
177 197 0
174 195 0
168 189 0
172 193 0
173 194 0
170 192 0
168 189 0
176 196 0
170 191 0
173 193 0
173 194 0
172 193 0
173 194 0
173 194 0
174 196 0
169 190 0
169 191 0
172 193 0
167 188 0
174 194 0
172 193 0
165 186 0
168 189 0
171 192 0
172 193 0
171 192 0
168 190 0
165 187 0
171 193 0
166 187 0
173 195 0
173 194 0
174 195 0
166 188 0
170 191 0
169 191 0
166 188 0
172 193 0
168 189 0
161 182 0
165 186 0
165 186 0
169 191 0
171 193 0
170 191 0
169 191 0
164 186 0
161 183 0
165 187 0
164 186 0
164 185 0
165 188 0
163 186 0
165 186 0
166 188 0
164 186 0
165 187 0
169 191 0
166 188 0
163 186 0
163 186 0
162 183 0
163 185 0
160 182 0
160 183 0
163 185 0
163 186 0
158 181 0
164 186 0
157 179 0
160 182 0
164 186 0
165 188 0
162 184 0
158 179 0
159 182 0
162 184 0
157 178 0
162 185 0
159 181 0
162 183 0
159 180 0
165 187 0
153 175 0
161 183 0
161 183 0
164 186 0
156 178 0
159 180 0
155 177 0
161 184 0
155 177 0
158 179 0
158 180 0
159 182 0
157 179 0
161 184 0
153 175 0
159 181 0
155 177 0
163 186 0
158 179 0
159 182 0
156 179 0
159 182 0
158 180 0
158 181 0
158 180 0
156 178 0
160 182 0
151 174 0
155 177 0
154 176 0
153 175 0
157 179 0
156 177 0
159 181 0
159 182 0
159 181 0
153 175 0
157 179 0
154 177 0
154 175 0
159 181 0
149 170 0
154 175 0
153 176 0
157 179 0
156 179 0
154 177 0
154 177 0
150 173 0
159 181 0
157 181 0
149 172 0
151 174 0
161 184 0
154 178 0
148 168 0
150 173 0
155 178 0
159 181 0
148 170 0
150 173 0
149 171 0
152 174 0
154 176 0
147 168 0
149 172 0
151 172 0
159 181 0
150 173 0
155 178 0
148 170 0
155 178 0
148 169 0
155 175 0
144 166 0
145 167 0
156 179 0
151 173 0
149 171 0
148 169 0
147 169 0
146 168 0
148 170 0
152 174 0
148 171 0
147 170 0
155 178 0
154 177 0
151 173 0
147 169 0
153 175 0
148 171 0
154 176 0
152 175 0
142 163 0
152 173 0
146 168 0
152 174 0
151 173 0
152 173 0
144 167 0
144 164 0
155 177 0
155 175 0
151 173 0
150 171 0
143 165 0
150 172 0
140 162 0
151 172 0
146 169 0
136 157 0
150 172 0
144 165 0
153 175 0
142 163 0
143 165 0
142 164 0
147 170 0
146 168 0
145 166 0
153 174 0
151 173 0
155 175 0
142 163 0
144 165 0
146 167 0
143 163 0
151 173 0
143 164 0
149 170 0
151 173 0
141 163 0
141 163 0
142 163 0
143 165 0
152 173 0
151 173 0
151 172 0
158 180 0
145 166 0
147 167 0
152 173 0
151 170 0
146 167 0
144 165 0
152 173 0
144 165 0
154 174 0
144 164 0
137 157 0
150 170 0
148 169 0
152 170 0
146 167 0
146 167 0
141 162 0
157 177 0
144 165 0
146 167 0
156 177 0
155 175 0
149 167 0
143 164 0
149 169 0
148 169 0
154 175 0
153 172 0
151 171 0
141 160 0
151 172 0
150 172 0
139 159 0
147 168 0
155 175 0
142 161 0
159 179 0
150 170 0
149 168 0
144 163 0
154 174 0
140 158 0
144 164 0
157 176 0
147 166 0
149 169 0
149 168 0
158 177 0
155 173 0
151 172 0
151 170 0
149 168 0
153 172 0
146 166 0
152 171 0
147 166 0
159 178 0
153 174 0
138 156 0
153 169 0
152 170 0
148 167 0
153 170 0
153 171 0
147 168 0
146 161 0
152 169 0
154 172 0
142 160 0
152 171 0
151 170 0
149 167 0
157 174 0
154 173 0
152 172 0
148 165 0
149 164 0
150 166 0
153 173 0
148 163 0
143 158 0
153 172 0
157 173 0
153 170 0
155 172 0
149 167 0
155 172 0
152 168 0
162 178 0
151 167 0
151 166 0
157 174 0
157 173 0
159 176 0
156 172 0
147 163 0
156 170 0
153 170 0
156 172 0
154 169 0
151 165 0
151 166 0
159 175 0
154 166 0
162 178 0
150 163 0
154 171 0
155 170 0
148 160 0
155 169 0
157 171 0
153 167 0
155 168 0
156 171 0
153 165 0
149 161 0
158 173 0
154 167 0
162 176 0
150 162 0
156 169 0
157 171 0
159 174 0
152 164 0
153 165 0
162 176 0
154 167 0
155 167 0
156 168 0
155 169 0
159 172 0
154 166 0
158 169 0
154 168 0
161 176 0
155 166 0
155 164 0
152 162 0
159 171 0
154 165 0
156 169 0
156 167 0
158 169 0
159 172 0
155 166 0
157 169 0
162 178 0
160 173 0
159 169 0
156 166 0
162 176 0
154 166 0
160 171 0
159 168 0
161 171 0
156 168 0
160 171 0
162 173 0
161 173 0
163 175 0
159 171 0
158 169 0
160 172 0
160 170 0
157 168 0
161 172 0
162 173 0
157 169 0
162 175 0
162 173 0
161 171 0
162 173 0
166 175 0
161 172 0
172 194 0
173 194 0
171 192 0
172 193 0
173 195 0
171 192 0
172 193 0
174 194 0
169 192 0
175 196 0
172 194 0
172 194 0
171 193 0
174 195 0
169 190 0
170 193 0
174 195 0
172 194 0
171 193 0
176 197 0
169 190 0
171 192 0
173 193 0
171 192 0
168 189 0
165 187 0
169 191 0
169 191 0
171 193 0
170 191 0
170 192 0
173 195 0
169 190 0
164 186 0
171 193 0
168 189 0
170 191 0
170 191 0
170 192 0
167 188 0
164 186 0
170 190 0
168 189 0
168 190 0
167 190 0
167 190 0
167 189 0
169 191 0
162 183 0
165 187 0
172 194 0
165 187 0
165 186 0
166 187 0
165 188 0
168 190 0
166 187 0
163 184 0
167 189 0
166 188 0
165 187 0
165 187 0
161 184 0
168 189 0
158 180 0
168 190 0
164 186 0
164 185 0
160 183 0
157 179 0
161 184 0
165 187 0
159 181 0
160 183 0
161 184 0
166 188 0
162 185 0
160 182 0
165 186 0
164 186 0
162 185 0
165 186 0
163 186 0
156 179 0
161 184 0
160 183 0
155 178 0
160 182 0
156 180 0
164 186 0
160 182 0
156 178 0
163 184 0
165 187 0
164 185 0
164 186 0
152 175 0
157 181 0
162 183 0
160 183 0
154 178 0
152 174 0
154 177 0
160 183 0
155 177 0
153 176 0
154 177 0
157 179 0
159 182 0
152 175 0
161 184 0
159 182 0
155 178 0
156 178 0
156 179 0
156 179 0
153 175 0
158 180 0
158 181 0
157 180 0
146 168 0
158 180 0
158 179 0
162 184 0
156 180 0
157 179 0
149 172 0
145 168 0
149 171 0
157 179 0
161 183 0
152 173 0
154 176 0
154 177 0
159 181 0
159 182 0
157 180 0
145 167 0
154 177 0
156 179 0
150 172 0
150 173 0
148 170 0
160 183 0
150 171 0
154 176 0
153 176 0
152 174 0
146 168 0
157 179 0
152 175 0
159 181 0
153 175 0
153 174 0
157 179 0
155 178 0
148 170 0
149 171 0
157 179 0
149 171 0
160 184 0
144 165 0
148 170 0
153 176 0
143 166 0
147 169 0
156 177 0
151 172 0
155 177 0
148 171 0
149 171 0
148 171 0
153 174 0
156 178 0
147 168 0
153 175 0
147 169 0
152 174 0
150 172 0
151 174 0
145 165 0
153 175 0
145 167 0
141 164 0
151 172 0
149 171 0
146 166 0
143 164 0
145 166 0
149 170 0
154 176 0
144 167 0
148 169 0
149 170 0
146 166 0
153 173 0
153 175 0
144 164 0
145 166 0
147 169 0
147 168 0
149 170 0
133 155 0
149 171 0
151 172 0
156 179 0
143 164 0
146 167 0
158 179 0
140 161 0
143 162 0
150 171 0
155 175 0
152 173 0
154 174 0
149 170 0
148 169 0
150 171 0
150 172 0
149 170 0
143 164 0
144 166 0
153 175 0
147 166 0
141 163 0
152 173 0
151 172 0
147 168 0
154 176 0
147 166 0
150 172 0
146 167 0
146 168 0
146 167 0
151 171 0
147 167 0
153 174 0
152 172 0
148 169 0
144 164 0
142 162 0
151 172 0
151 173 0
149 172 0
142 163 0
150 170 0
146 164 0
153 174 0
149 168 0
152 171 0
139 159 0
145 165 0
152 172 0
149 170 0
147 168 0
153 172 0
152 173 0
151 171 0
153 174 0
148 168 0
159 179 0
153 171 0
152 172 0
151 172 0
146 166 0
146 166 0
146 167 0
149 168 0
148 167 0
157 180 0
154 174 0
150 170 0
150 170 0
158 179 0
149 168 0
156 174 0
149 168 0
150 168 0
149 166 0
147 168 0
152 170 0
155 174 0
152 171 0
152 172 0
154 174 0
153 171 0
154 173 0
156 176 0
156 175 0
151 168 0
151 171 0
151 169 0
151 168 0
151 170 0
146 163 0
149 169 0
154 172 0
154 170 0
153 172 0
153 169 0
153 173 0
155 173 0
151 169 0
151 169 0
153 172 0
157 174 0
155 172 0
156 172 0
154 172 0
158 173 0
150 167 0
154 171 0
158 175 0
156 174 0
155 173 0
157 173 0
154 171 0
148 164 0
153 168 0
144 158 0
156 173 0
155 170 0
156 171 0
152 168 0
152 165 0
162 177 0
154 172 0
153 167 0
159 174 0
155 172 0
149 164 0
149 163 0
154 169 0
158 173 0
161 178 0
157 173 0
156 173 0
156 172 0
159 173 0
154 169 0
157 170 0
155 168 0
155 171 0
153 168 0
155 171 0
156 171 0
153 167 0
160 175 0
154 167 0
152 166 0
159 173 0
156 167 0
161 175 0
153 167 0
151 163 0
161 175 0
158 174 0
160 172 0
158 170 0
162 176 0
155 168 0
160 171 0
164 178 0
159 172 0
156 171 0
158 171 0
159 172 0
154 166 0
161 173 0
158 168 0
163 176 0
159 174 0
160 172 0
164 177 0
158 169 0
159 172 0
161 172 0
156 169 0
163 176 0
158 167 0
162 175 0
159 170 0
159 174 0
155 168 0
159 168 0
160 174 0
161 172 0
162 177 0
157 168 0
163 174 0
158 167 0
164 176 0
160 173 0
160 168 0
159 170 0
163 178 0
163 175 0
162 176 0
163 174 0
161 175 0
175 196 0
172 194 0
173 194 0
171 193 0
173 195 0
168 189 0
171 192 0
167 189 0
170 191 0
168 190 0
172 192 0
174 195 0
173 195 0
171 193 0
172 193 0
172 193 0
174 196 0
170 191 0
169 190 0
169 190 0
175 196 0
169 190 0
170 192 0
170 192 0
167 188 0
167 188 0
173 194 0
169 190 0
166 189 0
165 187 0
163 185 0
171 192 0
168 189 0
170 191 0
168 189 0
165 187 0
167 188 0
169 190 0
167 189 0
165 186 0
164 186 0
171 193 0
168 190 0
169 192 0
166 188 0
168 189 0
165 187 0
160 182 0
169 191 0
168 190 0
171 192 0
168 189 0
169 190 0
168 191 0
161 184 0
164 185 0
164 185 0
164 186 0
160 182 0
163 185 0
163 185 0
162 184 0
165 185 0
162 184 0
162 184 0
156 178 0
160 183 0
167 189 0
158 179 0
167 188 0
163 185 0
157 179 0
157 179 0
167 189 0
161 183 0
163 186 0
162 184 0
158 180 0
162 184 0
163 185 0
158 180 0
161 183 0
157 180 0
158 180 0
162 185 0
161 184 0
162 184 0
161 183 0
157 178 0
159 180 0
160 183 0
157 180 0
156 179 0
168 191 0
164 186 0
162 184 0
160 182 0
161 185 0
154 177 0
161 183 0
155 176 0
161 184 0
162 185 0
158 181 0
161 183 0
158 181 0
154 177 0
159 181 0
159 182 0
150 172 0
158 181 0
157 180 0
157 180 0
157 179 0
156 178 0
158 180 0
162 185 0
153 176 0
163 185 0
160 182 0
155 177 0
158 180 0
152 176 0
153 175 0
159 181 0
155 178 0
158 181 0
153 175 0
155 178 0
159 181 0
155 179 0
155 177 0
156 179 0
157 181 0
155 177 0
153 176 0
150 173 0
148 171 0
156 179 0
155 178 0
152 173 0
152 174 0
152 175 0
152 173 0
150 173 0
159 181 0
153 176 0
155 178 0
145 167 0
148 169 0
152 174 0
152 174 0
152 173 0
152 174 0
153 174 0
154 175 0
151 173 0
146 169 0
152 175 0
151 173 0
152 174 0
162 184 0
146 167 0
155 177 0
155 177 0
148 170 0
148 171 0
156 178 0
148 170 0
148 171 0
153 176 0
142 164 0
146 167 0
149 170 0
143 165 0
149 171 0
152 175 0
148 170 0
154 178 0
151 174 0
152 175 0
144 166 0
142 163 0
144 166 0
145 167 0
145 167 0
152 174 0
149 171 0
153 175 0
154 176 0
148 171 0
144 165 0
157 180 0
144 165 0
144 166 0
158 179 0
150 171 0
146 167 0
153 174 0
148 169 0
153 175 0
149 170 0
155 177 0
139 160 0
141 162 0
149 170 0
142 163 0
142 164 0
153 173 0
145 167 0
151 173 0
148 169 0
152 172 0
147 167 0
149 172 0
148 169 0
144 165 0
145 167 0
149 169 0
141 161 0
146 168 0
149 168 0
141 162 0
150 173 0
134 155 0
139 159 0
147 168 0
149 170 0
154 176 0
145 166 0
150 172 0
151 172 0
143 164 0
153 174 0
146 166 0
147 169 0
146 167 0
146 167 0
143 165 0
149 169 0
149 170 0
140 159 0
148 169 0
140 160 0
145 166 0
155 176 0
145 166 0
154 175 0
156 175 0
153 174 0
147 167 0
146 166 0
142 163 0
151 171 0
152 172 0
149 168 0
148 167 0
142 162 0
149 169 0
153 172 0
150 169 0
147 167 0
144 164 0
153 173 0
149 169 0
142 161 0
148 169 0
153 173 0
147 166 0
155 174 0
146 167 0
149 169 0
158 177 0
147 165 0
150 170 0
152 170 0
149 169 0
150 170 0
143 161 0
149 167 0
158 177 0
153 173 0
154 174 0
144 163 0
152 170 0
153 171 0
152 170 0
161 180 0
154 173 0
143 160 0
153 172 0
150 169 0
154 171 0
158 174 0
151 169 0
149 169 0
154 173 0
157 175 0
150 168 0
149 166 0
152 167 0
148 166 0
152 171 0
152 170 0
147 166 0
147 164 0
148 167 0
147 164 0
158 175 0
152 170 0
149 163 0
158 174 0
154 173 0
153 170 0
150 165 0
157 176 0
158 176 0
155 173 0
157 173 0
154 172 0
147 164 0
155 169 0
156 172 0
151 167 0
155 170 0
153 169 0
150 166 0
155 170 0
149 161 0
148 164 0
157 172 0
158 176 0
157 171 0
157 173 0
159 174 0
163 180 0
159 172 0
154 169 0
156 168 0
155 170 0
155 169 0
153 166 0
154 166 0
158 173 0
158 173 0
159 171 0
157 169 0
156 168 0
151 166 0
159 172 0
160 174 0
154 167 0
150 163 0
159 174 0
155 168 0
156 170 0
152 165 0
154 165 0
154 169 0
162 179 0
159 173 0
157 170 0
163 175 0
159 170 0
158 169 0
163 175 0
158 170 0
158 170 0
161 172 0
160 173 0
154 164 0
158 168 0
158 170 0
161 171 0
158 170 0
163 176 0
160 174 0
161 171 0
161 171 0
157 167 0
164 177 0
159 171 0
163 176 0
159 171 0
162 175 0
164 179 0
162 173 0
161 173 0
163 176 0
157 169 0
161 172 0
156 168 0
164 178 0
163 174 0
162 175 0
157 168 0
162 177 0
163 176 0
156 167 0
159 169 0
174 195 0
172 193 0
173 195 0
170 192 0
172 194 0
175 196 0
169 191 0
170 191 0
175 197 0
169 191 0
172 193 0
172 193 0
173 194 0
173 194 0
171 193 0
169 191 0
174 195 0
165 188 0
170 191 0
169 190 0
168 190 0
165 187 0
167 188 0
170 191 0
172 193 0
166 189 0
169 191 0
170 191 0
165 187 0
168 190 0
167 189 0
171 192 0
169 189 0
165 187 0
172 193 0
165 187 0
166 187 0
169 190 0
169 191 0
162 183 0
170 192 0
169 192 0
165 187 0
166 187 0
165 186 0
163 184 0
167 188 0
165 187 0
166 187 0
167 190 0
165 187 0
169 191 0
164 186 0
168 190 0
164 186 0
165 187 0
166 188 0
161 183 0
165 186 0
165 188 0
163 185 0
162 183 0
167 189 0
162 184 0
161 182 0
160 183 0
169 190 0
167 188 0
161 182 0
159 181 0
162 184 0
164 186 0
155 177 0
162 184 0
161 183 0
157 179 0
165 187 0
165 187 0
153 176 0
163 185 0
160 183 0
162 184 0
156 178 0
154 176 0
156 179 0
159 183 0
162 185 0
157 180 0
155 178 0
157 180 0
163 186 0
157 180 0
156 178 0
159 182 0
158 181 0
159 181 0
152 174 0
158 180 0
153 175 0
159 182 0
155 178 0
156 179 0
153 176 0
154 177 0
157 180 0
155 178 0
161 183 0
157 180 0
159 181 0
157 180 0
156 179 0
157 178 0
153 176 0
157 180 0
160 183 0
155 176 0
148 172 0
153 175 0
162 184 0
158 181 0
156 179 0
155 178 0
154 178 0
157 180 0
153 175 0
154 176 0
154 175 0
151 174 0
161 183 0
152 173 0
157 180 0
149 172 0
157 179 0
161 182 0
155 178 0
160 182 0
159 183 0
158 180 0
147 170 0
150 173 0
150 172 0
153 174 0
146 168 0
151 174 0
156 177 0
157 179 0
154 177 0
160 182 0
150 172 0
146 168 0
155 177 0
156 178 0
149 171 0
150 173 0
157 179 0
152 174 0
152 175 0
158 180 0
152 174 0
152 174 0
154 176 0
150 171 0
150 172 0
149 171 0
147 169 0
159 182 0
148 169 0
149 171 0
154 176 0
152 174 0
150 173 0
154 176 0
151 174 0
148 170 0
155 177 0
151 173 0
156 179 0
152 174 0
158 180 0
144 165 0
143 165 0
150 172 0
147 169 0
149 171 0
153 176 0
149 170 0
152 173 0
145 166 0
149 170 0
154 176 0
148 170 0
147 168 0
149 171 0
145 167 0
151 172 0
161 183 0
146 168 0
148 170 0
151 173 0
146 166 0
150 170 0
147 169 0
147 170 0
146 168 0
141 163 0
151 172 0
146 167 0
145 166 0
153 175 0
145 166 0
155 178 0
150 170 0
150 171 0
158 178 0
147 168 0
148 169 0
155 177 0
147 168 0
152 175 0
154 175 0
152 174 0
148 169 0
153 172 0
152 172 0
148 171 0
145 167 0
148 169 0
144 164 0
152 174 0
151 173 0
148 168 0
151 172 0
149 171 0
149 171 0
152 174 0
149 171 0
144 163 0
143 164 0
147 168 0
146 166 0
157 176 0
152 174 0
151 172 0
146 166 0
143 163 0
149 169 0
141 161 0
151 172 0
152 171 0
145 166 0
149 171 0
148 168 0
153 173 0
149 170 0
144 166 0
149 168 0
151 170 0
150 170 0
151 171 0
155 177 0
151 171 0
152 174 0
152 173 0
157 176 0
151 171 0
156 178 0
154 175 0
142 164 0
155 178 0
155 176 0
156 176 0
153 174 0
152 170 0
150 171 0
148 167 0
151 170 0
149 167 0
155 173 0
153 170 0
152 171 0
149 167 0
151 169 0
153 172 0
157 178 0
149 168 0
150 169 0
147 166 0
155 174 0
149 168 0
148 166 0
155 173 0
162 181 0
150 170 0
153 171 0
151 169 0
151 169 0
151 168 0
151 170 0
150 167 0
156 175 0
150 168 0
154 172 0
148 165 0
161 178 0
155 173 0
153 170 0
151 168 0
154 171 0
156 173 0
152 168 0
144 159 0
153 172 0
152 169 0
156 177 0
153 169 0
154 171 0
155 173 0
155 172 0
155 172 0
154 172 0
158 174 0
154 172 0
156 171 0
155 172 0
149 166 0
156 173 0
152 170 0
156 173 0
158 173 0
158 174 0
158 175 0
152 168 0
159 176 0
155 169 0
158 173 0
150 166 0
158 175 0
155 170 0
153 167 0
159 175 0
157 172 0
157 172 0
154 172 0
158 171 0
155 171 0
153 170 0
159 173 0
162 177 0
158 174 0
155 171 0
155 172 0
159 173 0
157 170 0
160 178 0
159 172 0
160 176 0
163 176 0
157 172 0
162 178 0
157 169 0
157 168 0
152 163 0
159 173 0
157 169 0
153 162 0
159 173 0
155 166 0
159 174 0
157 169 0
163 176 0
159 172 0
164 175 0
164 178 0
163 178 0
155 169 0
159 173 0
158 171 0
163 179 0
160 175 0
160 172 0
160 171 0
158 174 0
162 174 0
164 177 0
164 176 0
162 174 0
157 167 0
164 179 0
160 173 0
164 177 0
161 172 0
165 180 0
162 174 0
159 170 0
163 176 0
161 173 0
162 175 0
167 180 0
168 181 0
159 171 0
170 192 0
173 194 0
170 191 0
173 195 0
173 194 0
172 194 0
173 194 0
168 189 0
169 191 0
176 196 0
172 194 0
173 194 0
171 194 0
170 192 0
170 193 0
172 193 0
172 194 0
171 192 0
167 188 0
170 191 0
173 195 0
169 190 0
168 190 0
168 190 0
169 191 0
170 192 0
166 188 0
167 189 0
170 191 0
170 192 0
171 192 0
166 187 0
170 191 0
167 188 0
167 188 0
167 189 0
163 185 0
165 186 0
167 188 0
167 188 0
170 191 0
172 193 0
171 192 0
166 188 0
168 189 0
168 190 0
165 187 0
160 183 0
164 186 0
160 182 0
165 187 0
158 179 0
164 186 0
163 185 0
166 188 0
162 185 0
165 187 0
170 192 0
160 182 0
165 187 0
165 188 0
164 187 0
166 188 0
166 189 0
164 186 0
161 183 0
161 183 0
167 188 0
156 179 0
161 184 0
159 181 0
159 181 0
165 187 0
155 178 0
166 188 0
160 181 0
162 184 0
159 181 0
158 180 0
153 176 0
163 186 0
155 177 0
156 179 0
159 182 0
164 186 0
166 189 0
159 182 0
165 188 0
165 187 0
155 177 0
159 181 0
164 186 0
159 181 0
154 176 0
157 179 0
159 182 0
157 180 0
158 181 0
162 184 0
161 184 0
156 177 0
157 178 0
158 180 0
157 179 0
157 178 0
161 184 0
156 179 0
161 184 0
156 179 0
152 175 0
153 176 0
157 179 0
159 182 0
160 182 0
162 185 0
156 179 0
158 182 0
150 172 0
158 180 0
154 176 0
159 181 0
156 179 0
161 183 0
158 181 0
152 175 0
155 178 0
154 177 0
157 180 0
155 177 0
158 181 0
157 179 0
150 173 0
158 181 0
154 176 0
157 180 0
158 181 0
149 171 0
160 183 0
160 184 0
158 181 0
152 175 0
156 178 0
160 182 0
149 171 0
143 164 0
146 168 0
150 172 0
155 178 0
153 176 0
163 185 0
153 175 0
155 177 0
158 180 0
151 172 0
158 180 0
145 166 0
154 175 0
153 176 0
149 172 0
153 176 0
151 173 0
158 180 0
144 166 0
153 175 0
155 178 0
151 175 0
145 168 0
154 177 0
149 172 0
151 173 0
146 168 0
147 168 0
150 173 0
146 170 0
158 180 0
150 173 0
155 177 0
158 180 0
145 167 0
150 171 0
147 170 0
149 170 0
150 172 0
152 174 0
150 173 0
158 180 0
152 174 0
151 171 0
145 167 0
142 163 0
150 173 0
147 169 0
152 175 0
145 167 0
141 163 0
154 176 0
154 175 0
143 164 0
147 169 0
147 168 0
148 168 0
145 166 0
154 176 0
148 170 0
150 172 0
152 174 0
155 175 0
146 168 0
153 174 0
147 169 0
147 168 0
148 170 0
147 169 0
146 168 0
151 174 0
145 166 0
150 173 0
152 174 0
148 170 0
146 166 0
152 174 0
152 173 0
149 170 0
153 174 0
149 171 0
146 168 0
148 171 0
150 172 0
150 171 0
150 172 0
157 179 0
151 172 0
147 166 0
145 165 0
150 171 0
157 178 0
150 170 0
148 169 0
144 165 0
148 168 0
155 175 0
149 171 0
145 166 0
152 173 0
148 168 0
152 172 0
152 172 0
154 176 0
146 167 0
147 165 0
146 167 0
156 176 0
152 172 0
152 173 0
149 170 0
145 165 0
153 174 0
156 178 0
144 164 0
155 175 0
147 165 0
161 182 0
142 162 0
149 168 0
147 167 0
158 178 0
151 169 0
152 173 0
151 170 0
149 168 0
154 173 0
150 169 0
141 161 0
156 176 0
152 171 0
151 171 0
156 176 0
153 172 0
149 168 0
156 175 0
155 176 0
161 182 0
150 169 0
152 171 0
151 170 0
147 166 0
152 172 0
147 165 0
146 163 0
150 167 0
152 172 0
148 169 0
155 175 0
157 176 0
156 175 0
156 175 0
155 175 0
158 175 0
155 174 0
152 169 0
154 172 0
142 160 0
156 173 0
150 166 0
156 173 0
157 177 0
155 174 0
156 175 0
154 172 0
152 169 0
155 175 0
156 174 0
159 179 0
146 162 0
157 175 0
158 174 0
156 175 0
149 164 0
146 161 0
157 175 0
154 170 0
156 175 0
151 168 0
156 170 0
149 166 0
156 173 0
160 178 0
155 171 0
156 170 0
156 171 0
152 167 0
156 172 0
157 176 0
161 178 0
150 165 0
157 172 0
158 174 0
155 169 0
159 178 0
159 177 0
161 178 0
160 175 0
156 172 0
159 173 0
150 164 0
157 171 0
154 169 0
158 174 0
157 171 0
157 170 0
159 174 0
155 169 0
160 175 0
160 177 0
158 169 0
160 174 0
155 170 0
156 169 0
154 167 0
159 171 0
157 172 0
158 171 0
162 177 0
162 174 0
154 165 0
165 181 0
158 172 0
162 178 0
162 175 0
161 173 0
153 164 0
157 169 0
163 176 0
157 170 0
161 174 0
159 173 0
167 179 0
157 171 0
158 171 0
162 176 0
161 174 0
164 177 0
162 174 0
162 174 0
163 178 0
160 174 0
164 177 0
165 179 0
159 172 0
161 172 0
163 175 0
161 176 0
165 182 0
157 168 0
161 175 0
157 167 0
164 177 0
162 175 0
163 176 0
161 171 0
174 195 0
170 193 0
170 192 0
174 196 0
171 192 0
170 192 0
171 193 0
172 193 0
171 193 0
170 192 0
169 191 0
172 195 0
173 194 0
169 191 0
168 190 0
170 192 0
171 193 0
169 190 0
166 187 0
168 190 0
173 194 0
167 189 0
170 192 0
170 193 0
169 190 0
171 192 0
169 190 0
165 186 0
166 188 0
166 187 0
166 188 0
168 190 0
168 189 0
168 190 0
165 186 0
166 187 0
165 186 0
172 193 0
170 191 0
169 191 0
165 187 0
165 188 0
166 187 0
166 188 0
165 187 0
167 190 0
168 190 0
163 185 0
167 188 0
160 183 0
162 185 0
167 189 0
165 186 0
165 187 0
160 182 0
163 185 0
158 181 0
165 186 0
160 182 0
160 183 0
158 180 0
158 181 0
164 186 0
168 189 0
167 189 0
156 178 0
166 188 0
165 188 0
163 186 0
168 191 0
162 184 0
162 184 0
163 185 0
160 182 0
158 180 0
164 187 0
158 181 0
162 184 0
158 180 0
155 178 0
156 179 0
156 180 0
157 179 0
158 181 0
159 181 0
163 185 0
160 181 0
155 177 0
156 179 0
155 178 0
154 177 0
160 182 0
152 175 0
158 181 0
160 183 0
163 185 0
160 183 0
157 179 0
160 182 0
157 179 0
158 180 0
156 178 0
161 183 0
157 179 0
156 178 0
157 180 0
163 186 0
154 176 0
148 170 0
156 179 0
165 188 0
150 173 0
156 177 0
160 182 0
156 178 0
155 177 0
158 181 0
155 177 0
155 177 0
160 182 0
158 181 0
158 181 0
155 178 0
155 178 0
157 180 0
158 180 0
159 180 0
152 175 0
146 168 0
151 174 0
154 176 0
153 176 0
157 180 0
154 176 0
154 177 0
157 179 0
154 177 0
154 176 0
157 179 0
151 173 0
147 170 0
159 181 0
146 168 0
157 179 0
155 177 0
152 174 0
150 172 0
150 172 0
156 178 0
158 180 0
157 179 0
152 175 0
155 177 0
154 177 0
155 177 0
154 177 0
164 187 0
152 174 0
156 177 0
155 176 0
151 174 0
146 168 0
152 174 0
156 179 0
149 170 0
146 167 0
153 176 0
153 176 0
149 171 0
148 170 0
156 178 0
153 175 0
150 171 0
154 175 0
151 173 0
156 178 0
143 164 0
146 168 0
152 174 0
152 175 0
154 176 0
158 180 0
151 172 0
150 173 0
142 162 0
148 170 0
145 167 0
157 179 0
148 169 0
144 165 0
154 177 0
147 170 0
157 178 0
140 162 0
145 167 0
153 175 0
140 161 0
148 169 0
149 171 0
155 177 0
154 176 0
156 178 0
144 166 0
157 179 0
156 178 0
144 166 0
150 172 0
159 180 0
151 172 0
147 170 0
150 171 0
141 163 0
147 169 0
151 171 0
147 169 0
145 166 0
152 173 0
157 178 0
147 168 0
149 169 0
152 174 0
143 164 0
153 173 0
151 172 0
151 171 0
142 162 0
155 176 0
142 164 0
150 171 0
150 170 0
150 171 0
152 174 0
155 177 0
148 168 0
152 173 0
147 168 0
158 179 0
150 172 0
155 176 0
144 162 0
150 172 0
150 172 0
147 168 0
147 168 0
152 174 0
152 173 0
147 168 0
152 175 0
151 171 0
145 165 0
149 170 0
144 165 0
147 167 0
154 174 0
146 166 0
152 172 0
155 176 0
154 175 0
152 171 0
150 169 0
149 171 0
148 168 0
154 173 0
148 168 0
151 171 0
147 165 0
150 170 0
157 178 0
151 172 0
149 168 0
150 169 0
148 168 0
153 174 0
149 169 0
153 174 0
152 172 0
151 170 0
154 175 0
157 177 0
152 171 0
154 173 0
153 172 0
153 174 0
155 175 0
150 168 0
152 170 0
155 175 0
150 169 0
152 171 0
154 171 0
154 174 0
156 175 0
160 179 0
156 172 0
144 163 0
156 176 0
152 172 0
150 169 0
152 172 0
151 168 0
159 180 0
151 170 0
151 171 0
150 168 0
151 168 0
147 164 0
160 178 0
141 156 0
156 173 0
155 173 0
159 178 0
159 177 0
158 176 0
153 171 0
156 174 0
153 171 0
156 174 0
154 171 0
156 175 0
158 174 0
149 166 0
158 178 0
155 173 0
150 165 0
150 168 0
153 170 0
152 168 0
147 162 0
156 173 0
149 163 0
152 166 0
151 165 0
158 174 0
160 176 0
151 169 0
152 168 0
154 170 0
160 175 0
157 173 0
158 174 0
153 168 0
155 171 0
158 173 0
160 176 0
163 181 0
159 174 0
158 175 0
159 174 0
149 163 0
156 170 0
158 174 0
161 177 0
155 169 0
156 170 0
158 174 0
159 173 0
160 175 0
157 172 0
161 177 0
154 171 0
156 168 0
163 180 0
163 179 0
156 168 0
155 171 0
159 173 0
156 168 0
157 172 0
161 177 0
156 169 0
160 173 0
159 173 0
161 174 0
161 174 0
162 177 0
161 175 0
160 174 0
158 171 0
151 161 0
159 173 0
157 169 0
155 168 0
159 170 0
161 173 0
162 176 0
159 167 0
162 174 0
154 166 0
165 178 0
160 170 0
162 174 0
164 180 0
157 167 0
163 174 0
162 177 0
157 170 0
164 179 0
161 174 0
165 180 0
163 175 0
172 193 0
170 192 0
172 194 0
173 194 0
174 194 0
174 196 0
172 195 0
171 193 0
175 196 0
174 195 0
164 187 0
172 194 0
174 195 0
169 190 0
173 195 0
167 189 0
173 194 0
171 192 0
171 192 0
171 191 0
169 190 0
173 195 0
168 189 0
174 196 0
170 191 0
169 190 0
167 188 0
166 188 0
166 187 0
167 188 0
171 193 0
169 191 0
165 186 0
166 189 0
166 188 0
172 194 0
167 190 0
167 189 0
168 189 0
167 190 0
169 191 0
170 191 0
165 187 0
166 189 0
166 188 0
170 192 0
167 189 0
169 191 0
170 192 0
164 186 0
165 187 0
163 184 0
162 184 0
165 187 0
167 189 0
161 183 0
165 188 0
158 181 0
164 185 0
162 184 0
166 188 0
162 184 0
161 183 0
164 186 0
167 190 0
166 188 0
157 180 0
165 187 0
158 180 0
163 185 0
161 183 0
155 179 0
159 182 0
161 183 0
153 176 0
157 179 0
162 184 0
157 180 0
163 184 0
158 182 0
150 171 0
160 184 0
162 184 0
161 183 0
161 183 0
162 184 0
159 181 0
164 187 0
159 182 0
157 180 0
155 177 0
160 183 0
164 186 0
166 188 0
165 187 0
153 176 0
163 185 0
152 175 0
147 170 0
153 176 0
154 177 0
162 186 0
158 181 0
160 183 0
160 183 0
155 178 0
156 179 0
162 185 0
156 179 0
155 178 0
157 180 0
160 182 0
161 183 0
154 177 0
156 177 0
162 185 0
157 180 0
156 178 0
158 180 0
155 177 0
154 177 0
151 174 0
154 176 0
152 174 0
162 184 0
154 176 0
154 176 0
161 183 0
158 181 0
157 180 0
150 172 0
159 181 0
160 183 0
152 174 0
153 176 0
155 176 0
158 180 0
151 174 0
152 173 0
158 180 0
151 174 0
162 184 0
160 183 0
154 176 0
150 171 0
154 177 0
149 172 0
150 172 0
153 176 0
161 182 0
159 182 0
152 174 0
157 179 0
155 177 0
154 176 0
152 175 0
156 178 0
147 170 0
151 174 0
154 176 0
156 179 0
150 172 0
151 173 0
153 175 0
149 170 0
151 173 0
158 181 0
149 171 0
154 177 0
154 177 0
160 182 0
152 174 0
154 177 0
145 167 0
156 179 0
151 173 0
150 172 0
145 167 0
152 174 0
146 169 0
150 172 0
157 179 0
150 173 0
150 174 0
151 172 0
149 169 0
143 165 0
160 182 0
151 174 0
149 171 0
151 173 0
148 170 0
154 176 0
155 177 0
156 178 0
154 176 0
152 174 0
148 171 0
155 177 0
150 169 0
157 180 0
151 172 0
141 163 0
155 177 0
150 173 0
148 171 0
147 169 0
151 174 0
150 172 0
149 170 0
152 173 0
156 178 0
152 175 0
154 175 0
153 174 0
151 172 0
148 171 0
154 175 0
146 168 0
144 167 0
157 180 0
149 170 0
154 176 0
153 173 0
156 177 0
150 171 0
150 172 0
147 168 0
150 173 0
152 172 0
153 175 0
149 170 0
150 172 0
153 174 0
153 175 0
153 175 0
155 175 0
148 168 0
146 166 0
152 173 0
158 180 0
149 170 0
147 169 0
146 167 0
148 168 0
149 170 0
155 176 0
151 172 0
158 178 0
147 167 0
153 172 0
156 176 0
140 162 0
153 175 0
153 174 0
149 169 0
152 174 0
152 171 0
158 179 0
148 170 0
146 165 0
156 175 0
150 168 0
158 179 0
154 175 0
152 173 0
155 175 0
156 176 0
151 169 0
151 171 0
150 170 0
152 173 0
150 172 0
158 179 0
149 169 0
148 169 0
153 173 0
153 172 0
156 177 0
160 180 0
157 176 0
154 174 0
155 173 0
148 167 0
157 175 0
153 169 0
150 170 0
154 174 0
152 171 0
145 164 0
156 177 0
146 164 0
153 172 0
152 171 0
150 166 0
153 171 0
157 176 0
155 172 0
149 167 0
148 166 0
154 174 0
155 175 0
152 169 0
151 169 0
158 177 0
158 177 0
150 167 0
157 176 0
155 175 0
159 178 0
152 171 0
154 173 0
156 175 0
158 177 0
150 167 0
154 173 0
153 173 0
150 168 0
155 174 0
159 176 0
154 173 0
153 171 0
152 170 0
156 174 0
155 171 0
153 170 0
156 173 0
151 168 0
156 173 0
157 175 0
153 171 0
156 175 0
152 170 0
153 169 0
157 173 0
159 173 0
159 177 0
150 164 0
163 180 0
160 176 0
155 170 0
158 174 0
153 170 0
146 161 0
155 170 0
159 175 0
155 169 0
159 174 0
156 173 0
162 176 0
160 175 0
158 174 0
160 176 0
163 179 0
160 176 0
157 170 0
157 171 0
157 171 0
152 166 0
154 169 0
152 166 0
159 176 0
162 178 0
154 169 0
163 177 0
157 170 0
161 175 0
162 177 0
153 168 0
163 179 0
163 178 0
161 175 0
156 169 0
158 171 0
158 170 0
157 168 0
159 174 0
156 170 0
159 174 0
160 175 0
155 167 0
161 176 0
158 174 0
162 175 0
159 173 0
162 180 0
161 175 0
165 177 0
157 169 0
162 174 0
159 173 0
167 180 0
159 173 0
159 173 0
161 174 0
160 171 0
164 175 0
161 175 0
164 179 0
161 174 0
173 195 0
172 193 0
170 192 0
169 190 0
174 195 0
167 188 0
166 187 0
171 193 0
171 193 0
170 191 0
171 193 0
169 191 0
171 193 0
168 190 0
171 193 0
164 187 0
169 191 0
166 187 0
171 193 0
169 190 0
166 188 0
170 192 0
166 188 0
167 190 0
171 192 0
166 187 0
171 194 0
165 188 0
167 189 0
168 190 0
170 193 0
172 194 0
168 191 0
166 188 0
165 187 0
167 190 0
169 190 0
168 189 0
167 189 0
163 184 0
169 191 0
167 189 0
169 191 0
161 184 0
161 183 0
165 187 0
164 185 0
167 189 0
161 184 0
169 191 0
167 189 0
161 183 0
162 185 0
164 185 0
158 180 0
159 182 0
166 188 0
163 185 0
166 189 0
162 186 0
159 182 0
166 188 0
169 191 0
162 185 0
159 181 0
167 190 0
162 185 0
157 179 0
157 180 0
162 185 0
162 185 0
159 181 0
161 183 0
161 184 0
160 182 0
158 180 0
160 183 0
165 188 0
158 181 0
164 187 0
160 183 0
160 183 0
159 182 0
163 185 0
161 183 0
159 183 0
164 186 0
161 184 0
158 181 0
161 183 0
166 189 0
160 183 0
160 182 0
156 178 0
160 182 0
168 190 0
159 183 0
156 179 0
154 175 0
154 176 0
156 179 0
156 178 0
153 175 0
158 179 0
157 180 0
158 180 0
159 181 0
160 182 0
152 175 0
160 182 0
158 181 0
161 184 0
157 180 0
156 179 0
156 179 0
157 181 0
160 183 0
159 182 0
158 181 0
162 184 0
159 182 0
154 176 0
147 169 0
159 183 0
161 183 0
153 177 0
156 178 0
151 173 0
155 177 0
153 176 0
160 182 0
152 174 0
151 173 0
154 176 0
155 178 0
152 175 0
154 177 0
153 176 0
151 173 0
156 179 0
162 184 0
152 176 0
154 177 0
153 176 0
160 182 0
154 176 0
153 175 0
146 169 0
157 179 0
155 178 0
154 176 0
155 178 0
156 179 0
150 171 0
159 180 0
157 179 0
153 175 0
150 173 0
156 178 0
159 182 0
158 181 0
156 178 0
160 182 0
160 181 0
151 173 0
156 178 0
153 176 0
155 177 0
151 173 0
154 176 0
151 173 0
147 170 0
145 168 0
151 173 0
152 175 0
152 175 0
154 177 0
145 168 0
151 172 0
149 171 0
147 168 0
152 173 0
158 180 0
149 170 0
149 172 0
148 170 0
147 170 0
151 173 0
147 169 0
154 176 0
154 175 0
151 175 0
153 176 0
148 169 0
144 166 0
155 177 0
152 174 0
149 171 0
152 174 0
137 159 0
152 174 0
153 174 0
151 174 0
151 171 0
147 169 0
153 174 0
150 170 0
141 164 0
154 175 0
153 174 0
140 163 0
147 167 0
154 175 0
143 165 0
152 175 0
151 173 0
149 171 0
149 172 0
142 163 0
138 159 0
155 177 0
145 167 0
155 176 0
151 173 0
150 173 0
150 172 0
154 175 0
151 172 0
143 163 0
143 164 0
140 160 0
152 171 0
147 168 0
151 171 0
153 174 0
142 163 0
150 172 0
157 180 0
155 176 0
151 173 0
150 172 0
156 177 0
147 167 0
155 175 0
153 174 0
145 167 0
155 175 0
151 171 0
151 171 0
150 170 0
149 171 0
151 172 0
151 171 0
157 177 0
146 166 0
158 178 0
154 175 0
155 176 0
155 178 0
156 177 0
154 173 0
155 175 0
147 167 0
147 166 0
146 167 0
152 173 0
161 182 0
149 169 0
155 175 0
158 175 0
149 168 0
150 169 0
150 169 0
156 174 0
152 172 0
142 162 0
158 178 0
153 172 0
150 170 0
148 168 0
156 176 0
150 170 0
154 172 0
152 173 0
153 171 0
158 177 0
151 168 0
153 174 0
151 170 0
154 174 0
152 172 0
151 171 0
153 173 0
150 168 0
150 169 0
154 174 0
152 172 0
154 174 0
155 171 0
154 175 0
156 175 0
149 168 0
157 177 0
155 174 0
155 173 0
158 177 0
151 170 0
154 171 0
146 164 0
156 176 0
151 169 0
161 179 0
147 166 0
153 170 0
149 165 0
155 171 0
159 176 0
156 175 0
149 165 0
156 175 0
155 174 0
157 175 0
161 180 0
155 169 0
159 178 0
158 176 0
154 169 0
157 175 0
148 165 0
158 174 0
160 177 0
163 180 0
160 177 0
158 174 0
159 175 0
157 173 0
154 169 0
158 174 0
155 172 0
157 173 0
159 177 0
160 176 0
157 172 0
149 164 0
163 180 0
159 177 0
152 167 0
161 177 0
154 171 0
153 170 0
157 172 0
158 172 0
155 167 0
156 170 0
154 169 0
155 169 0
153 166 0
157 172 0
159 174 0
159 174 0
158 173 0
157 169 0
161 175 0
159 173 0
161 175 0
159 174 0
162 177 0
160 176 0
156 169 0
158 172 0
158 175 0
154 168 0
154 166 0
160 175 0
161 174 0
164 177 0
159 173 0
158 172 0
159 173 0
167 184 0
166 179 0
157 172 0
160 173 0
161 174 0
165 180 0
158 171 0
165 180 0
165 179 0
160 174 0
162 177 0
164 177 0
160 174 0
160 172 0
162 176 0
166 180 0
163 176 0
160 174 0
159 171 0
160 171 0
163 176 0
170 193 0
168 191 0
172 194 0
174 195 0
170 192 0
171 193 0
166 188 0
169 191 0
171 192 0
173 194 0
168 190 0
172 194 0
170 192 0
170 191 0
171 194 0
173 194 0
161 182 0
167 189 0
171 192 0
168 190 0
170 192 0
168 190 0
166 188 0
167 190 0
169 190 0
169 191 0
166 188 0
169 191 0
173 195 0
167 189 0
167 189 0
172 194 0
165 188 0
170 191 0
171 191 0
165 186 0
164 185 0
164 188 0
163 186 0
168 191 0
163 186 0
162 184 0
166 187 0
164 185 0
168 190 0
163 185 0
162 185 0
163 185 0
162 184 0
168 190 0
162 183 0
169 191 0
156 179 0
166 189 0
167 189 0
161 183 0
158 180 0
163 184 0
163 185 0
166 188 0
161 184 0
163 185 0
161 182 0
159 181 0
169 191 0
166 188 0
161 183 0
165 188 0
158 181 0
159 180 0
158 180 0
163 185 0
163 184 0
163 186 0
162 185 0
166 188 0
164 188 0
162 184 0
157 178 0
161 184 0
161 185 0
157 178 0
160 183 0
165 188 0
166 187 0
163 186 0
157 180 0
158 180 0
160 183 0
159 181 0
156 178 0
162 184 0
156 179 0
155 179 0
161 184 0
163 186 0
160 183 0
158 181 0
159 183 0
161 185 0
153 177 0
152 175 0
162 185 0
152 174 0
161 183 0
156 179 0
161 182 0
159 182 0
161 184 0
158 179 0
159 182 0
157 179 0
158 180 0
154 177 0
157 180 0
158 180 0
160 183 0
162 185 0
154 176 0
164 187 0
155 178 0
154 177 0
158 181 0
157 179 0
159 182 0
163 185 0
156 179 0
155 177 0
158 180 0
151 174 0
163 185 0
155 178 0
165 188 0
159 181 0
155 178 0
161 184 0
162 184 0
156 178 0
159 181 0
158 180 0
150 171 0
150 172 0
149 171 0
153 175 0
154 175 0
158 180 0
161 183 0
152 174 0
155 176 0
152 174 0
153 176 0
146 169 0
156 179 0
159 181 0
157 180 0
156 179 0
150 172 0
155 177 0
160 183 0
140 162 0
155 177 0
154 177 0
155 178 0
153 174 0
151 173 0
143 164 0
156 178 0
154 175 0
152 174 0
157 180 0
150 172 0
151 174 0
150 174 0
148 169 0
151 174 0
150 172 0
150 173 0
153 174 0
154 175 0
145 166 0
152 175 0
157 178 0
156 178 0
142 164 0
153 175 0
151 173 0
152 174 0
157 180 0
151 173 0
149 170 0
157 180 0
150 172 0
146 168 0
145 167 0
147 169 0
148 171 0
153 175 0
152 173 0
149 170 0
151 174 0
146 169 0
148 171 0
143 164 0
157 179 0
155 176 0
143 165 0
152 175 0
150 172 0
156 179 0
147 169 0
156 178 0
146 168 0
160 182 0
153 174 0
151 173 0
153 175 0
149 169 0
137 157 0
143 166 0
152 172 0
155 177 0
142 163 0
148 170 0
150 171 0
152 173 0
157 178 0
150 171 0
154 176 0
155 174 0
143 164 0
150 170 0
147 166 0
153 174 0
150 171 0
156 177 0
153 174 0
149 172 0
150 171 0
153 175 0
154 175 0
157 178 0
149 170 0
157 179 0
152 173 0
152 173 0
151 172 0
147 166 0
153 175 0
156 176 0
154 175 0
148 170 0
151 171 0
148 168 0
155 177 0
152 173 0
150 170 0
160 179 0
151 171 0
157 178 0
151 172 0
142 160 0
150 170 0
152 173 0
154 175 0
158 178 0
152 172 0
151 171 0
150 168 0
154 174 0
150 170 0
156 175 0
145 164 0
147 166 0
155 175 0
152 171 0
156 176 0
155 174 0
152 171 0
155 176 0
154 175 0
155 175 0
156 177 0
153 173 0
156 176 0
156 176 0
159 180 0
156 175 0
152 171 0
150 170 0
154 173 0
156 175 0
157 176 0
150 169 0
159 178 0
153 172 0
151 170 0
150 170 0
158 175 0
148 166 0
150 169 0
152 174 0
156 175 0
159 178 0
156 175 0
152 170 0
158 175 0
153 173 0
154 173 0
155 174 0
153 171 0
156 177 0
153 173 0
151 170 0
152 171 0
149 166 0
152 170 0
158 176 0
159 178 0
150 168 0
161 178 0
151 168 0
155 171 0
158 175 0
153 167 0
155 172 0
153 170 0
152 166 0
157 175 0
157 175 0
162 178 0
159 179 0
161 176 0
155 174 0
158 177 0
152 166 0
160 176 0
155 172 0
157 174 0
157 172 0
159 176 0
159 173 0
154 171 0
161 180 0
159 176 0
156 172 0
160 176 0
156 172 0
161 178 0
159 173 0
153 168 0
158 174 0
156 171 0
162 176 0
155 169 0
154 169 0
160 175 0
158 173 0
154 166 0
160 174 0
158 175 0
153 166 0
158 174 0
154 165 0
155 169 0
154 168 0
161 175 0
160 174 0
161 176 0
160 176 0
154 167 0
159 175 0
158 172 0
162 176 0
160 174 0
162 179 0
157 171 0
161 176 0
159 174 0
160 172 0
157 171 0
156 169 0
161 177 0
159 172 0
162 175 0
158 170 0
159 172 0
160 173 0
162 175 0
158 173 0
158 169 0
166 182 0
163 176 0
166 181 0
162 176 0
165 179 0
163 176 0
164 177 0
161 176 0
164 178 0
162 174 0
172 194 0
171 193 0
172 194 0
169 190 0
168 190 0
170 192 0
169 190 0
169 190 0
167 189 0
169 191 0
172 194 0
165 188 0
167 189 0
173 194 0
168 190 0
167 189 0
171 193 0
172 194 0
168 189 0
170 190 0
168 190 0
166 188 0
164 186 0
171 193 0
168 190 0
168 189 0
170 192 0
171 193 0
166 188 0
171 193 0
168 190 0
166 187 0
164 186 0
163 185 0
169 191 0
166 188 0
166 189 0
168 190 0
166 188 0
160 182 0
170 191 0
168 190 0
165 187 0
168 190 0
166 189 0
171 193 0
165 188 0
170 191 0
159 181 0
166 188 0
166 188 0
165 188 0
161 183 0
160 182 0
162 185 0
167 189 0
162 184 0
162 185 0
168 191 0
166 188 0
162 184 0
151 173 0
161 183 0
165 188 0
161 184 0
162 185 0
160 182 0
165 188 0
162 184 0
164 186 0
166 188 0
163 185 0
157 179 0
160 183 0
162 185 0
162 184 0
160 183 0
164 186 0
159 182 0
165 188 0
162 184 0
158 181 0
157 179 0
160 182 0
162 185 0
158 181 0
158 181 0
159 182 0
162 185 0
162 185 0
167 190 0
159 182 0
160 182 0
159 181 0
160 183 0
153 176 0
159 180 0
159 183 0
155 177 0
158 180 0
162 184 0
157 179 0
159 182 0
153 176 0
152 175 0
157 180 0
159 182 0
158 180 0
160 181 0
157 181 0
160 182 0
161 183 0
153 176 0
159 181 0
162 185 0
160 183 0
149 172 0
161 183 0
158 181 0
156 179 0
164 186 0
163 186 0
164 187 0
151 174 0
161 183 0
157 178 0
148 171 0
158 181 0
157 180 0
163 186 0
154 177 0
147 169 0
159 181 0
161 184 0
152 174 0
152 175 0
155 177 0
165 188 0
155 178 0
155 178 0
152 175 0
149 171 0
157 180 0
144 165 0
146 168 0
159 181 0
149 171 0
154 177 0
156 179 0
151 174 0
158 180 0
159 181 0
155 177 0
146 170 0
150 172 0
149 171 0
149 172 0
158 180 0
155 178 0
153 175 0
156 179 0
155 178 0
152 174 0
154 177 0
149 171 0
151 173 0
141 162 0
150 172 0
153 176 0
145 167 0
152 174 0
149 170 0
152 174 0
148 170 0
151 170 0
156 178 0
150 172 0
153 176 0
152 174 0
151 172 0
143 164 0
151 173 0
150 172 0
144 166 0
151 173 0
151 174 0
144 167 0
158 180 0
158 179 0
149 171 0
146 167 0
156 178 0
145 168 0
159 183 0
151 173 0
153 174 0
146 167 0
151 173 0
158 180 0
155 177 0
150 171 0
156 178 0
153 173 0
145 166 0
148 170 0
141 161 0
148 169 0
152 173 0
144 165 0
148 170 0
151 173 0
148 169 0
150 171 0
151 172 0
149 171 0
153 174 0
153 174 0
147 168 0
149 170 0
153 175 0
148 170 0
149 170 0
152 172 0
149 171 0
157 180 0
152 174 0
147 168 0
151 173 0
150 171 0
148 170 0
156 177 0
155 175 0
155 176 0
146 168 0
154 174 0
158 178 0
150 171 0
152 173 0
155 175 0
151 172 0
157 179 0
152 173 0
151 172 0
154 175 0
146 168 0
148 170 0
144 165 0
149 169 0
152 173 0
156 177 0
151 172 0
146 167 0
155 176 0
150 169 0
152 171 0
153 174 0
146 167 0
151 171 0
147 168 0
154 175 0
147 167 0
154 174 0
153 173 0
153 172 0
152 173 0
150 170 0
149 169 0
159 179 0
148 169 0
155 173 0
153 174 0
152 172 0
158 177 0
157 175 0
149 169 0
156 176 0
150 169 0
146 166 0
153 173 0
155 176 0
155 175 0
150 171 0
156 175 0
150 169 0
151 171 0
158 178 0
155 174 0
156 176 0
156 176 0
155 175 0
153 172 0
156 174 0
155 175 0
153 170 0
151 169 0
154 174 0
158 177 0
152 170 0
155 175 0
161 180 0
157 176 0
155 175 0
153 171 0
154 173 0
157 174 0
154 172 0
154 173 0
155 174 0
155 174 0
155 173 0
158 175 0
153 171 0
160 178 0
157 176 0
149 167 0
158 176 0
154 172 0
159 176 0
155 174 0
157 175 0
152 168 0
158 175 0
157 176 0
154 173 0
156 173 0
155 174 0
160 178 0
152 168 0
154 172 0
153 171 0
158 174 0
154 171 0
160 177 0
157 173 0
151 169 0
150 168 0
157 176 0
160 178 0
157 172 0
155 171 0
160 178 0
156 173 0
160 178 0
156 172 0
158 175 0
155 170 0
148 163 0
159 177 0
155 170 0
153 168 0
154 169 0
153 168 0
153 168 0
160 175 0
157 174 0
150 163 0
153 168 0
154 170 0
160 178 0
156 170 0
161 178 0
158 173 0
159 175 0
156 171 0
157 173 0
163 178 0
156 171 0
160 174 0
158 173 0
161 176 0
155 169 0
160 173 0
164 178 0
165 178 0
157 171 0
159 173 0
162 176 0
158 173 0
164 183 0
158 172 0
163 179 0
162 178 0
163 176 0
167 183 0
161 175 0
159 174 0
161 175 0
161 177 0
159 171 0
161 177 0
167 182 0
159 173 0
164 177 0
166 183 0
167 183 0
163 176 0
163 176 0
163 175 0
162 177 0
161 173 0
171 193 0
174 196 0
171 193 0
171 193 0
171 193 0
170 192 0
169 192 0
170 191 0
169 190 0
167 189 0
169 192 0
170 192 0
167 189 0
169 191 0
172 194 0
172 194 0
169 190 0
169 191 0
165 188 0
167 189 0
168 190 0
165 187 0
172 193 0
169 191 0
167 189 0
160 183 0
168 190 0
165 187 0
170 191 0
165 187 0
166 188 0
169 191 0
168 190 0
165 187 0
169 190 0
168 191 0
169 191 0
171 193 0
162 183 0
162 185 0
167 190 0
164 186 0
167 190 0
166 187 0
168 191 0
167 189 0
163 185 0
166 188 0
168 190 0
165 187 0
163 185 0
160 182 0
166 187 0
165 187 0
169 192 0
163 184 0
164 186 0
165 188 0
161 183 0
165 188 0
161 184 0
162 186 0
161 184 0
162 184 0
160 182 0
160 182 0
164 188 0
159 182 0
166 188 0
159 182 0
161 183 0
166 189 0
161 183 0
159 182 0
161 183 0
159 181 0
163 186 0
156 179 0
157 179 0
163 186 0
163 185 0
159 182 0
158 180 0
159 182 0
163 187 0
154 177 0
158 181 0
166 188 0
162 185 0
155 178 0
163 186 0
163 185 0
156 179 0
156 178 0
158 180 0
157 180 0
165 187 0
149 171 0
165 187 0
160 182 0
158 181 0
154 177 0
159 181 0
157 180 0
160 182 0
158 181 0
156 178 0
160 184 0
160 183 0
153 175 0
150 173 0
159 182 0
162 185 0
156 179 0
152 175 0
156 179 0
156 179 0
154 176 0
154 176 0
158 180 0
152 174 0
156 179 0
159 182 0
152 174 0
155 178 0
159 181 0
157 181 0
153 176 0
154 177 0
160 182 0
159 182 0
157 178 0
158 180 0
159 181 0
159 181 0
157 180 0
157 180 0
162 185 0
160 182 0
156 178 0
156 179 0
158 180 0
151 172 0
148 170 0
163 185 0
152 174 0
156 179 0
156 179 0
143 165 0
148 170 0
151 174 0
152 175 0
147 168 0
149 171 0
154 176 0
155 178 0
153 175 0
159 182 0
160 182 0
155 177 0
159 182 0
153 175 0
151 173 0
151 174 0
148 170 0
161 184 0
157 179 0
150 173 0
151 173 0
156 177 0
157 179 0
147 168 0
151 172 0
154 175 0
152 174 0
151 174 0
149 171 0
152 176 0
151 174 0
152 173 0
153 176 0
145 167 0
151 172 0
144 164 0
153 174 0
152 175 0
156 178 0
144 165 0
154 176 0
154 175 0
157 180 0
150 173 0
156 178 0
149 171 0
156 177 0
148 169 0
151 173 0
160 181 0
146 169 0
149 172 0
154 176 0
157 178 0
156 178 0
155 177 0
149 171 0
147 168 0
143 164 0
151 173 0
160 183 0
157 178 0
146 168 0
149 171 0
153 175 0
151 173 0
156 177 0
154 174 0
155 178 0
153 173 0
155 177 0
154 177 0
151 173 0
145 167 0
151 173 0
150 172 0
151 173 0
148 169 0
150 172 0
153 174 0
153 173 0
148 168 0
150 172 0
142 163 0
141 160 0
148 169 0
151 172 0
154 176 0
147 169 0
158 181 0
147 169 0
150 172 0
149 170 0
150 170 0
151 172 0
158 179 0
154 176 0
150 170 0
152 172 0
150 171 0
151 171 0
158 181 0
150 171 0
160 181 0
147 167 0
153 173 0
156 176 0
151 172 0
151 171 0
149 168 0
149 170 0
152 172 0
154 173 0
158 178 0
153 175 0
151 172 0
145 165 0
153 174 0
151 171 0
150 170 0
160 180 0
151 172 0
151 170 0
158 179 0
161 182 0
150 171 0
154 175 0
158 179 0
150 170 0
155 175 0
146 165 0
151 169 0
150 168 0
153 171 0
154 176 0
150 170 0
151 171 0
152 170 0
149 166 0
154 171 0
158 178 0
160 181 0
149 169 0
151 168 0
160 180 0
161 181 0
155 174 0
153 173 0
162 182 0
155 174 0
158 177 0
153 171 0
155 175 0
155 172 0
160 178 0
146 165 0
158 178 0
153 172 0
157 175 0
154 172 0
154 170 0
149 166 0
154 173 0
152 170 0
156 176 0
155 173 0
158 179 0
155 173 0
159 178 0
161 180 0
161 179 0
153 170 0
154 173 0
153 172 0
158 175 0
155 174 0
154 171 0
150 167 0
155 172 0
160 178 0
154 174 0
151 165 0
156 174 0
159 178 0
153 170 0
157 175 0
151 166 0
158 178 0
160 177 0
161 177 0
155 171 0
157 172 0
155 170 0
155 171 0
158 176 0
160 176 0
154 169 0
159 177 0
156 172 0
158 173 0
164 180 0
157 173 0
151 166 0
158 173 0
159 176 0
156 172 0
160 178 0
154 170 0
160 177 0
160 175 0
156 170 0
159 173 0
161 174 0
158 174 0
159 175 0
154 168 0
154 169 0
151 165 0
158 172 0
159 174 0
161 176 0
161 175 0
161 179 0
159 175 0
158 173 0
157 170 0
161 178 0
160 175 0
162 176 0
160 174 0
159 174 0
160 174 0
160 177 0
162 175 0
160 174 0
164 178 0
163 177 0
152 166 0
159 175 0
157 170 0
159 172 0
160 173 0
162 176 0
160 174 0
157 170 0
161 176 0
160 175 0
164 179 0
162 175 0
161 174 0
163 178 0
166 181 0
174 196 0
169 191 0
170 192 0
169 192 0
168 191 0
165 186 0
168 190 0
170 193 0
171 192 0
166 188 0
166 188 0
170 191 0
169 190 0
171 193 0
168 189 0
170 192 0
164 187 0
166 188 0
171 193 0
169 191 0
171 193 0
170 193 0
167 189 0
165 188 0
168 190 0
164 186 0
165 187 0
166 187 0
165 187 0
171 194 0
171 193 0
168 190 0
163 185 0
166 188 0
166 188 0
167 190 0
168 190 0
161 183 0
168 190 0
169 191 0
167 189 0
163 186 0
168 191 0
166 189 0
165 187 0
166 188 0
165 186 0
165 188 0
163 185 0
162 184 0
157 179 0
167 190 0
167 189 0
158 181 0
164 187 0
160 182 0
166 189 0
156 180 0
162 184 0
162 185 0
163 186 0
162 184 0
164 187 0
161 183 0
162 185 0
163 185 0
160 183 0
165 188 0
161 184 0
162 185 0
160 183 0
165 188 0
163 185 0
158 181 0
164 186 0
158 180 0
156 177 0
154 177 0
162 186 0
159 181 0
161 183 0
164 187 0
159 182 0
161 184 0
158 180 0
154 178 0
164 187 0
159 182 0
158 181 0
154 177 0
157 179 0
158 180 0
155 178 0
161 184 0
160 183 0
160 183 0
162 184 0
156 178 0
161 184 0
164 188 0
155 179 0
158 181 0
160 183 0
157 179 0
153 176 0
160 182 0
158 181 0
161 183 0
154 177 0
156 179 0
162 184 0
160 183 0
161 185 0
162 184 0
158 180 0
152 174 0
157 180 0
152 175 0
153 177 0
162 184 0
159 181 0
155 177 0
151 174 0
161 183 0
157 180 0
159 182 0
152 173 0
159 182 0
147 170 0
151 174 0
150 172 0
156 178 0
155 179 0
159 182 0
158 180 0
147 169 0
153 175 0
159 181 0
150 172 0
158 181 0
146 168 0
157 180 0
155 177 0
153 175 0
151 174 0
149 171 0
151 173 0
155 177 0
153 175 0
149 171 0
155 178 0
153 175 0
152 176 0
157 179 0
152 175 0
149 173 0
160 184 0
156 179 0
161 182 0
156 178 0
151 173 0
155 178 0
147 169 0
156 179 0
160 182 0
153 175 0
145 167 0
154 176 0
152 174 0
148 170 0
150 170 0
158 181 0
159 181 0
152 175 0
156 177 0
154 177 0
149 172 0
157 179 0
154 175 0
144 167 0
147 170 0
155 177 0
148 169 0
155 177 0
155 176 0
152 175 0
159 181 0
151 174 0
155 176 0
150 171 0
155 177 0
146 169 0
151 173 0
148 171 0
149 170 0
154 175 0
148 170 0
150 170 0
150 173 0
147 168 0
152 174 0
145 166 0
144 165 0
143 163 0
150 171 0
151 173 0
157 178 0
155 177 0
154 175 0
152 174 0
148 169 0
145 166 0
154 176 0
144 164 0
148 169 0
146 169 0
155 175 0
151 172 0
153 173 0
154 176 0
147 170 0
156 178 0
157 180 0
147 170 0
155 176 0
157 179 0
150 170 0
155 176 0
150 169 0
146 167 0
151 173 0
145 166 0
158 181 0
151 170 0
152 172 0
148 169 0
156 177 0
151 173 0
152 173 0
155 177 0
145 165 0
156 177 0
155 178 0
156 177 0
154 177 0
143 165 0
153 174 0
157 178 0
152 173 0
156 177 0
151 171 0
157 179 0
147 167 0
155 176 0
149 169 0
162 182 0
145 164 0
155 175 0
156 177 0
153 175 0
146 168 0
152 173 0
157 178 0
154 175 0
157 177 0
142 162 0
152 174 0
161 183 0
155 175 0
152 171 0
163 184 0
153 172 0
153 173 0
161 181 0
151 171 0
156 176 0
158 178 0
155 175 0
158 177 0
153 173 0
151 172 0
155 176 0
151 170 0
147 167 0
155 176 0
152 171 0
149 169 0
147 168 0
148 169 0
157 177 0
154 174 0
155 174 0
152 173 0
155 173 0
157 173 0
147 163 0
155 174 0
153 174 0
155 175 0
153 172 0
155 175 0
159 179 0
156 175 0
154 172 0
155 175 0
151 170 0
153 171 0
158 177 0
162 182 0
152 171 0
156 173 0
153 171 0
154 172 0
150 169 0
161 179 0
161 179 0
156 174 0
157 174 0
153 171 0
148 165 0
154 171 0
150 166 0
151 169 0
158 177 0
154 173 0
157 177 0
152 171 0
157 173 0
156 174 0
152 168 0
162 181 0
161 179 0
156 175 0
158 177 0
149 167 0
159 178 0
158 175 0
154 169 0
161 178 0
161 180 0
161 178 0
155 171 0
156 170 0
160 176 0
161 177 0
161 178 0
157 172 0
160 179 0
161 177 0
159 175 0
160 175 0
155 167 0
158 174 0
160 178 0
157 173 0
164 178 0
158 172 0
161 180 0
162 178 0
159 177 0
157 172 0
162 179 0
159 174 0
162 177 0
159 176 0
162 176 0
161 176 0
158 172 0
152 167 0
163 180 0
158 174 0
160 175 0
166 182 0
161 176 0
165 182 0
163 179 0
166 184 0
161 175 0
159 174 0
157 171 0
158 172 0
164 181 0
162 176 0
166 182 0
156 170 0
162 176 0
157 172 0
164 178 0
160 173 0
160 176 0
159 172 0
160 173 0
164 178 0
161 175 0
157 172 0
162 176 0
161 175 0
161 175 0
162 179 0
162 177 0
172 195 0
171 193 0
169 191 0
170 192 0
169 191 0
171 193 0
165 187 0
165 186 0
167 189 0
170 192 0
169 191 0
164 187 0
168 191 0
168 190 0
169 191 0
170 193 0
165 187 0
167 188 0
172 195 0
171 193 0
167 188 0
164 185 0
166 187 0
170 193 0
166 187 0
169 191 0
168 190 0
166 188 0
172 194 0
167 189 0
162 185 0
167 190 0
160 182 0
166 188 0
165 187 0
162 185 0
166 188 0
169 191 0
169 191 0
162 185 0
169 192 0
159 181 0
157 179 0
164 187 0
165 188 0
159 182 0
166 188 0
166 190 0
162 185 0
164 186 0
167 190 0
163 187 0
163 185 0
169 191 0
164 186 0
167 189 0
163 186 0
164 187 0
160 183 0
166 189 0
164 187 0
159 182 0
159 182 0
162 185 0
162 185 0
164 187 0
163 187 0
164 187 0
169 191 0
166 190 0
163 186 0
162 184 0
159 181 0
161 183 0
163 186 0
157 180 0
157 180 0
159 183 0
164 187 0
159 182 0
160 183 0
158 180 0
161 182 0
162 184 0
157 180 0
155 178 0
160 183 0
165 188 0
162 185 0
159 182 0
165 188 0
159 182 0
164 186 0
155 177 0
156 179 0
158 180 0
158 182 0
160 182 0
154 178 0
158 180 0
156 178 0
158 180 0
163 185 0
161 184 0
162 184 0
164 187 0
159 183 0
155 178 0
153 175 0
161 184 0
160 182 0
157 178 0
160 183 0
155 177 0
157 180 0
163 186 0
161 184 0
158 180 0
156 180 0
154 177 0
154 177 0
156 180 0
155 179 0
153 176 0
158 181 0
154 177 0
157 179 0
161 185 0
159 182 0
153 176 0
159 182 0
152 175 0
155 177 0
156 178 0
157 180 0
152 175 0
151 173 0
158 181 0
154 176 0
161 183 0
148 171 0
153 176 0
157 180 0
149 172 0
153 175 0
159 182 0
157 179 0
158 179 0
153 176 0
149 171 0
157 177 0
152 175 0
148 172 0
153 175 0
154 176 0
153 176 0
154 175 0
154 176 0
156 180 0
153 176 0
151 174 0
151 173 0
155 177 0
156 179 0
152 175 0
162 184 0
154 176 0
155 178 0
155 177 0
155 177 0
151 174 0
151 174 0
154 176 0
152 173 0
157 179 0
147 169 0
141 164 0
154 176 0
152 173 0
159 180 0
148 170 0
158 181 0
151 173 0
151 172 0
159 181 0
152 174 0
149 171 0
153 174 0
152 173 0
156 178 0
149 170 0
158 180 0
154 176 0
147 169 0
151 172 0
147 169 0
155 175 0
149 172 0
154 176 0
151 173 0
143 165 0
151 172 0
151 173 0
149 170 0
150 172 0
151 172 0
153 175 0
141 163 0
150 172 0
153 174 0
148 170 0
159 181 0
150 171 0
156 178 0
155 177 0
153 175 0
145 166 0
145 166 0
148 170 0
155 176 0
149 171 0
149 170 0
152 172 0
153 174 0
150 171 0
154 176 0
150 171 0
153 173 0
143 164 0
151 172 0
151 172 0
151 171 0
146 166 0
152 172 0
150 173 0
154 174 0
160 182 0
151 172 0
153 172 0
154 174 0
154 176 0
147 169 0
148 169 0
157 178 0
153 176 0
157 178 0
152 172 0
159 182 0
155 177 0
161 181 0
149 170 0
154 176 0
153 175 0
163 184 0
158 180 0
156 177 0
158 180 0
154 174 0
159 180 0
150 171 0
154 174 0
154 176 0
154 175 0
154 173 0
155 177 0
155 176 0
152 173 0
159 180 0
151 172 0
156 176 0
147 168 0
147 168 0
156 177 0
157 178 0
155 174 0
152 174 0
147 169 0
149 168 0
155 176 0
155 176 0
151 169 0
150 169 0
150 167 0
162 183 0
152 172 0
149 169 0
155 176 0
157 176 0
156 174 0
155 173 0
159 179 0
155 174 0
150 169 0
153 172 0
154 174 0
157 178 0
156 175 0
156 177 0
155 173 0
157 176 0
152 172 0
160 180 0
156 173 0
151 170 0
160 179 0
158 177 0
158 179 0
160 180 0
152 168 0
156 173 0
159 178 0
153 170 0
161 180 0
153 174 0
157 175 0
155 175 0
155 173 0
147 167 0
159 177 0
153 171 0
160 178 0
157 175 0
156 173 0
150 168 0
161 178 0
159 179 0
151 168 0
161 179 0
157 173 0
159 177 0
155 174 0
157 176 0
157 175 0
157 173 0
159 176 0
154 173 0
156 171 0
159 177 0
154 169 0
157 171 0
158 175 0
159 175 0
161 180 0
160 178 0
160 178 0
160 176 0
161 179 0
155 169 0
160 178 0
160 178 0
150 167 0
158 173 0
156 172 0
156 172 0
162 178 0
157 172 0
157 175 0
158 175 0
160 173 0
165 180 0
158 174 0
158 172 0
159 175 0
156 172 0
162 177 0
161 178 0
160 177 0
159 176 0
151 164 0
159 174 0
156 170 0
160 174 0
165 181 0
164 180 0
156 170 0
161 176 0
159 173 0
163 177 0
161 177 0
162 179 0
162 176 0
159 174 0
159 174 0
160 174 0
160 174 0
158 172 0
161 173 0
159 174 0
165 177 0
164 178 0
162 176 0
156 172 0
160 174 0
162 175 0
158 172 0
162 174 0
163 177 0
160 176 0
157 169 0
164 177 0
168 190 0
170 193 0
173 194 0
168 189 0
169 191 0
166 187 0
165 187 0
169 191 0
168 189 0
166 188 0
166 187 0
165 187 0
171 193 0
170 191 0
166 188 0
169 191 0
168 191 0
167 188 0
165 187 0
165 188 0
165 187 0
167 190 0
168 191 0
165 187 0
168 190 0
165 188 0
166 188 0
166 189 0
165 188 0
167 189 0
167 190 0
164 187 0
163 184 0
163 185 0
159 182 0
162 184 0
164 186 0
163 185 0
157 180 0
167 189 0
168 190 0
165 187 0
166 189 0
162 185 0
159 182 0
164 186 0
166 189 0
168 190 0
169 191 0
162 184 0
164 187 0
163 186 0
165 188 0
165 187 0
164 186 0
165 187 0
166 189 0
160 182 0
164 186 0
165 189 0
163 185 0
163 185 0
167 189 0
165 187 0
158 180 0
159 183 0
166 188 0
161 184 0
160 183 0
165 188 0
164 185 0
153 176 0
163 185 0
158 181 0
162 185 0
163 186 0
158 181 0
158 181 0
164 186 0
162 184 0
155 178 0
160 183 0
163 185 0
153 176 0
163 185 0
157 180 0
161 184 0
160 183 0
163 186 0
165 187 0
158 181 0
163 186 0
165 188 0
164 187 0
159 182 0
166 187 0
153 176 0
160 181 0
160 183 0
159 181 0
159 183 0
161 184 0
160 183 0
158 181 0
158 182 0
157 179 0
153 176 0
159 182 0
159 182 0
162 185 0
157 179 0
160 183 0
163 186 0
155 177 0
156 179 0
156 180 0
156 180 0
154 177 0
157 180 0
159 182 0
166 188 0
157 180 0
158 182 0
158 180 0
158 180 0
160 184 0
155 178 0
157 178 0
160 183 0
160 184 0
162 184 0
161 183 0
161 183 0
152 175 0
160 183 0
157 179 0
163 186 0
159 182 0
160 183 0
158 179 0
158 181 0
155 178 0
157 180 0
152 174 0
162 185 0
152 174 0
156 179 0
160 183 0
150 173 0
158 181 0
152 173 0
153 176 0
153 176 0
156 179 0
153 175 0
154 177 0
144 165 0
155 177 0
150 172 0
150 174 0
158 180 0
156 180 0
158 179 0
150 172 0
148 169 0
157 180 0
155 176 0
149 172 0
151 173 0
153 174 0
154 177 0
147 170 0
155 177 0
145 166 0
155 176 0
156 179 0
157 179 0
147 170 0
152 174 0
153 175 0
152 174 0
149 170 0
150 172 0
159 182 0
153 175 0
153 176 0
154 175 0
161 183 0
149 171 0
151 173 0
155 178 0
162 184 0
151 173 0
151 174 0
145 167 0
152 173 0
152 174 0
152 174 0
152 175 0
152 176 0
155 177 0
150 172 0
152 174 0
157 179 0
150 170 0
140 163 0
158 180 0
156 179 0
159 180 0
154 175 0
157 178 0
157 177 0
143 164 0
157 179 0
146 167 0
147 169 0
149 172 0
148 169 0
149 170 0
146 167 0
156 178 0
158 181 0
159 182 0
148 168 0
143 165 0
148 168 0
149 170 0
156 178 0
155 177 0
157 179 0
150 172 0
152 175 0
160 181 0
151 173 0
150 171 0
157 178 0
153 175 0
149 171 0
150 171 0
159 180 0
150 171 0
160 180 0
148 168 0
152 173 0
157 178 0
155 176 0
151 171 0
153 174 0
158 179 0
151 170 0
150 170 0
150 171 0
154 173 0
151 172 0
156 177 0
156 178 0
148 170 0
155 176 0
155 175 0
148 170 0
152 173 0
148 167 0
150 170 0
151 173 0
154 173 0
150 172 0
154 174 0
146 167 0
153 175 0
154 175 0
144 163 0
152 171 0
162 182 0
155 177 0
161 181 0
151 172 0
155 175 0
152 171 0
156 176 0
149 167 0
154 176 0
157 178 0
154 174 0
154 174 0
156 176 0
153 172 0
156 176 0
148 168 0
159 180 0
153 173 0
156 177 0
155 176 0
156 176 0
149 168 0
157 178 0
158 178 0
154 173 0
159 176 0
150 169 0
149 169 0
152 171 0
154 174 0
157 176 0
153 173 0
151 173 0
152 170 0
156 175 0
158 177 0
161 181 0
156 174 0
159 179 0
158 177 0
156 175 0
159 178 0
150 168 0
156 172 0
157 173 0
152 172 0
156 175 0
161 181 0
157 176 0
150 168 0
161 179 0
152 170 0
151 168 0
156 175 0
159 177 0
153 171 0
155 171 0
155 172 0
153 168 0
160 180 0
162 180 0
157 176 0
158 174 0
148 166 0
158 176 0
157 174 0
159 176 0
159 176 0
160 177 0
152 169 0
163 181 0
159 173 0
162 179 0
158 175 0
157 174 0
155 172 0
163 180 0
157 174 0
160 178 0
157 173 0
159 178 0
154 168 0
161 178 0
157 174 0
160 178 0
158 174 0
162 180 0
157 174 0
160 176 0
161 177 0
160 178 0
156 171 0
156 170 0
163 180 0
155 169 0
160 178 0
160 179 0
164 180 0
158 171 0
160 177 0
164 180 0
162 179 0
158 173 0
163 179 0
161 175 0
162 178 0
161 176 0
160 175 0
159 173 0
163 177 0
159 174 0
161 174 0
167 184 0
154 167 0
161 178 0
164 180 0
163 179 0
159 175 0
162 177 0
161 175 0
158 170 0
158 173 0
163 178 0
164 181 0
162 174 0
162 179 0
162 177 0
165 180 0
167 190 0
175 196 0
169 192 0
171 194 0
165 187 0
167 189 0
167 189 0
169 190 0
170 192 0
172 194 0
168 190 0
167 188 0
169 192 0
168 190 0
168 191 0
165 188 0
170 192 0
166 188 0
171 193 0
166 189 0
166 188 0
170 192 0
169 191 0
166 187 0
164 185 0
163 185 0
163 184 0
163 185 0
165 187 0
165 189 0
168 190 0
166 187 0
166 189 0
167 188 0
169 191 0
167 189 0
161 183 0
161 184 0
169 191 0
169 192 0
163 187 0
166 187 0
163 186 0
166 189 0
163 187 0
166 188 0
163 186 0
168 191 0
158 180 0
166 188 0
160 182 0
162 185 0
164 188 0
163 186 0
162 183 0
165 187 0
161 183 0
164 187 0
165 187 0
163 187 0
163 186 0
158 181 0
162 185 0
168 190 0
163 186 0
162 186 0
167 190 0
161 184 0
166 189 0
162 185 0
160 183 0
161 183 0
170 192 0
163 185 0
156 179 0
157 180 0
159 181 0
163 186 0
160 183 0
161 183 0
162 185 0
159 181 0
159 182 0
166 190 0
157 180 0
157 180 0
160 184 0
165 188 0
161 184 0
161 185 0
161 184 0
158 180 0
162 184 0
161 184 0
162 184 0
157 181 0
160 183 0
157 179 0
159 182 0
163 186 0
158 181 0
164 187 0
163 186 0
161 183 0
160 183 0
157 179 0
162 185 0
158 181 0
159 182 0
159 182 0
163 186 0
164 188 0
159 181 0
159 181 0
157 180 0
156 177 0
158 181 0
159 182 0
163 185 0
161 184 0
160 181 0
158 180 0
153 176 0
155 178 0
159 182 0
153 175 0
158 179 0
155 177 0
152 175 0
156 180 0
159 182 0
151 174 0
156 178 0
158 180 0
157 181 0
156 179 0
156 179 0
160 184 0
152 174 0
152 175 0
157 179 0
153 175 0
154 177 0
153 176 0
157 180 0
160 183 0
154 177 0
160 183 0
157 179 0
159 182 0
158 180 0
154 175 0
149 170 0
157 178 0
153 176 0
158 180 0
160 182 0
155 178 0
156 178 0
158 180 0
158 181 0
158 180 0
153 175 0
145 168 0
156 178 0
154 175 0
148 171 0
153 176 0
153 175 0
150 171 0
152 174 0
153 176 0
152 174 0
152 173 0
157 180 0
158 181 0
156 178 0
157 179 0
145 168 0
156 179 0
145 167 0
150 172 0
152 175 0
155 178 0
149 171 0
151 173 0
150 173 0
159 181 0
144 168 0
149 171 0
154 175 0
151 173 0
153 175 0
150 173 0
146 167 0
153 175 0
149 171 0
150 171 0
157 180 0
155 176 0
156 179 0
147 169 0
149 170 0
154 176 0
150 172 0
157 180 0
151 175 0
157 179 0
149 170 0
157 178 0
153 175 0
152 174 0
152 175 0
155 177 0
145 167 0
151 173 0
151 173 0
160 180 0
156 178 0
154 175 0
157 179 0
148 168 0
152 174 0
156 178 0
147 168 0
148 169 0
149 171 0
144 166 0
153 174 0
153 174 0
154 176 0
157 179 0
149 169 0
151 171 0
154 174 0
158 179 0
160 183 0
149 169 0
155 176 0
155 175 0
152 173 0
158 180 0
152 172 0
155 177 0
149 170 0
156 176 0
147 167 0
153 174 0
153 173 0
162 183 0
150 171 0
154 173 0
153 173 0
156 177 0
148 169 0
149 168 0
154 175 0
151 172 0
157 177 0
150 169 0
146 165 0
155 177 0
156 177 0
152 173 0
152 171 0
156 177 0
158 180 0
158 178 0
155 175 0
155 176 0
158 178 0
149 168 0
149 170 0
155 172 0
149 168 0
156 176 0
156 177 0
154 174 0
148 168 0
155 176 0
156 178 0
159 180 0
145 163 0
156 176 0
160 180 0
142 161 0
154 172 0
151 170 0
152 173 0
154 175 0
156 176 0
153 172 0
152 173 0
155 174 0
155 174 0
149 168 0
155 175 0
154 173 0
157 176 0
157 177 0
163 183 0
160 180 0
158 177 0
154 174 0
154 174 0
151 170 0
159 178 0
155 175 0
156 175 0
154 173 0
151 167 0
159 179 0
151 169 0
157 176 0
151 171 0
162 181 0
161 177 0
154 173 0
160 180 0
161 181 0
156 176 0
161 182 0
158 176 0
158 178 0
156 175 0
156 173 0
158 176 0
154 173 0
154 174 0
159 176 0
152 169 0
161 180 0
162 180 0
168 186 0
159 176 0
157 174 0
157 174 0
158 174 0
151 168 0
160 175 0
155 171 0
152 169 0
151 170 0
159 177 0
160 177 0
157 175 0
159 176 0
156 173 0
154 170 0
158 176 0
155 168 0
153 168 0
157 173 0
167 185 0
153 169 0
154 170 0
160 175 0
159 176 0
161 178 0
160 177 0
157 172 0
161 177 0
161 176 0
162 178 0
160 177 0
164 181 0
161 177 0
156 172 0
163 180 0
154 170 0
156 172 0
158 174 0
162 180 0
161 177 0
156 171 0
161 179 0
155 170 0
159 175 0
159 173 0
160 178 0
162 177 0
161 177 0
163 177 0
154 168 0
162 178 0
161 177 0
163 178 0
161 178 0
160 175 0
159 174 0
162 176 0
163 177 0
163 179 0
163 180 0
161 176 0
164 180 0
162 178 0
166 180 0
159 171 0
162 179 0
169 192 0
166 188 0
167 189 0
170 191 0
165 187 0
167 189 0
168 191 0
170 193 0
170 193 0
171 192 0
168 191 0
165 187 0
168 190 0
166 189 0
175 196 0
167 189 0
168 190 0
165 187 0
169 191 0
167 190 0
166 188 0
172 194 0
164 185 0
167 189 0
165 188 0
169 191 0
162 184 0
167 190 0
165 188 0
172 194 0
162 184 0
169 192 0
168 191 0
165 188 0
161 185 0
164 187 0
165 188 0
165 188 0
165 188 0
166 188 0
167 189 0
166 188 0
164 187 0
165 187 0
159 181 0
163 184 0
159 183 0
163 185 0
168 190 0
164 186 0
165 188 0
165 186 0
163 185 0
167 190 0
164 187 0
159 182 0
161 184 0
159 182 0
165 189 0
165 188 0
163 186 0
162 184 0
161 184 0
159 182 0
163 187 0
161 184 0
160 182 0
167 189 0
166 189 0
163 186 0
169 192 0
155 177 0
164 187 0
167 189 0
166 189 0
164 186 0
160 182 0
163 184 0
156 178 0
159 182 0
153 176 0
160 183 0
156 178 0
159 182 0
161 183 0
165 189 0
162 185 0
161 184 0
164 186 0
159 182 0
157 180 0
164 187 0
156 179 0
151 174 0
154 176 0
161 183 0
164 186 0
163 186 0
162 185 0
166 190 0
161 184 0
158 181 0
157 179 0
160 182 0
159 182 0
159 183 0
160 183 0
159 183 0
154 176 0
160 183 0
166 188 0
163 186 0
160 183 0
157 180 0
154 178 0
162 184 0
151 174 0
162 184 0
164 187 0
162 185 0
157 179 0
153 177 0
157 179 0
155 178 0
161 184 0
152 176 0
158 181 0
157 180 0
157 178 0
161 184 0
150 172 0
156 179 0
159 182 0
159 182 0
155 179 0
159 181 0
155 178 0
158 180 0
163 184 0
157 181 0
153 176 0
154 176 0
161 183 0
154 176 0
158 181 0
156 178 0
160 183 0
158 180 0
161 184 0
156 178 0
159 181 0
160 182 0
142 164 0
157 179 0
150 172 0
149 172 0
157 181 0
161 183 0
160 183 0
155 176 0
157 180 0
154 176 0
155 177 0
151 174 0
151 174 0
160 183 0
159 182 0
150 173 0
158 181 0
160 183 0
152 175 0
157 178 0
156 178 0
156 178 0
155 177 0
155 177 0
157 178 0
154 177 0
158 180 0
149 171 0
153 175 0
158 181 0
152 173 0
154 175 0
159 181 0
151 172 0
143 165 0
146 168 0
153 176 0
149 170 0
150 171 0
151 173 0
149 171 0
153 175 0
163 185 0
149 171 0
150 172 0
154 178 0
156 178 0
157 179 0
157 179 0
155 178 0
154 177 0
148 169 0
149 171 0
150 172 0
158 180 0
158 180 0
152 175 0
155 176 0
162 185 0
155 176 0
151 172 0
148 169 0
154 176 0
155 177 0
154 175 0
152 173 0
154 175 0
152 173 0
154 176 0
144 167 0
149 171 0
146 168 0
158 180 0
153 176 0
151 173 0
155 178 0
154 175 0
145 165 0
156 177 0
153 174 0
156 177 0
153 176 0
150 172 0
149 171 0
150 172 0
158 179 0
151 172 0
152 172 0
155 177 0
156 176 0
150 172 0
155 176 0
154 176 0
156 176 0
154 175 0
153 175 0
151 172 0
159 180 0
156 178 0
156 178 0
155 176 0
152 174 0
145 165 0
147 167 0
154 174 0
155 175 0
143 164 0
154 176 0
158 178 0
155 176 0
151 173 0
155 175 0
150 170 0
155 174 0
151 172 0
155 177 0
154 175 0
154 175 0
158 179 0
143 164 0
145 166 0
153 175 0
151 172 0
153 173 0
157 177 0
145 165 0
158 179 0
156 176 0
155 176 0
154 174 0
163 183 0
154 173 0
152 172 0
153 174 0
156 178 0
154 175 0
152 170 0
160 181 0
149 167 0
153 170 0
159 178 0
160 179 0
152 170 0
157 176 0
151 173 0
153 174 0
159 177 0
149 169 0
154 174 0
151 171 0
155 175 0
161 180 0
155 173 0
157 178 0
149 168 0
154 175 0
159 179 0
155 173 0
149 167 0
163 183 0
158 175 0
157 178 0
156 175 0
154 172 0
153 171 0
152 170 0
154 174 0
157 176 0
151 170 0
156 176 0
148 164 0
160 178 0
161 178 0
157 176 0
159 178 0
153 173 0
155 173 0
163 183 0
162 182 0
150 166 0
160 180 0
156 174 0
160 177 0
160 179 0
161 179 0
157 175 0
154 171 0
161 179 0
158 177 0
153 170 0
155 171 0
164 181 0
162 179 0
157 172 0
161 177 0
154 172 0
160 177 0
149 165 0
155 172 0
152 168 0
159 177 0
157 173 0
152 166 0
153 167 0
160 178 0
157 172 0
159 177 0
154 171 0
158 176 0
159 175 0
160 174 0
161 178 0
154 170 0
162 180 0
160 177 0
154 171 0
157 173 0
161 176 0
157 174 0
158 171 0
154 168 0
156 171 0
159 173 0
165 180 0
161 176 0
160 175 0
157 169 0
162 178 0
160 176 0
160 177 0
160 174 0
156 173 0
160 176 0
159 176 0
165 183 0
165 180 0
160 174 0
160 177 0
162 177 0
160 175 0
162 180 0
161 176 0
164 179 0
161 175 0
160 177 0
162 179 0
163 174 0
159 173 0
172 194 0
167 189 0
166 189 0
169 190 0
173 195 0
168 190 0
166 188 0
167 188 0
164 186 0
169 191 0
169 191 0
171 194 0
165 187 0
167 189 0
167 189 0
167 189 0
170 193 0
167 188 0
171 194 0
167 190 0
163 185 0
165 187 0
168 191 0
173 195 0
164 186 0
164 186 0
166 189 0
167 189 0
166 188 0
162 184 0
167 190 0
166 187 0
165 188 0
168 190 0
166 188 0
164 187 0
167 190 0
166 189 0
158 180 0
164 187 0
166 188 0
169 191 0
170 192 0
164 186 0
160 182 0
161 184 0
165 188 0
164 186 0
164 187 0
160 182 0
161 184 0
166 188 0
165 188 0
163 185 0
162 184 0
162 184 0
168 191 0
164 187 0
158 181 0
164 187 0
162 185 0
155 178 0
165 188 0
164 186 0
164 186 0
165 189 0
164 186 0
158 181 0
162 184 0
159 182 0
158 181 0
160 182 0
162 185 0
163 185 0
163 185 0
162 185 0
162 185 0
163 185 0
156 178 0
166 189 0
154 178 0
164 186 0
158 181 0
156 178 0
163 186 0
153 176 0
156 179 0
165 188 0
161 183 0
164 186 0
163 185 0
162 184 0
157 179 0
161 184 0
161 184 0
168 191 0
156 179 0
156 179 0
159 182 0
160 183 0
160 183 0
154 177 0
160 183 0
160 184 0
156 179 0
158 180 0
157 179 0
158 181 0
160 184 0
160 183 0
161 184 0
163 185 0
152 174 0
162 184 0
154 177 0
150 172 0
148 171 0
154 177 0
162 184 0
159 181 0
160 182 0
159 183 0
149 171 0
157 180 0
162 186 0
160 183 0
149 170 0
150 174 0
155 179 0
153 176 0
159 181 0
154 176 0
155 178 0
158 181 0
155 178 0
154 177 0
159 181 0
157 180 0
160 183 0
148 171 0
154 176 0
157 180 0
162 183 0
159 182 0
156 180 0
156 180 0
153 175 0
160 181 0
155 178 0
151 174 0
145 166 0
155 177 0
158 181 0
151 174 0
157 180 0
158 181 0
150 172 0
159 182 0
155 177 0
159 181 0
159 181 0
155 178 0
155 178 0
155 176 0
149 171 0
159 181 0
150 173 0
147 170 0
159 181 0
147 170 0
150 171 0
156 179 0
153 175 0
161 185 0
146 168 0
155 177 0
156 177 0
151 173 0
155 177 0
151 174 0
151 173 0
152 175 0
153 175 0
155 178 0
153 175 0
158 180 0
155 177 0
150 171 0
152 175 0
156 179 0
152 175 0
159 182 0
156 179 0
152 174 0
153 175 0
152 174 0
159 181 0
154 176 0
147 170 0
147 169 0
162 183 0
158 180 0
157 180 0
157 179 0
157 179 0
157 179 0
152 173 0
157 178 0
159 182 0
155 177 0
153 174 0
150 172 0
149 169 0
153 174 0
151 171 0
155 177 0
156 178 0
160 182 0
148 171 0
147 169 0
157 178 0
151 172 0
155 177 0
152 173 0
155 176 0
151 173 0
156 177 0
150 172 0
153 174 0
148 169 0
156 176 0
158 180 0
150 172 0
149 171 0
157 179 0
153 173 0
154 176 0
156 178 0
157 178 0
149 170 0
154 175 0
152 172 0
150 171 0
148 170 0
158 180 0
158 179 0
151 173 0
149 169 0
152 172 0
157 178 0
162 183 0
153 174 0
154 174 0
155 175 0
151 173 0
157 177 0
144 166 0
156 176 0
160 181 0
154 174 0
160 182 0
157 179 0
150 170 0
154 174 0
153 174 0
158 179 0
155 176 0
159 179 0
155 177 0
142 162 0
155 176 0
154 175 0
160 180 0
154 174 0
157 176 0
152 172 0
155 176 0
154 174 0
151 170 0
152 171 0
157 176 0
161 181 0
159 179 0
154 175 0
152 174 0
159 177 0
160 181 0
155 174 0
152 174 0
156 175 0
152 170 0
155 174 0
156 176 0
162 183 0
152 171 0
158 179 0
156 176 0
159 179 0
156 177 0
156 178 0
160 179 0
156 177 0
153 172 0
156 175 0
158 178 0
160 179 0
158 177 0
159 177 0
155 174 0
157 177 0
154 172 0
160 179 0
157 176 0
151 170 0
156 174 0
157 177 0
158 178 0
157 178 0
156 176 0
155 175 0
161 180 0
155 173 0
154 174 0
153 172 0
157 176 0
161 179 0
153 173 0
155 173 0
158 174 0
154 173 0
154 172 0
159 178 0
164 183 0
150 168 0
157 177 0
149 167 0
157 175 0
159 178 0
160 178 0
162 180 0
153 169 0
158 173 0
153 172 0
154 172 0
159 178 0
152 171 0
159 176 0
162 178 0
160 179 0
163 179 0
152 167 0
159 177 0
158 174 0
161 179 0
153 169 0
153 170 0
153 168 0
161 176 0
161 178 0
166 183 0
161 176 0
160 178 0
157 172 0
164 181 0
160 176 0
162 176 0
159 176 0
159 175 0
159 178 0
161 176 0
160 177 0
156 173 0
160 177 0
162 178 0
161 176 0
156 172 0
156 172 0
164 180 0
160 178 0
159 175 0
161 176 0
158 172 0
157 171 0
158 171 0
165 182 0
163 181 0
167 186 0
165 183 0
160 176 0
161 176 0
159 175 0
157 171 0
164 180 0
160 173 0
156 171 0
164 180 0
161 176 0
164 179 0
163 178 0
162 177 0
169 191 0
175 196 0
170 192 0
168 190 0
165 188 0
169 192 0
170 192 0
170 192 0
167 189 0
168 190 0
165 187 0
169 191 0
166 188 0
165 187 0
172 194 0
168 190 0
170 193 0
164 186 0
172 194 0
163 185 0
168 191 0
168 191 0
163 185 0
165 187 0
167 189 0
167 189 0
168 191 0
164 186 0
166 189 0
165 188 0
167 190 0
163 186 0
165 187 0
161 183 0
164 187 0
166 188 0
167 190 0
163 186 0
170 193 0
165 188 0
159 181 0
170 192 0
166 189 0
163 185 0
162 185 0
163 186 0
161 183 0
161 184 0
160 183 0
166 188 0
165 188 0
159 181 0
161 184 0
163 185 0
164 187 0
162 186 0
167 189 0
166 189 0
163 185 0
162 185 0
166 190 0
163 186 0
162 185 0
164 187 0
163 185 0
164 187 0
160 183 0
162 184 0
161 183 0
164 186 0
166 188 0
163 185 0
164 186 0
162 185 0
162 185 0
160 183 0
162 186 0
163 186 0
157 179 0
159 182 0
159 182 0
162 184 0
164 186 0
161 184 0
162 184 0
159 182 0
158 181 0
159 182 0
162 186 0
158 181 0
158 181 0
157 180 0
163 186 0
161 184 0
160 183 0
164 187 0
165 187 0
163 188 0
159 181 0
162 185 0
155 178 0
159 181 0
161 183 0
162 184 0
158 181 0
160 183 0
154 177 0
165 188 0
163 187 0
155 177 0
162 185 0
159 183 0
160 183 0
161 184 0
158 181 0
155 177 0
158 180 0
162 184 0
159 183 0
154 176 0
162 185 0
161 184 0
164 186 0
158 180 0
158 180 0
163 185 0
154 177 0
155 178 0
155 178 0
158 181 0
157 180 0
150 174 0
165 187 0
159 182 0
164 188 0
156 179 0
164 187 0
160 185 0
159 181 0
164 187 0
161 183 0
159 182 0
146 169 0
163 186 0
158 180 0
154 177 0
163 186 0
155 178 0
154 176 0
153 174 0
156 179 0
150 173 0
153 175 0
157 179 0
153 176 0
146 167 0
157 181 0
149 172 0
158 180 0
154 177 0
157 180 0
152 174 0
157 180 0
158 182 0
158 181 0
152 175 0
153 176 0
151 173 0
148 169 0
154 177 0
154 175 0
156 178 0
150 171 0
152 174 0
149 170 0
148 169 0
150 172 0
145 168 0
159 181 0
161 184 0
158 180 0
156 178 0
153 175 0
156 178 0
158 180 0
158 180 0
155 177 0
149 171 0
151 174 0
153 174 0
155 176 0
155 177 0
157 178 0
150 172 0
156 177 0
157 180 0
151 174 0
157 180 0
154 176 0
148 169 0
155 177 0
156 179 0
152 175 0
153 175 0
156 177 0
159 180 0
150 172 0
158 181 0
148 171 0
150 172 0
157 179 0
146 168 0
152 175 0
153 175 0
157 180 0
159 182 0
159 180 0
161 183 0
152 174 0
155 177 0
159 182 0
147 168 0
158 179 0
155 177 0
156 178 0
152 173 0
153 175 0
145 166 0
149 170 0
155 178 0
154 175 0
152 172 0
151 173 0
149 171 0
153 175 0
154 176 0
156 179 0
154 176 0
153 175 0
156 177 0
150 172 0
152 173 0
157 178 0
148 169 0
153 175 0
152 174 0
153 174 0
156 177 0
155 177 0
146 166 0
155 176 0
162 182 0
151 172 0
159 180 0
153 174 0
153 174 0
153 174 0
150 170 0
158 178 0
154 176 0
151 173 0
155 176 0
154 176 0
160 179 0
156 176 0
158 179 0
159 181 0
155 175 0
159 179 0
147 169 0
155 177 0
156 176 0
156 176 0
157 177 0
157 178 0
152 171 0
151 171 0
155 176 0
154 175 0
156 174 0
153 173 0
159 178 0
156 175 0
155 175 0
151 172 0
158 178 0
160 178 0
151 170 0
154 172 0
158 178 0
155 175 0
155 174 0
157 177 0
154 175 0
158 177 0
162 182 0
155 175 0
158 175 0
151 171 0
161 182 0
156 177 0
152 171 0
152 172 0
153 172 0
157 178 0
156 175 0
160 178 0
163 183 0
159 178 0
160 179 0
158 175 0
149 169 0
158 175 0
152 172 0
158 175 0
158 177 0
161 181 0
153 171 0
166 185 0
155 175 0
153 171 0
155 174 0
158 176 0
154 172 0
155 175 0
154 171 0
153 173 0
157 175 0
151 170 0
157 176 0
156 174 0
160 178 0
158 178 0
159 177 0
163 181 0
159 178 0
161 180 0
159 179 0
153 170 0
152 170 0
160 179 0
153 168 0
160 179 0
155 171 0
150 166 0
162 180 0
153 171 0
160 179 0
160 177 0
158 175 0
158 174 0
154 171 0
159 178 0
158 176 0
160 174 0
159 177 0
156 173 0
161 179 0
158 175 0
159 177 0
162 179 0
163 182 0
156 174 0
155 171 0
156 173 0
159 176 0
160 179 0
162 176 0
158 174 0
158 175 0
164 181 0
161 175 0
156 171 0
160 175 0
163 179 0
162 177 0
160 176 0
161 177 0
156 172 0
158 174 0
158 174 0
161 176 0
158 174 0
159 174 0
161 176 0
158 172 0
161 176 0
162 177 0
156 170 0
159 172 0
165 180 0
160 174 0
162 178 0
161 173 0
165 180 0
165 181 0
161 176 0
164 182 0
159 173 0
163 178 0
168 191 0
171 194 0
169 192 0
165 188 0
170 192 0
168 190 0
168 190 0
171 194 0
163 185 0
163 186 0
167 190 0
167 189 0
167 189 0
175 197 0
166 189 0
166 189 0
162 184 0
166 188 0
170 192 0
170 193 0
167 190 0
169 191 0
163 186 0
164 187 0
164 184 0
172 193 0
166 188 0
165 188 0
166 188 0
163 186 0
165 188 0
170 192 0
171 194 0
165 188 0
169 191 0
166 188 0
167 189 0
162 184 0
166 189 0
167 190 0
167 189 0
163 186 0
165 187 0
164 187 0
166 188 0
163 186 0
159 182 0
164 186 0
161 183 0
165 188 0
162 184 0
159 182 0
158 182 0
162 184 0
162 185 0
162 185 0
160 182 0
164 187 0
152 174 0
161 184 0
162 185 0
156 179 0
160 183 0
159 182 0
162 185 0
164 186 0
163 186 0
162 185 0
157 180 0
162 185 0
160 184 0
158 181 0
164 186 0
162 185 0
160 182 0
158 180 0
164 187 0
166 188 0
160 183 0
157 181 0
160 183 0
161 185 0
160 182 0
160 183 0
158 181 0
161 183 0
164 187 0
162 185 0
165 187 0
165 188 0
155 178 0
157 181 0
161 182 0
159 183 0
159 182 0
160 182 0
165 188 0
157 180 0
160 183 0
159 182 0
161 183 0
162 185 0
155 178 0
160 184 0
159 182 0
159 182 0
166 190 0
157 179 0
155 178 0
164 186 0
154 177 0
168 191 0
158 180 0
154 177 0
162 185 0
157 179 0
153 176 0
156 179 0
161 184 0
155 178 0
159 183 0
155 177 0
156 179 0
159 182 0
155 178 0
157 180 0
162 185 0
155 178 0
161 185 0
155 178 0
153 176 0
158 180 0
157 179 0
154 176 0
152 175 0
157 180 0
157 179 0
152 176 0
153 176 0
158 181 0
153 175 0
154 177 0
154 177 0
159 181 0
157 180 0
158 181 0
159 181 0
159 182 0
154 177 0
160 183 0
157 179 0
157 179 0
161 182 0
156 179 0
154 177 0
151 175 0
152 176 0
157 179 0
153 176 0
156 179 0
154 176 0
151 173 0
152 175 0
157 181 0
151 174 0
156 179 0
158 180 0
159 181 0
152 175 0
162 185 0
144 166 0
148 171 0
152 174 0
152 173 0
146 170 0
161 183 0
153 175 0
153 175 0
145 168 0
157 178 0
155 177 0
160 181 0
148 172 0
148 170 0
157 180 0
161 184 0
155 178 0
150 172 0
152 174 0
157 180 0
153 175 0
159 181 0
156 178 0
154 175 0
151 173 0
156 176 0
152 175 0
157 180 0
156 179 0
153 176 0
149 170 0
157 178 0
153 174 0
151 173 0
151 174 0
150 172 0
156 179 0
148 169 0
150 173 0
154 176 0
156 178 0
158 180 0
152 173 0
158 181 0
157 179 0
152 173 0
157 181 0
158 179 0
160 182 0
158 179 0
152 173 0
150 171 0
148 170 0
153 174 0
157 178 0
154 177 0
149 169 0
150 170 0
147 167 0
147 169 0
158 180 0
142 163 0
155 177 0
153 174 0
151 171 0
152 174 0
150 171 0
158 179 0
158 180 0
156 178 0
157 179 0
154 176 0
154 174 0
153 174 0
154 176 0
154 173 0
157 179 0
155 175 0
151 174 0
155 176 0
152 173 0
152 170 0
155 177 0
152 173 0
153 175 0
157 178 0
153 174 0
154 175 0
152 172 0
158 179 0
163 185 0
161 182 0
157 178 0
151 171 0
152 174 0
158 180 0
159 181 0
160 182 0
159 180 0
150 171 0
152 173 0
157 179 0
159 180 0
150 172 0
155 175 0
151 171 0
153 171 0
153 174 0
155 176 0
159 180 0
151 171 0
155 177 0
151 171 0
155 177 0
160 180 0
156 176 0
156 176 0
156 176 0
155 175 0
156 175 0
157 177 0
158 178 0
156 176 0
158 178 0
154 175 0
155 175 0
151 171 0
155 175 0
155 174 0
151 171 0
143 164 0
155 174 0
158 178 0
156 175 0
153 172 0
159 179 0
152 171 0
159 180 0
153 173 0
158 177 0
158 178 0
154 173 0
157 176 0
157 177 0
156 174 0
148 165 0
160 179 0
154 174 0
159 178 0
161 180 0
158 177 0
161 179 0
162 179 0
156 172 0
154 175 0
156 175 0
161 180 0
157 174 0
157 175 0
145 161 0
159 177 0
157 174 0
164 183 0
154 173 0
160 179 0
165 184 0
161 179 0
161 180 0
153 170 0
157 175 0
157 172 0
164 183 0
156 173 0
155 174 0
162 180 0
160 179 0
151 166 0
157 175 0
159 176 0
161 179 0
161 180 0
159 177 0
159 175 0
163 181 0
160 178 0
155 171 0
161 179 0
162 180 0
157 173 0
153 172 0
162 180 0
159 178 0
160 176 0
161 180 0
161 179 0
158 174 0
160 175 0
160 176 0
158 177 0
160 176 0
155 173 0
160 175 0
161 178 0
158 176 0
158 175 0
158 176 0
163 180 0
161 176 0
164 180 0
158 174 0
160 177 0
161 177 0
157 172 0
163 182 0
161 177 0
162 179 0
164 180 0
163 179 0
154 169 0
162 177 0
163 179 0
162 177 0
166 182 0
157 174 0
164 179 0
162 178 0
160 176 0
161 177 0
165 180 0
167 183 0
170 192 0
168 191 0
162 184 0
168 191 0
171 194 0
164 185 0
169 192 0
167 190 0
166 189 0
167 189 0
163 185 0
165 187 0
166 188 0
162 185 0
170 192 0
168 190 0
166 189 0
167 189 0
165 188 0
170 192 0
169 191 0
170 192 0
167 189 0
163 186 0
169 192 0
165 187 0
162 185 0
165 188 0
166 189 0
167 190 0
161 184 0
167 188 0
166 188 0
167 189 0
163 185 0
160 183 0
167 190 0
164 187 0
163 186 0
162 183 0
165 188 0
165 188 0
165 187 0
166 189 0
163 185 0
169 192 0
166 189 0
158 182 0
158 181 0
164 186 0
163 186 0
153 177 0
166 189 0
164 187 0
156 179 0
168 191 0
162 185 0
163 186 0
156 179 0
159 182 0
168 191 0
164 186 0
165 187 0
161 184 0
160 182 0
166 188 0
163 185 0
162 184 0
166 188 0
155 177 0
158 181 0
158 181 0
162 184 0
167 190 0
161 184 0
160 183 0
162 185 0
169 192 0
158 181 0
162 185 0
164 187 0
160 184 0
164 187 0
157 180 0
165 188 0
160 183 0
165 189 0
159 181 0
155 178 0
163 186 0
163 186 0
159 182 0
159 182 0
159 182 0
158 180 0
157 180 0
164 187 0
160 183 0
158 182 0
158 181 0
162 184 0
164 186 0
159 182 0
159 181 0
157 179 0
159 181 0
163 186 0
160 183 0
161 184 0
154 176 0
162 184 0
157 179 0
157 180 0
158 181 0
153 175 0
157 180 0
158 181 0
162 186 0
161 183 0
161 184 0
158 181 0
150 173 0
159 182 0
157 180 0
157 180 0
152 174 0
157 180 0
164 186 0
159 181 0
159 181 0
153 175 0
155 178 0
158 182 0
161 185 0
159 181 0
153 175 0
152 174 0
150 174 0
153 175 0
158 180 0
152 174 0
160 182 0
153 176 0
153 175 0
154 177 0
153 176 0
160 182 0
155 178 0
158 180 0
156 179 0
150 173 0
156 178 0
164 187 0
155 177 0
148 172 0
157 179 0
155 177 0
157 180 0
153 175 0
151 172 0
156 180 0
154 175 0
162 185 0
153 175 0
152 176 0
150 172 0
144 165 0
151 173 0
154 178 0
156 177 0
159 181 0
157 178 0
146 169 0
155 178 0
162 185 0
149 171 0
155 177 0
152 176 0
153 176 0
154 176 0
158 179 0
156 178 0
139 161 0
148 170 0
149 169 0
156 177 0
153 175 0
153 173 0
150 173 0
154 177 0
157 180 0
154 175 0
145 166 0
155 179 0
157 181 0
152 176 0
152 174 0
155 178 0
155 177 0
153 174 0
156 179 0
152 175 0
153 175 0
157 180 0
154 177 0
152 174 0
156 177 0
148 170 0
152 173 0
150 171 0
161 183 0
155 177 0
158 180 0
151 173 0
148 171 0
153 173 0
157 179 0
154 176 0
144 166 0
163 186 0
154 174 0
158 179 0
146 168 0
154 176 0
158 180 0
153 175 0
151 173 0
160 180 0
160 180 0
156 178 0
151 173 0
151 173 0
160 181 0
159 180 0
151 172 0
151 172 0
152 173 0
151 172 0
146 165 0
157 178 0
157 177 0
154 176 0
151 173 0
160 181 0
145 167 0
152 172 0
158 181 0
149 171 0
149 168 0
154 173 0
142 163 0
157 178 0
159 182 0
151 172 0
155 177 0
150 171 0
153 173 0
150 172 0
156 176 0
150 171 0
151 172 0
149 172 0
156 176 0
151 171 0
153 175 0
150 170 0
156 177 0
156 177 0
157 178 0
149 170 0
159 181 0
163 184 0
159 180 0
160 181 0
161 181 0
153 173 0
153 174 0
150 170 0
160 181 0
163 185 0
158 179 0
159 178 0
159 180 0
158 178 0
160 180 0
159 179 0
157 177 0
156 176 0
159 179 0
157 178 0
155 174 0
153 172 0
159 180 0
154 175 0
153 173 0
155 175 0
161 181 0
160 180 0
161 182 0
155 174 0
159 180 0
155 175 0
160 180 0
158 177 0
159 179 0
154 173 0
154 174 0
159 180 0
155 174 0
157 178 0
159 179 0
150 169 0
159 179 0
155 175 0
157 175 0
160 182 0
156 176 0
158 177 0
157 175 0
157 176 0
162 181 0
155 176 0
158 177 0
155 174 0
159 179 0
160 178 0
153 171 0
155 175 0
160 179 0
164 184 0
158 178 0
153 171 0
158 176 0
160 178 0
156 174 0
159 178 0
160 179 0
153 170 0
160 178 0
156 173 0
157 177 0
159 176 0
154 172 0
157 174 0
161 178 0
162 180 0
161 179 0
160 179 0
156 174 0
159 176 0
160 178 0
160 176 0
150 168 0
157 175 0
160 176 0
157 174 0
163 181 0
153 169 0
158 174 0
161 179 0
161 179 0
161 179 0
164 182 0
153 168 0
159 177 0
160 178 0
157 172 0
154 171 0
156 173 0
162 179 0
162 177 0
162 177 0
161 176 0
156 171 0
159 175 0
162 179 0
157 172 0
163 180 0
164 181 0
163 179 0
162 178 0
162 181 0
163 180 0
162 177 0
159 175 0
156 170 0
161 178 0
162 175 0
161 174 0
163 180 0
159 177 0
157 171 0
165 183 0
165 180 0
162 177 0
157 172 0
166 183 0
158 174 0
164 179 0
159 175 0
168 189 0
170 192 0
167 190 0
170 193 0
170 192 0
167 190 0
168 191 0
166 188 0
168 190 0
167 189 0
168 190 0
166 188 0
165 188 0
164 187 0
166 188 0
165 187 0
171 193 0
169 192 0
163 184 0
167 189 0
168 191 0
165 188 0
159 181 0
167 189 0
171 193 0
173 195 0
166 188 0
172 193 0
164 187 0
167 190 0
166 187 0
165 187 0
164 187 0
158 181 0
167 188 0
164 186 0
168 190 0
165 187 0
163 186 0
166 189 0
166 188 0
162 185 0
166 189 0
164 187 0
164 187 0
165 188 0
162 185 0
167 188 0
163 186 0
163 185 0
168 191 0
162 185 0
160 182 0
160 182 0
163 185 0
166 190 0
158 180 0
162 184 0
157 180 0
163 186 0
160 183 0
165 188 0
163 187 0
163 185 0
163 186 0
155 177 0
163 185 0
161 184 0
156 178 0
155 179 0
158 182 0
167 189 0
165 189 0
158 181 0
160 183 0
160 184 0
160 183 0
158 181 0
161 183 0
159 181 0
162 186 0
160 183 0
161 183 0
156 177 0
161 184 0
165 188 0
161 184 0
162 184 0
157 180 0
156 179 0
162 185 0
160 183 0
162 185 0
157 179 0
158 180 0
160 183 0
155 178 0
159 181 0
165 188 0
160 184 0
154 176 0
161 183 0
161 183 0
158 180 0
160 183 0
155 178 0
159 184 0
160 183 0
161 184 0
160 182 0
162 185 0
164 187 0
162 186 0
158 180 0
161 183 0
164 187 0
162 184 0
161 184 0
153 176 0
155 179 0
158 181 0
150 173 0
153 175 0
166 188 0
156 180 0
154 176 0
149 172 0
158 181 0
154 177 0
156 179 0
161 185 0
156 177 0
157 178 0
158 181 0
154 177 0
152 174 0
160 183 0
159 181 0
156 178 0
153 175 0
160 183 0
154 176 0
154 177 0
161 184 0
157 180 0
160 183 0
157 181 0
154 176 0
156 179 0
162 186 0
160 182 0
152 174 0
156 179 0
151 173 0
155 175 0
155 178 0
159 182 0
152 174 0
157 179 0
156 179 0
157 179 0
160 182 0
157 180 0
153 174 0
154 176 0
156 178 0
159 181 0
159 181 0
149 171 0
157 180 0
157 178 0
156 178 0
153 176 0
159 183 0
159 181 0
150 172 0
149 171 0
161 183 0
151 173 0
155 177 0
159 181 0
151 173 0
155 177 0
153 175 0
153 176 0
154 176 0
152 176 0
146 169 0
150 172 0
155 177 0
158 180 0
156 178 0
162 183 0
155 176 0
157 179 0
153 176 0
157 179 0
149 171 0
152 173 0
156 178 0
156 177 0
152 174 0
155 176 0
153 175 0
158 180 0
156 177 0
153 176 0
151 172 0
156 178 0
153 175 0
156 177 0
152 174 0
149 170 0
156 177 0
153 176 0
152 173 0
157 180 0
165 186 0
153 175 0
157 178 0
153 174 0
150 171 0
156 177 0
158 180 0
151 171 0
154 175 0
151 173 0
149 169 0
153 175 0
158 179 0
156 177 0
158 180 0
157 179 0
154 175 0
160 180 0
144 165 0
157 180 0
150 169 0
151 174 0
149 169 0
154 174 0
155 177 0
154 175 0
153 173 0
157 178 0
153 172 0
153 173 0
156 176 0
160 181 0
153 174 0
159 180 0
159 179 0
161 181 0
156 176 0
158 181 0
147 166 0
157 178 0
150 171 0
158 178 0
158 180 0
153 174 0
150 169 0
150 169 0
152 171 0
155 177 0
158 179 0
160 181 0
155 174 0
151 171 0
157 178 0
150 170 0
159 181 0
154 174 0
155 176 0
153 175 0
155 177 0
154 174 0
149 170 0
155 176 0
157 177 0
152 173 0
156 179 0
157 178 0
155 177 0
153 173 0
156 177 0
160 182 0
160 181 0
157 178 0
156 176 0
155 176 0
155 176 0
159 180 0
162 184 0
157 177 0
156 175 0
160 182 0
157 178 0
154 174 0
162 182 0
158 176 0
152 174 0
155 175 0
160 179 0
152 171 0
158 178 0
159 177 0
154 174 0
159 179 0
158 176 0
155 175 0
156 176 0
165 184 0
157 177 0
156 177 0
156 176 0
154 174 0
149 169 0
157 177 0
149 167 0
159 179 0
159 179 0
163 184 0
158 179 0
163 183 0
160 180 0
155 172 0
156 177 0
163 182 0
161 181 0
157 179 0
159 178 0
155 173 0
161 180 0
156 176 0
157 174 0
160 178 0
161 179 0
157 174 0
153 173 0
157 176 0
160 180 0
162 180 0
156 173 0
154 171 0
160 179 0
154 171 0
158 176 0
158 176 0
155 171 0
152 170 0
163 181 0
160 178 0
161 179 0
160 178 0
159 177 0
158 177 0
159 177 0
158 175 0
158 174 0
160 178 0
160 179 0
160 175 0
160 178 0
161 178 0
162 179 0
161 180 0
157 172 0
163 179 0
161 179 0
160 175 0
159 176 0
161 176 0
162 181 0
162 179 0
158 174 0
161 178 0
157 172 0
161 177 0
158 175 0
157 170 0
162 177 0
162 179 0
156 172 0
160 175 0
161 177 0
160 175 0
160 176 0
165 182 0
166 184 0
159 175 0
165 184 0
157 174 0
160 175 0
168 185 0
162 178 0
165 180 0
162 178 0
162 177 0
162 176 0
